P2
570 540
255
254
0
0
0
0
0
0
0
0
0
0
0
0
0
0
0
0
0
0
0
0
0
0
0
0
0
0
0
0
0
0
0
0
0
0
0
0
0
0
0
0
0
0
0
0
0
0
0
0
0
0
0
0
0
0
0
0
0
0
0
0
0
0
0
0
0
0
0
0
0
0
0
0
0
0
0
0
0
0
0
0
0
0
0
0
0
0
0
0
0
0
0
0
0
0
0
0
0
0
0
0
0
0
0
0
0
0
0
0
0
0
0
0
0
0
0
0
0
0
0
0
0
0
0
0
0
0
0
0
0
0
0
0
0
0
0
0
0
0
0
0
0
0
0
0
0
0
0
0
0
0
0
0
0
0
0
0
0
0
0
0
0
0
0
0
0
0
0
0
0
0
0
0
0
0
0
0
0
0
0
0
0
0
0
0
0
0
0
0
0
0
0
0
0
0
0
0
0
0
0
0
0
0
0
0
0
0
0
0
0
0
0
0
0
0
0
0
0
0
0
0
0
0
0
0
0
0
0
0
0
0
0
0
0
0
0
0
0
0
0
0
0
0
0
0
0
0
0
0
0
0
0
0
0
0
0
0
0
0
0
0
0
0
0
0
0
0
0
0
0
0
0
0
0
0
0
0
0
0
0
0
0
0
0
0
0
0
0
0
0
0
0
0
0
0
0
0
0
0
0
0
0
0
0
0
0
0
0
0
0
0
0
0
0
0
0
0
0
0
0
0
0
0
0
0
0
0
0
0
0
0
0
0
0
0
0
0
0
0
0
0
0
0
0
0
0
0
0
0
0
0
0
0
0
0
0
0
0
0
0
0
0
0
0
0
0
0
0
0
0
0
0
0
0
0
0
0
0
0
0
0
0
0
0
0
0
0
0
0
0
0
0
0
0
0
0
0
0
0
0
0
0
0
0
0
0
0
0
0
0
0
0
0
0
0
0
0
0
0
0
0
0
0
0
0
0
0
0
0
0
0
0
0
0
0
0
0
0
0
0
0
0
0
0
0
0
0
0
0
0
0
0
0
0
0
0
0
0
0
0
0
0
0
0
0
0
0
0
0
0
0
0
0
0
0
0
0
0
0
0
0
0
0
0
0
0
0
0
0
0
0
0
0
0
0
0
0
0
0
0
0
0
0
0
0
0
0
0
0
0
0
0
0
0
0
0
0
0
0
0
0
0
0
0
0
0
0
0
0
0
0
0
0
0
0
0
0
0
0
0
0
0
0
0
0
0
0
0
0
0
0
0
0
0
0
0
0
0
0
0
0
0
0
0
0
0
0
0
0
0
254
254
0
0
0
0
0
0
0
0
0
0
0
0
0
0
0
0
0
0
0
0
0
0
0
0
0
0
0
0
0
0
0
0
0
0
0
0
0
0
0
0
0
0
0
0
0
0
0
0
0
0
0
0
0
0
0
0
0
0
0
0
0
0
0
0
0
0
0
0
0
0
0
0
0
0
0
0
0
0
0
0
0
0
0
0
0
0
0
0
0
0
0
0
0
0
0
0
0
0
0
0
0
0
0
0
0
0
0
0
0
0
0
0
0
0
0
0
0
0
0
0
0
0
0
0
0
0
0
0
0
0
0
0
0
0
0
0
0
0
0
0
0
0
0
0
0
0
0
0
0
0
0
0
0
0
0
0
0
0
0
0
0
0
0
0
0
0
0
0
0
0
0
0
0
0
0
0
0
0
0
0
0
0
0
0
0
0
0
0
0
0
0
0
0
0
0
0
0
0
0
0
0
0
0
0
0
0
0
0
0
0
0
0
0
0
0
0
0
0
0
0
0
0
0
0
0
0
0
0
0
0
0
0
0
0
0
0
0
0
0
0
0
0
0
0
0
0
0
0
0
0
0
0
0
0
0
0
0
0
0
0
0
0
0
0
0
0
0
0
0
0
0
0
0
0
0
0
0
0
0
0
0
0
0
0
0
0
0
0
0
0
0
0
0
0
0
0
0
0
0
0
0
0
0
0
0
0
0
0
0
0
0
0
0
0
0
0
0
0
0
0
0
0
0
0
0
0
0
0
0
0
0
0
0
0
0
0
0
0
0
0
0
0
0
0
0
0
0
0
0
0
0
0
0
0
0
0
0
0
0
0
0
0
0
0
0
0
0
0
0
0
0
0
0
0
0
0
0
0
0
0
0
0
0
0
0
0
0
0
0
0
0
0
0
0
0
0
0
0
0
0
0
0
0
0
0
0
0
0
0
0
0
0
0
0
0
0
0
0
0
0
0
0
0
0
0
0
0
0
0
0
0
0
0
0
0
0
0
0
0
0
0
0
0
0
0
0
0
0
0
0
0
0
0
0
0
0
0
0
0
0
0
0
0
0
0
0
0
0
0
0
0
0
0
0
0
0
0
0
0
0
0
0
0
0
0
0
0
0
0
0
0
0
0
0
0
0
0
0
0
0
0
0
0
0
0
0
0
0
0
0
0
0
0
0
0
0
0
0
0
0
0
0
0
0
0
0
0
0
0
0
0
0
0
0
0
0
0
0
0
0
0
0
0
0
0
0
0
0
0
0
0
0
0
0
0
0
0
0
0
0
0
0
0
0
0
0
0
0
254
254
254
0
0
0
0
0
0
0
0
0
0
0
0
0
0
0
0
0
0
0
0
0
0
0
0
0
0
0
0
0
0
0
0
0
0
0
0
0
0
0
0
0
0
0
0
0
0
0
0
0
0
0
0
0
0
0
0
0
0
0
0
0
0
0
0
0
0
0
0
0
0
0
0
0
0
0
0
0
0
0
0
0
0
0
0
0
0
0
0
0
0
0
0
0
0
0
0
0
0
0
0
0
0
0
0
0
0
0
0
0
0
0
0
0
0
0
0
0
0
0
0
0
0
0
0
0
0
0
0
0
0
0
0
0
0
0
0
0
0
0
0
0
0
0
0
0
0
0
0
0
0
0
0
0
0
0
0
0
0
0
0
0
0
0
0
0
0
0
0
0
0
0
0
0
0
0
0
0
0
0
0
0
0
0
0
0
0
0
0
0
0
0
0
0
0
0
0
0
0
0
0
0
0
0
0
0
0
0
0
0
0
0
0
0
0
0
0
0
0
0
0
0
0
0
0
0
0
0
0
0
0
0
0
0
0
0
0
0
0
0
0
0
0
0
0
0
0
0
0
0
0
0
0
0
0
0
0
0
0
0
0
0
0
0
0
0
0
0
0
0
0
0
0
0
0
0
0
0
0
0
0
0
0
0
0
0
0
0
0
0
0
0
0
0
0
0
0
0
0
0
0
0
0
0
0
0
0
0
0
0
0
0
0
0
0
0
0
0
0
0
0
0
0
0
0
0
0
0
0
0
0
0
0
0
0
0
0
0
0
0
0
0
0
0
0
0
0
0
0
0
0
0
0
0
0
0
0
0
0
0
0
0
0
0
0
0
0
0
0
0
0
0
0
0
0
0
0
0
0
0
0
0
0
0
0
0
0
0
0
0
0
0
0
0
0
0
0
0
0
0
0
0
0
0
0
0
0
0
0
0
0
0
0
0
0
0
0
0
0
0
0
0
0
0
0
0
0
0
0
0
0
0
0
0
0
0
0
0
0
0
0
0
0
0
0
0
0
0
0
0
0
0
0
0
0
0
0
0
0
0
0
0
0
0
0
0
0
0
0
0
0
0
0
0
0
0
0
0
0
0
0
0
0
0
0
0
0
0
0
0
0
0
0
0
0
0
0
0
0
0
0
0
0
0
0
0
0
0
0
0
0
0
0
0
0
0
0
0
0
0
0
0
0
0
0
0
0
0
0
0
0
0
0
0
0
0
0
0
0
0
0
0
0
0
0
0
0
0
0
0
0
0
0
0
0
0
0
0
0
0
0
0
0
0
0
0
0
0
255
254
254
254
0
0
0
0
0
0
0
0
0
0
0
0
0
0
0
0
0
0
0
0
0
0
0
0
0
0
0
0
0
0
0
0
0
0
0
0
0
0
0
0
0
0
0
0
0
0
0
0
0
0
0
0
0
0
0
0
0
0
0
0
0
0
0
0
0
0
0
0
0
0
0
0
0
0
0
0
0
0
0
0
0
0
0
0
0
0
0
0
0
0
0
0
0
0
0
0
0
0
0
0
0
0
0
0
0
0
0
0
0
0
0
0
0
0
0
0
0
0
0
0
0
0
0
0
0
0
0
0
0
0
0
0
0
0
0
0
0
0
0
0
0
0
0
0
0
0
0
0
0
0
0
0
0
0
0
0
0
0
0
0
0
0
0
0
0
0
0
0
0
0
0
0
0
0
0
0
0
0
0
0
0
0
0
0
0
0
0
0
0
0
0
0
0
0
0
0
0
0
0
0
0
0
0
0
0
0
0
0
0
0
0
0
0
0
0
0
0
0
0
0
0
0
0
0
0
0
0
0
0
0
0
0
0
0
0
0
0
0
0
0
0
0
0
0
0
0
0
0
0
0
0
0
0
0
0
0
0
0
0
0
0
0
0
0
0
0
0
0
0
0
0
0
0
0
0
0
0
0
0
0
0
0
0
0
0
0
0
0
0
0
0
0
0
0
0
0
0
0
0
0
0
0
0
0
0
0
0
0
0
0
0
0
0
0
0
0
0
0
0
0
0
0
0
0
0
0
0
0
0
0
0
0
0
0
0
0
0
0
0
0
0
0
0
0
0
0
0
0
0
0
0
0
0
0
0
0
0
0
0
0
0
0
0
0
0
0
0
0
0
0
0
0
0
0
0
0
0
0
0
0
0
0
0
0
0
0
0
0
0
0
0
0
0
0
0
0
0
0
0
0
0
0
0
0
0
0
0
0
0
0
0
0
0
0
0
0
0
0
0
0
0
0
0
0
0
0
0
0
0
0
0
0
0
0
0
0
0
0
0
0
0
0
0
0
0
0
0
0
0
0
0
0
0
0
0
0
0
0
0
0
0
0
0
0
0
0
0
0
0
0
0
0
0
0
0
0
0
0
0
0
0
0
0
0
0
0
0
0
0
0
0
0
0
0
0
0
0
0
0
0
0
0
0
0
0
0
0
0
0
0
0
0
0
0
0
0
0
0
0
0
0
0
0
0
0
0
0
0
0
0
0
0
0
0
0
0
0
0
0
0
0
0
0
0
0
0
0
0
0
0
0
0
0
0
0
0
0
0
0
0
0
0
0
0
0
0
255
255
254
254
254
0
0
0
0
0
0
0
0
0
0
0
0
0
0
0
0
0
0
0
0
0
0
0
0
0
0
0
0
0
0
0
0
0
0
0
0
0
0
0
0
0
0
0
0
0
0
0
0
0
0
0
0
0
0
0
0
0
0
0
0
0
0
0
0
0
0
0
0
0
0
0
0
0
0
0
0
0
0
0
0
0
0
0
0
0
0
0
0
0
0
0
0
0
0
0
0
0
0
0
0
0
0
0
0
0
0
0
0
0
0
0
0
0
0
0
0
0
0
0
0
0
0
0
0
0
0
0
0
0
0
0
0
0
0
0
0
0
0
0
0
0
0
0
0
0
0
0
0
0
0
0
0
0
0
0
0
0
0
0
0
0
0
0
0
0
0
0
0
0
0
0
0
0
0
0
0
0
0
0
0
0
0
0
0
0
0
0
0
0
0
0
0
0
0
0
0
0
0
0
0
0
0
0
0
0
0
0
0
0
0
0
0
0
0
0
0
0
0
0
0
0
0
0
0
0
0
0
0
0
0
0
0
0
0
0
0
0
0
0
0
0
0
0
0
0
0
0
0
0
0
0
0
0
0
0
0
0
0
0
0
0
0
0
0
0
0
0
0
0
0
0
0
0
0
0
0
0
0
0
0
0
0
0
0
0
0
0
0
0
0
0
0
0
0
0
0
0
0
0
0
0
0
0
0
0
0
0
0
0
0
0
0
0
0
0
0
0
0
0
0
0
0
0
0
0
0
0
0
0
0
0
0
0
0
0
0
0
0
0
0
0
0
0
0
0
0
0
0
0
0
0
0
0
0
0
0
0
0
0
0
0
0
0
0
0
0
0
0
0
0
0
0
0
0
0
0
0
0
0
0
0
0
0
0
0
0
0
0
0
0
0
0
0
0
0
0
0
0
0
0
0
0
0
0
0
0
0
0
0
0
0
0
0
0
0
0
0
0
0
0
0
0
0
0
0
0
0
0
0
0
0
0
0
0
0
0
0
0
0
0
0
0
0
0
0
0
0
0
0
0
0
0
0
0
0
0
0
0
0
0
0
0
0
0
0
0
0
0
0
0
0
0
0
0
0
0
0
0
0
0
0
0
0
0
0
0
0
0
0
0
0
0
0
0
0
0
0
0
0
0
0
0
0
0
0
0
0
0
0
0
0
0
0
0
0
0
0
0
0
0
0
0
0
0
0
0
0
0
0
0
0
0
0
0
0
0
0
0
0
0
0
0
0
0
0
0
0
0
0
0
0
0
0
0
0
0
0
0
0
0
0
0
0
0
0
255
254
254
254
254
254
0
0
0
0
0
0
0
0
0
0
0
0
0
0
0
0
0
0
0
0
0
0
0
0
0
0
0
0
0
0
0
0
0
0
0
0
0
0
0
0
0
0
0
0
0
0
0
0
0
0
0
0
0
0
0
0
0
0
0
0
0
0
0
0
0
0
0
0
0
0
0
0
0
0
0
0
0
0
0
0
0
0
0
0
0
0
0
0
0
0
0
0
0
0
0
0
0
0
0
0
0
0
0
0
0
0
0
0
0
0
0
0
0
0
0
0
0
0
0
0
0
0
0
0
0
0
0
0
0
0
0
0
0
0
0
0
0
0
0
0
0
0
0
0
0
0
0
0
0
0
0
0
0
0
0
0
0
0
0
0
0
0
0
0
0
0
0
0
0
0
0
0
0
0
0
0
0
0
0
0
0
0
0
0
0
0
0
0
0
0
0
0
0
0
0
0
0
0
0
0
0
0
0
0
0
0
0
0
0
0
0
0
0
0
0
0
0
0
0
0
0
0
0
0
0
0
0
0
0
0
0
0
0
0
0
0
0
0
0
0
0
0
0
0
0
0
0
0
0
0
0
0
0
0
0
0
0
0
0
0
0
0
0
0
0
0
0
0
0
0
0
0
0
0
0
0
0
0
0
0
0
0
0
0
0
0
0
0
0
0
0
0
0
0
0
0
0
0
0
0
0
0
0
0
0
0
0
0
0
0
0
0
0
0
0
0
0
0
0
0
0
0
0
0
0
0
0
0
0
0
0
0
0
0
0
0
0
0
0
0
0
0
0
0
0
0
0
0
0
0
0
0
0
0
0
0
0
0
0
0
0
0
0
0
0
0
0
0
0
0
0
0
0
0
0
0
0
0
0
0
0
0
0
0
0
0
0
0
0
0
0
0
0
0
0
0
0
0
0
0
0
0
0
0
0
0
0
0
0
0
0
0
0
0
0
0
0
0
0
0
0
0
0
0
0
0
0
0
0
0
0
0
0
0
0
0
0
0
0
0
0
0
0
0
0
0
0
0
0
0
0
0
0
0
0
0
0
0
0
0
0
0
0
0
0
0
0
0
0
0
0
0
0
0
0
0
0
0
0
0
0
0
0
0
0
0
0
0
0
0
0
0
0
0
0
0
0
0
0
0
0
0
0
0
0
0
0
0
0
0
0
0
0
0
0
0
0
0
0
0
0
0
0
0
0
0
0
0
0
0
0
0
0
0
0
0
0
0
0
0
0
0
0
0
0
0
0
0
0
0
0
0
0
0
0
0
0
0
0
0
0
0
0
0
254
254
254
255
254
254
254
0
0
0
0
0
0
0
0
0
0
0
0
0
0
0
0
0
0
0
0
0
0
0
0
0
0
0
0
0
0
0
0
0
0
0
0
0
0
0
0
0
0
0
0
0
0
0
0
0
0
0
0
0
0
0
0
0
0
0
0
0
0
0
0
0
0
0
0
0
0
0
0
0
0
0
0
0
0
0
0
0
0
0
0
0
0
0
0
0
0
0
0
0
0
0
0
0
0
0
0
0
0
0
0
0
0
0
0
0
0
0
0
0
0
0
0
0
0
0
0
0
0
0
0
0
0
0
0
0
0
0
0
0
0
0
0
0
0
0
0
0
0
0
0
0
0
0
0
0
0
0
0
0
0
0
0
0
0
0
0
0
0
0
0
0
0
0
0
0
0
0
0
0
0
0
0
0
0
0
0
0
0
0
0
0
0
0
0
0
0
0
0
0
0
0
0
0
0
0
0
0
0
0
0
0
0
0
0
0
0
0
0
0
0
0
0
0
0
0
0
0
0
0
0
0
0
0
0
0
0
0
0
0
0
0
0
0
0
0
0
0
0
0
0
0
0
0
0
0
0
0
0
0
0
0
0
0
0
0
0
0
0
0
0
0
0
0
0
0
0
0
0
0
0
0
0
0
0
0
0
0
0
0
0
0
0
0
0
0
0
0
0
0
0
0
0
0
0
0
0
0
0
0
0
0
0
0
0
0
0
0
0
0
0
0
0
0
0
0
0
0
0
0
0
0
0
0
0
0
0
0
0
0
0
0
0
0
0
0
0
0
0
0
0
0
0
0
0
0
0
0
0
0
0
0
0
0
0
0
0
0
0
0
0
0
0
0
0
0
0
0
0
0
0
0
0
0
0
0
0
0
0
0
0
0
0
0
0
0
0
0
0
0
0
0
0
0
0
0
0
0
0
0
0
0
0
0
0
0
0
0
0
0
0
0
0
0
0
0
0
0
0
0
0
0
0
0
0
0
0
0
0
0
0
0
0
0
0
0
0
0
0
0
0
0
0
0
0
0
0
0
0
0
0
0
0
0
0
0
0
0
0
0
0
0
0
0
0
0
0
0
0
0
0
0
0
0
0
0
0
0
0
0
0
0
0
0
0
0
0
0
0
0
0
0
0
0
0
0
0
0
0
0
0
0
0
0
0
0
0
0
0
0
0
0
0
0
0
0
0
0
0
0
0
0
0
0
0
0
0
0
0
0
0
0
0
0
0
0
0
0
0
0
0
0
0
0
0
0
0
0
0
0
0
0
0
0
0
0
0
0
0
0
254
254
254
255
255
254
254
254
0
0
0
0
0
0
0
0
0
0
0
0
0
0
0
0
0
0
0
0
0
0
0
0
0
0
0
0
0
0
0
0
0
0
0
0
0
0
0
0
0
0
0
0
0
0
0
0
0
0
0
0
0
0
0
0
0
0
0
0
0
0
0
0
0
0
0
0
0
0
0
0
0
0
0
0
0
0
0
0
0
0
0
0
0
0
0
0
0
0
0
0
0
0
0
0
0
0
0
0
0
0
0
0
0
0
0
0
0
0
0
0
0
0
0
0
0
0
0
0
0
0
0
0
0
0
0
0
0
0
0
0
0
0
0
0
0
0
0
0
0
0
0
0
0
0
0
0
0
0
0
0
0
0
0
0
0
0
0
0
0
0
0
0
0
0
0
0
0
0
0
0
0
0
0
0
0
0
0
0
0
0
0
0
0
0
0
0
0
0
0
0
0
0
0
0
0
0
0
0
0
0
0
0
0
0
0
0
0
0
0
0
0
0
0
0
0
0
0
0
0
0
0
0
0
0
0
0
0
0
0
0
0
0
0
0
0
0
0
0
0
0
0
0
0
0
0
0
0
0
0
0
0
0
0
0
0
0
0
0
0
0
0
0
0
0
0
0
0
0
0
0
0
0
0
0
0
0
0
0
0
0
0
0
0
0
0
0
0
0
0
0
0
0
0
0
0
0
0
0
0
0
0
0
0
0
0
0
0
0
0
0
0
0
0
0
0
0
0
0
0
0
0
0
0
0
0
0
0
0
0
0
0
0
0
0
0
0
0
0
0
0
0
0
0
0
0
0
0
0
0
0
0
0
0
0
0
0
0
0
0
0
0
0
0
0
0
0
0
0
0
0
0
0
0
0
0
0
0
0
0
0
0
0
0
0
0
0
0
0
0
0
0
0
0
0
0
0
0
0
0
0
0
0
0
0
0
0
0
0
0
0
0
0
0
0
0
0
0
0
0
0
0
0
0
0
0
0
0
0
0
0
0
0
0
0
0
0
0
0
0
0
0
0
0
0
0
0
0
0
0
0
0
0
0
0
0
0
0
0
0
0
0
0
0
0
0
0
0
0
0
0
0
0
0
0
0
0
0
0
0
0
0
0
0
0
0
0
0
0
0
0
0
0
0
0
0
0
0
0
0
0
0
0
0
0
0
0
0
0
0
0
0
0
0
0
0
0
0
0
0
0
0
0
0
0
0
0
0
0
0
0
0
0
0
0
0
0
0
0
0
0
0
0
0
0
0
0
0
0
0
0
0
0
0
0
0
0
0
0
0
0
254
254
254
255
255
255
254
254
254
0
0
0
0
0
0
0
0
0
0
0
0
0
0
0
0
0
0
0
0
0
0
0
0
0
0
0
0
0
0
0
0
0
0
0
0
0
0
0
0
0
0
0
0
0
0
0
0
0
0
0
0
0
0
0
0
0
0
0
0
0
0
0
0
0
0
0
0
0
0
0
0
0
0
0
0
0
0
0
0
0
0
0
0
0
0
0
0
0
0
0
0
0
0
0
0
0
0
0
0
0
0
0
0
0
0
0
0
0
0
0
0
0
0
0
0
0
0
0
0
0
0
0
0
0
0
0
0
0
0
0
0
0
0
0
0
0
0
0
0
0
0
0
0
0
0
0
0
0
0
0
0
0
0
0
0
0
0
0
0
0
0
0
0
0
0
0
0
0
0
0
0
0
0
0
0
0
0
0
0
0
0
0
0
0
0
0
0
0
0
0
0
0
0
0
0
0
0
0
0
0
0
0
0
0
0
0
0
0
0
0
0
0
0
0
0
0
0
0
0
0
0
0
0
0
0
0
0
0
0
0
0
0
0
0
0
0
0
0
0
0
0
0
0
0
0
0
0
0
0
0
0
0
0
0
0
0
0
0
0
0
0
0
0
0
0
0
0
0
0
0
0
0
0
0
0
0
0
0
0
0
0
0
0
0
0
0
0
0
0
0
0
0
0
0
0
0
0
0
0
0
0
0
0
0
0
0
0
0
0
0
0
0
0
0
0
0
0
0
0
0
0
0
0
0
0
0
0
0
0
0
0
0
0
0
0
0
0
0
0
0
0
0
0
0
0
0
0
0
0
0
0
0
0
0
0
0
0
0
0
0
0
0
0
0
0
0
0
0
0
0
0
0
0
0
0
0
0
0
0
0
0
0
0
0
0
0
0
0
0
0
0
0
0
0
0
0
0
0
0
0
0
0
0
0
0
0
0
0
0
0
0
0
0
0
0
0
0
0
0
0
0
0
0
0
0
0
0
0
0
0
0
0
0
0
0
0
0
0
0
0
0
0
0
0
0
0
0
0
0
0
0
0
0
0
0
0
0
0
0
0
0
0
0
0
0
0
0
0
0
0
0
0
0
0
0
0
0
0
0
0
0
0
0
0
0
0
0
0
0
0
0
0
0
0
0
0
0
0
0
0
0
0
0
0
0
0
0
0
0
0
0
0
0
0
0
0
0
0
0
0
0
0
0
0
0
0
0
0
0
0
0
0
0
0
0
0
0
0
0
0
0
0
0
0
0
0
0
0
0
0
0
0
0
0
0
0
0
0
0
0
254
254
254
254
255
255
255
254
254
254
0
0
0
0
0
0
0
0
0
0
0
0
0
0
0
0
0
0
0
0
0
0
0
0
0
0
0
0
0
0
0
0
0
0
0
0
0
0
0
0
0
0
0
0
0
0
0
0
0
0
0
0
0
0
0
0
0
0
0
0
0
0
0
0
0
0
0
0
0
0
0
0
0
0
0
0
0
0
0
0
0
0
0
0
0
0
0
0
0
0
0
0
0
0
0
0
0
0
0
0
0
0
0
0
0
0
0
0
0
0
0
0
0
0
0
0
0
0
0
0
0
0
0
0
0
0
0
0
0
0
0
0
0
0
0
0
0
0
0
0
0
0
0
0
0
0
0
0
0
0
0
0
0
0
0
0
0
0
0
0
0
0
0
0
0
0
0
0
0
0
0
0
0
0
0
0
0
0
0
0
0
0
0
0
0
0
0
0
0
0
0
0
0
0
0
0
0
0
0
0
0
0
0
0
0
0
0
0
0
0
0
0
0
0
0
0
0
0
0
0
0
0
0
0
0
0
0
0
0
0
0
0
0
0
0
0
0
0
0
0
0
0
0
0
0
0
0
0
0
0
0
0
0
0
0
0
0
0
0
0
0
0
0
0
0
0
0
0
0
0
0
0
0
0
0
0
0
0
0
0
0
0
0
0
0
0
0
0
0
0
0
0
0
0
0
0
0
0
0
0
0
0
0
0
0
0
0
0
0
0
0
0
0
0
0
0
0
0
0
0
0
0
0
0
0
0
0
0
0
0
0
0
0
0
0
0
0
0
0
0
0
0
0
0
0
0
0
0
0
0
0
0
0
0
0
0
0
0
0
0
0
0
0
0
0
0
0
0
0
0
0
0
0
0
0
0
0
0
0
0
0
0
0
0
0
0
0
0
0
0
0
0
0
0
0
0
0
0
0
0
0
0
0
0
0
0
0
0
0
0
0
0
0
0
0
0
0
0
0
0
0
0
0
0
0
0
0
0
0
0
0
0
0
0
0
0
0
0
0
0
0
0
0
0
0
0
0
0
0
0
0
0
0
0
0
0
0
0
0
0
0
0
0
0
0
0
0
0
0
0
0
0
0
0
0
0
0
0
0
0
0
0
0
0
0
0
0
0
0
0
0
0
0
0
0
0
0
0
0
0
0
0
0
0
0
0
0
0
0
0
0
0
0
0
0
0
0
0
0
0
0
0
0
0
0
0
0
0
0
0
0
0
0
0
0
0
0
0
0
0
0
0
0
0
0
0
0
0
0
0
0
0
0
0
0
0
0
0
0
0
255
255
254
254
254
254
255
255
254
254
254
0
0
0
0
0
0
0
0
0
0
0
0
0
0
0
0
0
0
0
0
0
0
0
0
0
0
0
0
0
0
0
0
0
0
0
0
0
0
0
0
0
0
0
0
0
0
0
0
0
0
0
0
0
0
0
0
0
0
0
0
0
0
0
0
0
0
0
0
0
0
0
0
0
0
0
0
0
0
0
0
0
0
0
0
0
0
0
0
0
0
0
0
0
0
0
0
0
0
0
0
0
0
0
0
0
0
0
0
0
0
0
0
0
0
0
0
0
0
0
0
0
0
0
0
0
0
0
0
0
0
0
0
0
0
0
0
0
0
0
0
0
0
0
0
0
0
0
0
0
0
0
0
0
0
0
0
0
0
0
0
0
0
0
0
0
0
0
0
0
0
0
0
0
0
0
0
0
0
0
0
0
0
0
0
0
0
0
0
0
0
0
0
0
0
0
0
0
0
0
0
0
0
0
0
0
0
0
0
0
0
0
0
0
0
0
0
0
0
0
0
0
0
0
0
0
0
0
0
0
0
0
0
0
0
0
0
0
0
0
0
0
0
0
0
0
0
0
0
0
0
0
0
0
0
0
0
0
0
0
0
0
0
0
0
0
0
0
0
0
0
0
0
0
0
0
0
0
0
0
0
0
0
0
0
0
0
0
0
0
0
0
0
0
0
0
0
0
0
0
0
0
0
0
0
0
0
0
0
0
0
0
0
0
0
0
0
0
0
0
0
0
0
0
0
0
0
0
0
0
0
0
0
0
0
0
0
0
0
0
0
0
0
0
0
0
0
0
0
0
0
0
0
0
0
0
0
0
0
0
0
0
0
0
0
0
0
0
0
0
0
0
0
0
0
0
0
0
0
0
0
0
0
0
0
0
0
0
0
0
0
0
0
0
0
0
0
0
0
0
0
0
0
0
0
0
0
0
0
0
0
0
0
0
0
0
0
0
0
0
0
0
0
0
0
0
0
0
0
0
0
0
0
0
0
0
0
0
0
0
0
0
0
0
0
0
0
0
0
0
0
0
0
0
0
0
0
0
0
0
0
0
0
0
0
0
0
0
0
0
0
0
0
0
0
0
0
0
0
0
0
0
0
0
0
0
0
0
0
0
0
0
0
0
0
0
0
0
0
0
0
0
0
0
0
0
0
0
0
0
0
0
0
0
0
0
0
0
0
0
0
0
0
0
0
0
0
0
0
0
0
0
0
0
0
0
0
0
0
0
0
0
0
0
0
0
0
0
0
0
0
0
0
0
0
0
0
0
0
0
255
255
254
254
254
254
254
255
255
255
254
254
0
0
0
0
0
0
0
0
0
0
0
0
0
0
0
0
0
0
0
0
0
0
0
0
0
0
0
0
0
0
0
0
0
0
0
0
0
0
0
0
0
0
0
0
0
0
0
0
0
0
0
0
0
0
0
0
0
0
0
0
0
0
0
0
0
0
0
0
0
0
0
0
0
0
0
0
0
0
0
0
0
0
0
0
0
0
0
0
0
0
0
0
0
0
0
0
0
0
0
0
0
0
0
0
0
0
0
0
0
0
0
0
0
0
0
0
0
0
0
0
0
0
0
0
0
0
0
0
0
0
0
0
0
0
0
0
0
0
0
0
0
0
0
0
0
0
0
0
0
0
0
0
0
0
0
0
0
0
0
0
0
0
0
0
0
0
0
0
0
0
0
0
0
0
0
0
0
0
0
0
0
0
0
0
0
0
0
0
0
0
0
0
0
0
0
0
0
0
0
0
0
0
0
0
0
0
0
0
0
0
0
0
0
0
0
0
0
0
0
0
0
0
0
0
0
0
0
0
0
0
0
0
0
0
0
0
0
0
0
0
0
0
0
0
0
0
0
0
0
0
0
0
0
0
0
0
0
0
0
0
0
0
0
0
0
0
0
0
0
0
0
0
0
0
0
0
0
0
0
0
0
0
0
0
0
0
0
0
0
0
0
0
0
0
0
0
0
0
0
0
0
0
0
0
0
0
0
0
0
0
0
0
0
0
0
0
0
0
0
0
0
0
0
0
0
0
0
0
0
0
0
0
0
0
0
0
0
0
0
0
0
0
0
0
0
0
0
0
0
0
0
0
0
0
0
0
0
0
0
0
0
0
0
0
0
0
0
0
0
0
0
0
0
0
0
0
0
0
0
0
0
0
0
0
0
0
0
0
0
0
0
0
0
0
0
0
0
0
0
0
0
0
0
0
0
0
0
0
0
0
0
0
0
0
0
0
0
0
0
0
0
0
0
0
0
0
0
0
0
0
0
0
0
0
0
0
0
0
0
0
0
0
0
0
0
0
0
0
0
0
0
0
0
0
0
0
0
0
0
0
0
0
0
0
0
0
0
0
0
0
0
0
0
0
0
0
0
0
0
0
0
0
0
0
0
0
0
0
0
0
0
0
0
0
0
0
0
0
0
0
0
0
0
0
0
0
0
0
0
0
0
0
0
0
0
0
0
0
0
0
0
0
0
0
0
0
0
0
0
0
0
0
0
0
0
0
0
0
0
0
0
0
0
0
0
0
0
0
0
0
0
0
0
0
0
0
0
0
255
254
254
255
254
254
254
254
255
255
255
254
254
0
0
0
0
0
0
0
0
0
0
0
0
0
0
0
0
0
0
0
0
0
0
0
0
0
0
0
0
0
0
0
0
0
0
0
0
0
0
0
0
0
0
0
0
0
0
0
0
0
0
0
0
0
0
0
0
0
0
0
0
0
0
0
0
0
0
0
0
0
0
0
0
0
0
0
0
0
0
0
0
0
0
0
0
0
0
0
0
0
0
0
0
0
0
0
0
0
0
0
0
0
0
0
0
0
0
0
0
0
0
0
0
0
0
0
0
0
0
0
0
0
0
0
0
0
0
0
0
0
0
0
0
0
0
0
0
0
0
0
0
0
0
0
0
0
0
0
0
0
0
0
0
0
0
0
0
0
0
0
0
0
0
0
0
0
0
0
0
0
0
0
0
0
0
0
0
0
0
0
0
0
0
0
0
0
0
0
0
0
0
0
0
0
0
0
0
0
0
0
0
0
0
0
0
0
0
0
0
0
0
0
0
0
0
0
0
0
0
0
0
0
0
0
0
0
0
0
0
0
0
0
0
0
0
0
0
0
0
0
0
0
0
0
0
0
0
0
0
0
0
0
0
0
0
0
0
0
0
0
0
0
0
0
0
0
0
0
0
0
0
0
0
0
0
0
0
0
0
0
0
0
0
0
0
0
0
0
0
0
0
0
0
0
0
0
0
0
0
0
0
0
0
0
0
0
0
0
0
0
0
0
0
0
0
0
0
0
0
0
0
0
0
0
0
0
0
0
0
0
0
0
0
0
0
0
0
0
0
0
0
0
0
0
0
0
0
0
0
0
0
0
0
0
0
0
0
0
0
0
0
0
0
0
0
0
0
0
0
0
0
0
0
0
0
0
0
0
0
0
0
0
0
0
0
0
0
0
0
0
0
0
0
0
0
0
0
0
0
0
0
0
0
0
0
0
0
0
0
0
0
0
0
0
0
0
0
0
0
0
0
0
0
0
0
0
0
0
0
0
0
0
0
0
0
0
0
0
0
0
0
0
0
0
0
0
0
0
0
0
0
0
0
0
0
0
0
0
0
0
0
0
0
0
0
0
0
0
0
0
0
0
0
0
0
0
0
0
0
0
0
0
0
0
0
0
0
0
0
0
0
0
0
0
0
0
0
0
0
0
0
0
0
0
0
0
0
0
0
0
0
0
0
0
0
0
0
0
0
0
0
0
0
0
0
0
0
0
0
0
0
0
0
0
0
0
0
0
0
0
0
0
0
0
0
0
0
0
0
0
0
0
0
0
0
0
0
0
254
254
255
255
255
254
254
254
254
255
255
255
254
254
0
0
0
0
0
0
0
0
0
0
0
0
0
0
0
0
0
0
0
0
0
0
0
0
0
0
0
0
0
0
0
0
0
0
0
0
0
0
0
0
0
0
0
0
0
0
0
0
0
0
0
0
0
0
0
0
0
0
0
0
0
0
0
0
0
0
0
0
0
0
0
0
0
0
0
0
0
0
0
0
0
0
0
0
0
0
0
0
0
0
0
0
0
0
0
0
0
0
0
0
0
0
0
0
0
0
0
0
0
0
0
0
0
0
0
0
0
0
0
0
0
0
0
0
0
0
0
0
0
0
0
0
0
0
0
0
0
0
0
0
0
0
0
0
0
0
0
0
0
0
0
0
0
0
0
0
0
0
0
0
0
0
0
0
0
0
0
0
0
0
0
0
0
0
0
0
0
0
0
0
0
0
0
0
0
0
0
0
0
0
0
0
0
0
0
0
0
0
0
0
0
0
0
0
0
0
0
0
0
0
0
0
0
0
0
0
0
0
0
0
0
0
0
0
0
0
0
0
0
0
0
0
0
0
0
0
0
0
0
0
0
0
0
0
0
0
0
0
0
0
0
0
0
0
0
0
0
0
0
0
0
0
0
0
0
0
0
0
0
0
0
0
0
0
0
0
0
0
0
0
0
0
0
0
0
0
0
0
0
0
0
0
0
0
0
0
0
0
0
0
0
0
0
0
0
0
0
0
0
0
0
0
0
0
0
0
0
0
0
0
0
0
0
0
0
0
0
0
0
0
0
0
0
0
0
0
0
0
0
0
0
0
0
0
0
0
0
0
0
0
0
0
0
0
0
0
0
0
0
0
0
0
0
0
0
0
0
0
0
0
0
0
0
0
0
0
0
0
0
0
0
0
0
0
0
0
0
0
0
0
0
0
0
0
0
0
0
0
0
0
0
0
0
0
0
0
0
0
0
0
0
0
0
0
0
0
0
0
0
0
0
0
0
0
0
0
0
0
0
0
0
0
0
0
0
0
0
0
0
0
0
0
0
0
0
0
0
0
0
0
0
0
0
0
0
0
0
0
0
0
0
0
0
0
0
0
0
0
0
0
0
0
0
0
0
0
0
0
0
0
0
0
0
0
0
0
0
0
0
0
0
0
0
0
0
0
0
0
0
0
0
0
0
0
0
0
0
0
0
0
0
0
0
0
0
0
0
0
0
0
0
0
0
0
0
0
0
0
0
0
0
0
0
0
0
0
0
0
0
0
0
0
0
0
0
0
0
0
0
0
0
0
0
0
0
0
254
254
254
254
254
255
254
254
254
254
255
255
255
254
254
0
0
0
0
0
0
0
0
0
0
0
0
0
0
0
0
0
0
0
0
0
0
0
0
0
0
0
0
0
0
0
0
0
0
0
0
0
0
0
0
0
0
0
0
0
0
0
0
0
0
0
0
0
0
0
0
0
0
0
0
0
0
0
0
0
0
0
0
0
0
0
0
0
0
0
0
0
0
0
0
0
0
0
0
0
0
0
0
0
0
0
0
0
0
0
0
0
0
0
0
0
0
0
0
0
0
0
0
0
0
0
0
0
0
0
0
0
0
0
0
0
0
0
0
0
0
0
0
0
0
0
0
0
0
0
0
0
0
0
0
0
0
0
0
0
0
0
0
0
0
0
0
0
0
0
0
0
0
0
0
0
0
0
0
0
0
0
0
0
0
0
0
0
0
0
0
0
0
0
0
0
0
0
0
0
0
0
0
0
0
0
0
0
0
0
0
0
0
0
0
0
0
0
0
0
0
0
0
0
0
0
0
0
0
0
0
0
0
0
0
0
0
0
0
0
0
0
0
0
0
0
0
0
0
0
0
0
0
0
0
0
0
0
0
0
0
0
0
0
0
0
0
0
0
0
0
0
0
0
0
0
0
0
0
0
0
0
0
0
0
0
0
0
0
0
0
0
0
0
0
0
0
0
0
0
0
0
0
0
0
0
0
0
0
0
0
0
0
0
0
0
0
0
0
0
0
0
0
0
0
0
0
0
0
0
0
0
0
0
0
0
0
0
0
0
0
0
0
0
0
0
0
0
0
0
0
0
0
0
0
0
0
0
0
0
0
0
0
0
0
0
0
0
0
0
0
0
0
0
0
0
0
0
0
0
0
0
0
0
0
0
0
0
0
0
0
0
0
0
0
0
0
0
0
0
0
0
0
0
0
0
0
0
0
0
0
0
0
0
0
0
0
0
0
0
0
0
0
0
0
0
0
0
0
0
0
0
0
0
0
0
0
0
0
0
0
0
0
0
0
0
0
0
0
0
0
0
0
0
0
0
0
0
0
0
0
0
0
0
0
0
0
0
0
0
0
0
0
0
0
0
0
0
0
0
0
0
0
0
0
0
0
0
0
0
0
0
0
0
0
0
0
0
0
0
0
0
0
0
0
0
0
0
0
0
0
0
0
0
0
0
0
0
0
0
0
0
0
0
0
0
0
0
0
0
0
0
0
0
0
0
0
0
0
0
0
0
0
0
0
0
0
0
0
0
0
0
0
0
0
0
0
0
0
0
0
0
0
0
0
0
0
0
0
0
253
254
254
254
254
254
255
255
254
254
255
255
255
255
254
254
0
0
0
0
0
0
0
0
0
0
0
0
0
0
0
0
0
0
0
0
0
0
0
0
0
0
0
0
0
0
0
0
0
0
0
0
0
0
0
0
0
0
0
0
0
0
0
0
0
0
0
0
0
0
0
0
0
0
0
0
0
0
0
0
0
0
0
0
0
0
0
0
0
0
0
0
0
0
0
0
0
0
0
0
0
0
0
0
0
0
0
0
0
0
0
0
0
0
0
0
0
0
0
0
0
0
0
0
0
0
0
0
0
0
0
0
0
0
0
0
0
0
0
0
0
0
0
0
0
0
0
0
0
0
0
0
0
0
0
0
0
0
0
0
0
0
0
0
0
0
0
0
0
0
0
0
0
0
0
0
0
0
0
0
0
0
0
0
0
0
0
0
0
0
0
0
0
0
0
0
0
0
0
0
0
0
0
0
0
0
0
0
0
0
0
0
0
0
0
0
0
0
0
0
0
0
0
0
0
0
0
0
0
0
0
0
0
0
0
0
0
0
0
0
0
0
0
0
0
0
0
0
0
0
0
0
0
0
0
0
0
0
0
0
0
0
0
0
0
0
0
0
0
0
0
0
0
0
0
0
0
0
0
0
0
0
0
0
0
0
0
0
0
0
0
0
0
0
0
0
0
0
0
0
0
0
0
0
0
0
0
0
0
0
0
0
0
0
0
0
0
0
0
0
0
0
0
0
0
0
0
0
0
0
0
0
0
0
0
0
0
0
0
0
0
0
0
0
0
0
0
0
0
0
0
0
0
0
0
0
0
0
0
0
0
0
0
0
0
0
0
0
0
0
0
0
0
0
0
0
0
0
0
0
0
0
0
0
0
0
0
0
0
0
0
0
0
0
0
0
0
0
0
0
0
0
0
0
0
0
0
0
0
0
0
0
0
0
0
0
0
0
0
0
0
0
0
0
0
0
0
0
0
0
0
0
0
0
0
0
0
0
0
0
0
0
0
0
0
0
0
0
0
0
0
0
0
0
0
0
0
0
0
0
0
0
0
0
0
0
0
0
0
0
0
0
0
0
0
0
0
0
0
0
0
0
0
0
0
0
0
0
0
0
0
0
0
0
0
0
0
0
0
0
0
0
0
0
0
0
0
0
0
0
0
0
0
0
0
0
0
0
0
0
0
0
0
0
0
0
0
0
0
0
0
0
0
0
0
0
0
0
0
0
0
0
0
0
0
0
0
0
0
0
0
0
0
0
0
0
0
0
0
0
0
0
0
0
0
0
0
0
0
0
255
254
254
254
254
254
255
255
255
254
254
255
255
255
254
254
254
0
0
0
0
0
0
0
0
0
0
0
0
0
0
0
0
0
0
0
0
0
0
0
0
0
0
0
0
0
0
0
0
0
0
0
0
0
0
0
0
0
0
0
0
0
0
0
0
0
0
0
0
0
0
0
0
0
0
0
0
0
0
0
0
0
0
0
0
0
0
0
0
0
0
0
0
0
0
0
0
0
0
0
0
0
0
0
0
0
0
0
0
0
0
0
0
0
0
0
0
0
0
0
0
0
0
0
0
0
0
0
0
0
0
0
0
0
0
0
0
0
0
0
0
0
0
0
0
0
0
0
0
0
0
0
0
0
0
0
0
0
0
0
0
0
0
0
0
0
0
0
0
0
0
0
0
0
0
0
0
0
0
0
0
0
0
0
0
0
0
0
0
0
0
0
0
0
0
0
0
0
0
0
0
0
0
0
0
0
0
0
0
0
0
0
0
0
0
0
0
0
0
0
0
0
0
0
0
0
0
0
0
0
0
0
0
0
0
0
0
0
0
0
0
0
0
0
0
0
0
0
0
0
0
0
0
0
0
0
0
0
0
0
0
0
0
0
0
0
0
0
0
0
0
0
0
0
0
0
0
0
0
0
0
0
0
0
0
0
0
0
0
0
0
0
0
0
0
0
0
0
0
0
0
0
0
0
0
0
0
0
0
0
0
0
0
0
0
0
0
0
0
0
0
0
0
0
0
0
0
0
0
0
0
0
0
0
0
0
0
0
0
0
0
0
0
0
0
0
0
0
0
0
0
0
0
0
0
0
0
0
0
0
0
0
0
0
0
0
0
0
0
0
0
0
0
0
0
0
0
0
0
0
0
0
0
0
0
0
0
0
0
0
0
0
0
0
0
0
0
0
0
0
0
0
0
0
0
0
0
0
0
0
0
0
0
0
0
0
0
0
0
0
0
0
0
0
0
0
0
0
0
0
0
0
0
0
0
0
0
0
0
0
0
0
0
0
0
0
0
0
0
0
0
0
0
0
0
0
0
0
0
0
0
0
0
0
0
0
0
0
0
0
0
0
0
0
0
0
0
0
0
0
0
0
0
0
0
0
0
0
0
0
0
0
0
0
0
0
0
0
0
0
0
0
0
0
0
0
0
0
0
0
0
0
0
0
0
0
0
0
0
0
0
0
0
0
0
0
0
0
0
0
0
0
0
0
0
0
0
0
0
0
0
0
0
0
0
0
0
0
0
0
0
0
0
0
0
0
0
0
0
0
0
0
0
0
0
0
0
0
0
0
255
255
254
254
254
254
255
255
255
254
254
254
255
255
255
254
254
254
0
0
0
0
0
0
0
0
0
0
0
0
0
0
0
0
0
0
0
0
0
0
0
0
0
0
0
0
0
0
0
0
0
0
0
0
0
0
0
0
0
0
0
0
0
0
0
0
0
0
0
0
0
0
0
0
0
0
0
0
0
0
0
0
0
0
0
0
0
0
0
0
0
0
0
0
0
0
0
0
0
0
0
0
0
0
0
0
0
0
0
0
0
0
0
0
0
0
0
0
0
0
0
0
0
0
0
0
0
0
0
0
0
0
0
0
0
0
0
0
0
0
0
0
0
0
0
0
0
0
0
0
0
0
0
0
0
0
0
0
0
0
0
0
0
0
0
0
0
0
0
0
0
0
0
0
0
0
0
0
0
0
0
0
0
0
0
0
0
0
0
0
0
0
0
0
0
0
0
0
0
0
0
0
0
0
0
0
0
0
0
0
0
0
0
0
0
0
0
0
0
0
0
0
0
0
0
0
0
0
0
0
0
0
0
0
0
0
0
0
0
0
0
0
0
0
0
0
0
0
0
0
0
0
0
0
0
0
0
0
0
0
0
0
0
0
0
0
0
0
0
0
0
0
0
0
0
0
0
0
0
0
0
0
0
0
0
0
0
0
0
0
0
0
0
0
0
0
0
0
0
0
0
0
0
0
0
0
0
0
0
0
0
0
0
0
0
0
0
0
0
0
0
0
0
0
0
0
0
0
0
0
0
0
0
0
0
0
0
0
0
0
0
0
0
0
0
0
0
0
0
0
0
0
0
0
0
0
0
0
0
0
0
0
0
0
0
0
0
0
0
0
0
0
0
0
0
0
0
0
0
0
0
0
0
0
0
0
0
0
0
0
0
0
0
0
0
0
0
0
0
0
0
0
0
0
0
0
0
0
0
0
0
0
0
0
0
0
0
0
0
0
0
0
0
0
0
0
0
0
0
0
0
0
0
0
0
0
0
0
0
0
0
0
0
0
0
0
0
0
0
0
0
0
0
0
0
0
0
0
0
0
0
0
0
0
0
0
0
0
0
0
0
0
0
0
0
0
0
0
0
0
0
0
0
0
0
0
0
0
0
0
0
0
0
0
0
0
0
0
0
0
0
0
0
0
0
0
0
0
0
0
0
0
0
0
0
0
0
0
0
0
0
0
0
0
0
0
0
0
0
0
0
0
0
0
0
0
0
0
0
0
0
0
0
0
0
0
0
0
0
0
0
0
0
0
0
0
0
0
0
0
0
0
0
0
0
0
0
0
0
0
255
255
255
254
254
255
255
255
254
255
254
255
255
255
255
255
255
254
254
0
0
0
0
0
0
0
0
0
0
0
0
0
0
0
0
0
0
0
0
0
0
0
0
0
0
0
0
0
0
0
0
0
0
0
0
0
0
0
0
0
0
0
0
0
0
0
0
0
0
0
0
0
0
0
0
0
0
0
0
0
0
0
0
0
0
0
0
0
0
0
0
0
0
0
0
0
0
0
0
0
0
0
0
0
0
0
0
0
0
0
0
0
0
0
0
0
0
0
0
0
0
0
0
0
0
0
0
0
0
0
0
0
0
0
0
0
0
0
0
0
0
0
0
0
0
0
0
0
0
0
0
0
0
0
0
0
0
0
0
0
0
0
0
0
0
0
0
0
0
0
0
0
0
0
0
0
0
0
0
0
0
0
0
0
0
0
0
0
0
0
0
0
0
0
0
0
0
0
0
0
0
0
0
0
0
0
0
0
0
0
0
0
0
0
0
0
0
0
0
0
0
0
0
0
0
0
0
0
0
0
0
0
0
0
0
0
0
0
0
0
0
0
0
0
0
0
0
0
0
0
0
0
0
0
0
0
0
0
0
0
0
0
0
0
0
0
0
0
0
0
0
0
0
0
0
0
0
0
0
0
0
0
0
0
0
0
0
0
0
0
0
0
0
0
0
0
0
0
0
0
0
0
0
0
0
0
0
0
0
0
0
0
0
0
0
0
0
0
0
0
0
0
0
0
0
0
0
0
0
0
0
0
0
0
0
0
0
0
0
0
0
0
0
0
0
0
0
0
0
0
0
0
0
0
0
0
0
0
0
0
0
0
0
0
0
0
0
0
0
0
0
0
0
0
0
0
0
0
0
0
0
0
0
0
0
0
0
0
0
0
0
0
0
0
0
0
0
0
0
0
0
0
0
0
0
0
0
0
0
0
0
0
0
0
0
0
0
0
0
0
0
0
0
0
0
0
0
0
0
0
0
0
0
0
0
0
0
0
0
0
0
0
0
0
0
0
0
0
0
0
0
0
0
0
0
0
0
0
0
0
0
0
0
0
0
0
0
0
0
0
0
0
0
0
0
0
0
0
0
0
0
0
0
0
0
0
0
0
0
0
0
0
0
0
0
0
0
0
0
0
0
0
0
0
0
0
0
0
0
0
0
0
0
0
0
0
0
0
0
0
0
0
0
0
0
0
0
0
0
0
0
0
0
0
0
0
0
0
0
0
0
0
0
0
0
0
0
0
0
0
0
0
0
0
0
0
0
0
0
0
0
0
0
0
0
0
0
0
0
0
254
255
255
255
254
255
255
254
255
255
255
255
255
254
254
255
255
255
254
254
0
0
0
0
0
0
0
0
0
0
0
0
0
0
0
0
0
0
0
0
0
0
0
0
0
0
0
0
0
0
0
0
0
0
0
0
0
0
0
0
0
0
0
0
0
0
0
0
0
0
0
0
0
0
0
0
0
0
0
0
0
0
0
0
0
0
0
0
0
0
0
0
0
0
0
0
0
0
0
0
0
0
0
0
0
0
0
0
0
0
0
0
0
0
0
0
0
0
0
0
0
0
0
0
0
0
0
0
0
0
0
0
0
0
0
0
0
0
0
0
0
0
0
0
0
0
0
0
0
0
0
0
0
0
0
0
0
0
0
0
0
0
0
0
0
0
0
0
0
0
0
0
0
0
0
0
0
0
0
0
0
0
0
0
0
0
0
0
0
0
0
0
0
0
0
0
0
0
0
0
0
0
0
0
0
0
0
0
0
0
0
0
0
0
0
0
0
0
0
0
0
0
0
0
0
0
0
0
0
0
0
0
0
0
0
0
0
0
0
0
0
0
0
0
0
0
0
0
0
0
0
0
0
0
0
0
0
0
0
0
0
0
0
0
0
0
0
0
0
0
0
0
0
0
0
0
0
0
0
0
0
0
0
0
0
0
0
0
0
0
0
0
0
0
0
0
0
0
0
0
0
0
0
0
0
0
0
0
0
0
0
0
0
0
0
0
0
0
0
0
0
0
0
0
0
0
0
0
0
0
0
0
0
0
0
0
0
0
0
0
0
0
0
0
0
0
0
0
0
0
0
0
0
0
0
0
0
0
0
0
0
0
0
0
0
0
0
0
0
0
0
0
0
0
0
0
0
0
0
0
0
0
0
0
0
0
0
0
0
0
0
0
0
0
0
0
0
0
0
0
0
0
0
0
0
0
0
0
0
0
0
0
0
0
0
0
0
0
0
0
0
0
0
0
0
0
0
0
0
0
0
0
0
0
0
0
0
0
0
0
0
0
0
0
0
0
0
0
0
0
0
0
0
0
0
0
0
0
0
0
0
0
0
0
0
0
0
0
0
0
0
0
0
0
0
0
0
0
0
0
0
0
0
0
0
0
0
0
0
0
0
0
0
0
0
0
0
0
0
0
0
0
0
0
0
0
0
0
0
0
0
0
0
0
0
0
0
0
0
0
0
0
0
0
0
0
0
0
0
0
0
0
0
0
0
0
0
0
0
0
0
0
0
0
0
0
0
0
0
0
0
0
0
0
0
0
0
0
0
0
0
0
0
0
0
0
0
0
0
0
255
254
255
255
255
254
254
254
254
255
255
255
254
254
254
254
255
254
254
254
255
0
0
0
0
0
0
0
0
0
0
0
0
0
0
0
0
0
0
0
0
0
0
0
0
0
0
0
0
0
0
0
0
0
0
0
0
0
0
0
0
0
0
0
0
0
0
0
0
0
0
0
0
0
0
0
0
0
0
0
0
0
0
0
0
0
0
0
0
0
0
0
0
0
0
0
0
0
0
0
0
0
0
0
0
0
0
0
0
0
0
0
0
0
0
0
0
0
0
0
0
0
0
0
0
0
0
0
0
0
0
0
0
0
0
0
0
0
0
0
0
0
0
0
0
0
0
0
0
0
0
0
0
0
0
0
0
0
0
0
0
0
0
0
0
0
0
0
0
0
0
0
0
0
0
0
0
0
0
0
0
0
0
0
0
0
0
0
0
0
0
0
0
0
0
0
0
0
0
0
0
0
0
0
0
0
0
0
0
0
0
0
0
0
0
0
0
0
0
0
0
0
0
0
0
0
0
0
0
0
0
0
0
0
0
0
0
0
0
0
0
0
0
0
0
0
0
0
0
0
0
0
0
0
0
0
0
0
0
0
0
0
0
0
0
0
0
0
0
0
0
0
0
0
0
0
0
0
0
0
0
0
0
0
0
0
0
0
0
0
0
0
0
0
0
0
0
0
0
0
0
0
0
0
0
0
0
0
0
0
0
0
0
0
0
0
0
0
0
0
0
0
0
0
0
0
0
0
0
0
0
0
0
0
0
0
0
0
0
0
0
0
0
0
0
0
0
0
0
0
0
0
0
0
0
0
0
0
0
0
0
0
0
0
0
0
0
0
0
0
0
0
0
0
0
0
0
0
0
0
0
0
0
0
0
0
0
0
0
0
0
0
0
0
0
0
0
0
0
0
0
0
0
0
0
0
0
0
0
0
0
0
0
0
0
0
0
0
0
0
0
0
0
0
0
0
0
0
0
0
0
0
0
0
0
0
0
0
0
0
0
0
0
0
0
0
0
0
0
0
0
0
0
0
0
0
0
0
0
0
0
0
0
0
0
0
0
0
0
0
0
0
0
0
0
0
0
0
0
0
0
0
0
0
0
0
0
0
0
0
0
0
0
0
0
0
0
0
0
0
0
0
0
0
0
0
0
0
0
0
0
0
0
0
0
0
0
0
0
0
0
0
0
0
0
0
0
0
0
0
0
0
0
0
0
0
0
0
0
0
0
0
0
0
0
0
0
0
0
0
0
0
0
0
0
0
0
0
0
0
0
0
0
0
0
0
0
0
0
0
255
255
254
255
255
255
255
254
254
255
255
255
254
254
254
254
254
254
255
255
255
255
0
0
0
0
0
0
0
0
0
0
0
0
0
0
0
0
0
0
0
0
0
0
0
0
0
0
0
0
0
0
0
0
0
0
0
0
0
0
0
0
0
0
0
0
0
0
0
0
0
0
0
0
0
0
0
0
0
0
0
0
0
0
0
0
0
0
0
0
0
0
0
0
0
0
0
0
0
0
0
0
0
0
0
0
0
0
0
0
0
0
0
0
0
0
0
0
0
0
0
0
0
0
0
0
0
0
0
0
0
0
0
0
0
0
0
0
0
0
0
0
0
0
0
0
0
0
0
0
0
0
0
0
0
0
0
0
0
0
0
0
0
0
0
0
0
0
0
0
0
0
0
0
0
0
0
0
0
0
0
0
0
0
0
0
0
0
0
0
0
0
0
0
0
0
0
0
0
0
0
0
0
0
0
0
0
0
0
0
0
0
0
0
0
0
0
0
0
0
0
0
0
0
0
0
0
0
0
0
0
0
0
0
0
0
0
0
0
0
0
0
0
0
0
0
0
0
0
0
0
0
0
0
0
0
0
0
0
0
0
0
0
0
0
0
0
0
0
0
0
0
0
0
0
0
0
0
0
0
0
0
0
0
0
0
0
0
0
0
0
0
0
0
0
0
0
0
0
0
0
0
0
0
0
0
0
0
0
0
0
0
0
0
0
0
0
0
0
0
0
0
0
0
0
0
0
0
0
0
0
0
0
0
0
0
0
0
0
0
0
0
0
0
0
0
0
0
0
0
0
0
0
0
0
0
0
0
0
0
0
0
0
0
0
0
0
0
0
0
0
0
0
0
0
0
0
0
0
0
0
0
0
0
0
0
0
0
0
0
0
0
0
0
0
0
0
0
0
0
0
0
0
0
0
0
0
0
0
0
0
0
0
0
0
0
0
0
0
0
0
0
0
0
0
0
0
0
0
0
0
0
0
0
0
0
0
0
0
0
0
0
0
0
0
0
0
0
0
0
0
0
0
0
0
0
0
0
0
0
0
0
0
0
0
0
0
0
0
0
0
0
0
0
0
0
0
0
0
0
0
0
0
0
0
0
0
0
0
0
0
0
0
0
0
0
0
0
0
0
0
0
0
0
0
0
0
0
0
0
0
0
0
0
0
0
0
0
0
0
0
0
0
0
0
0
0
0
0
0
0
0
0
0
0
0
0
0
0
0
0
0
0
0
0
0
0
0
0
0
0
0
0
0
0
0
0
0
0
0
0
0
0
0
0
0
0
0
0
0
255
255
255
254
254
254
254
255
254
254
254
254
255
255
254
254
254
254
255
255
255
255
254
0
0
0
0
0
0
0
0
0
0
0
0
0
0
0
0
0
0
0
0
0
0
0
0
0
0
0
0
0
0
0
0
0
0
0
0
0
0
0
0
0
0
0
0
0
0
0
0
0
0
0
0
0
0
0
0
0
0
0
0
0
0
0
0
0
0
0
0
0
0
0
0
0
0
0
0
0
0
0
0
0
0
0
0
0
0
0
0
0
0
0
0
0
0
0
0
0
0
0
0
0
0
0
0
0
0
0
0
0
0
0
0
0
0
0
0
0
0
0
0
0
0
0
0
0
0
0
0
0
0
0
0
0
0
0
0
0
0
0
0
0
0
0
0
0
0
0
0
0
0
0
0
0
0
0
0
0
0
0
0
0
0
0
0
0
0
0
0
0
0
0
0
0
0
0
0
0
0
0
0
0
0
0
0
0
0
0
0
0
0
0
0
0
0
0
0
0
0
0
0
0
0
0
0
0
0
0
0
0
0
0
0
0
0
0
0
0
0
0
0
0
0
0
0
0
0
0
0
0
0
0
0
0
0
0
0
0
0
0
0
0
0
0
0
0
0
0
0
0
0
0
0
0
0
0
0
0
0
0
0
0
0
0
0
0
0
0
0
0
0
0
0
0
0
0
0
0
0
0
0
0
0
0
0
0
0
0
0
0
0
0
0
0
0
0
0
0
0
0
0
0
0
0
0
0
0
0
0
0
0
0
0
0
0
0
0
0
0
0
0
0
0
0
0
0
0
0
0
0
0
0
0
0
0
0
0
0
0
0
0
0
0
0
0
0
0
0
0
0
0
0
0
0
0
0
0
0
0
0
0
0
0
0
0
0
0
0
0
0
0
0
0
0
0
0
0
0
0
0
0
0
0
0
0
0
0
0
0
0
0
0
0
0
0
0
0
0
0
0
0
0
0
0
0
0
0
0
0
0
0
0
0
0
0
0
0
0
0
0
0
0
0
0
0
0
0
0
0
0
0
0
0
0
0
0
0
0
0
0
0
0
0
0
0
0
0
0
0
0
0
0
0
0
0
0
0
0
0
0
0
0
0
0
0
0
0
0
0
0
0
0
0
0
0
0
0
0
0
0
0
0
0
0
0
0
0
0
0
0
0
0
0
0
0
0
0
0
0
0
0
0
0
0
0
0
0
0
0
0
0
0
0
0
0
0
0
0
0
0
0
0
0
0
0
0
0
0
0
0
0
0
0
0
0
0
0
0
0
0
0
0
0
0
0
0
0
0
255
255
254
254
254
254
254
254
255
254
254
254
255
255
255
255
254
254
255
255
255
254
254
254
0
0
0
0
0
0
0
0
0
0
0
0
0
0
0
0
0
0
0
0
0
0
0
0
0
0
0
0
0
0
0
0
0
0
0
0
0
0
0
0
0
0
0
0
0
0
0
0
0
0
0
0
0
0
0
0
0
0
0
0
0
0
0
0
0
0
0
0
0
0
0
0
0
0
0
0
0
0
0
0
0
0
0
0
0
0
0
0
0
0
0
0
0
0
0
0
0
0
0
0
0
0
0
0
0
0
0
0
0
0
0
0
0
0
0
0
0
0
0
0
0
0
0
0
0
0
0
0
0
0
0
0
0
0
0
0
0
0
0
0
0
0
0
0
0
0
0
0
0
0
0
0
0
0
0
0
0
0
0
0
0
0
0
0
0
0
0
0
0
0
0
0
0
0
0
0
0
0
0
0
0
0
0
0
0
0
0
0
0
0
0
0
0
0
0
0
0
0
0
0
0
0
0
0
0
0
0
0
0
0
0
0
0
0
0
0
0
0
0
0
0
0
0
0
0
0
0
0
0
0
0
0
0
0
0
0
0
0
0
0
0
0
0
0
0
0
0
0
0
0
0
0
0
0
0
0
0
0
0
0
0
0
0
0
0
0
0
0
0
0
0
0
0
0
0
0
0
0
0
0
0
0
0
0
0
0
0
0
0
0
0
0
0
0
0
0
0
0
0
0
0
0
0
0
0
0
0
0
0
0
0
0
0
0
0
0
0
0
0
0
0
0
0
0
0
0
0
0
0
0
0
0
0
0
0
0
0
0
0
0
0
0
0
0
0
0
0
0
0
0
0
0
0
0
0
0
0
0
0
0
0
0
0
0
0
0
0
0
0
0
0
0
0
0
0
0
0
0
0
0
0
0
0
0
0
0
0
0
0
0
0
0
0
0
0
0
0
0
0
0
0
0
0
0
0
0
0
0
0
0
0
0
0
0
0
0
0
0
0
0
0
0
0
0
0
0
0
0
0
0
0
0
0
0
0
0
0
0
0
0
0
0
0
0
0
0
0
0
0
0
0
0
0
0
0
0
0
0
0
0
0
0
0
0
0
0
0
0
0
0
0
0
0
0
0
0
0
0
0
0
0
0
0
0
0
0
0
0
0
0
0
0
0
0
0
0
0
0
0
0
0
0
0
0
0
0
0
0
0
0
0
0
0
0
0
0
0
0
0
0
0
0
0
0
0
0
0
0
0
0
0
0
0
0
0
0
0
0
0
0
0
0
0
0
0
0
255
255
255
254
254
254
254
254
255
255
254
254
255
254
254
255
255
254
254
254
255
255
254
254
254
0
0
0
0
0
0
0
0
0
0
0
0
0
0
0
0
0
0
0
0
0
0
0
0
0
0
0
0
0
0
0
0
0
0
0
0
0
0
0
0
0
0
0
0
0
0
0
0
0
0
0
0
0
0
0
0
0
0
0
0
0
0
0
0
0
0
0
0
0
0
0
0
0
0
0
0
0
0
0
0
0
0
0
0
0
0
0
0
0
0
0
0
0
0
0
0
0
0
0
0
0
0
0
0
0
0
0
0
0
0
0
0
0
0
0
0
0
0
0
0
0
0
0
0
0
0
0
0
0
0
0
0
0
0
0
0
0
0
0
0
0
0
0
0
0
0
0
0
0
0
0
0
0
0
0
0
0
0
0
0
0
0
0
0
0
0
0
0
0
0
0
0
0
0
0
0
0
0
0
0
0
0
0
0
0
0
0
0
0
0
0
0
0
0
0
0
0
0
0
0
0
0
0
0
0
0
0
0
0
0
0
0
0
0
0
0
0
0
0
0
0
0
0
0
0
0
0
0
0
0
0
0
0
0
0
0
0
0
0
0
0
0
0
0
0
0
0
0
0
0
0
0
0
0
0
0
0
0
0
0
0
0
0
0
0
0
0
0
0
0
0
0
0
0
0
0
0
0
0
0
0
0
0
0
0
0
0
0
0
0
0
0
0
0
0
0
0
0
0
0
0
0
0
0
0
0
0
0
0
0
0
0
0
0
0
0
0
0
0
0
0
0
0
0
0
0
0
0
0
0
0
0
0
0
0
0
0
0
0
0
0
0
0
0
0
0
0
0
0
0
0
0
0
0
0
0
0
0
0
0
0
0
0
0
0
0
0
0
0
0
0
0
0
0
0
0
0
0
0
0
0
0
0
0
0
0
0
0
0
0
0
0
0
0
0
0
0
0
0
0
0
0
0
0
0
0
0
0
0
0
0
0
0
0
0
0
0
0
0
0
0
0
0
0
0
0
0
0
0
0
0
0
0
0
0
0
0
0
0
0
0
0
0
0
0
0
0
0
0
0
0
0
0
0
0
0
0
0
0
0
0
0
0
0
0
0
0
0
0
0
0
0
0
0
0
0
0
0
0
0
0
0
0
0
0
0
0
0
0
0
0
0
0
0
0
0
0
0
0
0
0
0
0
0
0
0
0
0
0
0
0
0
0
0
0
0
0
0
0
0
0
0
0
0
0
0
0
0
0
0
0
0
0
0
0
0
0
0
0
0
0
0
0
0
0
255
255
255
255
255
255
254
254
254
255
255
254
254
254
255
255
255
255
254
254
254
255
255
254
254
254
0
0
0
0
0
0
0
0
0
0
0
0
0
0
0
0
0
0
0
0
0
0
0
0
0
0
0
0
0
0
0
0
0
0
0
0
0
0
0
0
0
0
0
0
0
0
0
0
0
0
0
0
0
0
0
0
0
0
0
0
0
0
0
0
0
0
0
0
0
0
0
0
0
0
0
0
0
0
0
0
0
0
0
0
0
0
0
0
0
0
0
0
0
0
0
0
0
0
0
0
0
0
0
0
0
0
0
0
0
0
0
0
0
0
0
0
0
0
0
0
0
0
0
0
0
0
0
0
0
0
0
0
0
0
0
0
0
0
0
0
0
0
0
0
0
0
0
0
0
0
0
0
0
0
0
0
0
0
0
0
0
0
0
0
0
0
0
0
0
0
0
0
0
0
0
0
0
0
0
0
0
0
0
0
0
0
0
0
0
0
0
0
0
0
0
0
0
0
0
0
0
0
0
0
0
0
0
0
0
0
0
0
0
0
0
0
0
0
0
0
0
0
0
0
0
0
0
0
0
0
0
0
0
0
0
0
0
0
0
0
0
0
0
0
0
0
0
0
0
0
0
0
0
0
0
0
0
0
0
0
0
0
0
0
0
0
0
0
0
0
0
0
0
0
0
0
0
0
0
0
0
0
0
0
0
0
0
0
0
0
0
0
0
0
0
0
0
0
0
0
0
0
0
0
0
0
0
0
0
0
0
0
0
0
0
0
0
0
0
0
0
0
0
0
0
0
0
0
0
0
0
0
0
0
0
0
0
0
0
0
0
0
0
0
0
0
0
0
0
0
0
0
0
0
0
0
0
0
0
0
0
0
0
0
0
0
0
0
0
0
0
0
0
0
0
0
0
0
0
0
0
0
0
0
0
0
0
0
0
0
0
0
0
0
0
0
0
0
0
0
0
0
0
0
0
0
0
0
0
0
0
0
0
0
0
0
0
0
0
0
0
0
0
0
0
0
0
0
0
0
0
0
0
0
0
0
0
0
0
0
0
0
0
0
0
0
0
0
0
0
0
0
0
0
0
0
0
0
0
0
0
0
0
0
0
0
0
0
0
0
0
0
0
0
0
0
0
0
0
0
0
0
0
0
0
0
0
0
0
0
0
0
0
0
0
0
0
0
0
0
0
0
0
0
0
0
0
0
0
0
0
0
0
0
0
0
0
0
0
0
0
0
0
0
0
0
0
0
0
0
0
0
0
0
0
0
0
0
0
0
0
0
0
0
254
255
255
255
255
255
255
254
255
255
255
255
254
254
255
255
255
255
254
254
254
255
255
254
254
254
254
0
0
0
0
0
0
0
0
0
0
0
0
0
0
0
0
0
0
0
0
0
0
0
0
0
0
0
0
0
0
0
0
0
0
0
0
0
0
0
0
0
0
0
0
0
0
0
0
0
0
0
0
0
0
0
0
0
0
0
0
0
0
0
0
0
0
0
0
0
0
0
0
0
0
0
0
0
0
0
0
0
0
0
0
0
0
0
0
0
0
0
0
0
0
0
0
0
0
0
0
0
0
0
0
0
0
0
0
0
0
0
0
0
0
0
0
0
0
0
0
0
0
0
0
0
0
0
0
0
0
0
0
0
0
0
0
0
0
0
0
0
0
0
0
0
0
0
0
0
0
0
0
0
0
0
0
0
0
0
0
0
0
0
0
0
0
0
0
0
0
0
0
0
0
0
0
0
0
0
0
0
0
0
0
0
0
0
0
0
0
0
0
0
0
0
0
0
0
0
0
0
0
0
0
0
0
0
0
0
0
0
0
0
0
0
0
0
0
0
0
0
0
0
0
0
0
0
0
0
0
0
0
0
0
0
0
0
0
0
0
0
0
0
0
0
0
0
0
0
0
0
0
0
0
0
0
0
0
0
0
0
0
0
0
0
0
0
0
0
0
0
0
0
0
0
0
0
0
0
0
0
0
0
0
0
0
0
0
0
0
0
0
0
0
0
0
0
0
0
0
0
0
0
0
0
0
0
0
0
0
0
0
0
0
0
0
0
0
0
0
0
0
0
0
0
0
0
0
0
0
0
0
0
0
0
0
0
0
0
0
0
0
0
0
0
0
0
0
0
0
0
0
0
0
0
0
0
0
0
0
0
0
0
0
0
0
0
0
0
0
0
0
0
0
0
0
0
0
0
0
0
0
0
0
0
0
0
0
0
0
0
0
0
0
0
0
0
0
0
0
0
0
0
0
0
0
0
0
0
0
0
0
0
0
0
0
0
0
0
0
0
0
0
0
0
0
0
0
0
0
0
0
0
0
0
0
0
0
0
0
0
0
0
0
0
0
0
0
0
0
0
0
0
0
0
0
0
0
0
0
0
0
0
0
0
0
0
0
0
0
0
0
0
0
0
0
0
0
0
0
0
0
0
0
0
0
0
0
0
0
0
0
0
0
0
0
0
0
0
0
0
0
0
0
0
0
0
0
0
0
0
0
0
0
0
0
0
0
0
0
0
0
0
0
0
0
0
0
0
0
0
0
0
0
0
0
0
0
0
0
0
0
0
254
254
255
255
255
255
255
255
254
255
255
255
255
255
255
254
254
254
254
254
254
254
254
255
255
254
254
254
0
0
0
0
0
0
0
0
0
0
0
0
0
0
0
0
0
0
0
0
0
0
0
0
0
0
0
0
0
0
0
0
0
0
0
0
0
0
0
0
0
0
0
0
0
0
0
0
0
0
0
0
0
0
0
0
0
0
0
0
0
0
0
0
0
0
0
0
0
0
0
0
0
0
0
0
0
0
0
0
0
0
0
0
0
0
0
0
0
0
0
0
0
0
0
0
0
0
0
0
0
0
0
0
0
0
0
0
0
0
0
0
0
0
0
0
0
0
0
0
0
0
0
0
0
0
0
0
0
0
0
0
0
0
0
0
0
0
0
0
0
0
0
0
0
0
0
0
0
0
0
0
0
0
0
0
0
0
0
0
0
0
0
0
0
0
0
0
0
0
0
0
0
0
0
0
0
0
0
0
0
0
0
0
0
0
0
0
0
0
0
0
0
0
0
0
0
0
0
0
0
0
0
0
0
0
0
0
0
0
0
0
0
0
0
0
0
0
0
0
0
0
0
0
0
0
0
0
0
0
0
0
0
0
0
0
0
0
0
0
0
0
0
0
0
0
0
0
0
0
0
0
0
0
0
0
0
0
0
0
0
0
0
0
0
0
0
0
0
0
0
0
0
0
0
0
0
0
0
0
0
0
0
0
0
0
0
0
0
0
0
0
0
0
0
0
0
0
0
0
0
0
0
0
0
0
0
0
0
0
0
0
0
0
0
0
0
0
0
0
0
0
0
0
0
0
0
0
0
0
0
0
0
0
0
0
0
0
0
0
0
0
0
0
0
0
0
0
0
0
0
0
0
0
0
0
0
0
0
0
0
0
0
0
0
0
0
0
0
0
0
0
0
0
0
0
0
0
0
0
0
0
0
0
0
0
0
0
0
0
0
0
0
0
0
0
0
0
0
0
0
0
0
0
0
0
0
0
0
0
0
0
0
0
0
0
0
0
0
0
0
0
0
0
0
0
0
0
0
0
0
0
0
0
0
0
0
0
0
0
0
0
0
0
0
0
0
0
0
0
0
0
0
0
0
0
0
0
0
0
0
0
0
0
0
0
0
0
0
0
0
0
0
0
0
0
0
0
0
0
0
0
0
0
0
0
0
0
0
0
0
0
0
0
0
0
0
0
0
0
0
0
0
0
0
0
0
0
0
0
0
0
0
0
0
0
0
0
0
0
0
0
0
0
0
0
0
0
0
0
0
0
0
0
0
0
0
0
0
0
0
0
254
254
254
255
255
255
255
255
255
255
255
255
255
255
255
254
254
254
254
255
255
254
254
254
255
255
255
254
254
0
0
0
0
0
0
0
0
0
0
0
0
0
0
0
0
0
0
0
0
0
0
0
0
0
0
0
0
0
0
0
0
0
0
0
0
0
0
0
0
0
0
0
0
0
0
0
0
0
0
0
0
0
0
0
0
0
0
0
0
0
0
0
0
0
0
0
0
0
0
0
0
0
0
0
0
0
0
0
0
0
0
0
0
0
0
0
0
0
0
0
0
0
0
0
0
0
0
0
0
0
0
0
0
0
0
0
0
0
0
0
0
0
0
0
0
0
0
0
0
0
0
0
0
0
0
0
0
0
0
0
0
0
0
0
0
0
0
0
0
0
0
0
0
0
0
0
0
0
0
0
0
0
0
0
0
0
0
0
0
0
0
0
0
0
0
0
0
0
0
0
0
0
0
0
0
0
0
0
0
0
0
0
0
0
0
0
0
0
0
0
0
0
0
0
0
0
0
0
0
0
0
0
0
0
0
0
0
0
0
0
0
0
0
0
0
0
0
0
0
0
0
0
0
0
0
0
0
0
0
0
0
0
0
0
0
0
0
0
0
0
0
0
0
0
0
0
0
0
0
0
0
0
0
0
0
0
0
0
0
0
0
0
0
0
0
0
0
0
0
0
0
0
0
0
0
0
0
0
0
0
0
0
0
0
0
0
0
0
0
0
0
0
0
0
0
0
0
0
0
0
0
0
0
0
0
0
0
0
0
0
0
0
0
0
0
0
0
0
0
0
0
0
0
0
0
0
0
0
0
0
0
0
0
0
0
0
0
0
0
0
0
0
0
0
0
0
0
0
0
0
0
0
0
0
0
0
0
0
0
0
0
0
0
0
0
0
0
0
0
0
0
0
0
0
0
0
0
0
0
0
0
0
0
0
0
0
0
0
0
0
0
0
0
0
0
0
0
0
0
0
0
0
0
0
0
0
0
0
0
0
0
0
0
0
0
0
0
0
0
0
0
0
0
0
0
0
0
0
0
0
0
0
0
0
0
0
0
0
0
0
0
0
0
0
0
0
0
0
0
0
0
0
0
0
0
0
0
0
0
0
0
0
0
0
0
0
0
0
0
0
0
0
0
0
0
0
0
0
0
0
0
0
0
0
0
0
0
0
0
0
0
0
0
0
0
0
0
0
0
0
0
0
0
0
0
0
0
0
0
0
0
0
0
0
0
0
0
0
0
0
0
0
0
0
0
0
0
0
0
0
0
0
0
0
0
0
0
0
0
0
255
254
254
254
255
255
255
255
254
254
255
255
255
255
255
254
254
254
255
255
255
255
254
254
254
254
254
255
254
254
0
0
0
0
0
0
0
0
0
0
0
0
0
0
0
0
0
0
0
0
0
0
0
0
0
0
0
0
0
0
0
0
0
0
0
0
0
0
0
0
0
0
0
0
0
0
0
0
0
0
0
0
0
0
0
0
0
0
0
0
0
0
0
0
0
0
0
0
0
0
0
0
0
0
0
0
0
0
0
0
0
0
0
0
0
0
0
0
0
0
0
0
0
0
0
0
0
0
0
0
0
0
0
0
0
0
0
0
0
0
0
0
0
0
0
0
0
0
0
0
0
0
0
0
0
0
0
0
0
0
0
0
0
0
0
0
0
0
0
0
0
0
0
0
0
0
0
0
0
0
0
0
0
0
0
0
0
0
0
0
0
0
0
0
0
0
0
0
0
0
0
0
0
0
0
0
0
0
0
0
0
0
0
0
0
0
0
0
0
0
0
0
0
0
0
0
0
0
0
0
0
0
0
0
0
0
0
0
0
0
0
0
0
0
0
0
0
0
0
0
0
0
0
0
0
0
0
0
0
0
0
0
0
0
0
0
0
0
0
0
0
0
0
0
0
0
0
0
0
0
0
0
0
0
0
0
0
0
0
0
0
0
0
0
0
0
0
0
0
0
0
0
0
0
0
0
0
0
0
0
0
0
0
0
0
0
0
0
0
0
0
0
0
0
0
0
0
0
0
0
0
0
0
0
0
0
0
0
0
0
0
0
0
0
0
0
0
0
0
0
0
0
0
0
0
0
0
0
0
0
0
0
0
0
0
0
0
0
0
0
0
0
0
0
0
0
0
0
0
0
0
0
0
0
0
0
0
0
0
0
0
0
0
0
0
0
0
0
0
0
0
0
0
0
0
0
0
0
0
0
0
0
0
0
0
0
0
0
0
0
0
0
0
0
0
0
0
0
0
0
0
0
0
0
0
0
0
0
0
0
0
0
0
0
0
0
0
0
0
0
0
0
0
0
0
0
0
0
0
0
0
0
0
0
0
0
0
0
0
0
0
0
0
0
0
0
0
0
0
0
0
0
0
0
0
0
0
0
0
0
0
0
0
0
0
0
0
0
0
0
0
0
0
0
0
0
0
0
0
0
0
0
0
0
0
0
0
0
0
0
0
0
0
0
0
0
0
0
0
0
0
0
0
0
0
0
0
0
0
0
0
0
0
0
0
0
0
0
0
0
0
0
0
0
0
0
0
0
0
0
0
0
0
0
0
0
0
0
0
0
254
255
254
254
254
255
255
255
255
254
254
255
255
255
255
255
255
255
255
254
254
254
254
254
254
254
254
255
254
254
254
0
0
0
0
0
0
0
0
0
0
0
0
0
0
0
0
0
0
0
0
0
0
0
0
0
0
0
0
0
0
0
0
0
0
0
0
0
0
0
0
0
0
0
0
0
0
0
0
0
0
0
0
0
0
0
0
0
0
0
0
0
0
0
0
0
0
0
0
0
0
0
0
0
0
0
0
0
0
0
0
0
0
0
0
0
0
0
0
0
0
0
0
0
0
0
0
0
0
0
0
0
0
0
0
0
0
0
0
0
0
0
0
0
0
0
0
0
0
0
0
0
0
0
0
0
0
0
0
0
0
0
0
0
0
0
0
0
0
0
0
0
0
0
0
0
0
0
0
0
0
0
0
0
0
0
0
0
0
0
0
0
0
0
0
0
0
0
0
0
0
0
0
0
0
0
0
0
0
0
0
0
0
0
0
0
0
0
0
0
0
0
0
0
0
0
0
0
0
0
0
0
0
0
0
0
0
0
0
0
0
0
0
0
0
0
0
0
0
0
0
0
0
0
0
0
0
0
0
0
0
0
0
0
0
0
0
0
0
0
0
0
0
0
0
0
0
0
0
0
0
0
0
0
0
0
0
0
0
0
0
0
0
0
0
0
0
0
0
0
0
0
0
0
0
0
0
0
0
0
0
0
0
0
0
0
0
0
0
0
0
0
0
0
0
0
0
0
0
0
0
0
0
0
0
0
0
0
0
0
0
0
0
0
0
0
0
0
0
0
0
0
0
0
0
0
0
0
0
0
0
0
0
0
0
0
0
0
0
0
0
0
0
0
0
0
0
0
0
0
0
0
0
0
0
0
0
0
0
0
0
0
0
0
0
0
0
0
0
0
0
0
0
0
0
0
0
0
0
0
0
0
0
0
0
0
0
0
0
0
0
0
0
0
0
0
0
0
0
0
0
0
0
0
0
0
0
0
0
0
0
0
0
0
0
0
0
0
0
0
0
0
0
0
0
0
0
0
0
0
0
0
0
0
0
0
0
0
0
0
0
0
0
0
0
0
0
0
0
0
0
0
0
0
0
0
0
0
0
0
0
0
0
0
0
0
0
0
0
0
0
0
0
0
0
0
0
0
0
0
0
0
0
0
0
0
0
0
0
0
0
0
0
0
0
0
0
0
0
0
0
0
0
0
0
0
0
0
0
0
0
0
0
0
0
0
0
0
0
0
0
0
0
0
0
0
0
0
0
0
0
0
0
0
0
0
0
0
0
0
254
254
255
254
254
254
255
255
255
255
254
254
255
255
255
255
255
255
254
254
254
254
254
255
254
254
254
255
255
255
254
254
0
0
0
0
0
0
0
0
0
0
0
0
0
0
0
0
0
0
0
0
0
0
0
0
0
0
0
0
0
0
0
0
0
0
0
0
0
0
0
0
0
0
0
0
0
0
0
0
0
0
0
0
0
0
0
0
0
0
0
0
0
0
0
0
0
0
0
0
0
0
0
0
0
0
0
0
0
0
0
0
0
0
0
0
0
0
0
0
0
0
0
0
0
0
0
0
0
0
0
0
0
0
0
0
0
0
0
0
0
0
0
0
0
0
0
0
0
0
0
0
0
0
0
0
0
0
0
0
0
0
0
0
0
0
0
0
0
0
0
0
0
0
0
0
0
0
0
0
0
0
0
0
0
0
0
0
0
0
0
0
0
0
0
0
0
0
0
0
0
0
0
0
0
0
0
0
0
0
0
0
0
0
0
0
0
0
0
0
0
0
0
0
0
0
0
0
0
0
0
0
0
0
0
0
0
0
0
0
0
0
0
0
0
0
0
0
0
0
0
0
0
0
0
0
0
0
0
0
0
0
0
0
0
0
0
0
0
0
0
0
0
0
0
0
0
0
0
0
0
0
0
0
0
0
0
0
0
0
0
0
0
0
0
0
0
0
0
0
0
0
0
0
0
0
0
0
0
0
0
0
0
0
0
0
0
0
0
0
0
0
0
0
0
0
0
0
0
0
0
0
0
0
0
0
0
0
0
0
0
0
0
0
0
0
0
0
0
0
0
0
0
0
0
0
0
0
0
0
0
0
0
0
0
0
0
0
0
0
0
0
0
0
0
0
0
0
0
0
0
0
0
0
0
0
0
0
0
0
0
0
0
0
0
0
0
0
0
0
0
0
0
0
0
0
0
0
0
0
0
0
0
0
0
0
0
0
0
0
0
0
0
0
0
0
0
0
0
0
0
0
0
0
0
0
0
0
0
0
0
0
0
0
0
0
0
0
0
0
0
0
0
0
0
0
0
0
0
0
0
0
0
0
0
0
0
0
0
0
0
0
0
0
0
0
0
0
0
0
0
0
0
0
0
0
0
0
0
0
0
0
0
0
0
0
0
0
0
0
0
0
0
0
0
0
0
0
0
0
0
0
0
0
0
0
0
0
0
0
0
0
0
0
0
0
0
0
0
0
0
0
0
0
0
0
0
0
0
0
0
0
0
0
0
0
0
0
0
0
0
0
0
0
0
0
0
0
0
0
0
0
0
0
0
0
0
0
0
0
254
254
254
255
254
254
254
255
255
255
255
254
254
255
255
255
255
254
254
255
254
254
254
255
255
254
254
254
254
254
254
254
254
0
0
0
0
0
0
0
0
0
0
0
0
0
0
0
0
0
0
0
0
0
0
0
0
0
0
0
0
0
0
0
0
0
0
0
0
0
0
0
0
0
0
0
0
0
0
0
0
0
0
0
0
0
0
0
0
0
0
0
0
0
0
0
0
0
0
0
0
0
0
0
0
0
0
0
0
0
0
0
0
0
0
0
0
0
0
0
0
0
0
0
0
0
0
0
0
0
0
0
0
0
0
0
0
0
0
0
0
0
0
0
0
0
0
0
0
0
0
0
0
0
0
0
0
0
0
0
0
0
0
0
0
0
0
0
0
0
0
0
0
0
0
0
0
0
0
0
0
0
0
0
0
0
0
0
0
0
0
0
0
0
0
0
0
0
0
0
0
0
0
0
0
0
0
0
0
0
0
0
0
0
0
0
0
0
0
0
0
0
0
0
0
0
0
0
0
0
0
0
0
0
0
0
0
0
0
0
0
0
0
0
0
0
0
0
0
0
0
0
0
0
0
0
0
0
0
0
0
0
0
0
0
0
0
0
0
0
0
0
0
0
0
0
0
0
0
0
0
0
0
0
0
0
0
0
0
0
0
0
0
0
0
0
0
0
0
0
0
0
0
0
0
0
0
0
0
0
0
0
0
0
0
0
0
0
0
0
0
0
0
0
0
0
0
0
0
0
0
0
0
0
0
0
0
0
0
0
0
0
0
0
0
0
0
0
0
0
0
0
0
0
0
0
0
0
0
0
0
0
0
0
0
0
0
0
0
0
0
0
0
0
0
0
0
0
0
0
0
0
0
0
0
0
0
0
0
0
0
0
0
0
0
0
0
0
0
0
0
0
0
0
0
0
0
0
0
0
0
0
0
0
0
0
0
0
0
0
0
0
0
0
0
0
0
0
0
0
0
0
0
0
0
0
0
0
0
0
0
0
0
0
0
0
0
0
0
0
0
0
0
0
0
0
0
0
0
0
0
0
0
0
0
0
0
0
0
0
0
0
0
0
0
0
0
0
0
0
0
0
0
0
0
0
0
0
0
0
0
0
0
0
0
0
0
0
0
0
0
0
0
0
0
0
0
0
0
0
0
0
0
0
0
0
0
0
0
0
0
0
0
0
0
0
0
0
0
0
0
0
0
0
0
0
0
0
0
0
0
0
0
0
0
0
0
0
0
0
0
0
0
0
0
0
0
0
0
0
0
0
0
0
0
0
0
0
0
0
255
254
254
254
254
254
254
254
254
255
255
255
254
254
255
255
255
255
254
255
255
254
254
254
254
254
254
254
254
254
254
254
254
254
0
0
0
0
0
0
0
0
0
0
0
0
0
0
0
0
0
0
0
0
0
0
0
0
0
0
0
0
0
0
0
0
0
0
0
0
0
0
0
0
0
0
0
0
0
0
0
0
0
0
0
0
0
0
0
0
0
0
0
0
0
0
0
0
0
0
0
0
0
0
0
0
0
0
0
0
0
0
0
0
0
0
0
0
0
0
0
0
0
0
0
0
0
0
0
0
0
0
0
0
0
0
0
0
0
0
0
0
0
0
0
0
0
0
0
0
0
0
0
0
0
0
0
0
0
0
0
0
0
0
0
0
0
0
0
0
0
0
0
0
0
0
0
0
0
0
0
0
0
0
0
0
0
0
0
0
0
0
0
0
0
0
0
0
0
0
0
0
0
0
0
0
0
0
0
0
0
0
0
0
0
0
0
0
0
0
0
0
0
0
0
0
0
0
0
0
0
0
0
0
0
0
0
0
0
0
0
0
0
0
0
0
0
0
0
0
0
0
0
0
0
0
0
0
0
0
0
0
0
0
0
0
0
0
0
0
0
0
0
0
0
0
0
0
0
0
0
0
0
0
0
0
0
0
0
0
0
0
0
0
0
0
0
0
0
0
0
0
0
0
0
0
0
0
0
0
0
0
0
0
0
0
0
0
0
0
0
0
0
0
0
0
0
0
0
0
0
0
0
0
0
0
0
0
0
0
0
0
0
0
0
0
0
0
0
0
0
0
0
0
0
0
0
0
0
0
0
0
0
0
0
0
0
0
0
0
0
0
0
0
0
0
0
0
0
0
0
0
0
0
0
0
0
0
0
0
0
0
0
0
0
0
0
0
0
0
0
0
0
0
0
0
0
0
0
0
0
0
0
0
0
0
0
0
0
0
0
0
0
0
0
0
0
0
0
0
0
0
0
0
0
0
0
0
0
0
0
0
0
0
0
0
0
0
0
0
0
0
0
0
0
0
0
0
0
0
0
0
0
0
0
0
0
0
0
0
0
0
0
0
0
0
0
0
0
0
0
0
0
0
0
0
0
0
0
0
0
0
0
0
0
0
0
0
0
0
0
0
0
0
0
0
0
0
0
0
0
0
0
0
0
0
0
0
0
0
0
0
0
0
0
0
0
0
0
0
0
0
0
0
0
0
0
0
0
0
0
0
0
0
0
0
0
0
0
0
0
0
0
0
0
0
0
0
0
0
0
0
0
0
0
0
0
0
0
0
254
255
254
254
254
255
254
254
254
255
255
255
255
254
254
255
255
255
254
254
254
254
254
254
254
254
254
254
254
254
254
254
254
254
254
0
0
0
0
0
0
0
0
0
0
0
0
0
0
0
0
0
0
0
0
0
0
0
0
0
0
0
0
0
0
0
0
0
0
0
0
0
0
0
0
0
0
0
0
0
0
0
0
0
0
0
0
0
0
0
0
0
0
0
0
0
0
0
0
0
0
0
0
0
0
0
0
0
0
0
0
0
0
0
0
0
0
0
0
0
0
0
0
0
0
0
0
0
0
0
0
0
0
0
0
0
0
0
0
0
0
0
0
0
0
0
0
0
0
0
0
0
0
0
0
0
0
0
0
0
0
0
0
0
0
0
0
0
0
0
0
0
0
0
0
0
0
0
0
0
0
0
0
0
0
0
0
0
0
0
0
0
0
0
0
0
0
0
0
0
0
0
0
0
0
0
0
0
0
0
0
0
0
0
0
0
0
0
0
0
0
0
0
0
0
0
0
0
0
0
0
0
0
0
0
0
0
0
0
0
0
0
0
0
0
0
0
0
0
0
0
0
0
0
0
0
0
0
0
0
0
0
0
0
0
0
0
0
0
0
0
0
0
0
0
0
0
0
0
0
0
0
0
0
0
0
0
0
0
0
0
0
0
0
0
0
0
0
0
0
0
0
0
0
0
0
0
0
0
0
0
0
0
0
0
0
0
0
0
0
0
0
0
0
0
0
0
0
0
0
0
0
0
0
0
0
0
0
0
0
0
0
0
0
0
0
0
0
0
0
0
0
0
0
0
0
0
0
0
0
0
0
0
0
0
0
0
0
0
0
0
0
0
0
0
0
0
0
0
0
0
0
0
0
0
0
0
0
0
0
0
0
0
0
0
0
0
0
0
0
0
0
0
0
0
0
0
0
0
0
0
0
0
0
0
0
0
0
0
0
0
0
0
0
0
0
0
0
0
0
0
0
0
0
0
0
0
0
0
0
0
0
0
0
0
0
0
0
0
0
0
0
0
0
0
0
0
0
0
0
0
0
0
0
0
0
0
0
0
0
0
0
0
0
0
0
0
0
0
0
0
0
0
0
0
0
0
0
0
0
0
0
0
0
0
0
0
0
0
0
0
0
0
0
0
0
0
0
0
0
0
0
0
0
0
0
0
0
0
0
0
0
0
0
0
0
0
0
0
0
0
0
0
0
0
0
0
0
0
0
0
0
0
0
0
0
0
0
0
0
0
0
0
0
0
0
0
0
0
0
0
0
0
0
0
0
0
0
0
0
254
255
255
254
254
254
254
254
254
254
255
255
255
255
255
255
255
255
255
254
254
254
254
254
254
254
254
254
254
254
254
254
254
254
254
254
0
0
0
0
0
0
0
0
0
0
0
0
0
0
0
0
0
0
0
0
0
0
0
0
0
0
0
0
0
0
0
0
0
0
0
0
0
0
0
0
0
0
0
0
0
0
0
0
0
0
0
0
0
0
0
0
0
0
0
0
0
0
0
0
0
0
0
0
0
0
0
0
0
0
0
0
0
0
0
0
0
0
0
0
0
0
0
0
0
0
0
0
0
0
0
0
0
0
0
0
0
0
0
0
0
0
0
0
0
0
0
0
0
0
0
0
0
0
0
0
0
0
0
0
0
0
0
0
0
0
0
0
0
0
0
0
0
0
0
0
0
0
0
0
0
0
0
0
0
0
0
0
0
0
0
0
0
0
0
0
0
0
0
0
0
0
0
0
0
0
0
0
0
0
0
0
0
0
0
0
0
0
0
0
0
0
0
0
0
0
0
0
0
0
0
0
0
0
0
0
0
0
0
0
0
0
0
0
0
0
0
0
0
0
0
0
0
0
0
0
0
0
0
0
0
0
0
0
0
0
0
0
0
0
0
0
0
0
0
0
0
0
0
0
0
0
0
0
0
0
0
0
0
0
0
0
0
0
0
0
0
0
0
0
0
0
0
0
0
0
0
0
0
0
0
0
0
0
0
0
0
0
0
0
0
0
0
0
0
0
0
0
0
0
0
0
0
0
0
0
0
0
0
0
0
0
0
0
0
0
0
0
0
0
0
0
0
0
0
0
0
0
0
0
0
0
0
0
0
0
0
0
0
0
0
0
0
0
0
0
0
0
0
0
0
0
0
0
0
0
0
0
0
0
0
0
0
0
0
0
0
0
0
0
0
0
0
0
0
0
0
0
0
0
0
0
0
0
0
0
0
0
0
0
0
0
0
0
0
0
0
0
0
0
0
0
0
0
0
0
0
0
0
0
0
0
0
0
0
0
0
0
0
0
0
0
0
0
0
0
0
0
0
0
0
0
0
0
0
0
0
0
0
0
0
0
0
0
0
0
0
0
0
0
0
0
0
0
0
0
0
0
0
0
0
0
0
0
0
0
0
0
0
0
0
0
0
0
0
0
0
0
0
0
0
0
0
0
0
0
0
0
0
0
0
0
0
0
0
0
0
0
0
0
0
0
0
0
0
0
0
0
0
0
0
0
0
0
0
0
0
0
0
0
0
0
0
0
0
0
0
0
0
0
0
0
0
0
0
0
0
0
0
0
255
255
255
254
254
254
254
254
254
254
254
255
255
255
255
255
255
255
255
255
254
254
255
255
254
254
254
254
254
254
254
254
255
255
254
254
254
0
0
0
0
0
0
0
0
0
0
0
0
0
0
0
0
0
0
0
0
0
0
0
0
0
0
0
0
0
0
0
0
0
0
0
0
0
0
0
0
0
0
0
0
0
0
0
0
0
0
0
0
0
0
0
0
0
0
0
0
0
0
0
0
0
0
0
0
0
0
0
0
0
0
0
0
0
0
0
0
0
0
0
0
0
0
0
0
0
0
0
0
0
0
0
0
0
0
0
0
0
0
0
0
0
0
0
0
0
0
0
0
0
0
0
0
0
0
0
0
0
0
0
0
0
0
0
0
0
0
0
0
0
0
0
0
0
0
0
0
0
0
0
0
0
0
0
0
0
0
0
0
0
0
0
0
0
0
0
0
0
0
0
0
0
0
0
0
0
0
0
0
0
0
0
0
0
0
0
0
0
0
0
0
0
0
0
0
0
0
0
0
0
0
0
0
0
0
0
0
0
0
0
0
0
0
0
0
0
0
0
0
0
0
0
0
0
0
0
0
0
0
0
0
0
0
0
0
0
0
0
0
0
0
0
0
0
0
0
0
0
0
0
0
0
0
0
0
0
0
0
0
0
0
0
0
0
0
0
0
0
0
0
0
0
0
0
0
0
0
0
0
0
0
0
0
0
0
0
0
0
0
0
0
0
0
0
0
0
0
0
0
0
0
0
0
0
0
0
0
0
0
0
0
0
0
0
0
0
0
0
0
0
0
0
0
0
0
0
0
0
0
0
0
0
0
0
0
0
0
0
0
0
0
0
0
0
0
0
0
0
0
0
0
0
0
0
0
0
0
0
0
0
0
0
0
0
0
0
0
0
0
0
0
0
0
0
0
0
0
0
0
0
0
0
0
0
0
0
0
0
0
0
0
0
0
0
0
0
0
0
0
0
0
0
0
0
0
0
0
0
0
0
0
0
0
0
0
0
0
0
0
0
0
0
0
0
0
0
0
0
0
0
0
0
0
0
0
0
0
0
0
0
0
0
0
0
0
0
0
0
0
0
0
0
0
0
0
0
0
0
0
0
0
0
0
0
0
0
0
0
0
0
0
0
0
0
0
0
0
0
0
0
0
0
0
0
0
0
0
0
0
0
0
0
0
0
0
0
0
0
0
0
0
0
0
0
0
0
0
0
0
0
0
0
0
0
0
0
0
0
0
0
0
0
0
0
0
0
0
0
0
0
0
0
0
0
0
0
0
0
0
0
251
255
254
254
254
254
254
254
254
254
255
255
255
255
255
255
254
254
255
254
254
254
254
253
254
254
254
254
254
254
254
254
254
255
255
255
254
254
0
0
0
0
0
0
0
0
0
0
0
0
0
0
0
0
0
0
0
0
0
0
0
0
0
0
0
0
0
0
0
0
0
0
0
0
0
0
0
0
0
0
0
0
0
0
0
0
0
0
0
0
0
0
0
0
0
0
0
0
0
0
0
0
0
0
0
0
0
0
0
0
0
0
0
0
0
0
0
0
0
0
0
0
0
0
0
0
0
0
0
0
0
0
0
0
0
0
0
0
0
0
0
0
0
0
0
0
0
0
0
0
0
0
0
0
0
0
0
0
0
0
0
0
0
0
0
0
0
0
0
0
0
0
0
0
0
0
0
0
0
0
0
0
0
0
0
0
0
0
0
0
0
0
0
0
0
0
0
0
0
0
0
0
0
0
0
0
0
0
0
0
0
0
0
0
0
0
0
0
0
0
0
0
0
0
0
0
0
0
0
0
0
0
0
0
0
0
0
0
0
0
0
0
0
0
0
0
0
0
0
0
0
0
0
0
0
0
0
0
0
0
0
0
0
0
0
0
0
0
0
0
0
0
0
0
0
0
0
0
0
0
0
0
0
0
0
0
0
0
0
0
0
0
0
0
0
0
0
0
0
0
0
0
0
0
0
0
0
0
0
0
0
0
0
0
0
0
0
0
0
0
0
0
0
0
0
0
0
0
0
0
0
0
0
0
0
0
0
0
0
0
0
0
0
0
0
0
0
0
0
0
0
0
0
0
0
0
0
0
0
0
0
0
0
0
0
0
0
0
0
0
0
0
0
0
0
0
0
0
0
0
0
0
0
0
0
0
0
0
0
0
0
0
0
0
0
0
0
0
0
0
0
0
0
0
0
0
0
0
0
0
0
0
0
0
0
0
0
0
0
0
0
0
0
0
0
0
0
0
0
0
0
0
0
0
0
0
0
0
0
0
0
0
0
0
0
0
0
0
0
0
0
0
0
0
0
0
0
0
0
0
0
0
0
0
0
0
0
0
0
0
0
0
0
0
0
0
0
0
0
0
0
0
0
0
0
0
0
0
0
0
0
0
0
0
0
0
0
0
0
0
0
0
0
0
0
0
0
0
0
0
0
0
0
0
0
0
0
0
0
0
0
0
0
0
0
0
0
0
0
0
0
0
0
0
0
0
0
0
0
0
0
0
0
0
0
0
0
0
0
0
0
0
0
0
0
0
0
0
0
0
0
0
0
0
0
0
0
0
0
0
251
255
254
254
254
255
254
254
254
254
255
254
255
255
255
255
254
254
254
254
254
254
254
255
254
254
254
254
254
254
254
254
254
254
255
255
255
254
254
0
0
0
0
0
0
0
0
0
0
0
0
0
0
0
0
0
0
0
0
0
0
0
0
0
0
0
0
0
0
0
0
0
0
0
0
0
0
0
0
0
0
0
0
0
0
0
0
0
0
0
0
0
0
0
0
0
0
0
0
0
0
0
0
0
0
0
0
0
0
0
0
0
0
0
0
0
0
0
0
0
0
0
0
0
0
0
0
0
0
0
0
0
0
0
0
0
0
0
0
0
0
0
0
0
0
0
0
0
0
0
0
0
0
0
0
0
0
0
0
0
0
0
0
0
0
0
0
0
0
0
0
0
0
0
0
0
0
0
0
0
0
0
0
0
0
0
0
0
0
0
0
0
0
0
0
0
0
0
0
0
0
0
0
0
0
0
0
0
0
0
0
0
0
0
0
0
0
0
0
0
0
0
0
0
0
0
0
0
0
0
0
0
0
0
0
0
0
0
0
0
0
0
0
0
0
0
0
0
0
0
0
0
0
0
0
0
0
0
0
0
0
0
0
0
0
0
0
0
0
0
0
0
0
0
0
0
0
0
0
0
0
0
0
0
0
0
0
0
0
0
0
0
0
0
0
0
0
0
0
0
0
0
0
0
0
0
0
0
0
0
0
0
0
0
0
0
0
0
0
0
0
0
0
0
0
0
0
0
0
0
0
0
0
0
0
0
0
0
0
0
0
0
0
0
0
0
0
0
0
0
0
0
0
0
0
0
0
0
0
0
0
0
0
0
0
0
0
0
0
0
0
0
0
0
0
0
0
0
0
0
0
0
0
0
0
0
0
0
0
0
0
0
0
0
0
0
0
0
0
0
0
0
0
0
0
0
0
0
0
0
0
0
0
0
0
0
0
0
0
0
0
0
0
0
0
0
0
0
0
0
0
0
0
0
0
0
0
0
0
0
0
0
0
0
0
0
0
0
0
0
0
0
0
0
0
0
0
0
0
0
0
0
0
0
0
0
0
0
0
0
0
0
0
0
0
0
0
0
0
0
0
0
0
0
0
0
0
0
0
0
0
0
0
0
0
0
0
0
0
0
0
0
0
0
0
0
0
0
0
0
0
0
0
0
0
0
0
0
0
0
0
0
0
0
0
0
0
0
0
0
0
0
0
0
0
0
0
0
0
0
0
0
0
0
0
0
0
0
0
0
0
0
0
0
0
0
0
0
0
0
0
0
0
0
0
0
0
0
0
0
255
254
254
255
255
255
255
254
254
254
254
255
255
255
255
255
255
254
254
254
254
254
254
254
255
254
254
254
255
255
254
254
254
254
254
255
255
254
254
254
0
0
0
0
0
0
0
0
0
0
0
0
0
0
0
0
0
0
0
0
0
0
0
0
0
0
0
0
0
0
0
0
0
0
0
0
0
0
0
0
0
0
0
0
0
0
0
0
0
0
0
0
0
0
0
0
0
0
0
0
0
0
0
0
0
0
0
0
0
0
0
0
0
0
0
0
0
0
0
0
0
0
0
0
0
0
0
0
0
0
0
0
0
0
0
0
0
0
0
0
0
0
0
0
0
0
0
0
0
0
0
0
0
0
0
0
0
0
0
0
0
0
0
0
0
0
0
0
0
0
0
0
0
0
0
0
0
0
0
0
0
0
0
0
0
0
0
0
0
0
0
0
0
0
0
0
0
0
0
0
0
0
0
0
0
0
0
0
0
0
0
0
0
0
0
0
0
0
0
0
0
0
0
0
0
0
0
0
0
0
0
0
0
0
0
0
0
0
0
0
0
0
0
0
0
0
0
0
0
0
0
0
0
0
0
0
0
0
0
0
0
0
0
0
0
0
0
0
0
0
0
0
0
0
0
0
0
0
0
0
0
0
0
0
0
0
0
0
0
0
0
0
0
0
0
0
0
0
0
0
0
0
0
0
0
0
0
0
0
0
0
0
0
0
0
0
0
0
0
0
0
0
0
0
0
0
0
0
0
0
0
0
0
0
0
0
0
0
0
0
0
0
0
0
0
0
0
0
0
0
0
0
0
0
0
0
0
0
0
0
0
0
0
0
0
0
0
0
0
0
0
0
0
0
0
0
0
0
0
0
0
0
0
0
0
0
0
0
0
0
0
0
0
0
0
0
0
0
0
0
0
0
0
0
0
0
0
0
0
0
0
0
0
0
0
0
0
0
0
0
0
0
0
0
0
0
0
0
0
0
0
0
0
0
0
0
0
0
0
0
0
0
0
0
0
0
0
0
0
0
0
0
0
0
0
0
0
0
0
0
0
0
0
0
0
0
0
0
0
0
0
0
0
0
0
0
0
0
0
0
0
0
0
0
0
0
0
0
0
0
0
0
0
0
0
0
0
0
0
0
0
0
0
0
0
0
0
0
0
0
0
0
0
0
0
0
0
0
0
0
0
0
0
0
0
0
0
0
0
0
0
0
0
0
0
0
0
0
0
0
0
0
0
0
0
0
0
0
0
0
0
0
0
0
0
0
0
0
0
0
0
0
0
0
0
0
0
0
0
0
254
253
252
255
255
255
255
254
254
255
255
255
255
255
254
255
255
254
254
254
255
255
254
254
255
255
254
254
255
255
255
255
255
254
254
254
255
255
254
254
254
0
0
0
0
0
0
0
0
0
0
0
0
0
0
0
0
0
0
0
0
0
0
0
0
0
0
0
0
0
0
0
0
0
0
0
0
0
0
0
0
0
0
0
0
0
0
0
0
0
0
0
0
0
0
0
0
0
0
0
0
0
0
0
0
0
0
0
0
0
0
0
0
0
0
0
0
0
0
0
0
0
0
0
0
0
0
0
0
0
0
0
0
0
0
0
0
0
0
0
0
0
0
0
0
0
0
0
0
0
0
0
0
0
0
0
0
0
0
0
0
0
0
0
0
0
0
0
0
0
0
0
0
0
0
0
0
0
0
0
0
0
0
0
0
0
0
0
0
0
0
0
0
0
0
0
0
0
0
0
0
0
0
0
0
0
0
0
0
0
0
0
0
0
0
0
0
0
0
0
0
0
0
0
0
0
0
0
0
0
0
0
0
0
0
0
0
0
0
0
0
0
0
0
0
0
0
0
0
0
0
0
0
0
0
0
0
0
0
0
0
0
0
0
0
0
0
0
0
0
0
0
0
0
0
0
0
0
0
0
0
0
0
0
0
0
0
0
0
0
0
0
0
0
0
0
0
0
0
0
0
0
0
0
0
0
0
0
0
0
0
0
0
0
0
0
0
0
0
0
0
0
0
0
0
0
0
0
0
0
0
0
0
0
0
0
0
0
0
0
0
0
0
0
0
0
0
0
0
0
0
0
0
0
0
0
0
0
0
0
0
0
0
0
0
0
0
0
0
0
0
0
0
0
0
0
0
0
0
0
0
0
0
0
0
0
0
0
0
0
0
0
0
0
0
0
0
0
0
0
0
0
0
0
0
0
0
0
0
0
0
0
0
0
0
0
0
0
0
0
0
0
0
0
0
0
0
0
0
0
0
0
0
0
0
0
0
0
0
0
0
0
0
0
0
0
0
0
0
0
0
0
0
0
0
0
0
0
0
0
0
0
0
0
0
0
0
0
0
0
0
0
0
0
0
0
0
0
0
0
0
0
0
0
0
0
0
0
0
0
0
0
0
0
0
0
0
0
0
0
0
0
0
0
0
0
0
0
0
0
0
0
0
0
0
0
0
0
0
0
0
0
0
0
0
0
0
0
0
0
0
0
0
0
0
0
0
0
0
0
0
0
0
0
0
0
0
0
0
0
0
0
0
0
0
0
0
0
0
0
0
0
0
0
0
0
0
0
0
0
254
254
255
255
255
255
255
255
255
255
254
254
255
255
255
253
255
254
254
255
255
255
255
254
254
255
254
255
255
255
255
255
255
254
254
254
254
255
255
254
254
254
0
0
0
0
0
0
0
0
0
0
0
0
0
0
0
0
0
0
0
0
0
0
0
0
0
0
0
0
0
0
0
0
0
0
0
0
0
0
0
0
0
0
0
0
0
0
0
0
0
0
0
0
0
0
0
0
0
0
0
0
0
0
0
0
0
0
0
0
0
0
0
0
0
0
0
0
0
0
0
0
0
0
0
0
0
0
0
0
0
0
0
0
0
0
0
0
0
0
0
0
0
0
0
0
0
0
0
0
0
0
0
0
0
0
0
0
0
0
0
0
0
0
0
0
0
0
0
0
0
0
0
0
0
0
0
0
0
0
0
0
0
0
0
0
0
0
0
0
0
0
0
0
0
0
0
0
0
0
0
0
0
0
0
0
0
0
0
0
0
0
0
0
0
0
0
0
0
0
0
0
0
0
0
0
0
0
0
0
0
0
0
0
0
0
0
0
0
0
0
0
0
0
0
0
0
0
0
0
0
0
0
0
0
0
0
0
0
0
0
0
0
0
0
0
0
0
0
0
0
0
0
0
0
0
0
0
0
0
0
0
0
0
0
0
0
0
0
0
0
0
0
0
0
0
0
0
0
0
0
0
0
0
0
0
0
0
0
0
0
0
0
0
0
0
0
0
0
0
0
0
0
0
0
0
0
0
0
0
0
0
0
0
0
0
0
0
0
0
0
0
0
0
0
0
0
0
0
0
0
0
0
0
0
0
0
0
0
0
0
0
0
0
0
0
0
0
0
0
0
0
0
0
0
0
0
0
0
0
0
0
0
0
0
0
0
0
0
0
0
0
0
0
0
0
0
0
0
0
0
0
0
0
0
0
0
0
0
0
0
0
0
0
0
0
0
0
0
0
0
0
0
0
0
0
0
0
0
0
0
0
0
0
0
0
0
0
0
0
0
0
0
0
0
0
0
0
0
0
0
0
0
0
0
0
0
0
0
0
0
0
0
0
0
0
0
0
0
0
0
0
0
0
0
0
0
0
0
0
0
0
0
0
0
0
0
0
0
0
0
0
0
0
0
0
0
0
0
0
0
0
0
0
0
0
0
0
0
0
0
0
0
0
0
0
0
0
0
0
0
0
0
0
0
0
0
0
0
0
0
0
0
0
0
0
0
0
0
0
0
0
0
0
0
0
0
0
0
0
0
0
0
0
0
0
0
0
0
0
0
0
0
0
0
0
0
0
0
0
254
250
254
252
253
253
255
255
255
255
254
254
254
254
254
255
254
255
255
255
255
255
255
255
255
255
254
254
255
255
254
254
254
255
254
254
254
254
255
255
254
254
254
0
0
0
0
0
0
0
0
0
0
0
0
0
0
0
0
0
0
0
0
0
0
0
0
0
0
0
0
0
0
0
0
0
0
0
0
0
0
0
0
0
0
0
0
0
0
0
0
0
0
0
0
0
0
0
0
0
0
0
0
0
0
0
0
0
0
0
0
0
0
0
0
0
0
0
0
0
0
0
0
0
0
0
0
0
0
0
0
0
0
0
0
0
0
0
0
0
0
0
0
0
0
0
0
0
0
0
0
0
0
0
0
0
0
0
0
0
0
0
0
0
0
0
0
0
0
0
0
0
0
0
0
0
0
0
0
0
0
0
0
0
0
0
0
0
0
0
0
0
0
0
0
0
0
0
0
0
0
0
0
0
0
0
0
0
0
0
0
0
0
0
0
0
0
0
0
0
0
0
0
0
0
0
0
0
0
0
0
0
0
0
0
0
0
0
0
0
0
0
0
0
0
0
0
0
0
0
0
0
0
0
0
0
0
0
0
0
0
0
0
0
0
0
0
0
0
0
0
0
0
0
0
0
0
0
0
0
0
0
0
0
0
0
0
0
0
0
0
0
0
0
0
0
0
0
0
0
0
0
0
0
0
0
0
0
0
0
0
0
0
0
0
0
0
0
0
0
0
0
0
0
0
0
0
0
0
0
0
0
0
0
0
0
0
0
0
0
0
0
0
0
0
0
0
0
0
0
0
0
0
0
0
0
0
0
0
0
0
0
0
0
0
0
0
0
0
0
0
0
0
0
0
0
0
0
0
0
0
0
0
0
0
0
0
0
0
0
0
0
0
0
0
0
0
0
0
0
0
0
0
0
0
0
0
0
0
0
0
0
0
0
0
0
0
0
0
0
0
0
0
0
0
0
0
0
0
0
0
0
0
0
0
0
0
0
0
0
0
0
0
0
0
0
0
0
0
0
0
0
0
0
0
0
0
0
0
0
0
0
0
0
0
0
0
0
0
0
0
0
0
0
0
0
0
0
0
0
0
0
0
0
0
0
0
0
0
0
0
0
0
0
0
0
0
0
0
0
0
0
0
0
0
0
0
0
0
0
0
0
0
0
0
0
0
0
0
0
0
0
0
0
0
0
0
0
0
0
0
0
0
0
0
0
0
0
0
0
0
0
0
0
0
0
0
0
0
0
0
0
0
0
0
0
0
0
0
0
0
0
0
0
0
0
0
0
0
0
235
248
254
253
253
253
254
255
255
255
254
254
254
254
255
255
255
253
254
255
255
255
255
254
254
255
255
254
255
255
255
254
254
254
255
255
254
254
255
255
255
254
254
254
0
0
0
0
0
0
0
0
0
0
0
0
0
0
0
0
0
0
0
0
0
0
0
0
0
0
0
0
0
0
0
0
0
0
0
0
0
0
0
0
0
0
0
0
0
0
0
0
0
0
0
0
0
0
0
0
0
0
0
0
0
0
0
0
0
0
0
0
0
0
0
0
0
0
0
0
0
0
0
0
0
0
0
0
0
0
0
0
0
0
0
0
0
0
0
0
0
0
0
0
0
0
0
0
0
0
0
0
0
0
0
0
0
0
0
0
0
0
0
0
0
0
0
0
0
0
0
0
0
0
0
0
0
0
0
0
0
0
0
0
0
0
0
0
0
0
0
0
0
0
0
0
0
0
0
0
0
0
0
0
0
0
0
0
0
0
0
0
0
0
0
0
0
0
0
0
0
0
0
0
0
0
0
0
0
0
0
0
0
0
0
0
0
0
0
0
0
0
0
0
0
0
0
0
0
0
0
0
0
0
0
0
0
0
0
0
0
0
0
0
0
0
0
0
0
0
0
0
0
0
0
0
0
0
0
0
0
0
0
0
0
0
0
0
0
0
0
0
0
0
0
0
0
0
0
0
0
0
0
0
0
0
0
0
0
0
0
0
0
0
0
0
0
0
0
0
0
0
0
0
0
0
0
0
0
0
0
0
0
0
0
0
0
0
0
0
0
0
0
0
0
0
0
0
0
0
0
0
0
0
0
0
0
0
0
0
0
0
0
0
0
0
0
0
0
0
0
0
0
0
0
0
0
0
0
0
0
0
0
0
0
0
0
0
0
0
0
0
0
0
0
0
0
0
0
0
0
0
0
0
0
0
0
0
0
0
0
0
0
0
0
0
0
0
0
0
0
0
0
0
0
0
0
0
0
0
0
0
0
0
0
0
0
0
0
0
0
0
0
0
0
0
0
0
0
0
0
0
0
0
0
0
0
0
0
0
0
0
0
0
0
0
0
0
0
0
0
0
0
0
0
0
0
0
0
0
0
0
0
0
0
0
0
0
0
0
0
0
0
0
0
0
0
0
0
0
0
0
0
0
0
0
0
0
0
0
0
0
0
0
0
0
0
0
0
0
0
0
0
0
0
0
0
0
0
0
0
0
0
0
0
0
0
0
0
0
0
0
0
0
0
0
0
0
0
0
0
0
0
0
0
0
0
0
0
0
0
0
0
0
0
0
0
0
0
0
156
187
231
249
249
252
255
252
254
255
255
254
254
254
255
255
255
255
253
254
254
254
254
254
254
254
254
255
255
255
255
254
254
254
254
255
255
255
255
254
255
255
254
254
254
0
0
0
0
0
0
0
0
0
0
0
0
0
0
0
0
0
0
0
0
0
0
0
0
0
0
0
0
0
0
0
0
0
0
0
0
0
0
0
0
0
0
0
0
0
0
0
0
0
0
0
0
0
0
0
0
0
0
0
0
0
0
0
0
0
0
0
0
0
0
0
0
0
0
0
0
0
0
0
0
0
0
0
0
0
0
0
0
0
0
0
0
0
0
0
0
0
0
0
0
0
0
0
0
0
0
0
0
0
0
0
0
0
0
0
0
0
0
0
0
0
0
0
0
0
0
0
0
0
0
0
0
0
0
0
0
0
0
0
0
0
0
0
0
0
0
0
0
0
0
0
0
0
0
0
0
0
0
0
0
0
0
0
0
0
0
0
0
0
0
0
0
0
0
0
0
0
0
0
0
0
0
0
0
0
0
0
0
0
0
0
0
0
0
0
0
0
0
0
0
0
0
0
0
0
0
0
0
0
0
0
0
0
0
0
0
0
0
0
0
0
0
0
0
0
0
0
0
0
0
0
0
0
0
0
0
0
0
0
0
0
0
0
0
0
0
0
0
0
0
0
0
0
0
0
0
0
0
0
0
0
0
0
0
0
0
0
0
0
0
0
0
0
0
0
0
0
0
0
0
0
0
0
0
0
0
0
0
0
0
0
0
0
0
0
0
0
0
0
0
0
0
0
0
0
0
0
0
0
0
0
0
0
0
0
0
0
0
0
0
0
0
0
0
0
0
0
0
0
0
0
0
0
0
0
0
0
0
0
0
0
0
0
0
0
0
0
0
0
0
0
0
0
0
0
0
0
0
0
0
0
0
0
0
0
0
0
0
0
0
0
0
0
0
0
0
0
0
0
0
0
0
0
0
0
0
0
0
0
0
0
0
0
0
0
0
0
0
0
0
0
0
0
0
0
0
0
0
0
0
0
0
0
0
0
0
0
0
0
0
0
0
0
0
0
0
0
0
0
0
0
0
0
0
0
0
0
0
0
0
0
0
0
0
0
0
0
0
0
0
0
0
0
0
0
0
0
0
0
0
0
0
0
0
0
0
0
0
0
0
0
0
0
0
0
0
0
0
0
0
0
0
0
0
0
0
0
0
0
0
0
0
0
0
0
0
0
0
0
0
0
0
0
0
0
0
0
0
0
0
0
0
0
0
0
0
0
0
0
0
0
0
0
0
0
156
156
157
181
227
189
235
252
250
251
255
255
255
254
255
254
254
255
254
255
254
254
254
254
254
254
254
255
255
255
255
254
254
254
254
255
255
255
254
254
254
255
255
254
254
254
0
0
0
0
0
0
0
0
0
0
0
0
0
0
0
0
0
0
0
0
0
0
0
0
0
0
0
0
0
0
0
0
0
0
0
0
0
0
0
0
0
0
0
0
0
0
0
0
0
0
0
0
0
0
0
0
0
0
0
0
0
0
0
0
0
0
0
0
0
0
0
0
0
0
0
0
0
0
0
0
0
0
0
0
0
0
0
0
0
0
0
0
0
0
0
0
0
0
0
0
0
0
0
0
0
0
0
0
0
0
0
0
0
0
0
0
0
0
0
0
0
0
0
0
0
0
0
0
0
0
0
0
0
0
0
0
0
0
0
0
0
0
0
0
0
0
0
0
0
0
0
0
0
0
0
0
0
0
0
0
0
0
0
0
0
0
0
0
0
0
0
0
0
0
0
0
0
0
0
0
0
0
0
0
0
0
0
0
0
0
0
0
0
0
0
0
0
0
0
0
0
0
0
0
0
0
0
0
0
0
0
0
0
0
0
0
0
0
0
0
0
0
0
0
0
0
0
0
0
0
0
0
0
0
0
0
0
0
0
0
0
0
0
0
0
0
0
0
0
0
0
0
0
0
0
0
0
0
0
0
0
0
0
0
0
0
0
0
0
0
0
0
0
0
0
0
0
0
0
0
0
0
0
0
0
0
0
0
0
0
0
0
0
0
0
0
0
0
0
0
0
0
0
0
0
0
0
0
0
0
0
0
0
0
0
0
0
0
0
0
0
0
0
0
0
0
0
0
0
0
0
0
0
0
0
0
0
0
0
0
0
0
0
0
0
0
0
0
0
0
0
0
0
0
0
0
0
0
0
0
0
0
0
0
0
0
0
0
0
0
0
0
0
0
0
0
0
0
0
0
0
0
0
0
0
0
0
0
0
0
0
0
0
0
0
0
0
0
0
0
0
0
0
0
0
0
0
0
0
0
0
0
0
0
0
0
0
0
0
0
0
0
0
0
0
0
0
0
0
0
0
0
0
0
0
0
0
0
0
0
0
0
0
0
0
0
0
0
0
0
0
0
0
0
0
0
0
0
0
0
0
0
0
0
0
0
0
0
0
0
0
0
0
0
0
0
0
0
0
0
0
0
0
0
0
0
0
0
0
0
0
0
0
0
0
0
0
0
0
0
0
0
0
0
0
0
0
0
0
0
0
0
0
0
0
0
0
0
0
0
0
0
0
0
158
157
157
156
154
160
160
200
242
242
250
254
252
255
251
254
254
254
252
252
255
255
255
255
254
254
254
254
255
255
255
254
254
254
254
255
255
254
254
254
254
254
255
255
254
254
254
0
0
0
0
0
0
0
0
0
0
0
0
0
0
0
0
0
0
0
0
0
0
0
0
0
0
0
0
0
0
0
0
0
0
0
0
0
0
0
0
0
0
0
0
0
0
0
0
0
0
0
0
0
0
0
0
0
0
0
0
0
0
0
0
0
0
0
0
0
0
0
0
0
0
0
0
0
0
0
0
0
0
0
0
0
0
0
0
0
0
0
0
0
0
0
0
0
0
0
0
0
0
0
0
0
0
0
0
0
0
0
0
0
0
0
0
0
0
0
0
0
0
0
0
0
0
0
0
0
0
0
0
0
0
0
0
0
0
0
0
0
0
0
0
0
0
0
0
0
0
0
0
0
0
0
0
0
0
0
0
0
0
0
0
0
0
0
0
0
0
0
0
0
0
0
0
0
0
0
0
0
0
0
0
0
0
0
0
0
0
0
0
0
0
0
0
0
0
0
0
0
0
0
0
0
0
0
0
0
0
0
0
0
0
0
0
0
0
0
0
0
0
0
0
0
0
0
0
0
0
0
0
0
0
0
0
0
0
0
0
0
0
0
0
0
0
0
0
0
0
0
0
0
0
0
0
0
0
0
0
0
0
0
0
0
0
0
0
0
0
0
0
0
0
0
0
0
0
0
0
0
0
0
0
0
0
0
0
0
0
0
0
0
0
0
0
0
0
0
0
0
0
0
0
0
0
0
0
0
0
0
0
0
0
0
0
0
0
0
0
0
0
0
0
0
0
0
0
0
0
0
0
0
0
0
0
0
0
0
0
0
0
0
0
0
0
0
0
0
0
0
0
0
0
0
0
0
0
0
0
0
0
0
0
0
0
0
0
0
0
0
0
0
0
0
0
0
0
0
0
0
0
0
0
0
0
0
0
0
0
0
0
0
0
0
0
0
0
0
0
0
0
0
0
0
0
0
0
0
0
0
0
0
0
0
0
0
0
0
0
0
0
0
0
0
0
0
0
0
0
0
0
0
0
0
0
0
0
0
0
0
0
0
0
0
0
0
0
0
0
0
0
0
0
0
0
0
0
0
0
0
0
0
0
0
0
0
0
0
0
0
0
0
0
0
0
0
0
0
0
0
0
0
0
0
0
0
0
0
0
0
0
0
0
0
0
0
0
0
0
0
0
0
0
0
0
0
0
0
0
0
0
0
0
0
0
0
0
0
0
0
0
0
159
161
161
158
159
157
155
156
166
221
185
246
252
252
254
252
253
254
254
254
255
253
255
255
255
255
254
254
254
255
255
255
254
255
255
254
254
254
255
254
254
254
254
255
255
254
254
254
0
0
0
0
0
0
0
0
0
0
0
0
0
0
0
0
0
0
0
0
0
0
0
0
0
0
0
0
0
0
0
0
0
0
0
0
0
0
0
0
0
0
0
0
0
0
0
0
0
0
0
0
0
0
0
0
0
0
0
0
0
0
0
0
0
0
0
0
0
0
0
0
0
0
0
0
0
0
0
0
0
0
0
0
0
0
0
0
0
0
0
0
0
0
0
0
0
0
0
0
0
0
0
0
0
0
0
0
0
0
0
0
0
0
0
0
0
0
0
0
0
0
0
0
0
0
0
0
0
0
0
0
0
0
0
0
0
0
0
0
0
0
0
0
0
0
0
0
0
0
0
0
0
0
0
0
0
0
0
0
0
0
0
0
0
0
0
0
0
0
0
0
0
0
0
0
0
0
0
0
0
0
0
0
0
0
0
0
0
0
0
0
0
0
0
0
0
0
0
0
0
0
0
0
0
0
0
0
0
0
0
0
0
0
0
0
0
0
0
0
0
0
0
0
0
0
0
0
0
0
0
0
0
0
0
0
0
0
0
0
0
0
0
0
0
0
0
0
0
0
0
0
0
0
0
0
0
0
0
0
0
0
0
0
0
0
0
0
0
0
0
0
0
0
0
0
0
0
0
0
0
0
0
0
0
0
0
0
0
0
0
0
0
0
0
0
0
0
0
0
0
0
0
0
0
0
0
0
0
0
0
0
0
0
0
0
0
0
0
0
0
0
0
0
0
0
0
0
0
0
0
0
0
0
0
0
0
0
0
0
0
0
0
0
0
0
0
0
0
0
0
0
0
0
0
0
0
0
0
0
0
0
0
0
0
0
0
0
0
0
0
0
0
0
0
0
0
0
0
0
0
0
0
0
0
0
0
0
0
0
0
0
0
0
0
0
0
0
0
0
0
0
0
0
0
0
0
0
0
0
0
0
0
0
0
0
0
0
0
0
0
0
0
0
0
0
0
0
0
0
0
0
0
0
0
0
0
0
0
0
0
0
0
0
0
0
0
0
0
0
0
0
0
0
0
0
0
0
0
0
0
0
0
0
0
0
0
0
0
0
0
0
0
0
0
0
0
0
0
0
0
0
0
0
0
0
0
0
0
0
0
0
0
0
0
0
0
0
0
0
0
0
0
0
0
0
0
0
0
0
0
0
0
0
0
0
0
0
0
0
0
0
159
159
161
157
157
158
158
156
157
158
160
160
219
251
251
252
255
254
254
254
255
255
255
255
255
255
255
254
254
254
255
255
255
255
255
254
254
254
254
255
255
254
254
254
255
255
254
254
253
0
0
0
0
0
0
0
0
0
0
0
0
0
0
0
0
0
0
0
0
0
0
0
0
0
0
0
0
0
0
0
0
0
0
0
0
0
0
0
0
0
0
0
0
0
0
0
0
0
0
0
0
0
0
0
0
0
0
0
0
0
0
0
0
0
0
0
0
0
0
0
0
0
0
0
0
0
0
0
0
0
0
0
0
0
0
0
0
0
0
0
0
0
0
0
0
0
0
0
0
0
0
0
0
0
0
0
0
0
0
0
0
0
0
0
0
0
0
0
0
0
0
0
0
0
0
0
0
0
0
0
0
0
0
0
0
0
0
0
0
0
0
0
0
0
0
0
0
0
0
0
0
0
0
0
0
0
0
0
0
0
0
0
0
0
0
0
0
0
0
0
0
0
0
0
0
0
0
0
0
0
0
0
0
0
0
0
0
0
0
0
0
0
0
0
0
0
0
0
0
0
0
0
0
0
0
0
0
0
0
0
0
0
0
0
0
0
0
0
0
0
0
0
0
0
0
0
0
0
0
0
0
0
0
0
0
0
0
0
0
0
0
0
0
0
0
0
0
0
0
0
0
0
0
0
0
0
0
0
0
0
0
0
0
0
0
0
0
0
0
0
0
0
0
0
0
0
0
0
0
0
0
0
0
0
0
0
0
0
0
0
0
0
0
0
0
0
0
0
0
0
0
0
0
0
0
0
0
0
0
0
0
0
0
0
0
0
0
0
0
0
0
0
0
0
0
0
0
0
0
0
0
0
0
0
0
0
0
0
0
0
0
0
0
0
0
0
0
0
0
0
0
0
0
0
0
0
0
0
0
0
0
0
0
0
0
0
0
0
0
0
0
0
0
0
0
0
0
0
0
0
0
0
0
0
0
0
0
0
0
0
0
0
0
0
0
0
0
0
0
0
0
0
0
0
0
0
0
0
0
0
0
0
0
0
0
0
0
0
0
0
0
0
0
0
0
0
0
0
0
0
0
0
0
0
0
0
0
0
0
0
0
0
0
0
0
0
0
0
0
0
0
0
0
0
0
0
0
0
0
0
0
0
0
0
0
0
0
0
0
0
0
0
0
0
0
0
0
0
0
0
0
0
0
0
0
0
0
0
0
0
0
0
0
0
0
0
0
0
0
0
0
0
0
0
0
0
0
0
0
0
0
0
0
0
0
0
0
0
0
0
180
159
176
160
160
159
158
159
160
160
156
157
157
191
245
228
250
255
252
253
255
255
254
254
255
255
255
255
254
254
254
255
255
255
255
254
254
254
254
254
255
255
254
254
254
254
254
254
253
254
0
0
0
0
0
0
0
0
0
0
0
0
0
0
0
0
0
0
0
0
0
0
0
0
0
0
0
0
0
0
0
0
0
0
0
0
0
0
0
0
0
0
0
0
0
0
0
0
0
0
0
0
0
0
0
0
0
0
0
0
0
0
0
0
0
0
0
0
0
0
0
0
0
0
0
0
0
0
0
0
0
0
0
0
0
0
0
0
0
0
0
0
0
0
0
0
0
0
0
0
0
0
0
0
0
0
0
0
0
0
0
0
0
0
0
0
0
0
0
0
0
0
0
0
0
0
0
0
0
0
0
0
0
0
0
0
0
0
0
0
0
0
0
0
0
0
0
0
0
0
0
0
0
0
0
0
0
0
0
0
0
0
0
0
0
0
0
0
0
0
0
0
0
0
0
0
0
0
0
0
0
0
0
0
0
0
0
0
0
0
0
0
0
0
0
0
0
0
0
0
0
0
0
0
0
0
0
0
0
0
0
0
0
0
0
0
0
0
0
0
0
0
0
0
0
0
0
0
0
0
0
0
0
0
0
0
0
0
0
0
0
0
0
0
0
0
0
0
0
0
0
0
0
0
0
0
0
0
0
0
0
0
0
0
0
0
0
0
0
0
0
0
0
0
0
0
0
0
0
0
0
0
0
0
0
0
0
0
0
0
0
0
0
0
0
0
0
0
0
0
0
0
0
0
0
0
0
0
0
0
0
0
0
0
0
0
0
0
0
0
0
0
0
0
0
0
0
0
0
0
0
0
0
0
0
0
0
0
0
0
0
0
0
0
0
0
0
0
0
0
0
0
0
0
0
0
0
0
0
0
0
0
0
0
0
0
0
0
0
0
0
0
0
0
0
0
0
0
0
0
0
0
0
0
0
0
0
0
0
0
0
0
0
0
0
0
0
0
0
0
0
0
0
0
0
0
0
0
0
0
0
0
0
0
0
0
0
0
0
0
0
0
0
0
0
0
0
0
0
0
0
0
0
0
0
0
0
0
0
0
0
0
0
0
0
0
0
0
0
0
0
0
0
0
0
0
0
0
0
0
0
0
0
0
0
0
0
0
0
0
0
0
0
0
0
0
0
0
0
0
0
0
0
0
0
0
0
0
0
0
0
0
0
0
0
0
0
0
0
0
0
0
0
0
0
0
0
0
0
0
0
0
0
0
0
0
0
0
0
0
210
208
176
198
171
159
155
159
158
160
161
159
157
156
157
228
207
251
254
253
255
253
254
255
254
255
255
255
255
254
255
255
255
255
255
255
254
254
254
254
254
255
255
254
254
254
254
255
254
254
254
0
0
0
0
0
0
0
0
0
0
0
0
0
0
0
0
0
0
0
0
0
0
0
0
0
0
0
0
0
0
0
0
0
0
0
0
0
0
0
0
0
0
0
0
0
0
0
0
0
0
0
0
0
0
0
0
0
0
0
0
0
0
0
0
0
0
0
0
0
0
0
0
0
0
0
0
0
0
0
0
0
0
0
0
0
0
0
0
0
0
0
0
0
0
0
0
0
0
0
0
0
0
0
0
0
0
0
0
0
0
0
0
0
0
0
0
0
0
0
0
0
0
0
0
0
0
0
0
0
0
0
0
0
0
0
0
0
0
0
0
0
0
0
0
0
0
0
0
0
0
0
0
0
0
0
0
0
0
0
0
0
0
0
0
0
0
0
0
0
0
0
0
0
0
0
0
0
0
0
0
0
0
0
0
0
0
0
0
0
0
0
0
0
0
0
0
0
0
0
0
0
0
0
0
0
0
0
0
0
0
0
0
0
0
0
0
0
0
0
0
0
0
0
0
0
0
0
0
0
0
0
0
0
0
0
0
0
0
0
0
0
0
0
0
0
0
0
0
0
0
0
0
0
0
0
0
0
0
0
0
0
0
0
0
0
0
0
0
0
0
0
0
0
0
0
0
0
0
0
0
0
0
0
0
0
0
0
0
0
0
0
0
0
0
0
0
0
0
0
0
0
0
0
0
0
0
0
0
0
0
0
0
0
0
0
0
0
0
0
0
0
0
0
0
0
0
0
0
0
0
0
0
0
0
0
0
0
0
0
0
0
0
0
0
0
0
0
0
0
0
0
0
0
0
0
0
0
0
0
0
0
0
0
0
0
0
0
0
0
0
0
0
0
0
0
0
0
0
0
0
0
0
0
0
0
0
0
0
0
0
0
0
0
0
0
0
0
0
0
0
0
0
0
0
0
0
0
0
0
0
0
0
0
0
0
0
0
0
0
0
0
0
0
0
0
0
0
0
0
0
0
0
0
0
0
0
0
0
0
0
0
0
0
0
0
0
0
0
0
0
0
0
0
0
0
0
0
0
0
0
0
0
0
0
0
0
0
0
0
0
0
0
0
0
0
0
0
0
0
0
0
0
0
0
0
0
0
0
0
0
0
0
0
0
0
0
0
0
0
0
0
0
0
0
0
0
0
0
0
0
0
0
0
0
0
0
0
0
0
207
210
208
205
205
192
162
179
160
156
160
160
161
155
155
158
182
165
245
254
255
255
253
254
254
254
254
255
255
255
255
255
254
255
254
255
255
254
254
254
255
255
255
254
254
254
255
255
255
254
254
254
0
0
0
0
0
0
0
0
0
0
0
0
0
0
0
0
0
0
0
0
0
0
0
0
0
0
0
0
0
0
0
0
0
0
0
0
0
0
0
0
0
0
0
0
0
0
0
0
0
0
0
0
0
0
0
0
0
0
0
0
0
0
0
0
0
0
0
0
0
0
0
0
0
0
0
0
0
0
0
0
0
0
0
0
0
0
0
0
0
0
0
0
0
0
0
0
0
0
0
0
0
0
0
0
0
0
0
0
0
0
0
0
0
0
0
0
0
0
0
0
0
0
0
0
0
0
0
0
0
0
0
0
0
0
0
0
0
0
0
0
0
0
0
0
0
0
0
0
0
0
0
0
0
0
0
0
0
0
0
0
0
0
0
0
0
0
0
0
0
0
0
0
0
0
0
0
0
0
0
0
0
0
0
0
0
0
0
0
0
0
0
0
0
0
0
0
0
0
0
0
0
0
0
0
0
0
0
0
0
0
0
0
0
0
0
0
0
0
0
0
0
0
0
0
0
0
0
0
0
0
0
0
0
0
0
0
0
0
0
0
0
0
0
0
0
0
0
0
0
0
0
0
0
0
0
0
0
0
0
0
0
0
0
0
0
0
0
0
0
0
0
0
0
0
0
0
0
0
0
0
0
0
0
0
0
0
0
0
0
0
0
0
0
0
0
0
0
0
0
0
0
0
0
0
0
0
0
0
0
0
0
0
0
0
0
0
0
0
0
0
0
0
0
0
0
0
0
0
0
0
0
0
0
0
0
0
0
0
0
0
0
0
0
0
0
0
0
0
0
0
0
0
0
0
0
0
0
0
0
0
0
0
0
0
0
0
0
0
0
0
0
0
0
0
0
0
0
0
0
0
0
0
0
0
0
0
0
0
0
0
0
0
0
0
0
0
0
0
0
0
0
0
0
0
0
0
0
0
0
0
0
0
0
0
0
0
0
0
0
0
0
0
0
0
0
0
0
0
0
0
0
0
0
0
0
0
0
0
0
0
0
0
0
0
0
0
0
0
0
0
0
0
0
0
0
0
0
0
0
0
0
0
0
0
0
0
0
0
0
0
0
0
0
0
0
0
0
0
0
0
0
0
0
0
0
0
0
0
0
0
0
0
0
0
0
0
0
0
0
0
0
0
0
0
0
0
0
0
0
0
0
0
0
0
0
0
0
0
207
208
210
207
208
210
208
179
197
164
159
159
158
160
157
158
156
165
158
221
250
254
252
255
254
254
254
254
255
255
255
254
254
254
254
254
254
255
254
254
254
255
254
254
254
255
255
255
255
255
254
254
254
0
0
0
0
0
0
0
0
0
0
0
0
0
0
0
0
0
0
0
0
0
0
0
0
0
0
0
0
0
0
0
0
0
0
0
0
0
0
0
0
0
0
0
0
0
0
0
0
0
0
0
0
0
0
0
0
0
0
0
0
0
0
0
0
0
0
0
0
0
0
0
0
0
0
0
0
0
0
0
0
0
0
0
0
0
0
0
0
0
0
0
0
0
0
0
0
0
0
0
0
0
0
0
0
0
0
0
0
0
0
0
0
0
0
0
0
0
0
0
0
0
0
0
0
0
0
0
0
0
0
0
0
0
0
0
0
0
0
0
0
0
0
0
0
0
0
0
0
0
0
0
0
0
0
0
0
0
0
0
0
0
0
0
0
0
0
0
0
0
0
0
0
0
0
0
0
0
0
0
0
0
0
0
0
0
0
0
0
0
0
0
0
0
0
0
0
0
0
0
0
0
0
0
0
0
0
0
0
0
0
0
0
0
0
0
0
0
0
0
0
0
0
0
0
0
0
0
0
0
0
0
0
0
0
0
0
0
0
0
0
0
0
0
0
0
0
0
0
0
0
0
0
0
0
0
0
0
0
0
0
0
0
0
0
0
0
0
0
0
0
0
0
0
0
0
0
0
0
0
0
0
0
0
0
0
0
0
0
0
0
0
0
0
0
0
0
0
0
0
0
0
0
0
0
0
0
0
0
0
0
0
0
0
0
0
0
0
0
0
0
0
0
0
0
0
0
0
0
0
0
0
0
0
0
0
0
0
0
0
0
0
0
0
0
0
0
0
0
0
0
0
0
0
0
0
0
0
0
0
0
0
0
0
0
0
0
0
0
0
0
0
0
0
0
0
0
0
0
0
0
0
0
0
0
0
0
0
0
0
0
0
0
0
0
0
0
0
0
0
0
0
0
0
0
0
0
0
0
0
0
0
0
0
0
0
0
0
0
0
0
0
0
0
0
0
0
0
0
0
0
0
0
0
0
0
0
0
0
0
0
0
0
0
0
0
0
0
0
0
0
0
0
0
0
0
0
0
0
0
0
0
0
0
0
0
0
0
0
0
0
0
0
0
0
0
0
0
0
0
0
0
0
0
0
0
0
0
0
0
0
0
0
0
0
0
0
0
0
0
0
0
0
0
0
0
0
0
0
0
0
0
0
0
0
0
0
0
210
210
210
210
210
210
210
208
202
202
177
160
158
158
156
159
159
159
154
154
207
248
253
253
255
253
253
254
255
255
255
255
254
254
254
254
254
255
255
254
254
254
254
254
255
255
255
255
255
254
254
254
254
254
0
0
0
0
0
0
0
0
0
0
0
0
0
0
0
0
0
0
0
0
0
0
0
0
0
0
0
0
0
0
0
0
0
0
0
0
0
0
0
0
0
0
0
0
0
0
0
0
0
0
0
0
0
0
0
0
0
0
0
0
0
0
0
0
0
0
0
0
0
0
0
0
0
0
0
0
0
0
0
0
0
0
0
0
0
0
0
0
0
0
0
0
0
0
0
0
0
0
0
0
0
0
0
0
0
0
0
0
0
0
0
0
0
0
0
0
0
0
0
0
0
0
0
0
0
0
0
0
0
0
0
0
0
0
0
0
0
0
0
0
0
0
0
0
0
0
0
0
0
0
0
0
0
0
0
0
0
0
0
0
0
0
0
0
0
0
0
0
0
0
0
0
0
0
0
0
0
0
0
0
0
0
0
0
0
0
0
0
0
0
0
0
0
0
0
0
0
0
0
0
0
0
0
0
0
0
0
0
0
0
0
0
0
0
0
0
0
0
0
0
0
0
0
0
0
0
0
0
0
0
0
0
0
0
0
0
0
0
0
0
0
0
0
0
0
0
0
0
0
0
0
0
0
0
0
0
0
0
0
0
0
0
0
0
0
0
0
0
0
0
0
0
0
0
0
0
0
0
0
0
0
0
0
0
0
0
0
0
0
0
0
0
0
0
0
0
0
0
0
0
0
0
0
0
0
0
0
0
0
0
0
0
0
0
0
0
0
0
0
0
0
0
0
0
0
0
0
0
0
0
0
0
0
0
0
0
0
0
0
0
0
0
0
0
0
0
0
0
0
0
0
0
0
0
0
0
0
0
0
0
0
0
0
0
0
0
0
0
0
0
0
0
0
0
0
0
0
0
0
0
0
0
0
0
0
0
0
0
0
0
0
0
0
0
0
0
0
0
0
0
0
0
0
0
0
0
0
0
0
0
0
0
0
0
0
0
0
0
0
0
0
0
0
0
0
0
0
0
0
0
0
0
0
0
0
0
0
0
0
0
0
0
0
0
0
0
0
0
0
0
0
0
0
0
0
0
0
0
0
0
0
0
0
0
0
0
0
0
0
0
0
0
0
0
0
0
0
0
0
0
0
0
0
0
0
0
0
0
0
0
0
0
0
0
0
0
0
0
0
0
0
0
0
0
0
0
0
0
0
0
0
0
0
0
0
0
210
210
210
208
208
210
210
210
207
207
210
189
161
159
159
158
158
159
158
154
155
169
248
253
252
255
254
255
255
255
255
255
254
254
255
254
255
255
255
255
254
254
254
255
255
255
255
255
254
254
254
255
254
254
254
0
0
0
0
0
0
0
0
0
0
0
0
0
0
0
0
0
0
0
0
0
0
0
0
0
0
0
0
0
0
0
0
0
0
0
0
0
0
0
0
0
0
0
0
0
0
0
0
0
0
0
0
0
0
0
0
0
0
0
0
0
0
0
0
0
0
0
0
0
0
0
0
0
0
0
0
0
0
0
0
0
0
0
0
0
0
0
0
0
0
0
0
0
0
0
0
0
0
0
0
0
0
0
0
0
0
0
0
0
0
0
0
0
0
0
0
0
0
0
0
0
0
0
0
0
0
0
0
0
0
0
0
0
0
0
0
0
0
0
0
0
0
0
0
0
0
0
0
0
0
0
0
0
0
0
0
0
0
0
0
0
0
0
0
0
0
0
0
0
0
0
0
0
0
0
0
0
0
0
0
0
0
0
0
0
0
0
0
0
0
0
0
0
0
0
0
0
0
0
0
0
0
0
0
0
0
0
0
0
0
0
0
0
0
0
0
0
0
0
0
0
0
0
0
0
0
0
0
0
0
0
0
0
0
0
0
0
0
0
0
0
0
0
0
0
0
0
0
0
0
0
0
0
0
0
0
0
0
0
0
0
0
0
0
0
0
0
0
0
0
0
0
0
0
0
0
0
0
0
0
0
0
0
0
0
0
0
0
0
0
0
0
0
0
0
0
0
0
0
0
0
0
0
0
0
0
0
0
0
0
0
0
0
0
0
0
0
0
0
0
0
0
0
0
0
0
0
0
0
0
0
0
0
0
0
0
0
0
0
0
0
0
0
0
0
0
0
0
0
0
0
0
0
0
0
0
0
0
0
0
0
0
0
0
0
0
0
0
0
0
0
0
0
0
0
0
0
0
0
0
0
0
0
0
0
0
0
0
0
0
0
0
0
0
0
0
0
0
0
0
0
0
0
0
0
0
0
0
0
0
0
0
0
0
0
0
0
0
0
0
0
0
0
0
0
0
0
0
0
0
0
0
0
0
0
0
0
0
0
0
0
0
0
0
0
0
0
0
0
0
0
0
0
0
0
0
0
0
0
0
0
0
0
0
0
0
0
0
0
0
0
0
0
0
0
0
0
0
0
0
0
0
0
0
0
0
0
0
0
0
0
0
0
0
0
0
0
0
0
0
0
0
0
0
0
0
0
0
0
0
0
0
0
0
0
210
210
208
210
210
210
210
210
209
208
210
210
206
178
159
158
159
159
158
157
157
157
159
238
252
251
255
255
254
254
255
255
255
255
255
255
255
255
255
255
255
254
255
255
255
255
255
254
254
254
254
255
255
254
254
254
0
0
0
0
0
0
0
0
0
0
0
0
0
0
0
0
0
0
0
0
0
0
0
0
0
0
0
0
0
0
0
0
0
0
0
0
0
0
0
0
0
0
0
0
0
0
0
0
0
0
0
0
0
0
0
0
0
0
0
0
0
0
0
0
0
0
0
0
0
0
0
0
0
0
0
0
0
0
0
0
0
0
0
0
0
0
0
0
0
0
0
0
0
0
0
0
0
0
0
0
0
0
0
0
0
0
0
0
0
0
0
0
0
0
0
0
0
0
0
0
0
0
0
0
0
0
0
0
0
0
0
0
0
0
0
0
0
0
0
0
0
0
0
0
0
0
0
0
0
0
0
0
0
0
0
0
0
0
0
0
0
0
0
0
0
0
0
0
0
0
0
0
0
0
0
0
0
0
0
0
0
0
0
0
0
0
0
0
0
0
0
0
0
0
0
0
0
0
0
0
0
0
0
0
0
0
0
0
0
0
0
0
0
0
0
0
0
0
0
0
0
0
0
0
0
0
0
0
0
0
0
0
0
0
0
0
0
0
0
0
0
0
0
0
0
0
0
0
0
0
0
0
0
0
0
0
0
0
0
0
0
0
0
0
0
0
0
0
0
0
0
0
0
0
0
0
0
0
0
0
0
0
0
0
0
0
0
0
0
0
0
0
0
0
0
0
0
0
0
0
0
0
0
0
0
0
0
0
0
0
0
0
0
0
0
0
0
0
0
0
0
0
0
0
0
0
0
0
0
0
0
0
0
0
0
0
0
0
0
0
0
0
0
0
0
0
0
0
0
0
0
0
0
0
0
0
0
0
0
0
0
0
0
0
0
0
0
0
0
0
0
0
0
0
0
0
0
0
0
0
0
0
0
0
0
0
0
0
0
0
0
0
0
0
0
0
0
0
0
0
0
0
0
0
0
0
0
0
0
0
0
0
0
0
0
0
0
0
0
0
0
0
0
0
0
0
0
0
0
0
0
0
0
0
0
0
0
0
0
0
0
0
0
0
0
0
0
0
0
0
0
0
0
0
0
0
0
0
0
0
0
0
0
0
0
0
0
0
0
0
0
0
0
0
0
0
0
0
0
0
0
0
0
0
0
0
0
0
0
0
0
0
0
0
0
0
0
0
0
0
0
0
0
0
0
0
0
0
0
0
0
0
0
0
210
210
211
211
210
210
210
210
209
209
209
209
210
208
189
157
157
159
158
157
158
158
158
155
229
250
250
255
255
255
254
255
255
255
255
255
255
255
255
255
255
255
255
255
255
255
254
254
254
254
254
254
255
255
254
254
254
0
0
0
0
0
0
0
0
0
0
0
0
0
0
0
0
0
0
0
0
0
0
0
0
0
0
0
0
0
0
0
0
0
0
0
0
0
0
0
0
0
0
0
0
0
0
0
0
0
0
0
0
0
0
0
0
0
0
0
0
0
0
0
0
0
0
0
0
0
0
0
0
0
0
0
0
0
0
0
0
0
0
0
0
0
0
0
0
0
0
0
0
0
0
0
0
0
0
0
0
0
0
0
0
0
0
0
0
0
0
0
0
0
0
0
0
0
0
0
0
0
0
0
0
0
0
0
0
0
0
0
0
0
0
0
0
0
0
0
0
0
0
0
0
0
0
0
0
0
0
0
0
0
0
0
0
0
0
0
0
0
0
0
0
0
0
0
0
0
0
0
0
0
0
0
0
0
0
0
0
0
0
0
0
0
0
0
0
0
0
0
0
0
0
0
0
0
0
0
0
0
0
0
0
0
0
0
0
0
0
0
0
0
0
0
0
0
0
0
0
0
0
0
0
0
0
0
0
0
0
0
0
0
0
0
0
0
0
0
0
0
0
0
0
0
0
0
0
0
0
0
0
0
0
0
0
0
0
0
0
0
0
0
0
0
0
0
0
0
0
0
0
0
0
0
0
0
0
0
0
0
0
0
0
0
0
0
0
0
0
0
0
0
0
0
0
0
0
0
0
0
0
0
0
0
0
0
0
0
0
0
0
0
0
0
0
0
0
0
0
0
0
0
0
0
0
0
0
0
0
0
0
0
0
0
0
0
0
0
0
0
0
0
0
0
0
0
0
0
0
0
0
0
0
0
0
0
0
0
0
0
0
0
0
0
0
0
0
0
0
0
0
0
0
0
0
0
0
0
0
0
0
0
0
0
0
0
0
0
0
0
0
0
0
0
0
0
0
0
0
0
0
0
0
0
0
0
0
0
0
0
0
0
0
0
0
0
0
0
0
0
0
0
0
0
0
0
0
0
0
0
0
0
0
0
0
0
0
0
0
0
0
0
0
0
0
0
0
0
0
0
0
0
0
0
0
0
0
0
0
0
0
0
0
0
0
0
0
0
0
0
0
0
0
0
0
0
0
0
0
0
0
0
0
0
0
0
0
0
0
0
0
0
0
0
0
0
0
0
0
0
0
0
0
0
0
0
0
0
0
0
0
0
207
209
211
209
210
210
210
210
210
209
209
209
210
212
207
200
162
169
160
157
157
158
158
155
157
222
249
249
253
255
255
254
255
255
255
255
255
254
254
255
255
255
254
255
255
254
254
254
255
254
254
254
254
255
255
254
254
254
0
0
0
0
0
0
0
0
0
0
0
0
0
0
0
0
0
0
0
0
0
0
0
0
0
0
0
0
0
0
0
0
0
0
0
0
0
0
0
0
0
0
0
0
0
0
0
0
0
0
0
0
0
0
0
0
0
0
0
0
0
0
0
0
0
0
0
0
0
0
0
0
0
0
0
0
0
0
0
0
0
0
0
0
0
0
0
0
0
0
0
0
0
0
0
0
0
0
0
0
0
0
0
0
0
0
0
0
0
0
0
0
0
0
0
0
0
0
0
0
0
0
0
0
0
0
0
0
0
0
0
0
0
0
0
0
0
0
0
0
0
0
0
0
0
0
0
0
0
0
0
0
0
0
0
0
0
0
0
0
0
0
0
0
0
0
0
0
0
0
0
0
0
0
0
0
0
0
0
0
0
0
0
0
0
0
0
0
0
0
0
0
0
0
0
0
0
0
0
0
0
0
0
0
0
0
0
0
0
0
0
0
0
0
0
0
0
0
0
0
0
0
0
0
0
0
0
0
0
0
0
0
0
0
0
0
0
0
0
0
0
0
0
0
0
0
0
0
0
0
0
0
0
0
0
0
0
0
0
0
0
0
0
0
0
0
0
0
0
0
0
0
0
0
0
0
0
0
0
0
0
0
0
0
0
0
0
0
0
0
0
0
0
0
0
0
0
0
0
0
0
0
0
0
0
0
0
0
0
0
0
0
0
0
0
0
0
0
0
0
0
0
0
0
0
0
0
0
0
0
0
0
0
0
0
0
0
0
0
0
0
0
0
0
0
0
0
0
0
0
0
0
0
0
0
0
0
0
0
0
0
0
0
0
0
0
0
0
0
0
0
0
0
0
0
0
0
0
0
0
0
0
0
0
0
0
0
0
0
0
0
0
0
0
0
0
0
0
0
0
0
0
0
0
0
0
0
0
0
0
0
0
0
0
0
0
0
0
0
0
0
0
0
0
0
0
0
0
0
0
0
0
0
0
0
0
0
0
0
0
0
0
0
0
0
0
0
0
0
0
0
0
0
0
0
0
0
0
0
0
0
0
0
0
0
0
0
0
0
0
0
0
0
0
0
0
0
0
0
0
0
0
0
0
0
0
0
0
0
0
0
0
0
0
0
0
0
0
0
0
0
0
0
0
0
0
0
0
0
0
0
0
210
208
209
209
209
209
210
210
210
210
210
210
208
210
210
209
205
177
177
159
159
159
159
154
154
154
211
251
251
253
255
255
255
255
255
255
255
254
254
254
255
255
255
254
254
254
254
255
255
255
254
254
254
254
255
255
254
254
254
0
0
0
0
0
0
0
0
0
0
0
0
0
0
0
0
0
0
0
0
0
0
0
0
0
0
0
0
0
0
0
0
0
0
0
0
0
0
0
0
0
0
0
0
0
0
0
0
0
0
0
0
0
0
0
0
0
0
0
0
0
0
0
0
0
0
0
0
0
0
0
0
0
0
0
0
0
0
0
0
0
0
0
0
0
0
0
0
0
0
0
0
0
0
0
0
0
0
0
0
0
0
0
0
0
0
0
0
0
0
0
0
0
0
0
0
0
0
0
0
0
0
0
0
0
0
0
0
0
0
0
0
0
0
0
0
0
0
0
0
0
0
0
0
0
0
0
0
0
0
0
0
0
0
0
0
0
0
0
0
0
0
0
0
0
0
0
0
0
0
0
0
0
0
0
0
0
0
0
0
0
0
0
0
0
0
0
0
0
0
0
0
0
0
0
0
0
0
0
0
0
0
0
0
0
0
0
0
0
0
0
0
0
0
0
0
0
0
0
0
0
0
0
0
0
0
0
0
0
0
0
0
0
0
0
0
0
0
0
0
0
0
0
0
0
0
0
0
0
0
0
0
0
0
0
0
0
0
0
0
0
0
0
0
0
0
0
0
0
0
0
0
0
0
0
0
0
0
0
0
0
0
0
0
0
0
0
0
0
0
0
0
0
0
0
0
0
0
0
0
0
0
0
0
0
0
0
0
0
0
0
0
0
0
0
0
0
0
0
0
0
0
0
0
0
0
0
0
0
0
0
0
0
0
0
0
0
0
0
0
0
0
0
0
0
0
0
0
0
0
0
0
0
0
0
0
0
0
0
0
0
0
0
0
0
0
0
0
0
0
0
0
0
0
0
0
0
0
0
0
0
0
0
0
0
0
0
0
0
0
0
0
0
0
0
0
0
0
0
0
0
0
0
0
0
0
0
0
0
0
0
0
0
0
0
0
0
0
0
0
0
0
0
0
0
0
0
0
0
0
0
0
0
0
0
0
0
0
0
0
0
0
0
0
0
0
0
0
0
0
0
0
0
0
0
0
0
0
0
0
0
0
0
0
0
0
0
0
0
0
0
0
0
0
0
0
0
0
0
0
0
0
0
0
0
0
0
0
0
0
0
0
0
0
0
0
0
0
0
0
0
0
0
0
0
0
0
0
0
0
0
210
209
209
209
209
209
209
210
210
210
210
211
210
209
210
211
210
206
186
192
158
159
158
160
156
158
157
205
251
251
253
254
254
255
255
255
255
255
254
254
254
255
255
255
254
254
254
254
255
255
255
254
254
254
255
255
255
254
254
254
0
0
0
0
0
0
0
0
0
0
0
0
0
0
0
0
0
0
0
0
0
0
0
0
0
0
0
0
0
0
0
0
0
0
0
0
0
0
0
0
0
0
0
0
0
0
0
0
0
0
0
0
0
0
0
0
0
0
0
0
0
0
0
0
0
0
0
0
0
0
0
0
0
0
0
0
0
0
0
0
0
0
0
0
0
0
0
0
0
0
0
0
0
0
0
0
0
0
0
0
0
0
0
0
0
0
0
0
0
0
0
0
0
0
0
0
0
0
0
0
0
0
0
0
0
0
0
0
0
0
0
0
0
0
0
0
0
0
0
0
0
0
0
0
0
0
0
0
0
0
0
0
0
0
0
0
0
0
0
0
0
0
0
0
0
0
0
0
0
0
0
0
0
0
0
0
0
0
0
0
0
0
0
0
0
0
0
0
0
0
0
0
0
0
0
0
0
0
0
0
0
0
0
0
0
0
0
0
0
0
0
0
0
0
0
0
0
0
0
0
0
0
0
0
0
0
0
0
0
0
0
0
0
0
0
0
0
0
0
0
0
0
0
0
0
0
0
0
0
0
0
0
0
0
0
0
0
0
0
0
0
0
0
0
0
0
0
0
0
0
0
0
0
0
0
0
0
0
0
0
0
0
0
0
0
0
0
0
0
0
0
0
0
0
0
0
0
0
0
0
0
0
0
0
0
0
0
0
0
0
0
0
0
0
0
0
0
0
0
0
0
0
0
0
0
0
0
0
0
0
0
0
0
0
0
0
0
0
0
0
0
0
0
0
0
0
0
0
0
0
0
0
0
0
0
0
0
0
0
0
0
0
0
0
0
0
0
0
0
0
0
0
0
0
0
0
0
0
0
0
0
0
0
0
0
0
0
0
0
0
0
0
0
0
0
0
0
0
0
0
0
0
0
0
0
0
0
0
0
0
0
0
0
0
0
0
0
0
0
0
0
0
0
0
0
0
0
0
0
0
0
0
0
0
0
0
0
0
0
0
0
0
0
0
0
0
0
0
0
0
0
0
0
0
0
0
0
0
0
0
0
0
0
0
0
0
0
0
0
0
0
0
0
0
0
0
0
0
0
0
0
0
0
0
0
0
0
0
0
0
0
0
0
0
0
0
0
0
0
0
0
0
0
0
0
0
0
0
0
0
209
209
209
209
209
209
209
210
210
210
210
209
210
210
210
210
210
209
208
192
198
159
158
159
159
158
158
158
194
251
251
255
253
253
255
255
255
255
255
254
254
254
255
255
255
255
254
254
255
255
255
255
254
254
254
255
255
255
254
254
254
0
0
0
0
0
0
0
0
0
0
0
0
0
0
0
0
0
0
0
0
0
0
0
0
0
0
0
0
0
0
0
0
0
0
0
0
0
0
0
0
0
0
0
0
0
0
0
0
0
0
0
0
0
0
0
0
0
0
0
0
0
0
0
0
0
0
0
0
0
0
0
0
0
0
0
0
0
0
0
0
0
0
0
0
0
0
0
0
0
0
0
0
0
0
0
0
0
0
0
0
0
0
0
0
0
0
0
0
0
0
0
0
0
0
0
0
0
0
0
0
0
0
0
0
0
0
0
0
0
0
0
0
0
0
0
0
0
0
0
0
0
0
0
0
0
0
0
0
0
0
0
0
0
0
0
0
0
0
0
0
0
0
0
0
0
0
0
0
0
0
0
0
0
0
0
0
0
0
0
0
0
0
0
0
0
0
0
0
0
0
0
0
0
0
0
0
0
0
0
0
0
0
0
0
0
0
0
0
0
0
0
0
0
0
0
0
0
0
0
0
0
0
0
0
0
0
0
0
0
0
0
0
0
0
0
0
0
0
0
0
0
0
0
0
0
0
0
0
0
0
0
0
0
0
0
0
0
0
0
0
0
0
0
0
0
0
0
0
0
0
0
0
0
0
0
0
0
0
0
0
0
0
0
0
0
0
0
0
0
0
0
0
0
0
0
0
0
0
0
0
0
0
0
0
0
0
0
0
0
0
0
0
0
0
0
0
0
0
0
0
0
0
0
0
0
0
0
0
0
0
0
0
0
0
0
0
0
0
0
0
0
0
0
0
0
0
0
0
0
0
0
0
0
0
0
0
0
0
0
0
0
0
0
0
0
0
0
0
0
0
0
0
0
0
0
0
0
0
0
0
0
0
0
0
0
0
0
0
0
0
0
0
0
0
0
0
0
0
0
0
0
0
0
0
0
0
0
0
0
0
0
0
0
0
0
0
0
0
0
0
0
0
0
0
0
0
0
0
0
0
0
0
0
0
0
0
0
0
0
0
0
0
0
0
0
0
0
0
0
0
0
0
0
0
0
0
0
0
0
0
0
0
0
0
0
0
0
0
0
0
0
0
0
0
0
0
0
0
0
0
0
0
0
0
0
0
0
0
0
0
0
0
0
0
0
0
0
0
0
0
0
0
0
0
0
0
0
0
0
209
209
209
209
209
209
209
210
210
210
210
210
210
210
210
210
209
208
209
210
201
201
161
158
159
159
158
158
158
194
250
249
255
255
254
254
255
255
255
255
254
255
254
255
255
255
255
255
255
255
255
255
255
254
254
254
254
255
255
254
254
254
0
0
0
0
0
0
0
0
0
0
0
0
0
0
0
0
0
0
0
0
0
0
0
0
0
0
0
0
0
0
0
0
0
0
0
0
0
0
0
0
0
0
0
0
0
0
0
0
0
0
0
0
0
0
0
0
0
0
0
0
0
0
0
0
0
0
0
0
0
0
0
0
0
0
0
0
0
0
0
0
0
0
0
0
0
0
0
0
0
0
0
0
0
0
0
0
0
0
0
0
0
0
0
0
0
0
0
0
0
0
0
0
0
0
0
0
0
0
0
0
0
0
0
0
0
0
0
0
0
0
0
0
0
0
0
0
0
0
0
0
0
0
0
0
0
0
0
0
0
0
0
0
0
0
0
0
0
0
0
0
0
0
0
0
0
0
0
0
0
0
0
0
0
0
0
0
0
0
0
0
0
0
0
0
0
0
0
0
0
0
0
0
0
0
0
0
0
0
0
0
0
0
0
0
0
0
0
0
0
0
0
0
0
0
0
0
0
0
0
0
0
0
0
0
0
0
0
0
0
0
0
0
0
0
0
0
0
0
0
0
0
0
0
0
0
0
0
0
0
0
0
0
0
0
0
0
0
0
0
0
0
0
0
0
0
0
0
0
0
0
0
0
0
0
0
0
0
0
0
0
0
0
0
0
0
0
0
0
0
0
0
0
0
0
0
0
0
0
0
0
0
0
0
0
0
0
0
0
0
0
0
0
0
0
0
0
0
0
0
0
0
0
0
0
0
0
0
0
0
0
0
0
0
0
0
0
0
0
0
0
0
0
0
0
0
0
0
0
0
0
0
0
0
0
0
0
0
0
0
0
0
0
0
0
0
0
0
0
0
0
0
0
0
0
0
0
0
0
0
0
0
0
0
0
0
0
0
0
0
0
0
0
0
0
0
0
0
0
0
0
0
0
0
0
0
0
0
0
0
0
0
0
0
0
0
0
0
0
0
0
0
0
0
0
0
0
0
0
0
0
0
0
0
0
0
0
0
0
0
0
0
0
0
0
0
0
0
0
0
0
0
0
0
0
0
0
0
0
0
0
0
0
0
0
0
0
0
0
0
0
0
0
0
0
0
0
0
0
0
0
0
0
0
0
0
0
0
0
0
0
0
0
0
0
0
0
0
0
0
0
0
0
0
0
0
0
0
0
209
209
209
209
209
209
210
210
210
210
210
210
210
210
210
210
211
208
209
210
211
205
206
164
159
158
159
158
157
157
199
249
251
254
254
255
255
255
255
255
255
255
255
255
255
255
255
254
255
255
255
255
255
254
254
254
254
255
255
255
255
254
254
0
0
0
0
0
0
0
0
0
0
0
0
0
0
0
0
0
0
0
0
0
0
0
0
0
0
0
0
0
0
0
0
0
0
0
0
0
0
0
0
0
0
0
0
0
0
0
0
0
0
0
0
0
0
0
0
0
0
0
0
0
0
0
0
0
0
0
0
0
0
0
0
0
0
0
0
0
0
0
0
0
0
0
0
0
0
0
0
0
0
0
0
0
0
0
0
0
0
0
0
0
0
0
0
0
0
0
0
0
0
0
0
0
0
0
0
0
0
0
0
0
0
0
0
0
0
0
0
0
0
0
0
0
0
0
0
0
0
0
0
0
0
0
0
0
0
0
0
0
0
0
0
0
0
0
0
0
0
0
0
0
0
0
0
0
0
0
0
0
0
0
0
0
0
0
0
0
0
0
0
0
0
0
0
0
0
0
0
0
0
0
0
0
0
0
0
0
0
0
0
0
0
0
0
0
0
0
0
0
0
0
0
0
0
0
0
0
0
0
0
0
0
0
0
0
0
0
0
0
0
0
0
0
0
0
0
0
0
0
0
0
0
0
0
0
0
0
0
0
0
0
0
0
0
0
0
0
0
0
0
0
0
0
0
0
0
0
0
0
0
0
0
0
0
0
0
0
0
0
0
0
0
0
0
0
0
0
0
0
0
0
0
0
0
0
0
0
0
0
0
0
0
0
0
0
0
0
0
0
0
0
0
0
0
0
0
0
0
0
0
0
0
0
0
0
0
0
0
0
0
0
0
0
0
0
0
0
0
0
0
0
0
0
0
0
0
0
0
0
0
0
0
0
0
0
0
0
0
0
0
0
0
0
0
0
0
0
0
0
0
0
0
0
0
0
0
0
0
0
0
0
0
0
0
0
0
0
0
0
0
0
0
0
0
0
0
0
0
0
0
0
0
0
0
0
0
0
0
0
0
0
0
0
0
0
0
0
0
0
0
0
0
0
0
0
0
0
0
0
0
0
0
0
0
0
0
0
0
0
0
0
0
0
0
0
0
0
0
0
0
0
0
0
0
0
0
0
0
0
0
0
0
0
0
0
0
0
0
0
0
0
0
0
0
0
0
0
0
0
0
0
0
0
0
0
0
0
0
0
0
0
0
0
0
0
0
0
0
0
0
0
0
0
0
0
0
0
209
209
209
209
209
210
210
210
210
210
210
209
209
210
210
210
210
211
209
209
210
210
207
207
166
158
158
159
157
157
156
203
250
250
254
255
253
255
255
255
255
255
254
254
255
255
255
255
254
254
254
254
254
254
254
254
254
254
255
255
255
255
254
254
0
0
0
0
0
0
0
0
0
0
0
0
0
0
0
0
0
0
0
0
0
0
0
0
0
0
0
0
0
0
0
0
0
0
0
0
0
0
0
0
0
0
0
0
0
0
0
0
0
0
0
0
0
0
0
0
0
0
0
0
0
0
0
0
0
0
0
0
0
0
0
0
0
0
0
0
0
0
0
0
0
0
0
0
0
0
0
0
0
0
0
0
0
0
0
0
0
0
0
0
0
0
0
0
0
0
0
0
0
0
0
0
0
0
0
0
0
0
0
0
0
0
0
0
0
0
0
0
0
0
0
0
0
0
0
0
0
0
0
0
0
0
0
0
0
0
0
0
0
0
0
0
0
0
0
0
0
0
0
0
0
0
0
0
0
0
0
0
0
0
0
0
0
0
0
0
0
0
0
0
0
0
0
0
0
0
0
0
0
0
0
0
0
0
0
0
0
0
0
0
0
0
0
0
0
0
0
0
0
0
0
0
0
0
0
0
0
0
0
0
0
0
0
0
0
0
0
0
0
0
0
0
0
0
0
0
0
0
0
0
0
0
0
0
0
0
0
0
0
0
0
0
0
0
0
0
0
0
0
0
0
0
0
0
0
0
0
0
0
0
0
0
0
0
0
0
0
0
0
0
0
0
0
0
0
0
0
0
0
0
0
0
0
0
0
0
0
0
0
0
0
0
0
0
0
0
0
0
0
0
0
0
0
0
0
0
0
0
0
0
0
0
0
0
0
0
0
0
0
0
0
0
0
0
0
0
0
0
0
0
0
0
0
0
0
0
0
0
0
0
0
0
0
0
0
0
0
0
0
0
0
0
0
0
0
0
0
0
0
0
0
0
0
0
0
0
0
0
0
0
0
0
0
0
0
0
0
0
0
0
0
0
0
0
0
0
0
0
0
0
0
0
0
0
0
0
0
0
0
0
0
0
0
0
0
0
0
0
0
0
0
0
0
0
0
0
0
0
0
0
0
0
0
0
0
0
0
0
0
0
0
0
0
0
0
0
0
0
0
0
0
0
0
0
0
0
0
0
0
0
0
0
0
0
0
0
0
0
0
0
0
0
0
0
0
0
0
0
0
0
0
0
0
0
0
0
0
0
0
0
0
0
0
0
0
0
0
0
0
0
0
0
0
0
0
0
209
209
209
209
209
210
210
210
209
210
210
209
209
209
210
210
209
209
211
209
209
210
210
208
208
167
158
159
160
157
156
156
207
250
250
254
253
254
254
255
255
255
255
254
255
255
255
255
255
254
254
254
254
254
255
255
255
255
255
255
255
255
255
254
254
0
0
0
0
0
0
0
0
0
0
0
0
0
0
0
0
0
0
0
0
0
0
0
0
0
0
0
0
0
0
0
0
0
0
0
0
0
0
0
0
0
0
0
0
0
0
0
0
0
0
0
0
0
0
0
0
0
0
0
0
0
0
0
0
0
0
0
0
0
0
0
0
0
0
0
0
0
0
0
0
0
0
0
0
0
0
0
0
0
0
0
0
0
0
0
0
0
0
0
0
0
0
0
0
0
0
0
0
0
0
0
0
0
0
0
0
0
0
0
0
0
0
0
0
0
0
0
0
0
0
0
0
0
0
0
0
0
0
0
0
0
0
0
0
0
0
0
0
0
0
0
0
0
0
0
0
0
0
0
0
0
0
0
0
0
0
0
0
0
0
0
0
0
0
0
0
0
0
0
0
0
0
0
0
0
0
0
0
0
0
0
0
0
0
0
0
0
0
0
0
0
0
0
0
0
0
0
0
0
0
0
0
0
0
0
0
0
0
0
0
0
0
0
0
0
0
0
0
0
0
0
0
0
0
0
0
0
0
0
0
0
0
0
0
0
0
0
0
0
0
0
0
0
0
0
0
0
0
0
0
0
0
0
0
0
0
0
0
0
0
0
0
0
0
0
0
0
0
0
0
0
0
0
0
0
0
0
0
0
0
0
0
0
0
0
0
0
0
0
0
0
0
0
0
0
0
0
0
0
0
0
0
0
0
0
0
0
0
0
0
0
0
0
0
0
0
0
0
0
0
0
0
0
0
0
0
0
0
0
0
0
0
0
0
0
0
0
0
0
0
0
0
0
0
0
0
0
0
0
0
0
0
0
0
0
0
0
0
0
0
0
0
0
0
0
0
0
0
0
0
0
0
0
0
0
0
0
0
0
0
0
0
0
0
0
0
0
0
0
0
0
0
0
0
0
0
0
0
0
0
0
0
0
0
0
0
0
0
0
0
0
0
0
0
0
0
0
0
0
0
0
0
0
0
0
0
0
0
0
0
0
0
0
0
0
0
0
0
0
0
0
0
0
0
0
0
0
0
0
0
0
0
0
0
0
0
0
0
0
0
0
0
0
0
0
0
0
0
0
0
0
0
0
0
0
0
0
0
0
0
0
0
0
0
0
0
0
0
0
0
0
0
0
0
0
209
209
209
209
209
209
210
210
210
210
210
210
209
209
209
210
210
209
210
209
210
210
210
209
208
208
168
159
159
161
157
157
155
224
250
250
254
255
255
253
255
255
255
255
255
255
255
255
255
255
254
254
254
254
255
255
255
255
255
254
255
255
255
254
254
254
0
0
0
0
0
0
0
0
0
0
0
0
0
0
0
0
0
0
0
0
0
0
0
0
0
0
0
0
0
0
0
0
0
0
0
0
0
0
0
0
0
0
0
0
0
0
0
0
0
0
0
0
0
0
0
0
0
0
0
0
0
0
0
0
0
0
0
0
0
0
0
0
0
0
0
0
0
0
0
0
0
0
0
0
0
0
0
0
0
0
0
0
0
0
0
0
0
0
0
0
0
0
0
0
0
0
0
0
0
0
0
0
0
0
0
0
0
0
0
0
0
0
0
0
0
0
0
0
0
0
0
0
0
0
0
0
0
0
0
0
0
0
0
0
0
0
0
0
0
0
0
0
0
0
0
0
0
0
0
0
0
0
0
0
0
0
0
0
0
0
0
0
0
0
0
0
0
0
0
0
0
0
0
0
0
0
0
0
0
0
0
0
0
0
0
0
0
0
0
0
0
0
0
0
0
0
0
0
0
0
0
0
0
0
0
0
0
0
0
0
0
0
0
0
0
0
0
0
0
0
0
0
0
0
0
0
0
0
0
0
0
0
0
0
0
0
0
0
0
0
0
0
0
0
0
0
0
0
0
0
0
0
0
0
0
0
0
0
0
0
0
0
0
0
0
0
0
0
0
0
0
0
0
0
0
0
0
0
0
0
0
0
0
0
0
0
0
0
0
0
0
0
0
0
0
0
0
0
0
0
0
0
0
0
0
0
0
0
0
0
0
0
0
0
0
0
0
0
0
0
0
0
0
0
0
0
0
0
0
0
0
0
0
0
0
0
0
0
0
0
0
0
0
0
0
0
0
0
0
0
0
0
0
0
0
0
0
0
0
0
0
0
0
0
0
0
0
0
0
0
0
0
0
0
0
0
0
0
0
0
0
0
0
0
0
0
0
0
0
0
0
0
0
0
0
0
0
0
0
0
0
0
0
0
0
0
0
0
0
0
0
0
0
0
0
0
0
0
0
0
0
0
0
0
0
0
0
0
0
0
0
0
0
0
0
0
0
0
0
0
0
0
0
0
0
0
0
0
0
0
0
0
0
0
0
0
0
0
0
0
0
0
0
0
0
0
0
0
0
0
0
0
0
0
0
0
0
0
0
0
0
0
0
0
0
0
0
0
0
0
0
0
0
0
209
209
209
209
209
209
209
210
209
210
210
210
210
209
210
210
210
211
210
211
210
210
210
210
209
207
206
167
158
159
159
158
158
153
232
251
251
255
255
255
253
255
255
255
255
255
255
255
255
255
254
254
254
254
254
255
255
255
255
254
254
254
254
254
254
254
254
0
0
0
0
0
0
0
0
0
0
0
0
0
0
0
0
0
0
0
0
0
0
0
0
0
0
0
0
0
0
0
0
0
0
0
0
0
0
0
0
0
0
0
0
0
0
0
0
0
0
0
0
0
0
0
0
0
0
0
0
0
0
0
0
0
0
0
0
0
0
0
0
0
0
0
0
0
0
0
0
0
0
0
0
0
0
0
0
0
0
0
0
0
0
0
0
0
0
0
0
0
0
0
0
0
0
0
0
0
0
0
0
0
0
0
0
0
0
0
0
0
0
0
0
0
0
0
0
0
0
0
0
0
0
0
0
0
0
0
0
0
0
0
0
0
0
0
0
0
0
0
0
0
0
0
0
0
0
0
0
0
0
0
0
0
0
0
0
0
0
0
0
0
0
0
0
0
0
0
0
0
0
0
0
0
0
0
0
0
0
0
0
0
0
0
0
0
0
0
0
0
0
0
0
0
0
0
0
0
0
0
0
0
0
0
0
0
0
0
0
0
0
0
0
0
0
0
0
0
0
0
0
0
0
0
0
0
0
0
0
0
0
0
0
0
0
0
0
0
0
0
0
0
0
0
0
0
0
0
0
0
0
0
0
0
0
0
0
0
0
0
0
0
0
0
0
0
0
0
0
0
0
0
0
0
0
0
0
0
0
0
0
0
0
0
0
0
0
0
0
0
0
0
0
0
0
0
0
0
0
0
0
0
0
0
0
0
0
0
0
0
0
0
0
0
0
0
0
0
0
0
0
0
0
0
0
0
0
0
0
0
0
0
0
0
0
0
0
0
0
0
0
0
0
0
0
0
0
0
0
0
0
0
0
0
0
0
0
0
0
0
0
0
0
0
0
0
0
0
0
0
0
0
0
0
0
0
0
0
0
0
0
0
0
0
0
0
0
0
0
0
0
0
0
0
0
0
0
0
0
0
0
0
0
0
0
0
0
0
0
0
0
0
0
0
0
0
0
0
0
0
0
0
0
0
0
0
0
0
0
0
0
0
0
0
0
0
0
0
0
0
0
0
0
0
0
0
0
0
0
0
0
0
0
0
0
0
0
0
0
0
0
0
0
0
0
0
0
0
0
0
0
0
0
0
0
0
0
0
0
0
0
0
0
0
0
0
0
0
0
0
0
0
209
209
209
209
209
209
209
209
209
209
209
210
210
209
210
210
210
210
210
211
210
210
210
210
210
209
206
208
162
159
159
158
155
155
159
245
251
252
255
255
254
255
255
255
255
255
255
255
255
255
255
254
254
254
254
255
255
255
254
254
254
254
254
254
254
254
254
254
0
0
0
0
0
0
0
0
0
0
0
0
0
0
0
0
0
0
0
0
0
0
0
0
0
0
0
0
0
0
0
0
0
0
0
0
0
0
0
0
0
0
0
0
0
0
0
0
0
0
0
0
0
0
0
0
0
0
0
0
0
0
0
0
0
0
0
0
0
0
0
0
0
0
0
0
0
0
0
0
0
0
0
0
0
0
0
0
0
0
0
0
0
0
0
0
0
0
0
0
0
0
0
0
0
0
0
0
0
0
0
0
0
0
0
0
0
0
0
0
0
0
0
0
0
0
0
0
0
0
0
0
0
0
0
0
0
0
0
0
0
0
0
0
0
0
0
0
0
0
0
0
0
0
0
0
0
0
0
0
0
0
0
0
0
0
0
0
0
0
0
0
0
0
0
0
0
0
0
0
0
0
0
0
0
0
0
0
0
0
0
0
0
0
0
0
0
0
0
0
0
0
0
0
0
0
0
0
0
0
0
0
0
0
0
0
0
0
0
0
0
0
0
0
0
0
0
0
0
0
0
0
0
0
0
0
0
0
0
0
0
0
0
0
0
0
0
0
0
0
0
0
0
0
0
0
0
0
0
0
0
0
0
0
0
0
0
0
0
0
0
0
0
0
0
0
0
0
0
0
0
0
0
0
0
0
0
0
0
0
0
0
0
0
0
0
0
0
0
0
0
0
0
0
0
0
0
0
0
0
0
0
0
0
0
0
0
0
0
0
0
0
0
0
0
0
0
0
0
0
0
0
0
0
0
0
0
0
0
0
0
0
0
0
0
0
0
0
0
0
0
0
0
0
0
0
0
0
0
0
0
0
0
0
0
0
0
0
0
0
0
0
0
0
0
0
0
0
0
0
0
0
0
0
0
0
0
0
0
0
0
0
0
0
0
0
0
0
0
0
0
0
0
0
0
0
0
0
0
0
0
0
0
0
0
0
0
0
0
0
0
0
0
0
0
0
0
0
0
0
0
0
0
0
0
0
0
0
0
0
0
0
0
0
0
0
0
0
0
0
0
0
0
0
0
0
0
0
0
0
0
0
0
0
0
0
0
0
0
0
0
0
0
0
0
0
0
0
0
0
0
0
0
0
0
0
0
0
0
0
0
0
0
0
0
0
0
0
0
0
0
0
210
209
209
209
209
209
209
209
209
209
209
209
209
209
209
211
210
210
211
210
210
210
210
210
209
211
209
207
207
161
160
158
159
154
155
168
248
252
252
254
254
255
255
255
255
255
255
255
254
255
255
255
255
254
254
254
254
255
254
254
254
254
254
254
255
255
254
254
254
0
0
0
0
0
0
0
0
0
0
0
0
0
0
0
0
0
0
0
0
0
0
0
0
0
0
0
0
0
0
0
0
0
0
0
0
0
0
0
0
0
0
0
0
0
0
0
0
0
0
0
0
0
0
0
0
0
0
0
0
0
0
0
0
0
0
0
0
0
0
0
0
0
0
0
0
0
0
0
0
0
0
0
0
0
0
0
0
0
0
0
0
0
0
0
0
0
0
0
0
0
0
0
0
0
0
0
0
0
0
0
0
0
0
0
0
0
0
0
0
0
0
0
0
0
0
0
0
0
0
0
0
0
0
0
0
0
0
0
0
0
0
0
0
0
0
0
0
0
0
0
0
0
0
0
0
0
0
0
0
0
0
0
0
0
0
0
0
0
0
0
0
0
0
0
0
0
0
0
0
0
0
0
0
0
0
0
0
0
0
0
0
0
0
0
0
0
0
0
0
0
0
0
0
0
0
0
0
0
0
0
0
0
0
0
0
0
0
0
0
0
0
0
0
0
0
0
0
0
0
0
0
0
0
0
0
0
0
0
0
0
0
0
0
0
0
0
0
0
0
0
0
0
0
0
0
0
0
0
0
0
0
0
0
0
0
0
0
0
0
0
0
0
0
0
0
0
0
0
0
0
0
0
0
0
0
0
0
0
0
0
0
0
0
0
0
0
0
0
0
0
0
0
0
0
0
0
0
0
0
0
0
0
0
0
0
0
0
0
0
0
0
0
0
0
0
0
0
0
0
0
0
0
0
0
0
0
0
0
0
0
0
0
0
0
0
0
0
0
0
0
0
0
0
0
0
0
0
0
0
0
0
0
0
0
0
0
0
0
0
0
0
0
0
0
0
0
0
0
0
0
0
0
0
0
0
0
0
0
0
0
0
0
0
0
0
0
0
0
0
0
0
0
0
0
0
0
0
0
0
0
0
0
0
0
0
0
0
0
0
0
0
0
0
0
0
0
0
0
0
0
0
0
0
0
0
0
0
0
0
0
0
0
0
0
0
0
0
0
0
0
0
0
0
0
0
0
0
0
0
0
0
0
0
0
0
0
0
0
0
0
0
0
0
0
0
0
0
0
0
0
0
0
0
0
0
0
0
0
0
0
0
0
0
0
0
0
0
0
0
0
210
210
209
209
209
209
209
209
209
209
209
209
209
209
208
210
209
210
209
208
210
210
209
208
209
207
212
209
204
200
159
158
159
158
155
157
195
250
255
255
252
255
255
254
255
255
255
254
254
255
255
255
255
255
255
254
254
254
254
254
254
254
254
255
255
255
255
254
254
254
0
0
0
0
0
0
0
0
0
0
0
0
0
0
0
0
0
0
0
0
0
0
0
0
0
0
0
0
0
0
0
0
0
0
0
0
0
0
0
0
0
0
0
0
0
0
0
0
0
0
0
0
0
0
0
0
0
0
0
0
0
0
0
0
0
0
0
0
0
0
0
0
0
0
0
0
0
0
0
0
0
0
0
0
0
0
0
0
0
0
0
0
0
0
0
0
0
0
0
0
0
0
0
0
0
0
0
0
0
0
0
0
0
0
0
0
0
0
0
0
0
0
0
0
0
0
0
0
0
0
0
0
0
0
0
0
0
0
0
0
0
0
0
0
0
0
0
0
0
0
0
0
0
0
0
0
0
0
0
0
0
0
0
0
0
0
0
0
0
0
0
0
0
0
0
0
0
0
0
0
0
0
0
0
0
0
0
0
0
0
0
0
0
0
0
0
0
0
0
0
0
0
0
0
0
0
0
0
0
0
0
0
0
0
0
0
0
0
0
0
0
0
0
0
0
0
0
0
0
0
0
0
0
0
0
0
0
0
0
0
0
0
0
0
0
0
0
0
0
0
0
0
0
0
0
0
0
0
0
0
0
0
0
0
0
0
0
0
0
0
0
0
0
0
0
0
0
0
0
0
0
0
0
0
0
0
0
0
0
0
0
0
0
0
0
0
0
0
0
0
0
0
0
0
0
0
0
0
0
0
0
0
0
0
0
0
0
0
0
0
0
0
0
0
0
0
0
0
0
0
0
0
0
0
0
0
0
0
0
0
0
0
0
0
0
0
0
0
0
0
0
0
0
0
0
0
0
0
0
0
0
0
0
0
0
0
0
0
0
0
0
0
0
0
0
0
0
0
0
0
0
0
0
0
0
0
0
0
0
0
0
0
0
0
0
0
0
0
0
0
0
0
0
0
0
0
0
0
0
0
0
0
0
0
0
0
0
0
0
0
0
0
0
0
0
0
0
0
0
0
0
0
0
0
0
0
0
0
0
0
0
0
0
0
0
0
0
0
0
0
0
0
0
0
0
0
0
0
0
0
0
0
0
0
0
0
0
0
0
0
0
0
0
0
0
0
0
0
0
0
0
0
0
0
0
0
0
0
0
0
0
0
0
0
0
0
0
0
0
0
210
209
209
209
209
209
209
209
209
209
209
209
209
211
210
212
212
209
209
209
209
208
209
209
211
209
209
210
210
196
196
159
159
159
157
155
155
217
251
254
254
254
254
254
254
255
254
254
254
255
255
255
255
255
255
255
254
254
254
254
254
254
255
255
255
255
255
255
254
254
254
0
0
0
0
0
0
0
0
0
0
0
0
0
0
0
0
0
0
0
0
0
0
0
0
0
0
0
0
0
0
0
0
0
0
0
0
0
0
0
0
0
0
0
0
0
0
0
0
0
0
0
0
0
0
0
0
0
0
0
0
0
0
0
0
0
0
0
0
0
0
0
0
0
0
0
0
0
0
0
0
0
0
0
0
0
0
0
0
0
0
0
0
0
0
0
0
0
0
0
0
0
0
0
0
0
0
0
0
0
0
0
0
0
0
0
0
0
0
0
0
0
0
0
0
0
0
0
0
0
0
0
0
0
0
0
0
0
0
0
0
0
0
0
0
0
0
0
0
0
0
0
0
0
0
0
0
0
0
0
0
0
0
0
0
0
0
0
0
0
0
0
0
0
0
0
0
0
0
0
0
0
0
0
0
0
0
0
0
0
0
0
0
0
0
0
0
0
0
0
0
0
0
0
0
0
0
0
0
0
0
0
0
0
0
0
0
0
0
0
0
0
0
0
0
0
0
0
0
0
0
0
0
0
0
0
0
0
0
0
0
0
0
0
0
0
0
0
0
0
0
0
0
0
0
0
0
0
0
0
0
0
0
0
0
0
0
0
0
0
0
0
0
0
0
0
0
0
0
0
0
0
0
0
0
0
0
0
0
0
0
0
0
0
0
0
0
0
0
0
0
0
0
0
0
0
0
0
0
0
0
0
0
0
0
0
0
0
0
0
0
0
0
0
0
0
0
0
0
0
0
0
0
0
0
0
0
0
0
0
0
0
0
0
0
0
0
0
0
0
0
0
0
0
0
0
0
0
0
0
0
0
0
0
0
0
0
0
0
0
0
0
0
0
0
0
0
0
0
0
0
0
0
0
0
0
0
0
0
0
0
0
0
0
0
0
0
0
0
0
0
0
0
0
0
0
0
0
0
0
0
0
0
0
0
0
0
0
0
0
0
0
0
0
0
0
0
0
0
0
0
0
0
0
0
0
0
0
0
0
0
0
0
0
0
0
0
0
0
0
0
0
0
0
0
0
0
0
0
0
0
0
0
0
0
0
0
0
0
0
0
0
0
0
0
0
0
0
0
0
0
0
0
0
0
0
0
0
0
0
0
0
0
0
0
0
0
0
0
0
209
209
209
209
210
209
209
209
209
209
209
209
208
209
208
211
211
209
209
211
217
218
208
207
208
210
210
211
209
211
188
179
159
159
159
158
159
158
245
253
253
254
255
254
253
254
255
255
255
254
255
255
255
255
254
255
255
254
254
254
255
255
255
255
255
255
255
255
254
254
254
254
0
0
0
0
0
0
0
0
0
0
0
0
0
0
0
0
0
0
0
0
0
0
0
0
0
0
0
0
0
0
0
0
0
0
0
0
0
0
0
0
0
0
0
0
0
0
0
0
0
0
0
0
0
0
0
0
0
0
0
0
0
0
0
0
0
0
0
0
0
0
0
0
0
0
0
0
0
0
0
0
0
0
0
0
0
0
0
0
0
0
0
0
0
0
0
0
0
0
0
0
0
0
0
0
0
0
0
0
0
0
0
0
0
0
0
0
0
0
0
0
0
0
0
0
0
0
0
0
0
0
0
0
0
0
0
0
0
0
0
0
0
0
0
0
0
0
0
0
0
0
0
0
0
0
0
0
0
0
0
0
0
0
0
0
0
0
0
0
0
0
0
0
0
0
0
0
0
0
0
0
0
0
0
0
0
0
0
0
0
0
0
0
0
0
0
0
0
0
0
0
0
0
0
0
0
0
0
0
0
0
0
0
0
0
0
0
0
0
0
0
0
0
0
0
0
0
0
0
0
0
0
0
0
0
0
0
0
0
0
0
0
0
0
0
0
0
0
0
0
0
0
0
0
0
0
0
0
0
0
0
0
0
0
0
0
0
0
0
0
0
0
0
0
0
0
0
0
0
0
0
0
0
0
0
0
0
0
0
0
0
0
0
0
0
0
0
0
0
0
0
0
0
0
0
0
0
0
0
0
0
0
0
0
0
0
0
0
0
0
0
0
0
0
0
0
0
0
0
0
0
0
0
0
0
0
0
0
0
0
0
0
0
0
0
0
0
0
0
0
0
0
0
0
0
0
0
0
0
0
0
0
0
0
0
0
0
0
0
0
0
0
0
0
0
0
0
0
0
0
0
0
0
0
0
0
0
0
0
0
0
0
0
0
0
0
0
0
0
0
0
0
0
0
0
0
0
0
0
0
0
0
0
0
0
0
0
0
0
0
0
0
0
0
0
0
0
0
0
0
0
0
0
0
0
0
0
0
0
0
0
0
0
0
0
0
0
0
0
0
0
0
0
0
0
0
0
0
0
0
0
0
0
0
0
0
0
0
0
0
0
0
0
0
0
0
0
0
0
0
0
0
0
0
0
0
0
0
0
0
0
0
0
0
0
0
0
0
0
209
210
210
210
210
210
209
209
209
209
209
209
209
209
209
209
209
209
209
217
221
221
222
211
208
209
208
210
210
208
208
179
172
158
159
159
158
166
166
250
253
254
254
252
252
252
255
255
255
255
255
255
255
255
254
254
255
255
254
255
255
255
255
255
255
255
255
254
254
254
254
254
254
0
0
0
0
0
0
0
0
0
0
0
0
0
0
0
0
0
0
0
0
0
0
0
0
0
0
0
0
0
0
0
0
0
0
0
0
0
0
0
0
0
0
0
0
0
0
0
0
0
0
0
0
0
0
0
0
0
0
0
0
0
0
0
0
0
0
0
0
0
0
0
0
0
0
0
0
0
0
0
0
0
0
0
0
0
0
0
0
0
0
0
0
0
0
0
0
0
0
0
0
0
0
0
0
0
0
0
0
0
0
0
0
0
0
0
0
0
0
0
0
0
0
0
0
0
0
0
0
0
0
0
0
0
0
0
0
0
0
0
0
0
0
0
0
0
0
0
0
0
0
0
0
0
0
0
0
0
0
0
0
0
0
0
0
0
0
0
0
0
0
0
0
0
0
0
0
0
0
0
0
0
0
0
0
0
0
0
0
0
0
0
0
0
0
0
0
0
0
0
0
0
0
0
0
0
0
0
0
0
0
0
0
0
0
0
0
0
0
0
0
0
0
0
0
0
0
0
0
0
0
0
0
0
0
0
0
0
0
0
0
0
0
0
0
0
0
0
0
0
0
0
0
0
0
0
0
0
0
0
0
0
0
0
0
0
0
0
0
0
0
0
0
0
0
0
0
0
0
0
0
0
0
0
0
0
0
0
0
0
0
0
0
0
0
0
0
0
0
0
0
0
0
0
0
0
0
0
0
0
0
0
0
0
0
0
0
0
0
0
0
0
0
0
0
0
0
0
0
0
0
0
0
0
0
0
0
0
0
0
0
0
0
0
0
0
0
0
0
0
0
0
0
0
0
0
0
0
0
0
0
0
0
0
0
0
0
0
0
0
0
0
0
0
0
0
0
0
0
0
0
0
0
0
0
0
0
0
0
0
0
0
0
0
0
0
0
0
0
0
0
0
0
0
0
0
0
0
0
0
0
0
0
0
0
0
0
0
0
0
0
0
0
0
0
0
0
0
0
0
0
0
0
0
0
0
0
0
0
0
0
0
0
0
0
0
0
0
0
0
0
0
0
0
0
0
0
0
0
0
0
0
0
0
0
0
0
0
0
0
0
0
0
0
0
0
0
0
0
0
0
0
0
0
0
0
0
0
0
0
0
0
0
0
0
0
0
0
209
210
210
210
210
210
210
209
209
209
209
209
209
209
210
210
210
209
216
221
222
223
223
223
212
210
211
207
210
211
208
206
161
161
158
159
157
158
192
220
252
252
255
255
254
255
255
253
255
255
255
255
255
255
254
254
254
255
255
255
255
255
255
254
255
255
254
254
254
254
254
254
254
254
0
0
0
0
0
0
0
0
0
0
0
0
0
0
0
0
0
0
0
0
0
0
0
0
0
0
0
0
0
0
0
0
0
0
0
0
0
0
0
0
0
0
0
0
0
0
0
0
0
0
0
0
0
0
0
0
0
0
0
0
0
0
0
0
0
0
0
0
0
0
0
0
0
0
0
0
0
0
0
0
0
0
0
0
0
0
0
0
0
0
0
0
0
0
0
0
0
0
0
0
0
0
0
0
0
0
0
0
0
0
0
0
0
0
0
0
0
0
0
0
0
0
0
0
0
0
0
0
0
0
0
0
0
0
0
0
0
0
0
0
0
0
0
0
0
0
0
0
0
0
0
0
0
0
0
0
0
0
0
0
0
0
0
0
0
0
0
0
0
0
0
0
0
0
0
0
0
0
0
0
0
0
0
0
0
0
0
0
0
0
0
0
0
0
0
0
0
0
0
0
0
0
0
0
0
0
0
0
0
0
0
0
0
0
0
0
0
0
0
0
0
0
0
0
0
0
0
0
0
0
0
0
0
0
0
0
0
0
0
0
0
0
0
0
0
0
0
0
0
0
0
0
0
0
0
0
0
0
0
0
0
0
0
0
0
0
0
0
0
0
0
0
0
0
0
0
0
0
0
0
0
0
0
0
0
0
0
0
0
0
0
0
0
0
0
0
0
0
0
0
0
0
0
0
0
0
0
0
0
0
0
0
0
0
0
0
0
0
0
0
0
0
0
0
0
0
0
0
0
0
0
0
0
0
0
0
0
0
0
0
0
0
0
0
0
0
0
0
0
0
0
0
0
0
0
0
0
0
0
0
0
0
0
0
0
0
0
0
0
0
0
0
0
0
0
0
0
0
0
0
0
0
0
0
0
0
0
0
0
0
0
0
0
0
0
0
0
0
0
0
0
0
0
0
0
0
0
0
0
0
0
0
0
0
0
0
0
0
0
0
0
0
0
0
0
0
0
0
0
0
0
0
0
0
0
0
0
0
0
0
0
0
0
0
0
0
0
0
0
0
0
0
0
0
0
0
0
0
0
0
0
0
0
0
0
0
0
0
0
0
0
0
0
0
0
0
0
0
0
0
0
0
0
0
0
0
0
0
0
0
0
0
0
0
0
0
210
209
210
209
210
210
210
209
209
209
209
209
209
209
209
210
209
209
215
221
223
221
223
222
222
208
211
211
210
211
211
208
204
160
160
157
157
157
153
220
238
251
253
255
254
254
255
255
255
255
255
255
255
255
254
254
254
254
255
255
255
255
254
254
254
255
255
254
254
254
254
254
254
254
254
0
0
0
0
0
0
0
0
0
0
0
0
0
0
0
0
0
0
0
0
0
0
0
0
0
0
0
0
0
0
0
0
0
0
0
0
0
0
0
0
0
0
0
0
0
0
0
0
0
0
0
0
0
0
0
0
0
0
0
0
0
0
0
0
0
0
0
0
0
0
0
0
0
0
0
0
0
0
0
0
0
0
0
0
0
0
0
0
0
0
0
0
0
0
0
0
0
0
0
0
0
0
0
0
0
0
0
0
0
0
0
0
0
0
0
0
0
0
0
0
0
0
0
0
0
0
0
0
0
0
0
0
0
0
0
0
0
0
0
0
0
0
0
0
0
0
0
0
0
0
0
0
0
0
0
0
0
0
0
0
0
0
0
0
0
0
0
0
0
0
0
0
0
0
0
0
0
0
0
0
0
0
0
0
0
0
0
0
0
0
0
0
0
0
0
0
0
0
0
0
0
0
0
0
0
0
0
0
0
0
0
0
0
0
0
0
0
0
0
0
0
0
0
0
0
0
0
0
0
0
0
0
0
0
0
0
0
0
0
0
0
0
0
0
0
0
0
0
0
0
0
0
0
0
0
0
0
0
0
0
0
0
0
0
0
0
0
0
0
0
0
0
0
0
0
0
0
0
0
0
0
0
0
0
0
0
0
0
0
0
0
0
0
0
0
0
0
0
0
0
0
0
0
0
0
0
0
0
0
0
0
0
0
0
0
0
0
0
0
0
0
0
0
0
0
0
0
0
0
0
0
0
0
0
0
0
0
0
0
0
0
0
0
0
0
0
0
0
0
0
0
0
0
0
0
0
0
0
0
0
0
0
0
0
0
0
0
0
0
0
0
0
0
0
0
0
0
0
0
0
0
0
0
0
0
0
0
0
0
0
0
0
0
0
0
0
0
0
0
0
0
0
0
0
0
0
0
0
0
0
0
0
0
0
0
0
0
0
0
0
0
0
0
0
0
0
0
0
0
0
0
0
0
0
0
0
0
0
0
0
0
0
0
0
0
0
0
0
0
0
0
0
0
0
0
0
0
0
0
0
0
0
0
0
0
0
0
0
0
0
0
0
0
0
0
0
0
0
0
0
0
0
0
0
0
0
0
0
0
0
0
0
0
0
0
210
210
209
209
209
210
210
210
209
209
209
209
209
209
209
209
209
210
207
220
222
222
222
221
221
222
208
210
210
211
213
213
209
181
159
159
158
156
156
164
249
249
254
253
254
254
254
254
254
255
255
255
255
255
254
254
254
254
254
255
255
254
254
254
255
255
255
255
255
255
254
254
254
254
254
254
0
0
0
0
0
0
0
0
0
0
0
0
0
0
0
0
0
0
0
0
0
0
0
0
0
0
0
0
0
0
0
0
0
0
0
0
0
0
0
0
0
0
0
0
0
0
0
0
0
0
0
0
0
0
0
0
0
0
0
0
0
0
0
0
0
0
0
0
0
0
0
0
0
0
0
0
0
0
0
0
0
0
0
0
0
0
0
0
0
0
0
0
0
0
0
0
0
0
0
0
0
0
0
0
0
0
0
0
0
0
0
0
0
0
0
0
0
0
0
0
0
0
0
0
0
0
0
0
0
0
0
0
0
0
0
0
0
0
0
0
0
0
0
0
0
0
0
0
0
0
0
0
0
0
0
0
0
0
0
0
0
0
0
0
0
0
0
0
0
0
0
0
0
0
0
0
0
0
0
0
0
0
0
0
0
0
0
0
0
0
0
0
0
0
0
0
0
0
0
0
0
0
0
0
0
0
0
0
0
0
0
0
0
0
0
0
0
0
0
0
0
0
0
0
0
0
0
0
0
0
0
0
0
0
0
0
0
0
0
0
0
0
0
0
0
0
0
0
0
0
0
0
0
0
0
0
0
0
0
0
0
0
0
0
0
0
0
0
0
0
0
0
0
0
0
0
0
0
0
0
0
0
0
0
0
0
0
0
0
0
0
0
0
0
0
0
0
0
0
0
0
0
0
0
0
0
0
0
0
0
0
0
0
0
0
0
0
0
0
0
0
0
0
0
0
0
0
0
0
0
0
0
0
0
0
0
0
0
0
0
0
0
0
0
0
0
0
0
0
0
0
0
0
0
0
0
0
0
0
0
0
0
0
0
0
0
0
0
0
0
0
0
0
0
0
0
0
0
0
0
0
0
0
0
0
0
0
0
0
0
0
0
0
0
0
0
0
0
0
0
0
0
0
0
0
0
0
0
0
0
0
0
0
0
0
0
0
0
0
0
0
0
0
0
0
0
0
0
0
0
0
0
0
0
0
0
0
0
0
0
0
0
0
0
0
0
0
0
0
0
0
0
0
0
0
0
0
0
0
0
0
0
0
0
0
0
0
0
0
0
0
0
0
0
0
0
0
0
0
0
0
0
0
0
0
0
0
0
0
0
0
0
0
0
210
210
209
209
210
210
210
210
210
209
209
209
209
209
209
209
209
210
209
218
221
221
222
222
221
221
214
209
210
210
209
211
211
206
170
158
158
159
156
155
227
249
254
252
255
254
252
254
254
254
255
255
255
255
255
255
255
254
254
254
254
254
254
255
255
255
255
255
255
255
255
255
255
255
254
254
254
0
0
0
0
0
0
0
0
0
0
0
0
0
0
0
0
0
0
0
0
0
0
0
0
0
0
0
0
0
0
0
0
0
0
0
0
0
0
0
0
0
0
0
0
0
0
0
0
0
0
0
0
0
0
0
0
0
0
0
0
0
0
0
0
0
0
0
0
0
0
0
0
0
0
0
0
0
0
0
0
0
0
0
0
0
0
0
0
0
0
0
0
0
0
0
0
0
0
0
0
0
0
0
0
0
0
0
0
0
0
0
0
0
0
0
0
0
0
0
0
0
0
0
0
0
0
0
0
0
0
0
0
0
0
0
0
0
0
0
0
0
0
0
0
0
0
0
0
0
0
0
0
0
0
0
0
0
0
0
0
0
0
0
0
0
0
0
0
0
0
0
0
0
0
0
0
0
0
0
0
0
0
0
0
0
0
0
0
0
0
0
0
0
0
0
0
0
0
0
0
0
0
0
0
0
0
0
0
0
0
0
0
0
0
0
0
0
0
0
0
0
0
0
0
0
0
0
0
0
0
0
0
0
0
0
0
0
0
0
0
0
0
0
0
0
0
0
0
0
0
0
0
0
0
0
0
0
0
0
0
0
0
0
0
0
0
0
0
0
0
0
0
0
0
0
0
0
0
0
0
0
0
0
0
0
0
0
0
0
0
0
0
0
0
0
0
0
0
0
0
0
0
0
0
0
0
0
0
0
0
0
0
0
0
0
0
0
0
0
0
0
0
0
0
0
0
0
0
0
0
0
0
0
0
0
0
0
0
0
0
0
0
0
0
0
0
0
0
0
0
0
0
0
0
0
0
0
0
0
0
0
0
0
0
0
0
0
0
0
0
0
0
0
0
0
0
0
0
0
0
0
0
0
0
0
0
0
0
0
0
0
0
0
0
0
0
0
0
0
0
0
0
0
0
0
0
0
0
0
0
0
0
0
0
0
0
0
0
0
0
0
0
0
0
0
0
0
0
0
0
0
0
0
0
0
0
0
0
0
0
0
0
0
0
0
0
0
0
0
0
0
0
0
0
0
0
0
0
0
0
0
0
0
0
0
0
0
0
0
0
0
0
0
0
0
0
0
0
0
0
0
0
0
0
0
0
0
0
0
0
0
0
0
209
210
210
210
209
210
209
210
210
210
209
209
209
209
209
209
209
210
211
211
222
221
223
223
222
221
221
209
210
210
210
209
211
211
200
159
158
158
160
155
155
246
254
254
253
254
252
254
255
253
253
254
255
255
255
255
255
255
255
254
254
254
255
255
255
255
255
255
255
255
255
255
255
254
254
254
254
254
0
0
0
0
0
0
0
0
0
0
0
0
0
0
0
0
0
0
0
0
0
0
0
0
0
0
0
0
0
0
0
0
0
0
0
0
0
0
0
0
0
0
0
0
0
0
0
0
0
0
0
0
0
0
0
0
0
0
0
0
0
0
0
0
0
0
0
0
0
0
0
0
0
0
0
0
0
0
0
0
0
0
0
0
0
0
0
0
0
0
0
0
0
0
0
0
0
0
0
0
0
0
0
0
0
0
0
0
0
0
0
0
0
0
0
0
0
0
0
0
0
0
0
0
0
0
0
0
0
0
0
0
0
0
0
0
0
0
0
0
0
0
0
0
0
0
0
0
0
0
0
0
0
0
0
0
0
0
0
0
0
0
0
0
0
0
0
0
0
0
0
0
0
0
0
0
0
0
0
0
0
0
0
0
0
0
0
0
0
0
0
0
0
0
0
0
0
0
0
0
0
0
0
0
0
0
0
0
0
0
0
0
0
0
0
0
0
0
0
0
0
0
0
0
0
0
0
0
0
0
0
0
0
0
0
0
0
0
0
0
0
0
0
0
0
0
0
0
0
0
0
0
0
0
0
0
0
0
0
0
0
0
0
0
0
0
0
0
0
0
0
0
0
0
0
0
0
0
0
0
0
0
0
0
0
0
0
0
0
0
0
0
0
0
0
0
0
0
0
0
0
0
0
0
0
0
0
0
0
0
0
0
0
0
0
0
0
0
0
0
0
0
0
0
0
0
0
0
0
0
0
0
0
0
0
0
0
0
0
0
0
0
0
0
0
0
0
0
0
0
0
0
0
0
0
0
0
0
0
0
0
0
0
0
0
0
0
0
0
0
0
0
0
0
0
0
0
0
0
0
0
0
0
0
0
0
0
0
0
0
0
0
0
0
0
0
0
0
0
0
0
0
0
0
0
0
0
0
0
0
0
0
0
0
0
0
0
0
0
0
0
0
0
0
0
0
0
0
0
0
0
0
0
0
0
0
0
0
0
0
0
0
0
0
0
0
0
0
0
0
0
0
0
0
0
0
0
0
0
0
0
0
0
0
0
0
0
0
0
0
0
0
0
0
0
0
0
0
0
0
0
0
0
0
0
0
0
0
0
0
0
0
209
209
210
210
210
209
210
210
210
209
209
209
209
209
209
209
210
209
210
214
217
224
221
223
222
222
220
216
210
211
210
210
209
210
206
186
159
158
158
159
170
210
251
251
254
254
253
255
253
255
254
255
254
255
255
255
255
255
255
255
254
255
255
255
254
254
254
255
254
255
255
255
255
254
254
254
254
254
254
0
0
0
0
0
0
0
0
0
0
0
0
0
0
0
0
0
0
0
0
0
0
0
0
0
0
0
0
0
0
0
0
0
0
0
0
0
0
0
0
0
0
0
0
0
0
0
0
0
0
0
0
0
0
0
0
0
0
0
0
0
0
0
0
0
0
0
0
0
0
0
0
0
0
0
0
0
0
0
0
0
0
0
0
0
0
0
0
0
0
0
0
0
0
0
0
0
0
0
0
0
0
0
0
0
0
0
0
0
0
0
0
0
0
0
0
0
0
0
0
0
0
0
0
0
0
0
0
0
0
0
0
0
0
0
0
0
0
0
0
0
0
0
0
0
0
0
0
0
0
0
0
0
0
0
0
0
0
0
0
0
0
0
0
0
0
0
0
0
0
0
0
0
0
0
0
0
0
0
0
0
0
0
0
0
0
0
0
0
0
0
0
0
0
0
0
0
0
0
0
0
0
0
0
0
0
0
0
0
0
0
0
0
0
0
0
0
0
0
0
0
0
0
0
0
0
0
0
0
0
0
0
0
0
0
0
0
0
0
0
0
0
0
0
0
0
0
0
0
0
0
0
0
0
0
0
0
0
0
0
0
0
0
0
0
0
0
0
0
0
0
0
0
0
0
0
0
0
0
0
0
0
0
0
0
0
0
0
0
0
0
0
0
0
0
0
0
0
0
0
0
0
0
0
0
0
0
0
0
0
0
0
0
0
0
0
0
0
0
0
0
0
0
0
0
0
0
0
0
0
0
0
0
0
0
0
0
0
0
0
0
0
0
0
0
0
0
0
0
0
0
0
0
0
0
0
0
0
0
0
0
0
0
0
0
0
0
0
0
0
0
0
0
0
0
0
0
0
0
0
0
0
0
0
0
0
0
0
0
0
0
0
0
0
0
0
0
0
0
0
0
0
0
0
0
0
0
0
0
0
0
0
0
0
0
0
0
0
0
0
0
0
0
0
0
0
0
0
0
0
0
0
0
0
0
0
0
0
0
0
0
0
0
0
0
0
0
0
0
0
0
0
0
0
0
0
0
0
0
0
0
0
0
0
0
0
0
0
0
0
0
0
0
0
0
0
0
0
0
0
0
0
0
0
0
0
0
0
0
0
0
209
209
209
210
209
209
210
210
210
210
209
209
209
209
209
210
209
209
209
211
221
221
222
223
222
220
223
216
213
208
210
210
209
210
206
202
156
163
158
157
156
210
241
254
254
254
254
254
253
254
255
255
255
254
255
255
255
255
255
255
254
255
255
255
255
254
254
254
254
254
255
255
255
255
254
254
254
255
254
254
0
0
0
0
0
0
0
0
0
0
0
0
0
0
0
0
0
0
0
0
0
0
0
0
0
0
0
0
0
0
0
0
0
0
0
0
0
0
0
0
0
0
0
0
0
0
0
0
0
0
0
0
0
0
0
0
0
0
0
0
0
0
0
0
0
0
0
0
0
0
0
0
0
0
0
0
0
0
0
0
0
0
0
0
0
0
0
0
0
0
0
0
0
0
0
0
0
0
0
0
0
0
0
0
0
0
0
0
0
0
0
0
0
0
0
0
0
0
0
0
0
0
0
0
0
0
0
0
0
0
0
0
0
0
0
0
0
0
0
0
0
0
0
0
0
0
0
0
0
0
0
0
0
0
0
0
0
0
0
0
0
0
0
0
0
0
0
0
0
0
0
0
0
0
0
0
0
0
0
0
0
0
0
0
0
0
0
0
0
0
0
0
0
0
0
0
0
0
0
0
0
0
0
0
0
0
0
0
0
0
0
0
0
0
0
0
0
0
0
0
0
0
0
0
0
0
0
0
0
0
0
0
0
0
0
0
0
0
0
0
0
0
0
0
0
0
0
0
0
0
0
0
0
0
0
0
0
0
0
0
0
0
0
0
0
0
0
0
0
0
0
0
0
0
0
0
0
0
0
0
0
0
0
0
0
0
0
0
0
0
0
0
0
0
0
0
0
0
0
0
0
0
0
0
0
0
0
0
0
0
0
0
0
0
0
0
0
0
0
0
0
0
0
0
0
0
0
0
0
0
0
0
0
0
0
0
0
0
0
0
0
0
0
0
0
0
0
0
0
0
0
0
0
0
0
0
0
0
0
0
0
0
0
0
0
0
0
0
0
0
0
0
0
0
0
0
0
0
0
0
0
0
0
0
0
0
0
0
0
0
0
0
0
0
0
0
0
0
0
0
0
0
0
0
0
0
0
0
0
0
0
0
0
0
0
0
0
0
0
0
0
0
0
0
0
0
0
0
0
0
0
0
0
0
0
0
0
0
0
0
0
0
0
0
0
0
0
0
0
0
0
0
0
0
0
0
0
0
0
0
0
0
0
0
0
0
0
0
0
0
0
0
0
0
0
0
0
0
0
0
0
0
0
0
0
0
0
0
0
0
209
209
209
209
209
209
209
210
210
210
209
209
209
209
208
210
210
210
208
209
213
223
224
221
223
222
222
220
210
208
209
209
210
210
208
197
171
157
156
159
159
163
251
251
254
252
253
255
254
254
254
254
255
255
254
255
255
255
255
254
254
254
255
255
255
255
254
254
254
254
255
255
255
255
255
254
254
254
255
254
254
0
0
0
0
0
0
0
0
0
0
0
0
0
0
0
0
0
0
0
0
0
0
0
0
0
0
0
0
0
0
0
0
0
0
0
0
0
0
0
0
0
0
0
0
0
0
0
0
0
0
0
0
0
0
0
0
0
0
0
0
0
0
0
0
0
0
0
0
0
0
0
0
0
0
0
0
0
0
0
0
0
0
0
0
0
0
0
0
0
0
0
0
0
0
0
0
0
0
0
0
0
0
0
0
0
0
0
0
0
0
0
0
0
0
0
0
0
0
0
0
0
0
0
0
0
0
0
0
0
0
0
0
0
0
0
0
0
0
0
0
0
0
0
0
0
0
0
0
0
0
0
0
0
0
0
0
0
0
0
0
0
0
0
0
0
0
0
0
0
0
0
0
0
0
0
0
0
0
0
0
0
0
0
0
0
0
0
0
0
0
0
0
0
0
0
0
0
0
0
0
0
0
0
0
0
0
0
0
0
0
0
0
0
0
0
0
0
0
0
0
0
0
0
0
0
0
0
0
0
0
0
0
0
0
0
0
0
0
0
0
0
0
0
0
0
0
0
0
0
0
0
0
0
0
0
0
0
0
0
0
0
0
0
0
0
0
0
0
0
0
0
0
0
0
0
0
0
0
0
0
0
0
0
0
0
0
0
0
0
0
0
0
0
0
0
0
0
0
0
0
0
0
0
0
0
0
0
0
0
0
0
0
0
0
0
0
0
0
0
0
0
0
0
0
0
0
0
0
0
0
0
0
0
0
0
0
0
0
0
0
0
0
0
0
0
0
0
0
0
0
0
0
0
0
0
0
0
0
0
0
0
0
0
0
0
0
0
0
0
0
0
0
0
0
0
0
0
0
0
0
0
0
0
0
0
0
0
0
0
0
0
0
0
0
0
0
0
0
0
0
0
0
0
0
0
0
0
0
0
0
0
0
0
0
0
0
0
0
0
0
0
0
0
0
0
0
0
0
0
0
0
0
0
0
0
0
0
0
0
0
0
0
0
0
0
0
0
0
0
0
0
0
0
0
0
0
0
0
0
0
0
0
0
0
0
0
0
0
0
0
0
0
0
0
0
0
0
0
0
0
0
0
0
0
0
0
0
0
0
209
210
209
209
209
209
209
211
210
210
210
209
209
210
209
209
210
210
208
209
211
220
224
223
223
221
223
221
213
208
209
211
209
210
210
208
171
159
157
159
159
154
203
252
254
254
253
255
255
254
254
254
254
255
255
254
255
255
255
254
254
254
254
255
255
255
255
254
254
254
255
255
255
255
255
255
254
254
254
255
254
254
0
0
0
0
0
0
0
0
0
0
0
0
0
0
0
0
0
0
0
0
0
0
0
0
0
0
0
0
0
0
0
0
0
0
0
0
0
0
0
0
0
0
0
0
0
0
0
0
0
0
0
0
0
0
0
0
0
0
0
0
0
0
0
0
0
0
0
0
0
0
0
0
0
0
0
0
0
0
0
0
0
0
0
0
0
0
0
0
0
0
0
0
0
0
0
0
0
0
0
0
0
0
0
0
0
0
0
0
0
0
0
0
0
0
0
0
0
0
0
0
0
0
0
0
0
0
0
0
0
0
0
0
0
0
0
0
0
0
0
0
0
0
0
0
0
0
0
0
0
0
0
0
0
0
0
0
0
0
0
0
0
0
0
0
0
0
0
0
0
0
0
0
0
0
0
0
0
0
0
0
0
0
0
0
0
0
0
0
0
0
0
0
0
0
0
0
0
0
0
0
0
0
0
0
0
0
0
0
0
0
0
0
0
0
0
0
0
0
0
0
0
0
0
0
0
0
0
0
0
0
0
0
0
0
0
0
0
0
0
0
0
0
0
0
0
0
0
0
0
0
0
0
0
0
0
0
0
0
0
0
0
0
0
0
0
0
0
0
0
0
0
0
0
0
0
0
0
0
0
0
0
0
0
0
0
0
0
0
0
0
0
0
0
0
0
0
0
0
0
0
0
0
0
0
0
0
0
0
0
0
0
0
0
0
0
0
0
0
0
0
0
0
0
0
0
0
0
0
0
0
0
0
0
0
0
0
0
0
0
0
0
0
0
0
0
0
0
0
0
0
0
0
0
0
0
0
0
0
0
0
0
0
0
0
0
0
0
0
0
0
0
0
0
0
0
0
0
0
0
0
0
0
0
0
0
0
0
0
0
0
0
0
0
0
0
0
0
0
0
0
0
0
0
0
0
0
0
0
0
0
0
0
0
0
0
0
0
0
0
0
0
0
0
0
0
0
0
0
0
0
0
0
0
0
0
0
0
0
0
0
0
0
0
0
0
0
0
0
0
0
0
0
0
0
0
0
0
0
0
0
0
0
0
0
0
0
0
0
0
0
0
0
0
0
0
0
0
0
0
0
0
0
0
0
0
0
0
0
209
209
209
209
209
209
211
211
211
210
209
209
210
210
210
209
209
210
210
209
214
214
223
222
222
222
222
220
220
208
210
210
209
210
210
210
195
163
163
157
159
154
168
251
255
255
254
255
255
255
254
254
254
254
255
255
254
255
255
255
254
254
254
255
255
255
255
255
254
254
254
255
255
255
255
255
255
254
254
254
254
254
254
0
0
0
0
0
0
0
0
0
0
0
0
0
0
0
0
0
0
0
0
0
0
0
0
0
0
0
0
0
0
0
0
0
0
0
0
0
0
0
0
0
0
0
0
0
0
0
0
0
0
0
0
0
0
0
0
0
0
0
0
0
0
0
0
0
0
0
0
0
0
0
0
0
0
0
0
0
0
0
0
0
0
0
0
0
0
0
0
0
0
0
0
0
0
0
0
0
0
0
0
0
0
0
0
0
0
0
0
0
0
0
0
0
0
0
0
0
0
0
0
0
0
0
0
0
0
0
0
0
0
0
0
0
0
0
0
0
0
0
0
0
0
0
0
0
0
0
0
0
0
0
0
0
0
0
0
0
0
0
0
0
0
0
0
0
0
0
0
0
0
0
0
0
0
0
0
0
0
0
0
0
0
0
0
0
0
0
0
0
0
0
0
0
0
0
0
0
0
0
0
0
0
0
0
0
0
0
0
0
0
0
0
0
0
0
0
0
0
0
0
0
0
0
0
0
0
0
0
0
0
0
0
0
0
0
0
0
0
0
0
0
0
0
0
0
0
0
0
0
0
0
0
0
0
0
0
0
0
0
0
0
0
0
0
0
0
0
0
0
0
0
0
0
0
0
0
0
0
0
0
0
0
0
0
0
0
0
0
0
0
0
0
0
0
0
0
0
0
0
0
0
0
0
0
0
0
0
0
0
0
0
0
0
0
0
0
0
0
0
0
0
0
0
0
0
0
0
0
0
0
0
0
0
0
0
0
0
0
0
0
0
0
0
0
0
0
0
0
0
0
0
0
0
0
0
0
0
0
0
0
0
0
0
0
0
0
0
0
0
0
0
0
0
0
0
0
0
0
0
0
0
0
0
0
0
0
0
0
0
0
0
0
0
0
0
0
0
0
0
0
0
0
0
0
0
0
0
0
0
0
0
0
0
0
0
0
0
0
0
0
0
0
0
0
0
0
0
0
0
0
0
0
0
0
0
0
0
0
0
0
0
0
0
0
0
0
0
0
0
0
0
0
0
0
0
0
0
0
0
0
0
0
0
0
0
0
0
0
0
0
0
0
0
0
0
0
0
0
0
0
0
0
0
0
0
0
0
209
208
208
209
209
209
209
211
211
211
210
209
210
210
210
210
209
208
209
209
210
215
220
222
223
222
222
223
216
213
208
211
210
208
210
208
208
169
160
156
162
155
214
245
252
253
254
254
255
255
255
254
254
254
255
255
255
254
255
255
255
255
254
254
255
255
255
255
254
254
254
254
255
255
255
255
255
255
254
255
255
254
254
254
0
0
0
0
0
0
0
0
0
0
0
0
0
0
0
0
0
0
0
0
0
0
0
0
0
0
0
0
0
0
0
0
0
0
0
0
0
0
0
0
0
0
0
0
0
0
0
0
0
0
0
0
0
0
0
0
0
0
0
0
0
0
0
0
0
0
0
0
0
0
0
0
0
0
0
0
0
0
0
0
0
0
0
0
0
0
0
0
0
0
0
0
0
0
0
0
0
0
0
0
0
0
0
0
0
0
0
0
0
0
0
0
0
0
0
0
0
0
0
0
0
0
0
0
0
0
0
0
0
0
0
0
0
0
0
0
0
0
0
0
0
0
0
0
0
0
0
0
0
0
0
0
0
0
0
0
0
0
0
0
0
0
0
0
0
0
0
0
0
0
0
0
0
0
0
0
0
0
0
0
0
0
0
0
0
0
0
0
0
0
0
0
0
0
0
0
0
0
0
0
0
0
0
0
0
0
0
0
0
0
0
0
0
0
0
0
0
0
0
0
0
0
0
0
0
0
0
0
0
0
0
0
0
0
0
0
0
0
0
0
0
0
0
0
0
0
0
0
0
0
0
0
0
0
0
0
0
0
0
0
0
0
0
0
0
0
0
0
0
0
0
0
0
0
0
0
0
0
0
0
0
0
0
0
0
0
0
0
0
0
0
0
0
0
0
0
0
0
0
0
0
0
0
0
0
0
0
0
0
0
0
0
0
0
0
0
0
0
0
0
0
0
0
0
0
0
0
0
0
0
0
0
0
0
0
0
0
0
0
0
0
0
0
0
0
0
0
0
0
0
0
0
0
0
0
0
0
0
0
0
0
0
0
0
0
0
0
0
0
0
0
0
0
0
0
0
0
0
0
0
0
0
0
0
0
0
0
0
0
0
0
0
0
0
0
0
0
0
0
0
0
0
0
0
0
0
0
0
0
0
0
0
0
0
0
0
0
0
0
0
0
0
0
0
0
0
0
0
0
0
0
0
0
0
0
0
0
0
0
0
0
0
0
0
0
0
0
0
0
0
0
0
0
0
0
0
0
0
0
0
0
0
0
0
0
0
0
0
0
0
0
0
0
0
0
0
0
0
0
0
0
0
0
0
0
0
170
204
208
208
209
209
209
210
211
211
210
209
210
210
210
210
210
209
209
209
209
213
220
221
221
223
223
223
220
213
209
212
210
210
211
210
208
192
160
156
160
158
180
245
250
252
254
255
255
255
255
255
253
254
253
255
255
255
254
255
255
255
255
254
255
255
254
254
255
254
254
254
254
255
255
255
255
255
254
254
255
255
255
254
254
0
0
0
0
0
0
0
0
0
0
0
0
0
0
0
0
0
0
0
0
0
0
0
0
0
0
0
0
0
0
0
0
0
0
0
0
0
0
0
0
0
0
0
0
0
0
0
0
0
0
0
0
0
0
0
0
0
0
0
0
0
0
0
0
0
0
0
0
0
0
0
0
0
0
0
0
0
0
0
0
0
0
0
0
0
0
0
0
0
0
0
0
0
0
0
0
0
0
0
0
0
0
0
0
0
0
0
0
0
0
0
0
0
0
0
0
0
0
0
0
0
0
0
0
0
0
0
0
0
0
0
0
0
0
0
0
0
0
0
0
0
0
0
0
0
0
0
0
0
0
0
0
0
0
0
0
0
0
0
0
0
0
0
0
0
0
0
0
0
0
0
0
0
0
0
0
0
0
0
0
0
0
0
0
0
0
0
0
0
0
0
0
0
0
0
0
0
0
0
0
0
0
0
0
0
0
0
0
0
0
0
0
0
0
0
0
0
0
0
0
0
0
0
0
0
0
0
0
0
0
0
0
0
0
0
0
0
0
0
0
0
0
0
0
0
0
0
0
0
0
0
0
0
0
0
0
0
0
0
0
0
0
0
0
0
0
0
0
0
0
0
0
0
0
0
0
0
0
0
0
0
0
0
0
0
0
0
0
0
0
0
0
0
0
0
0
0
0
0
0
0
0
0
0
0
0
0
0
0
0
0
0
0
0
0
0
0
0
0
0
0
0
0
0
0
0
0
0
0
0
0
0
0
0
0
0
0
0
0
0
0
0
0
0
0
0
0
0
0
0
0
0
0
0
0
0
0
0
0
0
0
0
0
0
0
0
0
0
0
0
0
0
0
0
0
0
0
0
0
0
0
0
0
0
0
0
0
0
0
0
0
0
0
0
0
0
0
0
0
0
0
0
0
0
0
0
0
0
0
0
0
0
0
0
0
0
0
0
0
0
0
0
0
0
0
0
0
0
0
0
0
0
0
0
0
0
0
0
0
0
0
0
0
0
0
0
0
0
0
0
0
0
0
0
0
0
0
0
0
0
0
0
0
0
0
0
0
0
0
0
0
0
0
0
0
0
0
0
0
0
0
0
0
0
0
157
163
200
208
208
209
210
210
210
209
209
209
209
210
210
210
210
210
209
209
208
208
218
221
220
223
222
222
223
214
208
209
209
208
210
210
210
166
166
161
158
158
156
233
254
254
255
253
254
255
255
254
253
253
254
254
255
255
255
254
255
255
255
255
255
254
254
255
255
255
255
254
254
254
255
255
255
255
254
254
254
255
255
254
254
254
0
0
0
0
0
0
0
0
0
0
0
0
0
0
0
0
0
0
0
0
0
0
0
0
0
0
0
0
0
0
0
0
0
0
0
0
0
0
0
0
0
0
0
0
0
0
0
0
0
0
0
0
0
0
0
0
0
0
0
0
0
0
0
0
0
0
0
0
0
0
0
0
0
0
0
0
0
0
0
0
0
0
0
0
0
0
0
0
0
0
0
0
0
0
0
0
0
0
0
0
0
0
0
0
0
0
0
0
0
0
0
0
0
0
0
0
0
0
0
0
0
0
0
0
0
0
0
0
0
0
0
0
0
0
0
0
0
0
0
0
0
0
0
0
0
0
0
0
0
0
0
0
0
0
0
0
0
0
0
0
0
0
0
0
0
0
0
0
0
0
0
0
0
0
0
0
0
0
0
0
0
0
0
0
0
0
0
0
0
0
0
0
0
0
0
0
0
0
0
0
0
0
0
0
0
0
0
0
0
0
0
0
0
0
0
0
0
0
0
0
0
0
0
0
0
0
0
0
0
0
0
0
0
0
0
0
0
0
0
0
0
0
0
0
0
0
0
0
0
0
0
0
0
0
0
0
0
0
0
0
0
0
0
0
0
0
0
0
0
0
0
0
0
0
0
0
0
0
0
0
0
0
0
0
0
0
0
0
0
0
0
0
0
0
0
0
0
0
0
0
0
0
0
0
0
0
0
0
0
0
0
0
0
0
0
0
0
0
0
0
0
0
0
0
0
0
0
0
0
0
0
0
0
0
0
0
0
0
0
0
0
0
0
0
0
0
0
0
0
0
0
0
0
0
0
0
0
0
0
0
0
0
0
0
0
0
0
0
0
0
0
0
0
0
0
0
0
0
0
0
0
0
0
0
0
0
0
0
0
0
0
0
0
0
0
0
0
0
0
0
0
0
0
0
0
0
0
0
0
0
0
0
0
0
0
0
0
0
0
0
0
0
0
0
0
0
0
0
0
0
0
0
0
0
0
0
0
0
0
0
0
0
0
0
0
0
0
0
0
0
0
0
0
0
0
0
0
0
0
0
0
0
0
0
0
0
0
0
0
0
0
0
0
0
0
0
0
0
0
0
0
0
0
0
157
158
157
197
208
207
210
210
209
209
209
209
209
210
210
210
209
210
210
210
210
211
215
221
220
222
221
222
222
218
209
209
212
210
210
211
209
201
158
158
159
158
156
212
250
253
255
255
254
255
255
254
254
255
254
254
254
255
255
255
254
255
255
255
255
254
254
254
255
255
255
255
254
254
254
255
254
255
255
254
254
254
255
255
254
254
254
0
0
0
0
0
0
0
0
0
0
0
0
0
0
0
0
0
0
0
0
0
0
0
0
0
0
0
0
0
0
0
0
0
0
0
0
0
0
0
0
0
0
0
0
0
0
0
0
0
0
0
0
0
0
0
0
0
0
0
0
0
0
0
0
0
0
0
0
0
0
0
0
0
0
0
0
0
0
0
0
0
0
0
0
0
0
0
0
0
0
0
0
0
0
0
0
0
0
0
0
0
0
0
0
0
0
0
0
0
0
0
0
0
0
0
0
0
0
0
0
0
0
0
0
0
0
0
0
0
0
0
0
0
0
0
0
0
0
0
0
0
0
0
0
0
0
0
0
0
0
0
0
0
0
0
0
0
0
0
0
0
0
0
0
0
0
0
0
0
0
0
0
0
0
0
0
0
0
0
0
0
0
0
0
0
0
0
0
0
0
0
0
0
0
0
0
0
0
0
0
0
0
0
0
0
0
0
0
0
0
0
0
0
0
0
0
0
0
0
0
0
0
0
0
0
0
0
0
0
0
0
0
0
0
0
0
0
0
0
0
0
0
0
0
0
0
0
0
0
0
0
0
0
0
0
0
0
0
0
0
0
0
0
0
0
0
0
0
0
0
0
0
0
0
0
0
0
0
0
0
0
0
0
0
0
0
0
0
0
0
0
0
0
0
0
0
0
0
0
0
0
0
0
0
0
0
0
0
0
0
0
0
0
0
0
0
0
0
0
0
0
0
0
0
0
0
0
0
0
0
0
0
0
0
0
0
0
0
0
0
0
0
0
0
0
0
0
0
0
0
0
0
0
0
0
0
0
0
0
0
0
0
0
0
0
0
0
0
0
0
0
0
0
0
0
0
0
0
0
0
0
0
0
0
0
0
0
0
0
0
0
0
0
0
0
0
0
0
0
0
0
0
0
0
0
0
0
0
0
0
0
0
0
0
0
0
0
0
0
0
0
0
0
0
0
0
0
0
0
0
0
0
0
0
0
0
0
0
0
0
0
0
0
0
0
0
0
0
0
0
0
0
0
0
0
0
0
0
0
0
0
0
0
0
0
0
0
0
0
0
0
0
0
0
0
0
0
0
0
0
0
0
0
159
160
160
157
194
207
207
210
209
209
209
209
209
210
210
210
210
209
209
209
210
209
220
220
222
224
224
222
223
220
209
211
210
210
211
208
208
206
160
160
160
158
154
154
247
254
255
255
254
252
252
254
255
255
255
254
254
254
255
255
255
254
255
255
255
255
254
254
254
255
255
255
255
254
254
254
254
254
255
255
254
254
254
255
255
255
254
254
0
0
0
0
0
0
0
0
0
0
0
0
0
0
0
0
0
0
0
0
0
0
0
0
0
0
0
0
0
0
0
0
0
0
0
0
0
0
0
0
0
0
0
0
0
0
0
0
0
0
0
0
0
0
0
0
0
0
0
0
0
0
0
0
0
0
0
0
0
0
0
0
0
0
0
0
0
0
0
0
0
0
0
0
0
0
0
0
0
0
0
0
0
0
0
0
0
0
0
0
0
0
0
0
0
0
0
0
0
0
0
0
0
0
0
0
0
0
0
0
0
0
0
0
0
0
0
0
0
0
0
0
0
0
0
0
0
0
0
0
0
0
0
0
0
0
0
0
0
0
0
0
0
0
0
0
0
0
0
0
0
0
0
0
0
0
0
0
0
0
0
0
0
0
0
0
0
0
0
0
0
0
0
0
0
0
0
0
0
0
0
0
0
0
0
0
0
0
0
0
0
0
0
0
0
0
0
0
0
0
0
0
0
0
0
0
0
0
0
0
0
0
0
0
0
0
0
0
0
0
0
0
0
0
0
0
0
0
0
0
0
0
0
0
0
0
0
0
0
0
0
0
0
0
0
0
0
0
0
0
0
0
0
0
0
0
0
0
0
0
0
0
0
0
0
0
0
0
0
0
0
0
0
0
0
0
0
0
0
0
0
0
0
0
0
0
0
0
0
0
0
0
0
0
0
0
0
0
0
0
0
0
0
0
0
0
0
0
0
0
0
0
0
0
0
0
0
0
0
0
0
0
0
0
0
0
0
0
0
0
0
0
0
0
0
0
0
0
0
0
0
0
0
0
0
0
0
0
0
0
0
0
0
0
0
0
0
0
0
0
0
0
0
0
0
0
0
0
0
0
0
0
0
0
0
0
0
0
0
0
0
0
0
0
0
0
0
0
0
0
0
0
0
0
0
0
0
0
0
0
0
0
0
0
0
0
0
0
0
0
0
0
0
0
0
0
0
0
0
0
0
0
0
0
0
0
0
0
0
0
0
0
0
0
0
0
0
0
0
0
0
0
0
0
0
0
0
0
0
0
0
0
0
0
0
0
0
0
0
0
0
0
0
0
0
0
0
0
0
0
0
0
158
158
161
159
159
197
208
208
210
209
209
209
209
210
210
210
210
209
210
211
211
209
216
222
221
222
223
220
223
220
211
209
209
209
213
208
208
205
158
158
158
160
156
182
239
253
253
255
255
254
254
254
255
255
255
255
254
254
254
255
255
255
255
254
255
255
255
254
255
254
255
255
255
254
255
255
254
254
254
255
255
254
254
254
255
254
254
254
254
0
0
0
0
0
0
0
0
0
0
0
0
0
0
0
0
0
0
0
0
0
0
0
0
0
0
0
0
0
0
0
0
0
0
0
0
0
0
0
0
0
0
0
0
0
0
0
0
0
0
0
0
0
0
0
0
0
0
0
0
0
0
0
0
0
0
0
0
0
0
0
0
0
0
0
0
0
0
0
0
0
0
0
0
0
0
0
0
0
0
0
0
0
0
0
0
0
0
0
0
0
0
0
0
0
0
0
0
0
0
0
0
0
0
0
0
0
0
0
0
0
0
0
0
0
0
0
0
0
0
0
0
0
0
0
0
0
0
0
0
0
0
0
0
0
0
0
0
0
0
0
0
0
0
0
0
0
0
0
0
0
0
0
0
0
0
0
0
0
0
0
0
0
0
0
0
0
0
0
0
0
0
0
0
0
0
0
0
0
0
0
0
0
0
0
0
0
0
0
0
0
0
0
0
0
0
0
0
0
0
0
0
0
0
0
0
0
0
0
0
0
0
0
0
0
0
0
0
0
0
0
0
0
0
0
0
0
0
0
0
0
0
0
0
0
0
0
0
0
0
0
0
0
0
0
0
0
0
0
0
0
0
0
0
0
0
0
0
0
0
0
0
0
0
0
0
0
0
0
0
0
0
0
0
0
0
0
0
0
0
0
0
0
0
0
0
0
0
0
0
0
0
0
0
0
0
0
0
0
0
0
0
0
0
0
0
0
0
0
0
0
0
0
0
0
0
0
0
0
0
0
0
0
0
0
0
0
0
0
0
0
0
0
0
0
0
0
0
0
0
0
0
0
0
0
0
0
0
0
0
0
0
0
0
0
0
0
0
0
0
0
0
0
0
0
0
0
0
0
0
0
0
0
0
0
0
0
0
0
0
0
0
0
0
0
0
0
0
0
0
0
0
0
0
0
0
0
0
0
0
0
0
0
0
0
0
0
0
0
0
0
0
0
0
0
0
0
0
0
0
0
0
0
0
0
0
0
0
0
0
0
0
0
0
0
0
0
0
0
0
0
0
0
0
0
0
0
0
0
0
0
0
0
0
0
0
0
0
0
0
0
0
0
0
0
0
0
0
0
0
0
158
159
157
158
158
159
204
208
209
210
209
209
210
210
210
210
210
209
209
210
208
208
213
221
221
221
221
221
221
220
208
208
209
212
213
213
212
197
197
159
161
160
158
168
250
250
250
253
255
254
255
254
254
255
255
255
255
254
254
254
255
255
255
254
255
255
255
255
255
255
254
255
255
255
255
255
255
254
254
254
255
255
254
254
254
255
255
254
254
254
0
0
0
0
0
0
0
0
0
0
0
0
0
0
0
0
0
0
0
0
0
0
0
0
0
0
0
0
0
0
0
0
0
0
0
0
0
0
0
0
0
0
0
0
0
0
0
0
0
0
0
0
0
0
0
0
0
0
0
0
0
0
0
0
0
0
0
0
0
0
0
0
0
0
0
0
0
0
0
0
0
0
0
0
0
0
0
0
0
0
0
0
0
0
0
0
0
0
0
0
0
0
0
0
0
0
0
0
0
0
0
0
0
0
0
0
0
0
0
0
0
0
0
0
0
0
0
0
0
0
0
0
0
0
0
0
0
0
0
0
0
0
0
0
0
0
0
0
0
0
0
0
0
0
0
0
0
0
0
0
0
0
0
0
0
0
0
0
0
0
0
0
0
0
0
0
0
0
0
0
0
0
0
0
0
0
0
0
0
0
0
0
0
0
0
0
0
0
0
0
0
0
0
0
0
0
0
0
0
0
0
0
0
0
0
0
0
0
0
0
0
0
0
0
0
0
0
0
0
0
0
0
0
0
0
0
0
0
0
0
0
0
0
0
0
0
0
0
0
0
0
0
0
0
0
0
0
0
0
0
0
0
0
0
0
0
0
0
0
0
0
0
0
0
0
0
0
0
0
0
0
0
0
0
0
0
0
0
0
0
0
0
0
0
0
0
0
0
0
0
0
0
0
0
0
0
0
0
0
0
0
0
0
0
0
0
0
0
0
0
0
0
0
0
0
0
0
0
0
0
0
0
0
0
0
0
0
0
0
0
0
0
0
0
0
0
0
0
0
0
0
0
0
0
0
0
0
0
0
0
0
0
0
0
0
0
0
0
0
0
0
0
0
0
0
0
0
0
0
0
0
0
0
0
0
0
0
0
0
0
0
0
0
0
0
0
0
0
0
0
0
0
0
0
0
0
0
0
0
0
0
0
0
0
0
0
0
0
0
0
0
0
0
0
0
0
0
0
0
0
0
0
0
0
0
0
0
0
0
0
0
0
0
0
0
0
0
0
0
0
0
0
0
0
0
0
0
0
0
0
0
0
0
0
0
0
0
0
0
0
0
0
0
0
0
0
0
0
0
0
157
161
161
157
158
159
160
206
210
210
211
211
210
210
210
210
210
209
209
209
210
206
211
219
221
223
223
222
221
220
215
211
208
210
206
209
206
210
162
160
157
160
152
164
226
252
251
254
252
255
255
255
254
254
255
255
255
255
254
254
255
255
255
255
254
255
255
255
255
254
254
254
255
255
255
255
255
255
254
254
254
255
255
254
254
254
255
255
254
254
254
0
0
0
0
0
0
0
0
0
0
0
0
0
0
0
0
0
0
0
0
0
0
0
0
0
0
0
0
0
0
0
0
0
0
0
0
0
0
0
0
0
0
0
0
0
0
0
0
0
0
0
0
0
0
0
0
0
0
0
0
0
0
0
0
0
0
0
0
0
0
0
0
0
0
0
0
0
0
0
0
0
0
0
0
0
0
0
0
0
0
0
0
0
0
0
0
0
0
0
0
0
0
0
0
0
0
0
0
0
0
0
0
0
0
0
0
0
0
0
0
0
0
0
0
0
0
0
0
0
0
0
0
0
0
0
0
0
0
0
0
0
0
0
0
0
0
0
0
0
0
0
0
0
0
0
0
0
0
0
0
0
0
0
0
0
0
0
0
0
0
0
0
0
0
0
0
0
0
0
0
0
0
0
0
0
0
0
0
0
0
0
0
0
0
0
0
0
0
0
0
0
0
0
0
0
0
0
0
0
0
0
0
0
0
0
0
0
0
0
0
0
0
0
0
0
0
0
0
0
0
0
0
0
0
0
0
0
0
0
0
0
0
0
0
0
0
0
0
0
0
0
0
0
0
0
0
0
0
0
0
0
0
0
0
0
0
0
0
0
0
0
0
0
0
0
0
0
0
0
0
0
0
0
0
0
0
0
0
0
0
0
0
0
0
0
0
0
0
0
0
0
0
0
0
0
0
0
0
0
0
0
0
0
0
0
0
0
0
0
0
0
0
0
0
0
0
0
0
0
0
0
0
0
0
0
0
0
0
0
0
0
0
0
0
0
0
0
0
0
0
0
0
0
0
0
0
0
0
0
0
0
0
0
0
0
0
0
0
0
0
0
0
0
0
0
0
0
0
0
0
0
0
0
0
0
0
0
0
0
0
0
0
0
0
0
0
0
0
0
0
0
0
0
0
0
0
0
0
0
0
0
0
0
0
0
0
0
0
0
0
0
0
0
0
0
0
0
0
0
0
0
0
0
0
0
0
0
0
0
0
0
0
0
0
0
0
0
0
0
0
0
0
0
0
0
0
0
0
0
0
0
0
0
0
0
0
0
0
0
0
0
0
0
0
0
0
0
0
0
155
154
161
159
156
159
160
183
208
210
209
209
210
210
210
210
210
209
210
209
210
207
211
217
221
224
223
221
223
220
216
206
208
208
209
212
206
209
163
160
159
161
157
164
213
251
251
251
255
255
255
255
254
254
254
255
255
255
255
255
255
254
255
255
255
255
255
255
255
255
254
254
255
255
255
255
254
255
255
254
254
254
255
254
254
254
255
255
255
254
254
254
0
0
0
0
0
0
0
0
0
0
0
0
0
0
0
0
0
0
0
0
0
0
0
0
0
0
0
0
0
0
0
0
0
0
0
0
0
0
0
0
0
0
0
0
0
0
0
0
0
0
0
0
0
0
0
0
0
0
0
0
0
0
0
0
0
0
0
0
0
0
0
0
0
0
0
0
0
0
0
0
0
0
0
0
0
0
0
0
0
0
0
0
0
0
0
0
0
0
0
0
0
0
0
0
0
0
0
0
0
0
0
0
0
0
0
0
0
0
0
0
0
0
0
0
0
0
0
0
0
0
0
0
0
0
0
0
0
0
0
0
0
0
0
0
0
0
0
0
0
0
0
0
0
0
0
0
0
0
0
0
0
0
0
0
0
0
0
0
0
0
0
0
0
0
0
0
0
0
0
0
0
0
0
0
0
0
0
0
0
0
0
0
0
0
0
0
0
0
0
0
0
0
0
0
0
0
0
0
0
0
0
0
0
0
0
0
0
0
0
0
0
0
0
0
0
0
0
0
0
0
0
0
0
0
0
0
0
0
0
0
0
0
0
0
0
0
0
0
0
0
0
0
0
0
0
0
0
0
0
0
0
0
0
0
0
0
0
0
0
0
0
0
0
0
0
0
0
0
0
0
0
0
0
0
0
0
0
0
0
0
0
0
0
0
0
0
0
0
0
0
0
0
0
0
0
0
0
0
0
0
0
0
0
0
0
0
0
0
0
0
0
0
0
0
0
0
0
0
0
0
0
0
0
0
0
0
0
0
0
0
0
0
0
0
0
0
0
0
0
0
0
0
0
0
0
0
0
0
0
0
0
0
0
0
0
0
0
0
0
0
0
0
0
0
0
0
0
0
0
0
0
0
0
0
0
0
0
0
0
0
0
0
0
0
0
0
0
0
0
0
0
0
0
0
0
0
0
0
0
0
0
0
0
0
0
0
0
0
0
0
0
0
0
0
0
0
0
0
0
0
0
0
0
0
0
0
0
0
0
0
0
0
0
0
0
0
0
0
0
0
0
0
0
0
0
0
0
0
0
0
0
0
0
0
0
0
0
0
0
0
0
0
0
0
0
0
0
0
220
153
152
159
159
156
160
158
197
209
209
209
209
210
210
210
210
209
209
209
210
210
212
219
221
222
224
221
221
222
211
211
209
209
208
209
209
202
202
159
161
157
160
163
242
242
255
255
255
255
255
255
255
254
254
254
255
255
255
255
254
254
254
255
255
255
254
255
255
255
255
255
255
255
255
255
255
255
255
255
254
255
255
255
254
255
255
255
255
255
254
254
254
0
0
0
0
0
0
0
0
0
0
0
0
0
0
0
0
0
0
0
0
0
0
0
0
0
0
0
0
0
0
0
0
0
0
0
0
0
0
0
0
0
0
0
0
0
0
0
0
0
0
0
0
0
0
0
0
0
0
0
0
0
0
0
0
0
0
0
0
0
0
0
0
0
0
0
0
0
0
0
0
0
0
0
0
0
0
0
0
0
0
0
0
0
0
0
0
0
0
0
0
0
0
0
0
0
0
0
0
0
0
0
0
0
0
0
0
0
0
0
0
0
0
0
0
0
0
0
0
0
0
0
0
0
0
0
0
0
0
0
0
0
0
0
0
0
0
0
0
0
0
0
0
0
0
0
0
0
0
0
0
0
0
0
0
0
0
0
0
0
0
0
0
0
0
0
0
0
0
0
0
0
0
0
0
0
0
0
0
0
0
0
0
0
0
0
0
0
0
0
0
0
0
0
0
0
0
0
0
0
0
0
0
0
0
0
0
0
0
0
0
0
0
0
0
0
0
0
0
0
0
0
0
0
0
0
0
0
0
0
0
0
0
0
0
0
0
0
0
0
0
0
0
0
0
0
0
0
0
0
0
0
0
0
0
0
0
0
0
0
0
0
0
0
0
0
0
0
0
0
0
0
0
0
0
0
0
0
0
0
0
0
0
0
0
0
0
0
0
0
0
0
0
0
0
0
0
0
0
0
0
0
0
0
0
0
0
0
0
0
0
0
0
0
0
0
0
0
0
0
0
0
0
0
0
0
0
0
0
0
0
0
0
0
0
0
0
0
0
0
0
0
0
0
0
0
0
0
0
0
0
0
0
0
0
0
0
0
0
0
0
0
0
0
0
0
0
0
0
0
0
0
0
0
0
0
0
0
0
0
0
0
0
0
0
0
0
0
0
0
0
0
0
0
0
0
0
0
0
0
0
0
0
0
0
0
0
0
0
0
0
0
0
0
0
0
0
0
0
0
0
0
0
0
0
0
0
0
0
0
0
0
0
0
0
0
0
0
0
0
0
0
0
0
0
0
0
0
0
0
0
0
0
0
0
0
0
0
0
0
0
0
0
0
0
0
0
0
220
211
159
155
159
159
160
158
164
207
210
209
210
210
210
210
209
209
209
209
209
210
209
221
221
222
223
221
222
221
217
209
209
209
208
208
209
205
168
157
162
157
156
161
210
251
255
255
255
255
255
255
255
255
254
254
254
255
255
255
255
254
255
255
255
255
255
255
255
255
255
255
255
254
254
255
255
255
255
255
255
255
255
255
255
254
255
255
255
255
255
254
254
254
0
0
0
0
0
0
0
0
0
0
0
0
0
0
0
0
0
0
0
0
0
0
0
0
0
0
0
0
0
0
0
0
0
0
0
0
0
0
0
0
0
0
0
0
0
0
0
0
0
0
0
0
0
0
0
0
0
0
0
0
0
0
0
0
0
0
0
0
0
0
0
0
0
0
0
0
0
0
0
0
0
0
0
0
0
0
0
0
0
0
0
0
0
0
0
0
0
0
0
0
0
0
0
0
0
0
0
0
0
0
0
0
0
0
0
0
0
0
0
0
0
0
0
0
0
0
0
0
0
0
0
0
0
0
0
0
0
0
0
0
0
0
0
0
0
0
0
0
0
0
0
0
0
0
0
0
0
0
0
0
0
0
0
0
0
0
0
0
0
0
0
0
0
0
0
0
0
0
0
0
0
0
0
0
0
0
0
0
0
0
0
0
0
0
0
0
0
0
0
0
0
0
0
0
0
0
0
0
0
0
0
0
0
0
0
0
0
0
0
0
0
0
0
0
0
0
0
0
0
0
0
0
0
0
0
0
0
0
0
0
0
0
0
0
0
0
0
0
0
0
0
0
0
0
0
0
0
0
0
0
0
0
0
0
0
0
0
0
0
0
0
0
0
0
0
0
0
0
0
0
0
0
0
0
0
0
0
0
0
0
0
0
0
0
0
0
0
0
0
0
0
0
0
0
0
0
0
0
0
0
0
0
0
0
0
0
0
0
0
0
0
0
0
0
0
0
0
0
0
0
0
0
0
0
0
0
0
0
0
0
0
0
0
0
0
0
0
0
0
0
0
0
0
0
0
0
0
0
0
0
0
0
0
0
0
0
0
0
0
0
0
0
0
0
0
0
0
0
0
0
0
0
0
0
0
0
0
0
0
0
0
0
0
0
0
0
0
0
0
0
0
0
0
0
0
0
0
0
0
0
0
0
0
0
0
0
0
0
0
0
0
0
0
0
0
0
0
0
0
0
0
0
0
0
0
0
0
0
0
0
0
0
0
0
0
0
0
0
0
0
0
0
0
0
0
0
0
0
0
0
0
0
0
0
0
0
0
0
0
0
0
0
0
0
0
0
230
197
197
158
157
159
159
159
185
185
208
209
210
210
210
210
210
209
209
209
209
209
216
216
221
223
223
221
222
221
217
208
210
210
209
208
208
207
168
158
158
157
156
156
212
248
255
255
255
255
255
255
255
255
255
255
254
254
255
255
255
255
255
254
254
255
255
255
254
255
255
255
255
254
254
255
255
255
255
255
254
254
254
254
254
255
254
255
254
255
255
255
254
254
254
0
0
0
0
0
0
0
0
0
0
0
0
0
0
0
0
0
0
0
0
0
0
0
0
0
0
0
0
0
0
0
0
0
0
0
0
0
0
0
0
0
0
0
0
0
0
0
0
0
0
0
0
0
0
0
0
0
0
0
0
0
0
0
0
0
0
0
0
0
0
0
0
0
0
0
0
0
0
0
0
0
0
0
0
0
0
0
0
0
0
0
0
0
0
0
0
0
0
0
0
0
0
0
0
0
0
0
0
0
0
0
0
0
0
0
0
0
0
0
0
0
0
0
0
0
0
0
0
0
0
0
0
0
0
0
0
0
0
0
0
0
0
0
0
0
0
0
0
0
0
0
0
0
0
0
0
0
0
0
0
0
0
0
0
0
0
0
0
0
0
0
0
0
0
0
0
0
0
0
0
0
0
0
0
0
0
0
0
0
0
0
0
0
0
0
0
0
0
0
0
0
0
0
0
0
0
0
0
0
0
0
0
0
0
0
0
0
0
0
0
0
0
0
0
0
0
0
0
0
0
0
0
0
0
0
0
0
0
0
0
0
0
0
0
0
0
0
0
0
0
0
0
0
0
0
0
0
0
0
0
0
0
0
0
0
0
0
0
0
0
0
0
0
0
0
0
0
0
0
0
0
0
0
0
0
0
0
0
0
0
0
0
0
0
0
0
0
0
0
0
0
0
0
0
0
0
0
0
0
0
0
0
0
0
0
0
0
0
0
0
0
0
0
0
0
0
0
0
0
0
0
0
0
0
0
0
0
0
0
0
0
0
0
0
0
0
0
0
0
0
0
0
0
0
0
0
0
0
0
0
0
0
0
0
0
0
0
0
0
0
0
0
0
0
0
0
0
0
0
0
0
0
0
0
0
0
0
0
0
0
0
0
0
0
0
0
0
0
0
0
0
0
0
0
0
0
0
0
0
0
0
0
0
0
0
0
0
0
0
0
0
0
0
0
0
0
0
0
0
0
0
0
0
0
0
0
0
0
0
0
0
0
0
0
0
0
0
0
0
0
0
0
0
0
0
0
0
0
0
0
0
0
0
0
0
0
0
0
0
0
0
0
0
0
0
230
229
176
161
157
158
158
159
161
203
208
211
209
210
210
210
209
209
209
209
209
208
211
221
223
221
222
222
222
221
210
207
208
208
208
205
209
208
158
158
161
159
157
161
220
232
254
255
255
255
255
255
255
255
255
254
254
254
254
255
255
255
255
254
254
255
255
254
254
254
255
255
255
255
255
255
255
255
255
255
255
254
254
254
254
254
255
254
254
255
255
255
255
254
254
254
0
0
0
0
0
0
0
0
0
0
0
0
0
0
0
0
0
0
0
0
0
0
0
0
0
0
0
0
0
0
0
0
0
0
0
0
0
0
0
0
0
0
0
0
0
0
0
0
0
0
0
0
0
0
0
0
0
0
0
0
0
0
0
0
0
0
0
0
0
0
0
0
0
0
0
0
0
0
0
0
0
0
0
0
0
0
0
0
0
0
0
0
0
0
0
0
0
0
0
0
0
0
0
0
0
0
0
0
0
0
0
0
0
0
0
0
0
0
0
0
0
0
0
0
0
0
0
0
0
0
0
0
0
0
0
0
0
0
0
0
0
0
0
0
0
0
0
0
0
0
0
0
0
0
0
0
0
0
0
0
0
0
0
0
0
0
0
0
0
0
0
0
0
0
0
0
0
0
0
0
0
0
0
0
0
0
0
0
0
0
0
0
0
0
0
0
0
0
0
0
0
0
0
0
0
0
0
0
0
0
0
0
0
0
0
0
0
0
0
0
0
0
0
0
0
0
0
0
0
0
0
0
0
0
0
0
0
0
0
0
0
0
0
0
0
0
0
0
0
0
0
0
0
0
0
0
0
0
0
0
0
0
0
0
0
0
0
0
0
0
0
0
0
0
0
0
0
0
0
0
0
0
0
0
0
0
0
0
0
0
0
0
0
0
0
0
0
0
0
0
0
0
0
0
0
0
0
0
0
0
0
0
0
0
0
0
0
0
0
0
0
0
0
0
0
0
0
0
0
0
0
0
0
0
0
0
0
0
0
0
0
0
0
0
0
0
0
0
0
0
0
0
0
0
0
0
0
0
0
0
0
0
0
0
0
0
0
0
0
0
0
0
0
0
0
0
0
0
0
0
0
0
0
0
0
0
0
0
0
0
0
0
0
0
0
0
0
0
0
0
0
0
0
0
0
0
0
0
0
0
0
0
0
0
0
0
0
0
0
0
0
0
0
0
0
0
0
0
0
0
0
0
0
0
0
0
0
0
0
0
0
0
0
0
0
0
0
0
0
0
0
0
0
0
0
0
0
0
0
0
0
0
0
0
0
0
0
0
0
0
0
0
0
0
230
229
222
156
156
159
159
159
160
182
208
207
208
210
210
210
210
209
209
209
209
209
210
221
223
221
223
222
222
221
211
207
210
210
208
209
208
198
198
159
158
159
158
164
220
226
251
254
255
254
255
255
255
255
255
254
255
255
254
255
255
255
255
255
255
255
255
254
254
254
254
255
255
255
255
255
254
255
255
255
255
254
254
254
254
254
255
255
255
255
255
254
255
254
254
254
254
0
0
0
0
0
0
0
0
0
0
0
0
0
0
0
0
0
0
0
0
0
0
0
0
0
0
0
0
0
0
0
0
0
0
0
0
0
0
0
0
0
0
0
0
0
0
0
0
0
0
0
0
0
0
0
0
0
0
0
0
0
0
0
0
0
0
0
0
0
0
0
0
0
0
0
0
0
0
0
0
0
0
0
0
0
0
0
0
0
0
0
0
0
0
0
0
0
0
0
0
0
0
0
0
0
0
0
0
0
0
0
0
0
0
0
0
0
0
0
0
0
0
0
0
0
0
0
0
0
0
0
0
0
0
0
0
0
0
0
0
0
0
0
0
0
0
0
0
0
0
0
0
0
0
0
0
0
0
0
0
0
0
0
0
0
0
0
0
0
0
0
0
0
0
0
0
0
0
0
0
0
0
0
0
0
0
0
0
0
0
0
0
0
0
0
0
0
0
0
0
0
0
0
0
0
0
0
0
0
0
0
0
0
0
0
0
0
0
0
0
0
0
0
0
0
0
0
0
0
0
0
0
0
0
0
0
0
0
0
0
0
0
0
0
0
0
0
0
0
0
0
0
0
0
0
0
0
0
0
0
0
0
0
0
0
0
0
0
0
0
0
0
0
0
0
0
0
0
0
0
0
0
0
0
0
0
0
0
0
0
0
0
0
0
0
0
0
0
0
0
0
0
0
0
0
0
0
0
0
0
0
0
0
0
0
0
0
0
0
0
0
0
0
0
0
0
0
0
0
0
0
0
0
0
0
0
0
0
0
0
0
0
0
0
0
0
0
0
0
0
0
0
0
0
0
0
0
0
0
0
0
0
0
0
0
0
0
0
0
0
0
0
0
0
0
0
0
0
0
0
0
0
0
0
0
0
0
0
0
0
0
0
0
0
0
0
0
0
0
0
0
0
0
0
0
0
0
0
0
0
0
0
0
0
0
0
0
0
0
0
0
0
0
0
0
0
0
0
0
0
0
0
0
0
0
0
0
0
0
0
0
0
0
0
0
0
0
0
0
0
0
0
0
0
0
0
0
0
0
0
0
0
0
0
0
0
0
0
0
0
0
0
0
230
230
232
193
157
159
160
157
160
160
204
210
209
212
209
210
210
210
209
209
210
210
213
218
222
220
220
223
221
221
217
209
209
209
207
210
210
207
158
155
161
159
154
154
229
242
254
252
253
255
255
255
255
255
255
255
255
255
255
255
255
255
255
255
255
255
255
255
254
254
255
254
255
255
255
255
255
254
254
254
254
254
254
254
254
254
255
255
255
255
254
254
254
254
255
254
254
254
0
0
0
0
0
0
0
0
0
0
0
0
0
0
0
0
0
0
0
0
0
0
0
0
0
0
0
0
0
0
0
0
0
0
0
0
0
0
0
0
0
0
0
0
0
0
0
0
0
0
0
0
0
0
0
0
0
0
0
0
0
0
0
0
0
0
0
0
0
0
0
0
0
0
0
0
0
0
0
0
0
0
0
0
0
0
0
0
0
0
0
0
0
0
0
0
0
0
0
0
0
0
0
0
0
0
0
0
0
0
0
0
0
0
0
0
0
0
0
0
0
0
0
0
0
0
0
0
0
0
0
0
0
0
0
0
0
0
0
0
0
0
0
0
0
0
0
0
0
0
0
0
0
0
0
0
0
0
0
0
0
0
0
0
0
0
0
0
0
0
0
0
0
0
0
0
0
0
0
0
0
0
0
0
0
0
0
0
0
0
0
0
0
0
0
0
0
0
0
0
0
0
0
0
0
0
0
0
0
0
0
0
0
0
0
0
0
0
0
0
0
0
0
0
0
0
0
0
0
0
0
0
0
0
0
0
0
0
0
0
0
0
0
0
0
0
0
0
0
0
0
0
0
0
0
0
0
0
0
0
0
0
0
0
0
0
0
0
0
0
0
0
0
0
0
0
0
0
0
0
0
0
0
0
0
0
0
0
0
0
0
0
0
0
0
0
0
0
0
0
0
0
0
0
0
0
0
0
0
0
0
0
0
0
0
0
0
0
0
0
0
0
0
0
0
0
0
0
0
0
0
0
0
0
0
0
0
0
0
0
0
0
0
0
0
0
0
0
0
0
0
0
0
0
0
0
0
0
0
0
0
0
0
0
0
0
0
0
0
0
0
0
0
0
0
0
0
0
0
0
0
0
0
0
0
0
0
0
0
0
0
0
0
0
0
0
0
0
0
0
0
0
0
0
0
0
0
0
0
0
0
0
0
0
0
0
0
0
0
0
0
0
0
0
0
0
0
0
0
0
0
0
0
0
0
0
0
0
0
0
0
0
0
0
0
0
0
0
0
0
0
0
0
0
0
0
0
0
0
0
0
0
0
0
0
0
0
0
0
0
0
0
255
232
232
220
153
159
158
159
157
172
196
207
209
210
208
209
210
209
209
209
209
209
213
219
223
222
223
224
222
221
215
209
209
208
211
211
210
202
160
155
159
159
160
176
226
238
254
248
255
255
255
255
255
255
255
255
255
255
255
255
255
254
255
255
255
255
255
255
254
255
255
255
255
255
255
255
255
254
254
254
254
254
254
254
254
254
254
255
255
255
254
254
254
254
255
255
254
254
254
0
0
0
0
0
0
0
0
0
0
0
0
0
0
0
0
0
0
0
0
0
0
0
0
0
0
0
0
0
0
0
0
0
0
0
0
0
0
0
0
0
0
0
0
0
0
0
0
0
0
0
0
0
0
0
0
0
0
0
0
0
0
0
0
0
0
0
0
0
0
0
0
0
0
0
0
0
0
0
0
0
0
0
0
0
0
0
0
0
0
0
0
0
0
0
0
0
0
0
0
0
0
0
0
0
0
0
0
0
0
0
0
0
0
0
0
0
0
0
0
0
0
0
0
0
0
0
0
0
0
0
0
0
0
0
0
0
0
0
0
0
0
0
0
0
0
0
0
0
0
0
0
0
0
0
0
0
0
0
0
0
0
0
0
0
0
0
0
0
0
0
0
0
0
0
0
0
0
0
0
0
0
0
0
0
0
0
0
0
0
0
0
0
0
0
0
0
0
0
0
0
0
0
0
0
0
0
0
0
0
0
0
0
0
0
0
0
0
0
0
0
0
0
0
0
0
0
0
0
0
0
0
0
0
0
0
0
0
0
0
0
0
0
0
0
0
0
0
0
0
0
0
0
0
0
0
0
0
0
0
0
0
0
0
0
0
0
0
0
0
0
0
0
0
0
0
0
0
0
0
0
0
0
0
0
0
0
0
0
0
0
0
0
0
0
0
0
0
0
0
0
0
0
0
0
0
0
0
0
0
0
0
0
0
0
0
0
0
0
0
0
0
0
0
0
0
0
0
0
0
0
0
0
0
0
0
0
0
0
0
0
0
0
0
0
0
0
0
0
0
0
0
0
0
0
0
0
0
0
0
0
0
0
0
0
0
0
0
0
0
0
0
0
0
0
0
0
0
0
0
0
0
0
0
0
0
0
0
0
0
0
0
0
0
0
0
0
0
0
0
0
0
0
0
0
0
0
0
0
0
0
0
0
0
0
0
0
0
0
0
0
0
0
0
0
0
0
0
0
0
0
0
0
0
0
0
0
0
0
0
0
0
0
0
0
0
0
0
0
0
0
0
0
0
0
0
0
0
0
0
0
0
0
0
0
0
0
0
0
0
0
253
254
234
188
188
158
159
159
160
164
206
206
210
211
211
213
209
210
210
209
208
208
214
222
222
222
222
221
221
222
212
212
210
211
209
209
209
180
180
157
158
158
154
196
227
227
254
254
254
252
255
255
255
255
255
255
255
255
255
255
255
254
254
255
255
255
254
254
254
254
255
255
255
255
255
255
255
255
254
254
254
255
255
255
255
254
254
254
255
255
254
254
254
254
254
255
255
254
254
254
0
0
0
0
0
0
0
0
0
0
0
0
0
0
0
0
0
0
0
0
0
0
0
0
0
0
0
0
0
0
0
0
0
0
0
0
0
0
0
0
0
0
0
0
0
0
0
0
0
0
0
0
0
0
0
0
0
0
0
0
0
0
0
0
0
0
0
0
0
0
0
0
0
0
0
0
0
0
0
0
0
0
0
0
0
0
0
0
0
0
0
0
0
0
0
0
0
0
0
0
0
0
0
0
0
0
0
0
0
0
0
0
0
0
0
0
0
0
0
0
0
0
0
0
0
0
0
0
0
0
0
0
0
0
0
0
0
0
0
0
0
0
0
0
0
0
0
0
0
0
0
0
0
0
0
0
0
0
0
0
0
0
0
0
0
0
0
0
0
0
0
0
0
0
0
0
0
0
0
0
0
0
0
0
0
0
0
0
0
0
0
0
0
0
0
0
0
0
0
0
0
0
0
0
0
0
0
0
0
0
0
0
0
0
0
0
0
0
0
0
0
0
0
0
0
0
0
0
0
0
0
0
0
0
0
0
0
0
0
0
0
0
0
0
0
0
0
0
0
0
0
0
0
0
0
0
0
0
0
0
0
0
0
0
0
0
0
0
0
0
0
0
0
0
0
0
0
0
0
0
0
0
0
0
0
0
0
0
0
0
0
0
0
0
0
0
0
0
0
0
0
0
0
0
0
0
0
0
0
0
0
0
0
0
0
0
0
0
0
0
0
0
0
0
0
0
0
0
0
0
0
0
0
0
0
0
0
0
0
0
0
0
0
0
0
0
0
0
0
0
0
0
0
0
0
0
0
0
0
0
0
0
0
0
0
0
0
0
0
0
0
0
0
0
0
0
0
0
0
0
0
0
0
0
0
0
0
0
0
0
0
0
0
0
0
0
0
0
0
0
0
0
0
0
0
0
0
0
0
0
0
0
0
0
0
0
0
0
0
0
0
0
0
0
0
0
0
0
0
0
0
0
0
0
0
0
0
0
0
0
0
0
0
0
0
0
0
0
0
0
0
0
0
0
0
0
0
0
0
0
0
0
0
0
0
0
0
0
0
0
253
255
251
223
156
155
160
158
157
160
191
208
210
209
206
212
209
208
210
211
209
210
216
219
222
221
222
221
221
221
214
210
208
210
208
209
208
199
157
159
159
157
155
213
225
242
253
252
254
255
254
254
255
255
255
255
255
255
255
255
255
255
254
254
255
255
255
254
254
254
254
255
255
255
254
255
255
255
255
255
255
255
255
255
254
254
254
254
254
255
255
254
254
254
254
255
254
254
254
254
254
0
0
0
0
0
0
0
0
0
0
0
0
0
0
0
0
0
0
0
0
0
0
0
0
0
0
0
0
0
0
0
0
0
0
0
0
0
0
0
0
0
0
0
0
0
0
0
0
0
0
0
0
0
0
0
0
0
0
0
0
0
0
0
0
0
0
0
0
0
0
0
0
0
0
0
0
0
0
0
0
0
0
0
0
0
0
0
0
0
0
0
0
0
0
0
0
0
0
0
0
0
0
0
0
0
0
0
0
0
0
0
0
0
0
0
0
0
0
0
0
0
0
0
0
0
0
0
0
0
0
0
0
0
0
0
0
0
0
0
0
0
0
0
0
0
0
0
0
0
0
0
0
0
0
0
0
0
0
0
0
0
0
0
0
0
0
0
0
0
0
0
0
0
0
0
0
0
0
0
0
0
0
0
0
0
0
0
0
0
0
0
0
0
0
0
0
0
0
0
0
0
0
0
0
0
0
0
0
0
0
0
0
0
0
0
0
0
0
0
0
0
0
0
0
0
0
0
0
0
0
0
0
0
0
0
0
0
0
0
0
0
0
0
0
0
0
0
0
0
0
0
0
0
0
0
0
0
0
0
0
0
0
0
0
0
0
0
0
0
0
0
0
0
0
0
0
0
0
0
0
0
0
0
0
0
0
0
0
0
0
0
0
0
0
0
0
0
0
0
0
0
0
0
0
0
0
0
0
0
0
0
0
0
0
0
0
0
0
0
0
0
0
0
0
0
0
0
0
0
0
0
0
0
0
0
0
0
0
0
0
0
0
0
0
0
0
0
0
0
0
0
0
0
0
0
0
0
0
0
0
0
0
0
0
0
0
0
0
0
0
0
0
0
0
0
0
0
0
0
0
0
0
0
0
0
0
0
0
0
0
0
0
0
0
0
0
0
0
0
0
0
0
0
0
0
0
0
0
0
0
0
0
0
0
0
0
0
0
0
0
0
0
0
0
0
0
0
0
0
0
0
0
0
0
0
0
0
0
0
0
0
0
0
0
0
0
0
0
0
0
0
0
0
0
0
0
0
0
0
0
0
0
0
0
0
0
0
0
0
253
254
254
245
159
155
161
159
156
156
183
207
210
207
209
210
210
208
209
211
208
213
216
221
223
223
223
223
221
221
214
210
210
210
210
210
208
193
159
159
161
159
166
166
232
239
253
252
252
255
255
255
255
255
254
255
255
255
255
255
255
255
255
254
255
255
255
255
254
254
254
254
255
255
255
255
255
255
255
255
255
255
255
255
255
254
254
254
254
254
255
255
255
254
254
254
254
254
254
254
254
254
0
0
0
0
0
0
0
0
0
0
0
0
0
0
0
0
0
0
0
0
0
0
0
0
0
0
0
0
0
0
0
0
0
0
0
0
0
0
0
0
0
0
0
0
0
0
0
0
0
0
0
0
0
0
0
0
0
0
0
0
0
0
0
0
0
0
0
0
0
0
0
0
0
0
0
0
0
0
0
0
0
0
0
0
0
0
0
0
0
0
0
0
0
0
0
0
0
0
0
0
0
0
0
0
0
0
0
0
0
0
0
0
0
0
0
0
0
0
0
0
0
0
0
0
0
0
0
0
0
0
0
0
0
0
0
0
0
0
0
0
0
0
0
0
0
0
0
0
0
0
0
0
0
0
0
0
0
0
0
0
0
0
0
0
0
0
0
0
0
0
0
0
0
0
0
0
0
0
0
0
0
0
0
0
0
0
0
0
0
0
0
0
0
0
0
0
0
0
0
0
0
0
0
0
0
0
0
0
0
0
0
0
0
0
0
0
0
0
0
0
0
0
0
0
0
0
0
0
0
0
0
0
0
0
0
0
0
0
0
0
0
0
0
0
0
0
0
0
0
0
0
0
0
0
0
0
0
0
0
0
0
0
0
0
0
0
0
0
0
0
0
0
0
0
0
0
0
0
0
0
0
0
0
0
0
0
0
0
0
0
0
0
0
0
0
0
0
0
0
0
0
0
0
0
0
0
0
0
0
0
0
0
0
0
0
0
0
0
0
0
0
0
0
0
0
0
0
0
0
0
0
0
0
0
0
0
0
0
0
0
0
0
0
0
0
0
0
0
0
0
0
0
0
0
0
0
0
0
0
0
0
0
0
0
0
0
0
0
0
0
0
0
0
0
0
0
0
0
0
0
0
0
0
0
0
0
0
0
0
0
0
0
0
0
0
0
0
0
0
0
0
0
0
0
0
0
0
0
0
0
0
0
0
0
0
0
0
0
0
0
0
0
0
0
0
0
0
0
0
0
0
0
0
0
0
0
0
0
0
0
0
0
0
0
0
0
0
0
0
0
0
0
0
0
0
0
0
0
0
0
0
0
0
0
0
0
0
0
255
254
249
248
217
156
159
156
159
163
187
208
210
211
210
210
209
210
210
210
209
209
217
222
221
221
223
221
222
219
208
209
209
210
207
206
208
156
156
158
158
157
157
223
231
226
254
254
255
254
255
254
255
255
255
255
255
255
255
255
255
255
255
255
255
255
255
255
255
254
254
254
254
255
255
255
255
255
255
255
255
255
255
255
255
255
254
254
254
255
255
255
255
255
254
254
254
254
254
255
254
254
254
0
0
0
0
0
0
0
0
0
0
0
0
0
0
0
0
0
0
0
0
0
0
0
0
0
0
0
0
0
0
0
0
0
0
0
0
0
0
0
0
0
0
0
0
0
0
0
0
0
0
0
0
0
0
0
0
0
0
0
0
0
0
0
0
0
0
0
0
0
0
0
0
0
0
0
0
0
0
0
0
0
0
0
0
0
0
0
0
0
0
0
0
0
0
0
0
0
0
0
0
0
0
0
0
0
0
0
0
0
0
0
0
0
0
0
0
0
0
0
0
0
0
0
0
0
0
0
0
0
0
0
0
0
0
0
0
0
0
0
0
0
0
0
0
0
0
0
0
0
0
0
0
0
0
0
0
0
0
0
0
0
0
0
0
0
0
0
0
0
0
0
0
0
0
0
0
0
0
0
0
0
0
0
0
0
0
0
0
0
0
0
0
0
0
0
0
0
0
0
0
0
0
0
0
0
0
0
0
0
0
0
0
0
0
0
0
0
0
0
0
0
0
0
0
0
0
0
0
0
0
0
0
0
0
0
0
0
0
0
0
0
0
0
0
0
0
0
0
0
0
0
0
0
0
0
0
0
0
0
0
0
0
0
0
0
0
0
0
0
0
0
0
0
0
0
0
0
0
0
0
0
0
0
0
0
0
0
0
0
0
0
0
0
0
0
0
0
0
0
0
0
0
0
0
0
0
0
0
0
0
0
0
0
0
0
0
0
0
0
0
0
0
0
0
0
0
0
0
0
0
0
0
0
0
0
0
0
0
0
0
0
0
0
0
0
0
0
0
0
0
0
0
0
0
0
0
0
0
0
0
0
0
0
0
0
0
0
0
0
0
0
0
0
0
0
0
0
0
0
0
0
0
0
0
0
0
0
0
0
0
0
0
0
0
0
0
0
0
0
0
0
0
0
0
0
0
0
0
0
0
0
0
0
0
0
0
0
0
0
0
0
0
0
0
0
0
0
0
0
0
0
0
0
0
0
0
0
0
0
0
0
0
0
0
0
0
0
0
0
0
0
0
0
0
0
0
0
0
0
0
0
0
0
0
0
0
0
255
255
253
248
214
155
162
156
158
162
187
208
208
210
210
209
210
210
210
209
209
213
220
222
221
222
223
221
223
218
209
209
210
210
207
208
204
178
160
159
159
157
155
229
231
230
253
255
255
254
255
254
255
255
254
255
255
255
255
255
255
255
255
255
255
255
255
255
255
255
255
255
254
254
255
255
255
255
255
255
255
255
255
255
255
255
255
255
255
255
255
255
255
255
255
254
254
254
254
255
255
254
254
254
0
0
0
0
0
0
0
0
0
0
0
0
0
0
0
0
0
0
0
0
0
0
0
0
0
0
0
0
0
0
0
0
0
0
0
0
0
0
0
0
0
0
0
0
0
0
0
0
0
0
0
0
0
0
0
0
0
0
0
0
0
0
0
0
0
0
0
0
0
0
0
0
0
0
0
0
0
0
0
0
0
0
0
0
0
0
0
0
0
0
0
0
0
0
0
0
0
0
0
0
0
0
0
0
0
0
0
0
0
0
0
0
0
0
0
0
0
0
0
0
0
0
0
0
0
0
0
0
0
0
0
0
0
0
0
0
0
0
0
0
0
0
0
0
0
0
0
0
0
0
0
0
0
0
0
0
0
0
0
0
0
0
0
0
0
0
0
0
0
0
0
0
0
0
0
0
0
0
0
0
0
0
0
0
0
0
0
0
0
0
0
0
0
0
0
0
0
0
0
0
0
0
0
0
0
0
0
0
0
0
0
0
0
0
0
0
0
0
0
0
0
0
0
0
0
0
0
0
0
0
0
0
0
0
0
0
0
0
0
0
0
0
0
0
0
0
0
0
0
0
0
0
0
0
0
0
0
0
0
0
0
0
0
0
0
0
0
0
0
0
0
0
0
0
0
0
0
0
0
0
0
0
0
0
0
0
0
0
0
0
0
0
0
0
0
0
0
0
0
0
0
0
0
0
0
0
0
0
0
0
0
0
0
0
0
0
0
0
0
0
0
0
0
0
0
0
0
0
0
0
0
0
0
0
0
0
0
0
0
0
0
0
0
0
0
0
0
0
0
0
0
0
0
0
0
0
0
0
0
0
0
0
0
0
0
0
0
0
0
0
0
0
0
0
0
0
0
0
0
0
0
0
0
0
0
0
0
0
0
0
0
0
0
0
0
0
0
0
0
0
0
0
0
0
0
0
0
0
0
0
0
0
0
0
0
0
0
0
0
0
0
0
0
0
0
0
0
0
0
0
0
0
0
0
0
0
0
0
0
0
0
0
0
0
0
0
0
0
0
0
0
0
0
0
0
0
0
0
0
0
0
0
0
0
0
0
254
254
254
248
157
157
161
156
158
158
192
209
210
211
209
210
210
210
210
210
210
216
224
224
222
224
224
221
221
215
210
209
208
208
210
206
206
162
157
161
161
159
212
212
230
245
254
254
254
255
255
255
255
255
254
254
255
255
255
255
255
255
255
255
255
255
255
255
255
255
254
255
255
254
254
255
255
255
255
255
255
255
255
255
255
255
255
255
255
255
255
255
254
255
255
255
255
254
254
254
255
255
254
254
254
0
0
0
0
0
0
0
0
0
0
0
0
0
0
0
0
0
0
0
0
0
0
0
0
0
0
0
0
0
0
0
0
0
0
0
0
0
0
0
0
0
0
0
0
0
0
0
0
0
0
0
0
0
0
0
0
0
0
0
0
0
0
0
0
0
0
0
0
0
0
0
0
0
0
0
0
0
0
0
0
0
0
0
0
0
0
0
0
0
0
0
0
0
0
0
0
0
0
0
0
0
0
0
0
0
0
0
0
0
0
0
0
0
0
0
0
0
0
0
0
0
0
0
0
0
0
0
0
0
0
0
0
0
0
0
0
0
0
0
0
0
0
0
0
0
0
0
0
0
0
0
0
0
0
0
0
0
0
0
0
0
0
0
0
0
0
0
0
0
0
0
0
0
0
0
0
0
0
0
0
0
0
0
0
0
0
0
0
0
0
0
0
0
0
0
0
0
0
0
0
0
0
0
0
0
0
0
0
0
0
0
0
0
0
0
0
0
0
0
0
0
0
0
0
0
0
0
0
0
0
0
0
0
0
0
0
0
0
0
0
0
0
0
0
0
0
0
0
0
0
0
0
0
0
0
0
0
0
0
0
0
0
0
0
0
0
0
0
0
0
0
0
0
0
0
0
0
0
0
0
0
0
0
0
0
0
0
0
0
0
0
0
0
0
0
0
0
0
0
0
0
0
0
0
0
0
0
0
0
0
0
0
0
0
0
0
0
0
0
0
0
0
0
0
0
0
0
0
0
0
0
0
0
0
0
0
0
0
0
0
0
0
0
0
0
0
0
0
0
0
0
0
0
0
0
0
0
0
0
0
0
0
0
0
0
0
0
0
0
0
0
0
0
0
0
0
0
0
0
0
0
0
0
0
0
0
0
0
0
0
0
0
0
0
0
0
0
0
0
0
0
0
0
0
0
0
0
0
0
0
0
0
0
0
0
0
0
0
0
0
0
0
0
0
0
0
0
0
0
0
0
0
0
0
0
0
0
0
0
0
0
0
0
0
0
0
0
0
0
0
0
0
0
0
0
0
0
0
0
0
0
0
0
0
0
255
253
254
244
156
157
158
155
158
166
200
206
210
211
210
209
210
210
211
210
212
220
223
221
221
222
222
221
218
215
209
211
210
210
210
209
187
159
160
161
157
155
170
228
229
248
254
254
254
255
255
255
255
255
255
255
254
255
255
255
255
255
255
255
255
255
255
255
254
255
254
254
255
255
254
254
255
255
255
254
255
255
255
255
255
255
255
255
255
255
255
254
254
254
255
255
255
255
254
255
255
255
255
254
254
254
0
0
0
0
0
0
0
0
0
0
0
0
0
0
0
0
0
0
0
0
0
0
0
0
0
0
0
0
0
0
0
0
0
0
0
0
0
0
0
0
0
0
0
0
0
0
0
0
0
0
0
0
0
0
0
0
0
0
0
0
0
0
0
0
0
0
0
0
0
0
0
0
0
0
0
0
0
0
0
0
0
0
0
0
0
0
0
0
0
0
0
0
0
0
0
0
0
0
0
0
0
0
0
0
0
0
0
0
0
0
0
0
0
0
0
0
0
0
0
0
0
0
0
0
0
0
0
0
0
0
0
0
0
0
0
0
0
0
0
0
0
0
0
0
0
0
0
0
0
0
0
0
0
0
0
0
0
0
0
0
0
0
0
0
0
0
0
0
0
0
0
0
0
0
0
0
0
0
0
0
0
0
0
0
0
0
0
0
0
0
0
0
0
0
0
0
0
0
0
0
0
0
0
0
0
0
0
0
0
0
0
0
0
0
0
0
0
0
0
0
0
0
0
0
0
0
0
0
0
0
0
0
0
0
0
0
0
0
0
0
0
0
0
0
0
0
0
0
0
0
0
0
0
0
0
0
0
0
0
0
0
0
0
0
0
0
0
0
0
0
0
0
0
0
0
0
0
0
0
0
0
0
0
0
0
0
0
0
0
0
0
0
0
0
0
0
0
0
0
0
0
0
0
0
0
0
0
0
0
0
0
0
0
0
0
0
0
0
0
0
0
0
0
0
0
0
0
0
0
0
0
0
0
0
0
0
0
0
0
0
0
0
0
0
0
0
0
0
0
0
0
0
0
0
0
0
0
0
0
0
0
0
0
0
0
0
0
0
0
0
0
0
0
0
0
0
0
0
0
0
0
0
0
0
0
0
0
0
0
0
0
0
0
0
0
0
0
0
0
0
0
0
0
0
0
0
0
0
0
0
0
0
0
0
0
0
0
0
0
0
0
0
0
0
0
0
0
0
0
0
0
0
0
0
0
0
0
0
0
0
0
0
0
0
0
0
0
0
0
0
0
0
0
0
0
0
0
0
0
0
0
0
0
0
255
252
250
163
163
161
161
161
158
173
209
209
212
210
210
210
210
210
209
210
216
216
223
222
221
223
222
222
222
212
210
210
208
211
210
206
168
158
158
162
159
155
200
231
235
235
255
254
254
254
255
255
255
254
254
254
255
255
255
255
255
255
255
255
255
255
255
254
254
254
255
254
254
255
255
254
254
254
255
255
255
255
255
255
255
255
255
255
255
255
255
254
254
254
254
255
255
255
255
255
255
255
255
255
255
254
254
0
0
0
0
0
0
0
0
0
0
0
0
0
0
0
0
0
0
0
0
0
0
0
0
0
0
0
0
0
0
0
0
0
0
0
0
0
0
0
0
0
0
0
0
0
0
0
0
0
0
0
0
0
0
0
0
0
0
0
0
0
0
0
0
0
0
0
0
0
0
0
0
0
0
0
0
0
0
0
0
0
0
0
0
0
0
0
0
0
0
0
0
0
0
0
0
0
0
0
0
0
0
0
0
0
0
0
0
0
0
0
0
0
0
0
0
0
0
0
0
0
0
0
0
0
0
0
0
0
0
0
0
0
0
0
0
0
0
0
0
0
0
0
0
0
0
0
0
0
0
0
0
0
0
0
0
0
0
0
0
0
0
0
0
0
0
0
0
0
0
0
0
0
0
0
0
0
0
0
0
0
0
0
0
0
0
0
0
0
0
0
0
0
0
0
0
0
0
0
0
0
0
0
0
0
0
0
0
0
0
0
0
0
0
0
0
0
0
0
0
0
0
0
0
0
0
0
0
0
0
0
0
0
0
0
0
0
0
0
0
0
0
0
0
0
0
0
0
0
0
0
0
0
0
0
0
0
0
0
0
0
0
0
0
0
0
0
0
0
0
0
0
0
0
0
0
0
0
0
0
0
0
0
0
0
0
0
0
0
0
0
0
0
0
0
0
0
0
0
0
0
0
0
0
0
0
0
0
0
0
0
0
0
0
0
0
0
0
0
0
0
0
0
0
0
0
0
0
0
0
0
0
0
0
0
0
0
0
0
0
0
0
0
0
0
0
0
0
0
0
0
0
0
0
0
0
0
0
0
0
0
0
0
0
0
0
0
0
0
0
0
0
0
0
0
0
0
0
0
0
0
0
0
0
0
0
0
0
0
0
0
0
0
0
0
0
0
0
0
0
0
0
0
0
0
0
0
0
0
0
0
0
0
0
0
0
0
0
0
0
0
0
0
0
0
0
0
0
0
0
0
0
0
0
0
0
0
0
0
0
0
0
0
0
0
0
0
0
0
0
0
0
0
0
0
0
0
0
0
0
0
0
0
254
251
248
218
153
159
158
159
157
190
206
208
213
211
210
209
210
209
209
209
213
223
221
222
222
221
220
222
216
209
208
209
209
210
208
189
156
157
157
157
156
166
229
228
231
248
255
255
254
255
254
255
255
255
254
254
254
255
255
255
254
255
255
255
255
255
255
255
254
254
254
255
254
254
255
255
254
254
254
255
255
255
255
255
255
255
255
255
255
255
255
255
254
254
254
255
255
255
255
255
255
255
255
255
255
255
254
254
0
0
0
0
0
0
0
0
0
0
0
0
0
0
0
0
0
0
0
0
0
0
0
0
0
0
0
0
0
0
0
0
0
0
0
0
0
0
0
0
0
0
0
0
0
0
0
0
0
0
0
0
0
0
0
0
0
0
0
0
0
0
0
0
0
0
0
0
0
0
0
0
0
0
0
0
0
0
0
0
0
0
0
0
0
0
0
0
0
0
0
0
0
0
0
0
0
0
0
0
0
0
0
0
0
0
0
0
0
0
0
0
0
0
0
0
0
0
0
0
0
0
0
0
0
0
0
0
0
0
0
0
0
0
0
0
0
0
0
0
0
0
0
0
0
0
0
0
0
0
0
0
0
0
0
0
0
0
0
0
0
0
0
0
0
0
0
0
0
0
0
0
0
0
0
0
0
0
0
0
0
0
0
0
0
0
0
0
0
0
0
0
0
0
0
0
0
0
0
0
0
0
0
0
0
0
0
0
0
0
0
0
0
0
0
0
0
0
0
0
0
0
0
0
0
0
0
0
0
0
0
0
0
0
0
0
0
0
0
0
0
0
0
0
0
0
0
0
0
0
0
0
0
0
0
0
0
0
0
0
0
0
0
0
0
0
0
0
0
0
0
0
0
0
0
0
0
0
0
0
0
0
0
0
0
0
0
0
0
0
0
0
0
0
0
0
0
0
0
0
0
0
0
0
0
0
0
0
0
0
0
0
0
0
0
0
0
0
0
0
0
0
0
0
0
0
0
0
0
0
0
0
0
0
0
0
0
0
0
0
0
0
0
0
0
0
0
0
0
0
0
0
0
0
0
0
0
0
0
0
0
0
0
0
0
0
0
0
0
0
0
0
0
0
0
0
0
0
0
0
0
0
0
0
0
0
0
0
0
0
0
0
0
0
0
0
0
0
0
0
0
0
0
0
0
0
0
0
0
0
0
0
0
0
0
0
0
0
0
0
0
0
0
0
0
0
0
0
0
0
0
0
0
0
0
0
0
0
0
0
0
0
0
0
0
0
0
0
0
0
0
0
0
0
0
0
0
0
0
0
0
0
254
250
248
170
161
159
161
159
168
168
208
211
213
208
209
209
209
210
210
209
218
221
221
221
222
221
220
223
216
209
212
209
209
210
209
169
156
161
159
157
157
198
225
228
233
254
255
255
254
254
254
254
255
255
255
254
254
253
255
253
254
255
255
255
255
255
255
255
255
255
254
254
255
254
255
255
253
254
254
254
255
255
254
255
255
255
255
255
254
254
255
255
255
255
254
254
255
255
255
255
255
255
255
255
255
254
254
254
254
0
0
0
0
0
0
0
0
0
0
0
0
0
0
0
0
0
0
0
0
0
0
0
0
0
0
0
0
0
0
0
0
0
0
0
0
0
0
0
0
0
0
0
0
0
0
0
0
0
0
0
0
0
0
0
0
0
0
0
0
0
0
0
0
0
0
0
0
0
0
0
0
0
0
0
0
0
0
0
0
0
0
0
0
0
0
0
0
0
0
0
0
0
0
0
0
0
0
0
0
0
0
0
0
0
0
0
0
0
0
0
0
0
0
0
0
0
0
0
0
0
0
0
0
0
0
0
0
0
0
0
0
0
0
0
0
0
0
0
0
0
0
0
0
0
0
0
0
0
0
0
0
0
0
0
0
0
0
0
0
0
0
0
0
0
0
0
0
0
0
0
0
0
0
0
0
0
0
0
0
0
0
0
0
0
0
0
0
0
0
0
0
0
0
0
0
0
0
0
0
0
0
0
0
0
0
0
0
0
0
0
0
0
0
0
0
0
0
0
0
0
0
0
0
0
0
0
0
0
0
0
0
0
0
0
0
0
0
0
0
0
0
0
0
0
0
0
0
0
0
0
0
0
0
0
0
0
0
0
0
0
0
0
0
0
0
0
0
0
0
0
0
0
0
0
0
0
0
0
0
0
0
0
0
0
0
0
0
0
0
0
0
0
0
0
0
0
0
0
0
0
0
0
0
0
0
0
0
0
0
0
0
0
0
0
0
0
0
0
0
0
0
0
0
0
0
0
0
0
0
0
0
0
0
0
0
0
0
0
0
0
0
0
0
0
0
0
0
0
0
0
0
0
0
0
0
0
0
0
0
0
0
0
0
0
0
0
0
0
0
0
0
0
0
0
0
0
0
0
0
0
0
0
0
0
0
0
0
0
0
0
0
0
0
0
0
0
0
0
0
0
0
0
0
0
0
0
0
0
0
0
0
0
0
0
0
0
0
0
0
0
0
0
0
0
0
0
0
0
0
0
0
0
0
0
0
0
0
0
0
0
0
0
0
0
0
0
0
0
0
0
0
0
0
0
0
0
0
0
0
0
251
248
211
156
156
155
158
158
159
202
207
207
209
209
209
208
210
210
209
214
221
221
222
223
223
222
223
220
220
211
209
209
210
209
202
187
159
158
158
156
163
225
233
229
245
245
253
253
254
255
254
254
254
255
255
255
254
254
254
254
254
255
255
255
255
255
255
255
255
255
255
254
254
255
255
254
253
253
255
255
254
255
255
254
255
255
255
255
254
254
254
255
255
255
255
254
254
255
255
255
255
255
255
255
254
254
254
254
254
254
0
0
0
0
0
0
0
0
0
0
0
0
0
0
0
0
0
0
0
0
0
0
0
0
0
0
0
0
0
0
0
0
0
0
0
0
0
0
0
0
0
0
0
0
0
0
0
0
0
0
0
0
0
0
0
0
0
0
0
0
0
0
0
0
0
0
0
0
0
0
0
0
0
0
0
0
0
0
0
0
0
0
0
0
0
0
0
0
0
0
0
0
0
0
0
0
0
0
0
0
0
0
0
0
0
0
0
0
0
0
0
0
0
0
0
0
0
0
0
0
0
0
0
0
0
0
0
0
0
0
0
0
0
0
0
0
0
0
0
0
0
0
0
0
0
0
0
0
0
0
0
0
0
0
0
0
0
0
0
0
0
0
0
0
0
0
0
0
0
0
0
0
0
0
0
0
0
0
0
0
0
0
0
0
0
0
0
0
0
0
0
0
0
0
0
0
0
0
0
0
0
0
0
0
0
0
0
0
0
0
0
0
0
0
0
0
0
0
0
0
0
0
0
0
0
0
0
0
0
0
0
0
0
0
0
0
0
0
0
0
0
0
0
0
0
0
0
0
0
0
0
0
0
0
0
0
0
0
0
0
0
0
0
0
0
0
0
0
0
0
0
0
0
0
0
0
0
0
0
0
0
0
0
0
0
0
0
0
0
0
0
0
0
0
0
0
0
0
0
0
0
0
0
0
0
0
0
0
0
0
0
0
0
0
0
0
0
0
0
0
0
0
0
0
0
0
0
0
0
0
0
0
0
0
0
0
0
0
0
0
0
0
0
0
0
0
0
0
0
0
0
0
0
0
0
0
0
0
0
0
0
0
0
0
0
0
0
0
0
0
0
0
0
0
0
0
0
0
0
0
0
0
0
0
0
0
0
0
0
0
0
0
0
0
0
0
0
0
0
0
0
0
0
0
0
0
0
0
0
0
0
0
0
0
0
0
0
0
0
0
0
0
0
0
0
0
0
0
0
0
0
0
0
0
0
0
0
0
0
0
0
0
0
0
0
0
0
0
0
0
0
0
0
0
0
0
0
0
0
0
251
248
161
154
160
158
159
158
170
209
207
212
209
210
208
210
210
210
208
220
221
223
222
222
223
223
222
221
209
210
209
210
210
209
202
163
156
156
156
155
199
225
229
229
233
253
254
252
254
254
255
254
254
254
255
254
254
254
254
252
254
255
255
255
255
255
255
255
255
255
255
255
254
255
255
254
255
255
255
254
254
254
255
255
255
255
255
255
255
254
254
254
255
255
255
255
254
255
255
255
255
255
255
254
254
254
254
254
254
254
254
0
0
0
0
0
0
0
0
0
0
0
0
0
0
0
0
0
0
0
0
0
0
0
0
0
0
0
0
0
0
0
0
0
0
0
0
0
0
0
0
0
0
0
0
0
0
0
0
0
0
0
0
0
0
0
0
0
0
0
0
0
0
0
0
0
0
0
0
0
0
0
0
0
0
0
0
0
0
0
0
0
0
0
0
0
0
0
0
0
0
0
0
0
0
0
0
0
0
0
0
0
0
0
0
0
0
0
0
0
0
0
0
0
0
0
0
0
0
0
0
0
0
0
0
0
0
0
0
0
0
0
0
0
0
0
0
0
0
0
0
0
0
0
0
0
0
0
0
0
0
0
0
0
0
0
0
0
0
0
0
0
0
0
0
0
0
0
0
0
0
0
0
0
0
0
0
0
0
0
0
0
0
0
0
0
0
0
0
0
0
0
0
0
0
0
0
0
0
0
0
0
0
0
0
0
0
0
0
0
0
0
0
0
0
0
0
0
0
0
0
0
0
0
0
0
0
0
0
0
0
0
0
0
0
0
0
0
0
0
0
0
0
0
0
0
0
0
0
0
0
0
0
0
0
0
0
0
0
0
0
0
0
0
0
0
0
0
0
0
0
0
0
0
0
0
0
0
0
0
0
0
0
0
0
0
0
0
0
0
0
0
0
0
0
0
0
0
0
0
0
0
0
0
0
0
0
0
0
0
0
0
0
0
0
0
0
0
0
0
0
0
0
0
0
0
0
0
0
0
0
0
0
0
0
0
0
0
0
0
0
0
0
0
0
0
0
0
0
0
0
0
0
0
0
0
0
0
0
0
0
0
0
0
0
0
0
0
0
0
0
0
0
0
0
0
0
0
0
0
0
0
0
0
0
0
0
0
0
0
0
0
0
0
0
0
0
0
0
0
0
0
0
0
0
0
0
0
0
0
0
0
0
0
0
0
0
0
0
0
0
0
0
0
0
0
0
0
0
0
0
0
0
0
0
0
0
0
0
0
0
0
0
0
0
0
0
0
0
0
0
0
0
0
0
0
0
0
0
0
250
186
186
154
159
158
158
160
203
203
209
208
208
210
210
209
209
211
218
218
223
222
222
222
222
222
222
218
209
210
207
211
210
210
180
159
159
160
156
164
164
227
231
231
239
253
253
253
255
254
254
254
254
254
253
254
254
254
253
253
253
255
254
255
255
255
255
255
255
255
255
255
255
254
254
255
254
254
254
254
254
254
254
255
255
254
255
255
255
255
254
254
255
255
255
255
255
255
255
255
255
255
254
254
254
254
254
255
255
254
254
254
0
0
0
0
0
0
0
0
0
0
0
0
0
0
0
0
0
0
0
0
0
0
0
0
0
0
0
0
0
0
0
0
0
0
0
0
0
0
0
0
0
0
0
0
0
0
0
0
0
0
0
0
0
0
0
0
0
0
0
0
0
0
0
0
0
0
0
0
0
0
0
0
0
0
0
0
0
0
0
0
0
0
0
0
0
0
0
0
0
0
0
0
0
0
0
0
0
0
0
0
0
0
0
0
0
0
0
0
0
0
0
0
0
0
0
0
0
0
0
0
0
0
0
0
0
0
0
0
0
0
0
0
0
0
0
0
0
0
0
0
0
0
0
0
0
0
0
0
0
0
0
0
0
0
0
0
0
0
0
0
0
0
0
0
0
0
0
0
0
0
0
0
0
0
0
0
0
0
0
0
0
0
0
0
0
0
0
0
0
0
0
0
0
0
0
0
0
0
0
0
0
0
0
0
0
0
0
0
0
0
0
0
0
0
0
0
0
0
0
0
0
0
0
0
0
0
0
0
0
0
0
0
0
0
0
0
0
0
0
0
0
0
0
0
0
0
0
0
0
0
0
0
0
0
0
0
0
0
0
0
0
0
0
0
0
0
0
0
0
0
0
0
0
0
0
0
0
0
0
0
0
0
0
0
0
0
0
0
0
0
0
0
0
0
0
0
0
0
0
0
0
0
0
0
0
0
0
0
0
0
0
0
0
0
0
0
0
0
0
0
0
0
0
0
0
0
0
0
0
0
0
0
0
0
0
0
0
0
0
0
0
0
0
0
0
0
0
0
0
0
0
0
0
0
0
0
0
0
0
0
0
0
0
0
0
0
0
0
0
0
0
0
0
0
0
0
0
0
0
0
0
0
0
0
0
0
0
0
0
0
0
0
0
0
0
0
0
0
0
0
0
0
0
0
0
0
0
0
0
0
0
0
0
0
0
0
0
0
0
0
0
0
0
0
0
0
0
0
0
0
0
0
0
0
0
0
0
0
0
0
0
0
0
0
0
0
0
0
0
0
0
0
0
0
0
0
0
0
236
217
155
159
158
158
160
168
190
208
210
210
210
209
209
209
210
212
212
223
222
223
223
222
222
221
221
211
210
209
210
209
208
198
159
158
159
157
154
157
227
232
229
226
250
255
255
254
254
254
254
254
254
253
253
254
254
254
254
252
253
255
254
254
255
255
255
255
255
255
255
255
255
254
254
254
255
254
254
254
254
254
254
255
255
254
253
255
255
255
255
255
255
255
254
254
255
255
255
255
255
254
254
254
254
254
255
255
255
255
254
254
254
0
0
0
0
0
0
0
0
0
0
0
0
0
0
0
0
0
0
0
0
0
0
0
0
0
0
0
0
0
0
0
0
0
0
0
0
0
0
0
0
0
0
0
0
0
0
0
0
0
0
0
0
0
0
0
0
0
0
0
0
0
0
0
0
0
0
0
0
0
0
0
0
0
0
0
0
0
0
0
0
0
0
0
0
0
0
0
0
0
0
0
0
0
0
0
0
0
0
0
0
0
0
0
0
0
0
0
0
0
0
0
0
0
0
0
0
0
0
0
0
0
0
0
0
0
0
0
0
0
0
0
0
0
0
0
0
0
0
0
0
0
0
0
0
0
0
0
0
0
0
0
0
0
0
0
0
0
0
0
0
0
0
0
0
0
0
0
0
0
0
0
0
0
0
0
0
0
0
0
0
0
0
0
0
0
0
0
0
0
0
0
0
0
0
0
0
0
0
0
0
0
0
0
0
0
0
0
0
0
0
0
0
0
0
0
0
0
0
0
0
0
0
0
0
0
0
0
0
0
0
0
0
0
0
0
0
0
0
0
0
0
0
0
0
0
0
0
0
0
0
0
0
0
0
0
0
0
0
0
0
0
0
0
0
0
0
0
0
0
0
0
0
0
0
0
0
0
0
0
0
0
0
0
0
0
0
0
0
0
0
0
0
0
0
0
0
0
0
0
0
0
0
0
0
0
0
0
0
0
0
0
0
0
0
0
0
0
0
0
0
0
0
0
0
0
0
0
0
0
0
0
0
0
0
0
0
0
0
0
0
0
0
0
0
0
0
0
0
0
0
0
0
0
0
0
0
0
0
0
0
0
0
0
0
0
0
0
0
0
0
0
0
0
0
0
0
0
0
0
0
0
0
0
0
0
0
0
0
0
0
0
0
0
0
0
0
0
0
0
0
0
0
0
0
0
0
0
0
0
0
0
0
0
0
0
0
0
0
0
0
0
0
0
0
0
0
0
0
0
0
0
0
0
0
0
0
0
0
0
0
0
0
0
0
0
0
0
0
0
0
0
0
0
0
0
0
0
236
158
159
159
159
159
163
168
208
208
210
211
208
209
209
210
210
212
222
222
222
222
224
223
222
221
215
211
209
212
208
209
208
170
159
157
159
156
156
178
229
232
228
236
254
254
254
254
254
254
254
254
254
253
254
254
253
254
254
253
255
254
254
254
255
255
255
255
255
255
255
255
255
255
254
254
254
255
253
253
255
255
254
254
255
254
254
253
255
255
255
255
255
255
254
254
254
255
255
255
254
254
254
254
254
255
255
254
254
255
255
254
254
254
0
0
0
0
0
0
0
0
0
0
0
0
0
0
0
0
0
0
0
0
0
0
0
0
0
0
0
0
0
0
0
0
0
0
0
0
0
0
0
0
0
0
0
0
0
0
0
0
0
0
0
0
0
0
0
0
0
0
0
0
0
0
0
0
0
0
0
0
0
0
0
0
0
0
0
0
0
0
0
0
0
0
0
0
0
0
0
0
0
0
0
0
0
0
0
0
0
0
0
0
0
0
0
0
0
0
0
0
0
0
0
0
0
0
0
0
0
0
0
0
0
0
0
0
0
0
0
0
0
0
0
0
0
0
0
0
0
0
0
0
0
0
0
0
0
0
0
0
0
0
0
0
0
0
0
0
0
0
0
0
0
0
0
0
0
0
0
0
0
0
0
0
0
0
0
0
0
0
0
0
0
0
0
0
0
0
0
0
0
0
0
0
0
0
0
0
0
0
0
0
0
0
0
0
0
0
0
0
0
0
0
0
0
0
0
0
0
0
0
0
0
0
0
0
0
0
0
0
0
0
0
0
0
0
0
0
0
0
0
0
0
0
0
0
0
0
0
0
0
0
0
0
0
0
0
0
0
0
0
0
0
0
0
0
0
0
0
0
0
0
0
0
0
0
0
0
0
0
0
0
0
0
0
0
0
0
0
0
0
0
0
0
0
0
0
0
0
0
0
0
0
0
0
0
0
0
0
0
0
0
0
0
0
0
0
0
0
0
0
0
0
0
0
0
0
0
0
0
0
0
0
0
0
0
0
0
0
0
0
0
0
0
0
0
0
0
0
0
0
0
0
0
0
0
0
0
0
0
0
0
0
0
0
0
0
0
0
0
0
0
0
0
0
0
0
0
0
0
0
0
0
0
0
0
0
0
0
0
0
0
0
0
0
0
0
0
0
0
0
0
0
0
0
0
0
0
0
0
0
0
0
0
0
0
0
0
0
0
0
0
0
0
0
0
0
0
0
0
0
0
0
0
0
0
0
0
0
0
0
0
0
0
0
0
0
0
0
0
0
0
0
0
0
0
0
0
171
158
159
159
159
159
160
200
210
210
209
210
211
211
210
211
210
220
221
221
222
223
221
223
222
219
219
209
211
208
209
209
186
186
158
159
160
159
159
217
227
232
231
246
254
255
253
255
254
254
254
254
253
254
254
253
254
254
254
255
254
254
253
255
255
253
255
255
255
255
255
255
255
255
255
254
254
254
255
254
254
254
254
254
254
255
254
254
254
255
255
255
255
254
254
254
254
255
255
255
254
254
254
254
255
255
254
254
254
255
255
255
254
254
254
0
0
0
0
0
0
0
0
0
0
0
0
0
0
0
0
0
0
0
0
0
0
0
0
0
0
0
0
0
0
0
0
0
0
0
0
0
0
0
0
0
0
0
0
0
0
0
0
0
0
0
0
0
0
0
0
0
0
0
0
0
0
0
0
0
0
0
0
0
0
0
0
0
0
0
0
0
0
0
0
0
0
0
0
0
0
0
0
0
0
0
0
0
0
0
0
0
0
0
0
0
0
0
0
0
0
0
0
0
0
0
0
0
0
0
0
0
0
0
0
0
0
0
0
0
0
0
0
0
0
0
0
0
0
0
0
0
0
0
0
0
0
0
0
0
0
0
0
0
0
0
0
0
0
0
0
0
0
0
0
0
0
0
0
0
0
0
0
0
0
0
0
0
0
0
0
0
0
0
0
0
0
0
0
0
0
0
0
0
0
0
0
0
0
0
0
0
0
0
0
0
0
0
0
0
0
0
0
0
0
0
0
0
0
0
0
0
0
0
0
0
0
0
0
0
0
0
0
0
0
0
0
0
0
0
0
0
0
0
0
0
0
0
0
0
0
0
0
0
0
0
0
0
0
0
0
0
0
0
0
0
0
0
0
0
0
0
0
0
0
0
0
0
0
0
0
0
0
0
0
0
0
0
0
0
0
0
0
0
0
0
0
0
0
0
0
0
0
0
0
0
0
0
0
0
0
0
0
0
0
0
0
0
0
0
0
0
0
0
0
0
0
0
0
0
0
0
0
0
0
0
0
0
0
0
0
0
0
0
0
0
0
0
0
0
0
0
0
0
0
0
0
0
0
0
0
0
0
0
0
0
0
0
0
0
0
0
0
0
0
0
0
0
0
0
0
0
0
0
0
0
0
0
0
0
0
0
0
0
0
0
0
0
0
0
0
0
0
0
0
0
0
0
0
0
0
0
0
0
0
0
0
0
0
0
0
0
0
0
0
0
0
0
0
0
0
0
0
0
0
0
0
0
0
0
0
0
0
0
0
0
0
0
0
0
0
0
0
0
0
0
0
0
0
0
156
159
159
157
159
159
174
207
209
208
211
209
211
210
209
211
215
221
221
221
221
223
221
222
223
222
210
210
209
208
209
206
203
160
158
158
160
156
193
217
228
228
238
246
252
255
253
254
255
254
253
253
254
254
255
254
254
254
254
255
254
254
255
255
255
255
255
255
255
255
255
255
254
255
255
255
254
254
254
254
254
254
255
254
254
254
255
254
254
254
255
255
255
255
254
255
255
255
255
255
255
254
254
255
255
255
255
254
255
254
254
255
255
254
254
254
0
0
0
0
0
0
0
0
0
0
0
0
0
0
0
0
0
0
0
0
0
0
0
0
0
0
0
0
0
0
0
0
0
0
0
0
0
0
0
0
0
0
0
0
0
0
0
0
0
0
0
0
0
0
0
0
0
0
0
0
0
0
0
0
0
0
0
0
0
0
0
0
0
0
0
0
0
0
0
0
0
0
0
0
0
0
0
0
0
0
0
0
0
0
0
0
0
0
0
0
0
0
0
0
0
0
0
0
0
0
0
0
0
0
0
0
0
0
0
0
0
0
0
0
0
0
0
0
0
0
0
0
0
0
0
0
0
0
0
0
0
0
0
0
0
0
0
0
0
0
0
0
0
0
0
0
0
0
0
0
0
0
0
0
0
0
0
0
0
0
0
0
0
0
0
0
0
0
0
0
0
0
0
0
0
0
0
0
0
0
0
0
0
0
0
0
0
0
0
0
0
0
0
0
0
0
0
0
0
0
0
0
0
0
0
0
0
0
0
0
0
0
0
0
0
0
0
0
0
0
0
0
0
0
0
0
0
0
0
0
0
0
0
0
0
0
0
0
0
0
0
0
0
0
0
0
0
0
0
0
0
0
0
0
0
0
0
0
0
0
0
0
0
0
0
0
0
0
0
0
0
0
0
0
0
0
0
0
0
0
0
0
0
0
0
0
0
0
0
0
0
0
0
0
0
0
0
0
0
0
0
0
0
0
0
0
0
0
0
0
0
0
0
0
0
0
0
0
0
0
0
0
0
0
0
0
0
0
0
0
0
0
0
0
0
0
0
0
0
0
0
0
0
0
0
0
0
0
0
0
0
0
0
0
0
0
0
0
0
0
0
0
0
0
0
0
0
0
0
0
0
0
0
0
0
0
0
0
0
0
0
0
0
0
0
0
0
0
0
0
0
0
0
0
0
0
0
0
0
0
0
0
0
0
0
0
0
0
0
0
0
0
0
0
0
0
0
0
0
0
0
0
0
0
0
0
0
0
0
0
0
0
0
0
0
0
0
0
0
0
0
0
0
0
157
157
158
159
159
163
207
207
210
210
210
210
210
210
210
212
221
221
221
221
222
222
223
223
223
217
209
211
211
209
210
210
171
160
157
157
157
166
166
230
231
228
230
254
255
255
254
254
254
255
255
254
254
254
254
254
253
254
254
254
255
255
255
255
255
255
255
255
255
255
255
254
254
255
254
255
255
254
254
254
254
254
255
254
254
254
254
254
255
255
254
255
255
255
255
255
255
255
255
255
255
255
254
254
254
255
255
255
255
254
254
254
255
255
254
254
254
0
0
0
0
0
0
0
0
0
0
0
0
0
0
0
0
0
0
0
0
0
0
0
0
0
0
0
0
0
0
0
0
0
0
0
0
0
0
0
0
0
0
0
0
0
0
0
0
0
0
0
0
0
0
0
0
0
0
0
0
0
0
0
0
0
0
0
0
0
0
0
0
0
0
0
0
0
0
0
0
0
0
0
0
0
0
0
0
0
0
0
0
0
0
0
0
0
0
0
0
0
0
0
0
0
0
0
0
0
0
0
0
0
0
0
0
0
0
0
0
0
0
0
0
0
0
0
0
0
0
0
0
0
0
0
0
0
0
0
0
0
0
0
0
0
0
0
0
0
0
0
0
0
0
0
0
0
0
0
0
0
0
0
0
0
0
0
0
0
0
0
0
0
0
0
0
0
0
0
0
0
0
0
0
0
0
0
0
0
0
0
0
0
0
0
0
0
0
0
0
0
0
0
0
0
0
0
0
0
0
0
0
0
0
0
0
0
0
0
0
0
0
0
0
0
0
0
0
0
0
0
0
0
0
0
0
0
0
0
0
0
0
0
0
0
0
0
0
0
0
0
0
0
0
0
0
0
0
0
0
0
0
0
0
0
0
0
0
0
0
0
0
0
0
0
0
0
0
0
0
0
0
0
0
0
0
0
0
0
0
0
0
0
0
0
0
0
0
0
0
0
0
0
0
0
0
0
0
0
0
0
0
0
0
0
0
0
0
0
0
0
0
0
0
0
0
0
0
0
0
0
0
0
0
0
0
0
0
0
0
0
0
0
0
0
0
0
0
0
0
0
0
0
0
0
0
0
0
0
0
0
0
0
0
0
0
0
0
0
0
0
0
0
0
0
0
0
0
0
0
0
0
0
0
0
0
0
0
0
0
0
0
0
0
0
0
0
0
0
0
0
0
0
0
0
0
0
0
0
0
0
0
0
0
0
0
0
0
0
0
0
0
0
0
0
0
0
0
0
0
0
0
0
0
0
0
0
0
0
0
0
0
0
0
0
0
0
0
0
0
0
0
0
157
161
158
159
159
200
204
209
209
210
210
211
209
210
210
222
222
221
222
223
222
222
222
222
220
210
209
210
210
210
210
186
157
158
159
158
156
154
230
227
230
228
236
253
252
255
254
254
255
255
255
255
254
254
254
254
254
254
254
254
254
255
255
254
254
255
255
254
252
255
254
255
255
255
254
254
255
255
254
253
251
254
255
255
255
254
254
254
254
254
255
255
255
255
255
255
255
255
255
255
255
255
255
254
254
254
255
255
254
254
254
254
255
255
255
254
254
254
0
0
0
0
0
0
0
0
0
0
0
0
0
0
0
0
0
0
0
0
0
0
0
0
0
0
0
0
0
0
0
0
0
0
0
0
0
0
0
0
0
0
0
0
0
0
0
0
0
0
0
0
0
0
0
0
0
0
0
0
0
0
0
0
0
0
0
0
0
0
0
0
0
0
0
0
0
0
0
0
0
0
0
0
0
0
0
0
0
0
0
0
0
0
0
0
0
0
0
0
0
0
0
0
0
0
0
0
0
0
0
0
0
0
0
0
0
0
0
0
0
0
0
0
0
0
0
0
0
0
0
0
0
0
0
0
0
0
0
0
0
0
0
0
0
0
0
0
0
0
0
0
0
0
0
0
0
0
0
0
0
0
0
0
0
0
0
0
0
0
0
0
0
0
0
0
0
0
0
0
0
0
0
0
0
0
0
0
0
0
0
0
0
0
0
0
0
0
0
0
0
0
0
0
0
0
0
0
0
0
0
0
0
0
0
0
0
0
0
0
0
0
0
0
0
0
0
0
0
0
0
0
0
0
0
0
0
0
0
0
0
0
0
0
0
0
0
0
0
0
0
0
0
0
0
0
0
0
0
0
0
0
0
0
0
0
0
0
0
0
0
0
0
0
0
0
0
0
0
0
0
0
0
0
0
0
0
0
0
0
0
0
0
0
0
0
0
0
0
0
0
0
0
0
0
0
0
0
0
0
0
0
0
0
0
0
0
0
0
0
0
0
0
0
0
0
0
0
0
0
0
0
0
0
0
0
0
0
0
0
0
0
0
0
0
0
0
0
0
0
0
0
0
0
0
0
0
0
0
0
0
0
0
0
0
0
0
0
0
0
0
0
0
0
0
0
0
0
0
0
0
0
0
0
0
0
0
0
0
0
0
0
0
0
0
0
0
0
0
0
0
0
0
0
0
0
0
0
0
0
0
0
0
0
0
0
0
0
0
0
0
0
0
0
0
0
0
0
0
0
0
0
0
0
0
0
0
0
0
0
0
0
0
0
0
0
0
0
0
0
0
0
160
159
159
160
192
200
208
209
210
210
210
209
209
210
223
222
222
221
223
223
223
222
222
223
212
209
209
210
209
210
204
159
158
158
158
157
156
190
228
230
230
229
254
254
253
253
254
254
255
255
255
255
254
254
254
254
254
254
255
253
253
255
255
254
254
254
254
254
255
254
254
254
255
254
254
254
255
255
251
254
254
254
255
254
254
255
254
254
254
253
255
255
254
255
255
255
255
255
255
255
255
255
255
255
254
254
255
254
254
254
254
254
254
255
255
255
254
254
254
0
0
0
0
0
0
0
0
0
0
0
0
0
0
0
0
0
0
0
0
0
0
0
0
0
0
0
0
0
0
0
0
0
0
0
0
0
0
0
0
0
0
0
0
0
0
0
0
0
0
0
0
0
0
0
0
0
0
0
0
0
0
0
0
0
0
0
0
0
0
0
0
0
0
0
0
0
0
0
0
0
0
0
0
0
0
0
0
0
0
0
0
0
0
0
0
0
0
0
0
0
0
0
0
0
0
0
0
0
0
0
0
0
0
0
0
0
0
0
0
0
0
0
0
0
0
0
0
0
0
0
0
0
0
0
0
0
0
0
0
0
0
0
0
0
0
0
0
0
0
0
0
0
0
0
0
0
0
0
0
0
0
0
0
0
0
0
0
0
0
0
0
0
0
0
0
0
0
0
0
0
0
0
0
0
0
0
0
0
0
0
0
0
0
0
0
0
0
0
0
0
0
0
0
0
0
0
0
0
0
0
0
0
0
0
0
0
0
0
0
0
0
0
0
0
0
0
0
0
0
0
0
0
0
0
0
0
0
0
0
0
0
0
0
0
0
0
0
0
0
0
0
0
0
0
0
0
0
0
0
0
0
0
0
0
0
0
0
0
0
0
0
0
0
0
0
0
0
0
0
0
0
0
0
0
0
0
0
0
0
0
0
0
0
0
0
0
0
0
0
0
0
0
0
0
0
0
0
0
0
0
0
0
0
0
0
0
0
0
0
0
0
0
0
0
0
0
0
0
0
0
0
0
0
0
0
0
0
0
0
0
0
0
0
0
0
0
0
0
0
0
0
0
0
0
0
0
0
0
0
0
0
0
0
0
0
0
0
0
0
0
0
0
0
0
0
0
0
0
0
0
0
0
0
0
0
0
0
0
0
0
0
0
0
0
0
0
0
0
0
0
0
0
0
0
0
0
0
0
0
0
0
0
0
0
0
0
0
0
0
0
0
0
0
0
0
0
0
0
0
0
0
0
0
0
0
0
0
0
0
0
0
0
0
0
0
0
0
0
0
0
158
158
159
175
183
208
210
209
208
210
209
209
209
221
223
222
221
223
223
223
223
222
223
214
210
209
210
209
208
207
167
159
159
158
159
157
165
232
229
230
232
237
248
254
254
253
254
254
254
254
255
254
255
254
252
255
252
255
252
254
254
254
255
254
254
252
255
252
254
255
253
254
255
255
254
254
253
255
255
254
253
254
255
254
254
254
254
254
254
255
253
251
255
252
255
255
255
255
255
254
254
255
255
255
255
254
254
254
254
255
255
255
254
254
255
254
254
254
254
254
0
0
0
0
0
0
0
0
0
0
0
0
0
0
0
0
0
0
0
0
0
0
0
0
0
0
0
0
0
0
0
0
0
0
0
0
0
0
0
0
0
0
0
0
0
0
0
0
0
0
0
0
0
0
0
0
0
0
0
0
0
0
0
0
0
0
0
0
0
0
0
0
0
0
0
0
0
0
0
0
0
0
0
0
0
0
0
0
0
0
0
0
0
0
0
0
0
0
0
0
0
0
0
0
0
0
0
0
0
0
0
0
0
0
0
0
0
0
0
0
0
0
0
0
0
0
0
0
0
0
0
0
0
0
0
0
0
0
0
0
0
0
0
0
0
0
0
0
0
0
0
0
0
0
0
0
0
0
0
0
0
0
0
0
0
0
0
0
0
0
0
0
0
0
0
0
0
0
0
0
0
0
0
0
0
0
0
0
0
0
0
0
0
0
0
0
0
0
0
0
0
0
0
0
0
0
0
0
0
0
0
0
0
0
0
0
0
0
0
0
0
0
0
0
0
0
0
0
0
0
0
0
0
0
0
0
0
0
0
0
0
0
0
0
0
0
0
0
0
0
0
0
0
0
0
0
0
0
0
0
0
0
0
0
0
0
0
0
0
0
0
0
0
0
0
0
0
0
0
0
0
0
0
0
0
0
0
0
0
0
0
0
0
0
0
0
0
0
0
0
0
0
0
0
0
0
0
0
0
0
0
0
0
0
0
0
0
0
0
0
0
0
0
0
0
0
0
0
0
0
0
0
0
0
0
0
0
0
0
0
0
0
0
0
0
0
0
0
0
0
0
0
0
0
0
0
0
0
0
0
0
0
0
0
0
0
0
0
0
0
0
0
0
0
0
0
0
0
0
0
0
0
0
0
0
0
0
0
0
0
0
0
0
0
0
0
0
0
0
0
0
0
0
0
0
0
0
0
0
0
0
0
0
0
0
0
0
0
0
0
0
0
0
0
0
0
0
0
0
0
0
0
0
0
0
0
0
0
0
0
0
0
0
0
0
0
0
0
0
0
158
159
172
175
208
208
209
209
210
209
209
210
220
223
223
222
223
223
223
223
223
222
219
211
210
210
209
209
210
191
158
159
159
159
159
155
218
229
229
228
230
237
254
255
254
255
255
254
254
254
255
254
255
255
252
255
254
254
252
255
253
254
251
251
252
252
253
253
254
253
254
253
255
254
254
254
254
254
251
254
255
255
255
255
254
254
254
255
252
255
253
253
255
255
254
255
255
255
255
254
254
254
255
255
255
254
254
254
255
255
254
254
254
254
254
254
254
254
255
254
253
0
0
0
0
0
0
0
0
0
0
0
0
0
0
0
0
0
0
0
0
0
0
0
0
0
0
0
0
0
0
0
0
0
0
0
0
0
0
0
0
0
0
0
0
0
0
0
0
0
0
0
0
0
0
0
0
0
0
0
0
0
0
0
0
0
0
0
0
0
0
0
0
0
0
0
0
0
0
0
0
0
0
0
0
0
0
0
0
0
0
0
0
0
0
0
0
0
0
0
0
0
0
0
0
0
0
0
0
0
0
0
0
0
0
0
0
0
0
0
0
0
0
0
0
0
0
0
0
0
0
0
0
0
0
0
0
0
0
0
0
0
0
0
0
0
0
0
0
0
0
0
0
0
0
0
0
0
0
0
0
0
0
0
0
0
0
0
0
0
0
0
0
0
0
0
0
0
0
0
0
0
0
0
0
0
0
0
0
0
0
0
0
0
0
0
0
0
0
0
0
0
0
0
0
0
0
0
0
0
0
0
0
0
0
0
0
0
0
0
0
0
0
0
0
0
0
0
0
0
0
0
0
0
0
0
0
0
0
0
0
0
0
0
0
0
0
0
0
0
0
0
0
0
0
0
0
0
0
0
0
0
0
0
0
0
0
0
0
0
0
0
0
0
0
0
0
0
0
0
0
0
0
0
0
0
0
0
0
0
0
0
0
0
0
0
0
0
0
0
0
0
0
0
0
0
0
0
0
0
0
0
0
0
0
0
0
0
0
0
0
0
0
0
0
0
0
0
0
0
0
0
0
0
0
0
0
0
0
0
0
0
0
0
0
0
0
0
0
0
0
0
0
0
0
0
0
0
0
0
0
0
0
0
0
0
0
0
0
0
0
0
0
0
0
0
0
0
0
0
0
0
0
0
0
0
0
0
0
0
0
0
0
0
0
0
0
0
0
0
0
0
0
0
0
0
0
0
0
0
0
0
0
0
0
0
0
0
0
0
0
0
0
0
0
0
0
0
0
0
0
0
0
0
0
0
0
0
0
0
0
0
0
0
0
0
0
0
0
0
159
168
168
206
208
209
208
210
209
209
209
220
222
222
222
222
222
223
221
221
222
220
209
211
210
210
210
210
200
159
158
159
156
156
154
198
229
229
228
229
229
251
255
255
254
254
254
254
254
254
254
254
254
253
253
254
251
251
252
250
250
248
247
151
245
245
247
247
250
249
216
252
252
252
252
253
253
252
255
254
254
254
251
255
255
254
254
255
254
255
253
253
251
254
255
254
255
255
255
255
254
254
254
255
255
255
254
255
255
255
254
255
254
253
254
254
254
255
255
255
253
254
0
0
0
0
0
0
0
0
0
0
0
0
0
0
0
0
0
0
0
0
0
0
0
0
0
0
0
0
0
0
0
0
0
0
0
0
0
0
0
0
0
0
0
0
0
0
0
0
0
0
0
0
0
0
0
0
0
0
0
0
0
0
0
0
0
0
0
0
0
0
0
0
0
0
0
0
0
0
0
0
0
0
0
0
0
0
0
0
0
0
0
0
0
0
0
0
0
0
0
0
0
0
0
0
0
0
0
0
0
0
0
0
0
0
0
0
0
0
0
0
0
0
0
0
0
0
0
0
0
0
0
0
0
0
0
0
0
0
0
0
0
0
0
0
0
0
0
0
0
0
0
0
0
0
0
0
0
0
0
0
0
0
0
0
0
0
0
0
0
0
0
0
0
0
0
0
0
0
0
0
0
0
0
0
0
0
0
0
0
0
0
0
0
0
0
0
0
0
0
0
0
0
0
0
0
0
0
0
0
0
0
0
0
0
0
0
0
0
0
0
0
0
0
0
0
0
0
0
0
0
0
0
0
0
0
0
0
0
0
0
0
0
0
0
0
0
0
0
0
0
0
0
0
0
0
0
0
0
0
0
0
0
0
0
0
0
0
0
0
0
0
0
0
0
0
0
0
0
0
0
0
0
0
0
0
0
0
0
0
0
0
0
0
0
0
0
0
0
0
0
0
0
0
0
0
0
0
0
0
0
0
0
0
0
0
0
0
0
0
0
0
0
0
0
0
0
0
0
0
0
0
0
0
0
0
0
0
0
0
0
0
0
0
0
0
0
0
0
0
0
0
0
0
0
0
0
0
0
0
0
0
0
0
0
0
0
0
0
0
0
0
0
0
0
0
0
0
0
0
0
0
0
0
0
0
0
0
0
0
0
0
0
0
0
0
0
0
0
0
0
0
0
0
0
0
0
0
0
0
0
0
0
0
0
0
0
0
0
0
0
0
0
0
0
0
0
0
0
0
0
0
0
0
0
0
0
0
0
0
0
0
0
0
0
0
0
0
0
162
164
206
208
209
209
208
209
209
209
218
221
222
222
222
222
223
222
222
221
222
209
209
210
209
209
211
207
165
159
158
160
158
155
163
230
229
230
230
230
246
251
254
255
254
254
254
255
255
254
254
254
251
253
246
205
250
232
124
201
179
123
124
151
126
123
157
174
118
124
216
131
151
248
250
216
244
252
250
251
253
254
254
254
254
254
253
255
252
255
255
254
254
252
255
255
253
255
255
255
255
254
254
254
255
255
255
254
254
254
254
255
254
254
254
254
255
255
255
255
254
254
254
0
0
0
0
0
0
0
0
0
0
0
0
0
0
0
0
0
0
0
0
0
0
0
0
0
0
0
0
0
0
0
0
0
0
0
0
0
0
0
0
0
0
0
0
0
0
0
0
0
0
0
0
0
0
0
0
0
0
0
0
0
0
0
0
0
0
0
0
0
0
0
0
0
0
0
0
0
0
0
0
0
0
0
0
0
0
0
0
0
0
0
0
0
0
0
0
0
0
0
0
0
0
0
0
0
0
0
0
0
0
0
0
0
0
0
0
0
0
0
0
0
0
0
0
0
0
0
0
0
0
0
0
0
0
0
0
0
0
0
0
0
0
0
0
0
0
0
0
0
0
0
0
0
0
0
0
0
0
0
0
0
0
0
0
0
0
0
0
0
0
0
0
0
0
0
0
0
0
0
0
0
0
0
0
0
0
0
0
0
0
0
0
0
0
0
0
0
0
0
0
0
0
0
0
0
0
0
0
0
0
0
0
0
0
0
0
0
0
0
0
0
0
0
0
0
0
0
0
0
0
0
0
0
0
0
0
0
0
0
0
0
0
0
0
0
0
0
0
0
0
0
0
0
0
0
0
0
0
0
0
0
0
0
0
0
0
0
0
0
0
0
0
0
0
0
0
0
0
0
0
0
0
0
0
0
0
0
0
0
0
0
0
0
0
0
0
0
0
0
0
0
0
0
0
0
0
0
0
0
0
0
0
0
0
0
0
0
0
0
0
0
0
0
0
0
0
0
0
0
0
0
0
0
0
0
0
0
0
0
0
0
0
0
0
0
0
0
0
0
0
0
0
0
0
0
0
0
0
0
0
0
0
0
0
0
0
0
0
0
0
0
0
0
0
0
0
0
0
0
0
0
0
0
0
0
0
0
0
0
0
0
0
0
0
0
0
0
0
0
0
0
0
0
0
0
0
0
0
0
0
0
0
0
0
0
0
0
0
0
0
0
0
0
0
0
0
0
0
0
0
0
0
0
0
0
0
0
0
0
0
0
0
0
0
0
0
0
162
203
209
209
209
209
212
212
208
218
221
221
221
222
222
223
222
222
221
223
209
209
210
209
209
211
208
174
174
158
161
161
158
158
226
226
231
230
230
232
253
251
255
255
254
254
255
255
255
254
253
250
250
208
139
139
124
124
124
128
125
127
127
129
126
126
126
128
126
126
125
121
121
123
126
138
138
169
212
212
246
250
254
251
252
254
254
253
254
254
254
254
254
254
254
255
255
255
255
255
255
255
254
254
254
255
255
254
254
254
254
254
254
254
254
255
255
255
254
255
255
254
254
254
0
0
0
0
0
0
0
0
0
0
0
0
0
0
0
0
0
0
0
0
0
0
0
0
0
0
0
0
0
0
0
0
0
0
0
0
0
0
0
0
0
0
0
0
0
0
0
0
0
0
0
0
0
0
0
0
0
0
0
0
0
0
0
0
0
0
0
0
0
0
0
0
0
0
0
0
0
0
0
0
0
0
0
0
0
0
0
0
0
0
0
0
0
0
0
0
0
0
0
0
0
0
0
0
0
0
0
0
0
0
0
0
0
0
0
0
0
0
0
0
0
0
0
0
0
0
0
0
0
0
0
0
0
0
0
0
0
0
0
0
0
0
0
0
0
0
0
0
0
0
0
0
0
0
0
0
0
0
0
0
0
0
0
0
0
0
0
0
0
0
0
0
0
0
0
0
0
0
0
0
0
0
0
0
0
0
0
0
0
0
0
0
0
0
0
0
0
0
0
0
0
0
0
0
0
0
0
0
0
0
0
0
0
0
0
0
0
0
0
0
0
0
0
0
0
0
0
0
0
0
0
0
0
0
0
0
0
0
0
0
0
0
0
0
0
0
0
0
0
0
0
0
0
0
0
0
0
0
0
0
0
0
0
0
0
0
0
0
0
0
0
0
0
0
0
0
0
0
0
0
0
0
0
0
0
0
0
0
0
0
0
0
0
0
0
0
0
0
0
0
0
0
0
0
0
0
0
0
0
0
0
0
0
0
0
0
0
0
0
0
0
0
0
0
0
0
0
0
0
0
0
0
0
0
0
0
0
0
0
0
0
0
0
0
0
0
0
0
0
0
0
0
0
0
0
0
0
0
0
0
0
0
0
0
0
0
0
0
0
0
0
0
0
0
0
0
0
0
0
0
0
0
0
0
0
0
0
0
0
0
0
0
0
0
0
0
0
0
0
0
0
0
0
0
0
0
0
0
0
0
0
0
0
0
0
0
0
0
0
0
0
0
0
0
0
0
0
0
0
0
0
0
0
0
0
0
0
0
0
0
0
0
0
0
0
0
204
210
210
209
209
211
212
207
218
221
221
222
222
222
222
223
223
221
221
215
210
210
209
208
211
210
194
184
160
158
158
157
156
199
216
231
228
229
230
241
248
254
254
254
254
255
254
254
253
251
195
232
147
123
121
123
128
125
124
129
128
127
129
130
126
132
126
128
132
129
132
128
128
123
132
124
122
125
126
133
127
166
214
244
177
250
251
243
251
252
251
252
255
254
253
254
252
255
252
255
255
255
255
254
254
254
253
254
255
254
254
254
254
254
254
254
255
254
254
254
255
255
254
254
254
0
0
0
0
0
0
0
0
0
0
0
0
0
0
0
0
0
0
0
0
0
0
0
0
0
0
0
0
0
0
0
0
0
0
0
0
0
0
0
0
0
0
0
0
0
0
0
0
0
0
0
0
0
0
0
0
0
0
0
0
0
0
0
0
0
0
0
0
0
0
0
0
0
0
0
0
0
0
0
0
0
0
0
0
0
0
0
0
0
0
0
0
0
0
0
0
0
0
0
0
0
0
0
0
0
0
0
0
0
0
0
0
0
0
0
0
0
0
0
0
0
0
0
0
0
0
0
0
0
0
0
0
0
0
0
0
0
0
0
0
0
0
0
0
0
0
0
0
0
0
0
0
0
0
0
0
0
0
0
0
0
0
0
0
0
0
0
0
0
0
0
0
0
0
0
0
0
0
0
0
0
0
0
0
0
0
0
0
0
0
0
0
0
0
0
0
0
0
0
0
0
0
0
0
0
0
0
0
0
0
0
0
0
0
0
0
0
0
0
0
0
0
0
0
0
0
0
0
0
0
0
0
0
0
0
0
0
0
0
0
0
0
0
0
0
0
0
0
0
0
0
0
0
0
0
0
0
0
0
0
0
0
0
0
0
0
0
0
0
0
0
0
0
0
0
0
0
0
0
0
0
0
0
0
0
0
0
0
0
0
0
0
0
0
0
0
0
0
0
0
0
0
0
0
0
0
0
0
0
0
0
0
0
0
0
0
0
0
0
0
0
0
0
0
0
0
0
0
0
0
0
0
0
0
0
0
0
0
0
0
0
0
0
0
0
0
0
0
0
0
0
0
0
0
0
0
0
0
0
0
0
0
0
0
0
0
0
0
0
0
0
0
0
0
0
0
0
0
0
0
0
0
0
0
0
0
0
0
0
0
0
0
0
0
0
0
0
0
0
0
0
0
0
0
0
0
0
0
0
0
0
0
0
0
0
0
0
0
0
0
0
0
0
0
0
0
0
0
0
0
0
0
0
0
0
0
0
0
0
0
0
0
0
0
0
208
210
210
209
212
211
208
217
221
221
223
222
222
222
223
223
222
222
215
215
208
210
209
209
210
200
200
158
158
158
159
158
186
186
230
230
228
229
234
241
255
254
254
254
254
254
254
252
249
156
156
119
128
123
128
132
128
130
129
128
128
131
129
130
129
129
127
127
130
128
132
124
132
125
125
130
124
125
130
124
127
125
125
117
177
122
139
243
172
218
246
246
250
252
253
254
252
255
252
253
254
255
255
255
254
254
254
253
253
253
253
254
254
254
254
255
255
254
254
253
254
255
255
254
254
254
0
0
0
0
0
0
0
0
0
0
0
0
0
0
0
0
0
0
0
0
0
0
0
0
0
0
0
0
0
0
0
0
0
0
0
0
0
0
0
0
0
0
0
0
0
0
0
0
0
0
0
0
0
0
0
0
0
0
0
0
0
0
0
0
0
0
0
0
0
0
0
0
0
0
0
0
0
0
0
0
0
0
0
0
0
0
0
0
0
0
0
0
0
0
0
0
0
0
0
0
0
0
0
0
0
0
0
0
0
0
0
0
0
0
0
0
0
0
0
0
0
0
0
0
0
0
0
0
0
0
0
0
0
0
0
0
0
0
0
0
0
0
0
0
0
0
0
0
0
0
0
0
0
0
0
0
0
0
0
0
0
0
0
0
0
0
0
0
0
0
0
0
0
0
0
0
0
0
0
0
0
0
0
0
0
0
0
0
0
0
0
0
0
0
0
0
0
0
0
0
0
0
0
0
0
0
0
0
0
0
0
0
0
0
0
0
0
0
0
0
0
0
0
0
0
0
0
0
0
0
0
0
0
0
0
0
0
0
0
0
0
0
0
0
0
0
0
0
0
0
0
0
0
0
0
0
0
0
0
0
0
0
0
0
0
0
0
0
0
0
0
0
0
0
0
0
0
0
0
0
0
0
0
0
0
0
0
0
0
0
0
0
0
0
0
0
0
0
0
0
0
0
0
0
0
0
0
0
0
0
0
0
0
0
0
0
0
0
0
0
0
0
0
0
0
0
0
0
0
0
0
0
0
0
0
0
0
0
0
0
0
0
0
0
0
0
0
0
0
0
0
0
0
0
0
0
0
0
0
0
0
0
0
0
0
0
0
0
0
0
0
0
0
0
0
0
0
0
0
0
0
0
0
0
0
0
0
0
0
0
0
0
0
0
0
0
0
0
0
0
0
0
0
0
0
0
0
0
0
0
0
0
0
0
0
0
0
0
0
0
0
0
0
0
0
0
0
0
0
0
0
0
0
0
0
0
0
0
0
0
0
0
0
0
209
209
209
211
211
209
217
221
221
221
222
224
221
223
223
222
221
214
215
208
210
210
210
209
206
204
160
158
158
159
158
162
167
228
229
230
230
231
231
254
255
254
254
255
254
254
252
243
122
127
125
127
130
129
132
132
127
128
128
127
127
128
128
129
129
134
126
131
130
133
135
131
132
126
131
128
130
132
129
129
130
125
129
128
126
122
122
125
123
124
139
186
128
233
249
252
252
253
253
252
254
254
255
255
251
249
254
253
255
254
254
254
254
254
254
254
254
255
253
254
254
255
255
255
254
254
254
0
0
0
0
0
0
0
0
0
0
0
0
0
0
0
0
0
0
0
0
0
0
0
0
0
0
0
0
0
0
0
0
0
0
0
0
0
0
0
0
0
0
0
0
0
0
0
0
0
0
0
0
0
0
0
0
0
0
0
0
0
0
0
0
0
0
0
0
0
0
0
0
0
0
0
0
0
0
0
0
0
0
0
0
0
0
0
0
0
0
0
0
0
0
0
0
0
0
0
0
0
0
0
0
0
0
0
0
0
0
0
0
0
0
0
0
0
0
0
0
0
0
0
0
0
0
0
0
0
0
0
0
0
0
0
0
0
0
0
0
0
0
0
0
0
0
0
0
0
0
0
0
0
0
0
0
0
0
0
0
0
0
0
0
0
0
0
0
0
0
0
0
0
0
0
0
0
0
0
0
0
0
0
0
0
0
0
0
0
0
0
0
0
0
0
0
0
0
0
0
0
0
0
0
0
0
0
0
0
0
0
0
0
0
0
0
0
0
0
0
0
0
0
0
0
0
0
0
0
0
0
0
0
0
0
0
0
0
0
0
0
0
0
0
0
0
0
0
0
0
0
0
0
0
0
0
0
0
0
0
0
0
0
0
0
0
0
0
0
0
0
0
0
0
0
0
0
0
0
0
0
0
0
0
0
0
0
0
0
0
0
0
0
0
0
0
0
0
0
0
0
0
0
0
0
0
0
0
0
0
0
0
0
0
0
0
0
0
0
0
0
0
0
0
0
0
0
0
0
0
0
0
0
0
0
0
0
0
0
0
0
0
0
0
0
0
0
0
0
0
0
0
0
0
0
0
0
0
0
0
0
0
0
0
0
0
0
0
0
0
0
0
0
0
0
0
0
0
0
0
0
0
0
0
0
0
0
0
0
0
0
0
0
0
0
0
0
0
0
0
0
0
0
0
0
0
0
0
0
0
0
0
0
0
0
0
0
0
0
0
0
0
0
0
0
0
0
0
0
0
0
0
0
0
0
0
0
0
0
0
0
0
0
209
209
208
209
210
215
221
221
222
222
222
223
223
223
223
222
215
214
208
210
210
210
210
208
206
168
158
158
159
157
157
162
224
230
229
230
230
230
250
255
254
254
255
254
254
252
230
126
122
125
127
127
128
129
128
129
132
132
128
131
140
132
131
148
146
134
148
151
130
149
147
142
132
139
137
128
133
129
130
130
131
133
129
127
126
130
124
129
131
124
128
128
128
124
123
206
248
187
237
252
250
251
253
255
253
253
254
253
254
254
254
255
255
254
254
254
254
254
254
253
254
254
255
255
255
255
254
254
0
0
0
0
0
0
0
0
0
0
0
0
0
0
0
0
0
0
0
0
0
0
0
0
0
0
0
0
0
0
0
0
0
0
0
0
0
0
0
0
0
0
0
0
0
0
0
0
0
0
0
0
0
0
0
0
0
0
0
0
0
0
0
0
0
0
0
0
0
0
0
0
0
0
0
0
0
0
0
0
0
0
0
0
0
0
0
0
0
0
0
0
0
0
0
0
0
0
0
0
0
0
0
0
0
0
0
0
0
0
0
0
0
0
0
0
0
0
0
0
0
0
0
0
0
0
0
0
0
0
0
0
0
0
0
0
0
0
0
0
0
0
0
0
0
0
0
0
0
0
0
0
0
0
0
0
0
0
0
0
0
0
0
0
0
0
0
0
0
0
0
0
0
0
0
0
0
0
0
0
0
0
0
0
0
0
0
0
0
0
0
0
0
0
0
0
0
0
0
0
0
0
0
0
0
0
0
0
0
0
0
0
0
0
0
0
0
0
0
0
0
0
0
0
0
0
0
0
0
0
0
0
0
0
0
0
0
0
0
0
0
0
0
0
0
0
0
0
0
0
0
0
0
0
0
0
0
0
0
0
0
0
0
0
0
0
0
0
0
0
0
0
0
0
0
0
0
0
0
0
0
0
0
0
0
0
0
0
0
0
0
0
0
0
0
0
0
0
0
0
0
0
0
0
0
0
0
0
0
0
0
0
0
0
0
0
0
0
0
0
0
0
0
0
0
0
0
0
0
0
0
0
0
0
0
0
0
0
0
0
0
0
0
0
0
0
0
0
0
0
0
0
0
0
0
0
0
0
0
0
0
0
0
0
0
0
0
0
0
0
0
0
0
0
0
0
0
0
0
0
0
0
0
0
0
0
0
0
0
0
0
0
0
0
0
0
0
0
0
0
0
0
0
0
0
0
0
0
0
0
0
0
0
0
0
0
0
0
0
0
0
0
0
0
0
0
0
0
0
0
0
0
0
0
0
0
0
0
0
0
0
0
208
208
208
210
213
221
221
222
222
222
223
222
222
223
223
215
215
208
210
210
210
210
208
208
174
159
159
158
159
154
155
216
228
228
230
230
230
237
254
255
255
255
254
254
252
230
124
124
126
130
130
131
130
130
130
130
135
135
142
149
149
157
159
158
158
160
159
159
162
161
161
159
157
156
156
150
149
149
144
139
133
133
132
129
129
131
135
126
126
128
128
128
128
127
127
128
123
128
128
161
206
206
239
249
249
249
251
250
250
253
254
254
251
254
254
254
254
254
254
254
254
254
254
255
255
255
254
254
254
0
0
0
0
0
0
0
0
0
0
0
0
0
0
0
0
0
0
0
0
0
0
0
0
0
0
0
0
0
0
0
0
0
0
0
0
0
0
0
0
0
0
0
0
0
0
0
0
0
0
0
0
0
0
0
0
0
0
0
0
0
0
0
0
0
0
0
0
0
0
0
0
0
0
0
0
0
0
0
0
0
0
0
0
0
0
0
0
0
0
0
0
0
0
0
0
0
0
0
0
0
0
0
0
0
0
0
0
0
0
0
0
0
0
0
0
0
0
0
0
0
0
0
0
0
0
0
0
0
0
0
0
0
0
0
0
0
0
0
0
0
0
0
0
0
0
0
0
0
0
0
0
0
0
0
0
0
0
0
0
0
0
0
0
0
0
0
0
0
0
0
0
0
0
0
0
0
0
0
0
0
0
0
0
0
0
0
0
0
0
0
0
0
0
0
0
0
0
0
0
0
0
0
0
0
0
0
0
0
0
0
0
0
0
0
0
0
0
0
0
0
0
0
0
0
0
0
0
0
0
0
0
0
0
0
0
0
0
0
0
0
0
0
0
0
0
0
0
0
0
0
0
0
0
0
0
0
0
0
0
0
0
0
0
0
0
0
0
0
0
0
0
0
0
0
0
0
0
0
0
0
0
0
0
0
0
0
0
0
0
0
0
0
0
0
0
0
0
0
0
0
0
0
0
0
0
0
0
0
0
0
0
0
0
0
0
0
0
0
0
0
0
0
0
0
0
0
0
0
0
0
0
0
0
0
0
0
0
0
0
0
0
0
0
0
0
0
0
0
0
0
0
0
0
0
0
0
0
0
0
0
0
0
0
0
0
0
0
0
0
0
0
0
0
0
0
0
0
0
0
0
0
0
0
0
0
0
0
0
0
0
0
0
0
0
0
0
0
0
0
0
0
0
0
0
0
0
0
0
0
0
0
0
0
0
0
0
0
0
0
0
0
0
0
0
0
0
0
0
0
0
0
0
0
0
0
0
0
0
0
0
209
209
210
208
219
221
223
222
222
223
223
222
222
222
216
216
208
210
210
209
209
209
209
183
159
160
158
161
156
154
192
230
229
230
229
229
233
251
254
255
254
254
254
253
246
120
125
125
128
129
128
130
131
130
133
150
141
152
161
155
163
162
164
164
162
164
163
163
165
164
161
163
161
160
163
161
162
155
162
160
154
148
160
145
136
155
148
132
132
135
130
130
132
131
126
126
130
124
122
125
122
134
122
120
188
211
126
239
250
212
252
255
253
255
254
254
254
254
254
254
254
254
254
253
255
255
254
254
254
254
0
0
0
0
0
0
0
0
0
0
0
0
0
0
0
0
0
0
0
0
0
0
0
0
0
0
0
0
0
0
0
0
0
0
0
0
0
0
0
0
0
0
0
0
0
0
0
0
0
0
0
0
0
0
0
0
0
0
0
0
0
0
0
0
0
0
0
0
0
0
0
0
0
0
0
0
0
0
0
0
0
0
0
0
0
0
0
0
0
0
0
0
0
0
0
0
0
0
0
0
0
0
0
0
0
0
0
0
0
0
0
0
0
0
0
0
0
0
0
0
0
0
0
0
0
0
0
0
0
0
0
0
0
0
0
0
0
0
0
0
0
0
0
0
0
0
0
0
0
0
0
0
0
0
0
0
0
0
0
0
0
0
0
0
0
0
0
0
0
0
0
0
0
0
0
0
0
0
0
0
0
0
0
0
0
0
0
0
0
0
0
0
0
0
0
0
0
0
0
0
0
0
0
0
0
0
0
0
0
0
0
0
0
0
0
0
0
0
0
0
0
0
0
0
0
0
0
0
0
0
0
0
0
0
0
0
0
0
0
0
0
0
0
0
0
0
0
0
0
0
0
0
0
0
0
0
0
0
0
0
0
0
0
0
0
0
0
0
0
0
0
0
0
0
0
0
0
0
0
0
0
0
0
0
0
0
0
0
0
0
0
0
0
0
0
0
0
0
0
0
0
0
0
0
0
0
0
0
0
0
0
0
0
0
0
0
0
0
0
0
0
0
0
0
0
0
0
0
0
0
0
0
0
0
0
0
0
0
0
0
0
0
0
0
0
0
0
0
0
0
0
0
0
0
0
0
0
0
0
0
0
0
0
0
0
0
0
0
0
0
0
0
0
0
0
0
0
0
0
0
0
0
0
0
0
0
0
0
0
0
0
0
0
0
0
0
0
0
0
0
0
0
0
0
0
0
0
0
0
0
0
0
0
0
0
0
0
0
0
0
0
0
0
0
0
0
0
0
0
0
0
0
0
0
0
0
0
0
0
0
209
208
209
217
217
222
223
222
222
222
223
222
221
216
216
208
210
210
209
209
208
208
197
160
159
159
161
157
157
179
229
229
230
229
229
230
247
254
254
254
255
254
253
249
124
124
130
129
128
129
129
130
131
136
157
157
161
162
161
161
165
162
162
165
163
164
164
166
163
163
163
166
166
164
165
161
165
163
164
164
164
162
160
164
158
160
160
160
153
135
147
141
132
138
133
132
132
128
129
125
126
126
126
126
124
126
126
125
122
212
160
248
254
254
254
254
254
254
255
254
254
254
254
253
253
254
254
254
254
254
254
0
0
0
0
0
0
0
0
0
0
0
0
0
0
0
0
0
0
0
0
0
0
0
0
0
0
0
0
0
0
0
0
0
0
0
0
0
0
0
0
0
0
0
0
0
0
0
0
0
0
0
0
0
0
0
0
0
0
0
0
0
0
0
0
0
0
0
0
0
0
0
0
0
0
0
0
0
0
0
0
0
0
0
0
0
0
0
0
0
0
0
0
0
0
0
0
0
0
0
0
0
0
0
0
0
0
0
0
0
0
0
0
0
0
0
0
0
0
0
0
0
0
0
0
0
0
0
0
0
0
0
0
0
0
0
0
0
0
0
0
0
0
0
0
0
0
0
0
0
0
0
0
0
0
0
0
0
0
0
0
0
0
0
0
0
0
0
0
0
0
0
0
0
0
0
0
0
0
0
0
0
0
0
0
0
0
0
0
0
0
0
0
0
0
0
0
0
0
0
0
0
0
0
0
0
0
0
0
0
0
0
0
0
0
0
0
0
0
0
0
0
0
0
0
0
0
0
0
0
0
0
0
0
0
0
0
0
0
0
0
0
0
0
0
0
0
0
0
0
0
0
0
0
0
0
0
0
0
0
0
0
0
0
0
0
0
0
0
0
0
0
0
0
0
0
0
0
0
0
0
0
0
0
0
0
0
0
0
0
0
0
0
0
0
0
0
0
0
0
0
0
0
0
0
0
0
0
0
0
0
0
0
0
0
0
0
0
0
0
0
0
0
0
0
0
0
0
0
0
0
0
0
0
0
0
0
0
0
0
0
0
0
0
0
0
0
0
0
0
0
0
0
0
0
0
0
0
0
0
0
0
0
0
0
0
0
0
0
0
0
0
0
0
0
0
0
0
0
0
0
0
0
0
0
0
0
0
0
0
0
0
0
0
0
0
0
0
0
0
0
0
0
0
0
0
0
0
0
0
0
0
0
0
0
0
0
0
0
0
0
0
0
0
0
0
0
0
0
0
0
0
0
0
0
0
0
0
0
0
209
208
209
212
220
222
223
220
220
220
223
220
215
216
208
207
210
209
209
209
208
201
158
160
159
160
156
156
168
230
229
230
229
229
231
243
254
255
255
255
255
253
250
167
139
124
129
127
129
129
129
133
140
162
160
163
163
163
162
165
166
165
166
165
163
164
165
166
163
164
168
162
165
172
168
167
167
173
167
166
173
168
164
165
167
162
162
166
163
157
159
159
154
149
161
141
137
144
133
132
129
130
127
132
128
128
127
125
125
122
137
130
239
254
253
254
254
254
254
254
254
255
254
254
254
254
254
254
255
254
254
254
0
0
0
0
0
0
0
0
0
0
0
0
0
0
0
0
0
0
0
0
0
0
0
0
0
0
0
0
0
0
0
0
0
0
0
0
0
0
0
0
0
0
0
0
0
0
0
0
0
0
0
0
0
0
0
0
0
0
0
0
0
0
0
0
0
0
0
0
0
0
0
0
0
0
0
0
0
0
0
0
0
0
0
0
0
0
0
0
0
0
0
0
0
0
0
0
0
0
0
0
0
0
0
0
0
0
0
0
0
0
0
0
0
0
0
0
0
0
0
0
0
0
0
0
0
0
0
0
0
0
0
0
0
0
0
0
0
0
0
0
0
0
0
0
0
0
0
0
0
0
0
0
0
0
0
0
0
0
0
0
0
0
0
0
0
0
0
0
0
0
0
0
0
0
0
0
0
0
0
0
0
0
0
0
0
0
0
0
0
0
0
0
0
0
0
0
0
0
0
0
0
0
0
0
0
0
0
0
0
0
0
0
0
0
0
0
0
0
0
0
0
0
0
0
0
0
0
0
0
0
0
0
0
0
0
0
0
0
0
0
0
0
0
0
0
0
0
0
0
0
0
0
0
0
0
0
0
0
0
0
0
0
0
0
0
0
0
0
0
0
0
0
0
0
0
0
0
0
0
0
0
0
0
0
0
0
0
0
0
0
0
0
0
0
0
0
0
0
0
0
0
0
0
0
0
0
0
0
0
0
0
0
0
0
0
0
0
0
0
0
0
0
0
0
0
0
0
0
0
0
0
0
0
0
0
0
0
0
0
0
0
0
0
0
0
0
0
0
0
0
0
0
0
0
0
0
0
0
0
0
0
0
0
0
0
0
0
0
0
0
0
0
0
0
0
0
0
0
0
0
0
0
0
0
0
0
0
0
0
0
0
0
0
0
0
0
0
0
0
0
0
0
0
0
0
0
0
0
0
0
0
0
0
0
0
0
0
0
0
0
0
0
0
0
0
0
0
0
0
0
0
0
0
0
0
0
0
0
210
211
209
210
221
222
222
223
222
224
221
214
215
210
208
207
209
209
209
209
204
159
158
159
158
156
156
156
228
230
229
229
229
231
234
255
254
254
255
255
254
253
211
167
125
130
129
125
131
129
130
141
161
162
165
164
163
164
165
166
166
163
165
165
166
167
171
166
171
176
168
176
181
172
184
183
182
173
180
180
173
180
180
180
167
172
166
166
166
165
163
160
160
162
161
164
159
144
156
139
134
130
130
130
128
129
129
128
128
130
127
130
126
245
253
251
255
255
254
254
255
255
255
255
254
254
254
254
255
254
254
254
254
0
0
0
0
0
0
0
0
0
0
0
0
0
0
0
0
0
0
0
0
0
0
0
0
0
0
0
0
0
0
0
0
0
0
0
0
0
0
0
0
0
0
0
0
0
0
0
0
0
0
0
0
0
0
0
0
0
0
0
0
0
0
0
0
0
0
0
0
0
0
0
0
0
0
0
0
0
0
0
0
0
0
0
0
0
0
0
0
0
0
0
0
0
0
0
0
0
0
0
0
0
0
0
0
0
0
0
0
0
0
0
0
0
0
0
0
0
0
0
0
0
0
0
0
0
0
0
0
0
0
0
0
0
0
0
0
0
0
0
0
0
0
0
0
0
0
0
0
0
0
0
0
0
0
0
0
0
0
0
0
0
0
0
0
0
0
0
0
0
0
0
0
0
0
0
0
0
0
0
0
0
0
0
0
0
0
0
0
0
0
0
0
0
0
0
0
0
0
0
0
0
0
0
0
0
0
0
0
0
0
0
0
0
0
0
0
0
0
0
0
0
0
0
0
0
0
0
0
0
0
0
0
0
0
0
0
0
0
0
0
0
0
0
0
0
0
0
0
0
0
0
0
0
0
0
0
0
0
0
0
0
0
0
0
0
0
0
0
0
0
0
0
0
0
0
0
0
0
0
0
0
0
0
0
0
0
0
0
0
0
0
0
0
0
0
0
0
0
0
0
0
0
0
0
0
0
0
0
0
0
0
0
0
0
0
0
0
0
0
0
0
0
0
0
0
0
0
0
0
0
0
0
0
0
0
0
0
0
0
0
0
0
0
0
0
0
0
0
0
0
0
0
0
0
0
0
0
0
0
0
0
0
0
0
0
0
0
0
0
0
0
0
0
0
0
0
0
0
0
0
0
0
0
0
0
0
0
0
0
0
0
0
0
0
0
0
0
0
0
0
0
0
0
0
0
0
0
0
0
0
0
0
0
0
0
0
0
0
0
0
0
0
0
0
0
0
0
0
0
0
0
0
0
0
0
0
0
207
209
210
210
210
222
223
223
222
220
212
212
210
209
209
210
209
207
209
206
161
161
159
158
158
158
155
226
226
230
229
229
230
230
253
254
254
255
255
254
254
250
245
117
125
125
128
129
129
129
139
161
161
165
165
165
165
166
165
166
164
164
164
167
175
183
176
179
180
180
183
182
182
184
184
183
184
185
185
185
184
185
184
184
183
181
181
177
172
172
167
164
162
162
163
164
164
161
160
159
150
139
133
133
131
130
130
128
128
129
129
130
131
131
251
251
254
255
254
255
255
255
254
254
254
254
254
254
254
254
254
254
254
255
0
0
0
0
0
0
0
0
0
0
0
0
0
0
0
0
0
0
0
0
0
0
0
0
0
0
0
0
0
0
0
0
0
0
0
0
0
0
0
0
0
0
0
0
0
0
0
0
0
0
0
0
0
0
0
0
0
0
0
0
0
0
0
0
0
0
0
0
0
0
0
0
0
0
0
0
0
0
0
0
0
0
0
0
0
0
0
0
0
0
0
0
0
0
0
0
0
0
0
0
0
0
0
0
0
0
0
0
0
0
0
0
0
0
0
0
0
0
0
0
0
0
0
0
0
0
0
0
0
0
0
0
0
0
0
0
0
0
0
0
0
0
0
0
0
0
0
0
0
0
0
0
0
0
0
0
0
0
0
0
0
0
0
0
0
0
0
0
0
0
0
0
0
0
0
0
0
0
0
0
0
0
0
0
0
0
0
0
0
0
0
0
0
0
0
0
0
0
0
0
0
0
0
0
0
0
0
0
0
0
0
0
0
0
0
0
0
0
0
0
0
0
0
0
0
0
0
0
0
0
0
0
0
0
0
0
0
0
0
0
0
0
0
0
0
0
0
0
0
0
0
0
0
0
0
0
0
0
0
0
0
0
0
0
0
0
0
0
0
0
0
0
0
0
0
0
0
0
0
0
0
0
0
0
0
0
0
0
0
0
0
0
0
0
0
0
0
0
0
0
0
0
0
0
0
0
0
0
0
0
0
0
0
0
0
0
0
0
0
0
0
0
0
0
0
0
0
0
0
0
0
0
0
0
0
0
0
0
0
0
0
0
0
0
0
0
0
0
0
0
0
0
0
0
0
0
0
0
0
0
0
0
0
0
0
0
0
0
0
0
0
0
0
0
0
0
0
0
0
0
0
0
0
0
0
0
0
0
0
0
0
0
0
0
0
0
0
0
0
0
0
0
0
0
0
0
0
0
0
0
0
0
0
0
0
0
0
0
0
0
0
0
0
0
0
0
0
0
0
0
0
0
0
0
0
0
207
208
207
209
210
211
220
220
212
209
212
209
210
210
210
210
209
207
207
171
167
159
159
158
158
154
210
219
230
230
229
229
229
247
253
255
254
255
254
254
251
250
173
128
126
129
129
128
130
134
159
161
165
164
164
164
164
164
165
164
165
164
171
177
185
183
184
183
181
183
182
183
185
185
185
183
183
182
184
184
183
183
184
184
182
184
181
181
184
180
183
179
164
163
164
166
166
165
160
159
162
163
149
136
143
131
130
132
128
129
128
129
131
144
174
252
254
255
253
254
255
255
255
254
254
254
254
254
254
254
254
254
255
255
254
0
0
0
0
0
0
0
0
0
0
0
0
0
0
0
0
0
0
0
0
0
0
0
0
0
0
0
0
0
0
0
0
0
0
0
0
0
0
0
0
0
0
0
0
0
0
0
0
0
0
0
0
0
0
0
0
0
0
0
0
0
0
0
0
0
0
0
0
0
0
0
0
0
0
0
0
0
0
0
0
0
0
0
0
0
0
0
0
0
0
0
0
0
0
0
0
0
0
0
0
0
0
0
0
0
0
0
0
0
0
0
0
0
0
0
0
0
0
0
0
0
0
0
0
0
0
0
0
0
0
0
0
0
0
0
0
0
0
0
0
0
0
0
0
0
0
0
0
0
0
0
0
0
0
0
0
0
0
0
0
0
0
0
0
0
0
0
0
0
0
0
0
0
0
0
0
0
0
0
0
0
0
0
0
0
0
0
0
0
0
0
0
0
0
0
0
0
0
0
0
0
0
0
0
0
0
0
0
0
0
0
0
0
0
0
0
0
0
0
0
0
0
0
0
0
0
0
0
0
0
0
0
0
0
0
0
0
0
0
0
0
0
0
0
0
0
0
0
0
0
0
0
0
0
0
0
0
0
0
0
0
0
0
0
0
0
0
0
0
0
0
0
0
0
0
0
0
0
0
0
0
0
0
0
0
0
0
0
0
0
0
0
0
0
0
0
0
0
0
0
0
0
0
0
0
0
0
0
0
0
0
0
0
0
0
0
0
0
0
0
0
0
0
0
0
0
0
0
0
0
0
0
0
0
0
0
0
0
0
0
0
0
0
0
0
0
0
0
0
0
0
0
0
0
0
0
0
0
0
0
0
0
0
0
0
0
0
0
0
0
0
0
0
0
0
0
0
0
0
0
0
0
0
0
0
0
0
0
0
0
0
0
0
0
0
0
0
0
0
0
0
0
0
0
0
0
0
0
0
0
0
0
0
0
0
0
0
0
0
0
0
0
0
0
0
0
0
0
0
0
0
0
0
0
0
214
209
209
208
208
211
208
209
208
208
209
211
210
211
209
210
210
208
171
171
158
158
158
158
155
204
204
229
229
230
230
228
242
242
255
254
254
254
253
253
253
234
123
123
127
128
129
128
133
155
155
163
164
164
162
162
163
163
164
165
165
162
174
183
183
181
183
183
183
184
182
183
183
182
182
184
183
183
183
184
183
183
183
183
183
182
182
181
184
182
182
182
182
174
164
168
165
162
162
159
163
163
163
161
143
153
138
132
132
129
127
129
128
119
219
219
252
255
255
250
252
254
254
255
255
255
254
254
254
254
253
255
255
254
254
254
0
0
0
0
0
0
0
0
0
0
0
0
0
0
0
0
0
0
0
0
0
0
0
0
0
0
0
0
0
0
0
0
0
0
0
0
0
0
0
0
0
0
0
0
0
0
0
0
0
0
0
0
0
0
0
0
0
0
0
0
0
0
0
0
0
0
0
0
0
0
0
0
0
0
0
0
0
0
0
0
0
0
0
0
0
0
0
0
0
0
0
0
0
0
0
0
0
0
0
0
0
0
0
0
0
0
0
0
0
0
0
0
0
0
0
0
0
0
0
0
0
0
0
0
0
0
0
0
0
0
0
0
0
0
0
0
0
0
0
0
0
0
0
0
0
0
0
0
0
0
0
0
0
0
0
0
0
0
0
0
0
0
0
0
0
0
0
0
0
0
0
0
0
0
0
0
0
0
0
0
0
0
0
0
0
0
0
0
0
0
0
0
0
0
0
0
0
0
0
0
0
0
0
0
0
0
0
0
0
0
0
0
0
0
0
0
0
0
0
0
0
0
0
0
0
0
0
0
0
0
0
0
0
0
0
0
0
0
0
0
0
0
0
0
0
0
0
0
0
0
0
0
0
0
0
0
0
0
0
0
0
0
0
0
0
0
0
0
0
0
0
0
0
0
0
0
0
0
0
0
0
0
0
0
0
0
0
0
0
0
0
0
0
0
0
0
0
0
0
0
0
0
0
0
0
0
0
0
0
0
0
0
0
0
0
0
0
0
0
0
0
0
0
0
0
0
0
0
0
0
0
0
0
0
0
0
0
0
0
0
0
0
0
0
0
0
0
0
0
0
0
0
0
0
0
0
0
0
0
0
0
0
0
0
0
0
0
0
0
0
0
0
0
0
0
0
0
0
0
0
0
0
0
0
0
0
0
0
0
0
0
0
0
0
0
0
0
0
0
0
0
0
0
0
0
0
0
0
0
0
0
0
0
0
0
0
0
0
0
0
0
0
0
0
0
0
0
0
0
0
0
0
0
0
219
218
212
213
209
209
209
209
210
210
209
210
210
209
209
210
209
176
173
159
160
160
158
154
193
198
230
229
229
230
231
233
238
254
255
254
252
254
254
253
249
176
124
131
130
126
129
131
136
146
161
163
162
162
162
162
162
163
163
163
164
162
170
181
183
182
183
184
183
185
183
181
185
182
181
183
182
182
183
183
184
184
183
184
183
183
182
182
186
185
185
183
185
182
179
172
174
164
161
161
164
161
164
164
160
157
160
139
130
129
129
128
126
126
127
249
252
254
251
255
254
254
253
254
254
254
254
254
253
254
254
254
255
255
254
254
254
0
0
0
0
0
0
0
0
0
0
0
0
0
0
0
0
0
0
0
0
0
0
0
0
0
0
0
0
0
0
0
0
0
0
0
0
0
0
0
0
0
0
0
0
0
0
0
0
0
0
0
0
0
0
0
0
0
0
0
0
0
0
0
0
0
0
0
0
0
0
0
0
0
0
0
0
0
0
0
0
0
0
0
0
0
0
0
0
0
0
0
0
0
0
0
0
0
0
0
0
0
0
0
0
0
0
0
0
0
0
0
0
0
0
0
0
0
0
0
0
0
0
0
0
0
0
0
0
0
0
0
0
0
0
0
0
0
0
0
0
0
0
0
0
0
0
0
0
0
0
0
0
0
0
0
0
0
0
0
0
0
0
0
0
0
0
0
0
0
0
0
0
0
0
0
0
0
0
0
0
0
0
0
0
0
0
0
0
0
0
0
0
0
0
0
0
0
0
0
0
0
0
0
0
0
0
0
0
0
0
0
0
0
0
0
0
0
0
0
0
0
0
0
0
0
0
0
0
0
0
0
0
0
0
0
0
0
0
0
0
0
0
0
0
0
0
0
0
0
0
0
0
0
0
0
0
0
0
0
0
0
0
0
0
0
0
0
0
0
0
0
0
0
0
0
0
0
0
0
0
0
0
0
0
0
0
0
0
0
0
0
0
0
0
0
0
0
0
0
0
0
0
0
0
0
0
0
0
0
0
0
0
0
0
0
0
0
0
0
0
0
0
0
0
0
0
0
0
0
0
0
0
0
0
0
0
0
0
0
0
0
0
0
0
0
0
0
0
0
0
0
0
0
0
0
0
0
0
0
0
0
0
0
0
0
0
0
0
0
0
0
0
0
0
0
0
0
0
0
0
0
0
0
0
0
0
0
0
0
0
0
0
0
0
0
0
0
0
0
0
0
0
0
0
0
0
0
0
0
0
0
0
0
0
0
0
0
0
0
0
0
0
0
0
0
0
0
0
0
0
0
0
0
219
219
220
213
213
207
211
209
207
210
209
207
210
210
209
208
178
176
160
160
159
159
157
187
193
230
230
229
231
231
232
233
254
255
255
254
253
255
255
250
243
176
124
129
130
127
130
131
136
154
162
163
162
162
162
162
163
162
163
163
164
163
163
170
173
182
179
178
183
179
181
180
185
183
182
183
184
184
183
183
182
183
183
183
183
183
183
184
184
185
183
180
185
183
183
183
174
178
165
161
163
164
164
168
162
163
160
160
136
129
129
129
130
126
126
201
252
254
253
254
254
252
254
254
254
254
254
254
254
254
254
254
254
255
255
254
255
254
0
0
0
0
0
0
0
0
0
0
0
0
0
0
0
0
0
0
0
0
0
0
0
0
0
0
0
0
0
0
0
0
0
0
0
0
0
0
0
0
0
0
0
0
0
0
0
0
0
0
0
0
0
0
0
0
0
0
0
0
0
0
0
0
0
0
0
0
0
0
0
0
0
0
0
0
0
0
0
0
0
0
0
0
0
0
0
0
0
0
0
0
0
0
0
0
0
0
0
0
0
0
0
0
0
0
0
0
0
0
0
0
0
0
0
0
0
0
0
0
0
0
0
0
0
0
0
0
0
0
0
0
0
0
0
0
0
0
0
0
0
0
0
0
0
0
0
0
0
0
0
0
0
0
0
0
0
0
0
0
0
0
0
0
0
0
0
0
0
0
0
0
0
0
0
0
0
0
0
0
0
0
0
0
0
0
0
0
0
0
0
0
0
0
0
0
0
0
0
0
0
0
0
0
0
0
0
0
0
0
0
0
0
0
0
0
0
0
0
0
0
0
0
0
0
0
0
0
0
0
0
0
0
0
0
0
0
0
0
0
0
0
0
0
0
0
0
0
0
0
0
0
0
0
0
0
0
0
0
0
0
0
0
0
0
0
0
0
0
0
0
0
0
0
0
0
0
0
0
0
0
0
0
0
0
0
0
0
0
0
0
0
0
0
0
0
0
0
0
0
0
0
0
0
0
0
0
0
0
0
0
0
0
0
0
0
0
0
0
0
0
0
0
0
0
0
0
0
0
0
0
0
0
0
0
0
0
0
0
0
0
0
0
0
0
0
0
0
0
0
0
0
0
0
0
0
0
0
0
0
0
0
0
0
0
0
0
0
0
0
0
0
0
0
0
0
0
0
0
0
0
0
0
0
0
0
0
0
0
0
0
0
0
0
0
0
0
0
0
0
0
0
0
0
0
0
0
0
0
0
0
0
0
0
0
0
0
0
0
0
0
0
0
0
0
0
0
0
0
0
0
0
221
222
222
220
209
208
207
210
207
207
210
210
210
210
207
181
181
159
159
158
158
157
179
184
230
229
229
230
229
231
231
254
255
255
255
254
255
254
254
253
252
137
130
130
129
131
129
130
146
163
163
162
165
165
163
163
162
162
162
164
165
164
165
165
166
170
171
171
173
172
168
173
174
175
175
178
180
173
182
184
179
182
184
183
183
183
183
183
184
184
184
184
184
183
183
183
184
179
179
165
165
165
165
164
165
162
163
157
157
132
130
130
129
130
123
123
249
255
253
252
254
253
254
255
254
254
254
254
254
254
254
254
254
254
255
255
255
254
254
0
0
0
0
0
0
0
0
0
0
0
0
0
0
0
0
0
0
0
0
0
0
0
0
0
0
0
0
0
0
0
0
0
0
0
0
0
0
0
0
0
0
0
0
0
0
0
0
0
0
0
0
0
0
0
0
0
0
0
0
0
0
0
0
0
0
0
0
0
0
0
0
0
0
0
0
0
0
0
0
0
0
0
0
0
0
0
0
0
0
0
0
0
0
0
0
0
0
0
0
0
0
0
0
0
0
0
0
0
0
0
0
0
0
0
0
0
0
0
0
0
0
0
0
0
0
0
0
0
0
0
0
0
0
0
0
0
0
0
0
0
0
0
0
0
0
0
0
0
0
0
0
0
0
0
0
0
0
0
0
0
0
0
0
0
0
0
0
0
0
0
0
0
0
0
0
0
0
0
0
0
0
0
0
0
0
0
0
0
0
0
0
0
0
0
0
0
0
0
0
0
0
0
0
0
0
0
0
0
0
0
0
0
0
0
0
0
0
0
0
0
0
0
0
0
0
0
0
0
0
0
0
0
0
0
0
0
0
0
0
0
0
0
0
0
0
0
0
0
0
0
0
0
0
0
0
0
0
0
0
0
0
0
0
0
0
0
0
0
0
0
0
0
0
0
0
0
0
0
0
0
0
0
0
0
0
0
0
0
0
0
0
0
0
0
0
0
0
0
0
0
0
0
0
0
0
0
0
0
0
0
0
0
0
0
0
0
0
0
0
0
0
0
0
0
0
0
0
0
0
0
0
0
0
0
0
0
0
0
0
0
0
0
0
0
0
0
0
0
0
0
0
0
0
0
0
0
0
0
0
0
0
0
0
0
0
0
0
0
0
0
0
0
0
0
0
0
0
0
0
0
0
0
0
0
0
0
0
0
0
0
0
0
0
0
0
0
0
0
0
0
0
0
0
0
0
0
0
0
0
0
0
0
0
0
0
0
0
0
0
0
0
0
0
0
0
0
0
0
0
0
224
221
222
223
214
208
209
209
209
209
208
209
210
207
184
183
159
160
159
158
156
177
179
228
230
229
230
229
231
231
249
255
254
253
254
254
255
252
254
253
250
126
122
126
131
128
129
129
147
157
162
164
165
165
164
164
162
164
165
163
165
165
165
165
165
164
166
164
165
165
168
165
165
168
168
165
165
173
167
166
179
173
177
183
183
182
182
183
183
181
184
184
183
184
183
183
182
185
180
178
165
165
163
164
165
165
163
162
149
141
128
130
130
132
129
138
206
253
253
252
251
253
254
255
255
254
254
254
254
254
254
254
254
253
254
255
255
255
254
254
0
0
0
0
0
0
0
0
0
0
0
0
0
0
0
0
0
0
0
0
0
0
0
0
0
0
0
0
0
0
0
0
0
0
0
0
0
0
0
0
0
0
0
0
0
0
0
0
0
0
0
0
0
0
0
0
0
0
0
0
0
0
0
0
0
0
0
0
0
0
0
0
0
0
0
0
0
0
0
0
0
0
0
0
0
0
0
0
0
0
0
0
0
0
0
0
0
0
0
0
0
0
0
0
0
0
0
0
0
0
0
0
0
0
0
0
0
0
0
0
0
0
0
0
0
0
0
0
0
0
0
0
0
0
0
0
0
0
0
0
0
0
0
0
0
0
0
0
0
0
0
0
0
0
0
0
0
0
0
0
0
0
0
0
0
0
0
0
0
0
0
0
0
0
0
0
0
0
0
0
0
0
0
0
0
0
0
0
0
0
0
0
0
0
0
0
0
0
0
0
0
0
0
0
0
0
0
0
0
0
0
0
0
0
0
0
0
0
0
0
0
0
0
0
0
0
0
0
0
0
0
0
0
0
0
0
0
0
0
0
0
0
0
0
0
0
0
0
0
0
0
0
0
0
0
0
0
0
0
0
0
0
0
0
0
0
0
0
0
0
0
0
0
0
0
0
0
0
0
0
0
0
0
0
0
0
0
0
0
0
0
0
0
0
0
0
0
0
0
0
0
0
0
0
0
0
0
0
0
0
0
0
0
0
0
0
0
0
0
0
0
0
0
0
0
0
0
0
0
0
0
0
0
0
0
0
0
0
0
0
0
0
0
0
0
0
0
0
0
0
0
0
0
0
0
0
0
0
0
0
0
0
0
0
0
0
0
0
0
0
0
0
0
0
0
0
0
0
0
0
0
0
0
0
0
0
0
0
0
0
0
0
0
0
0
0
0
0
0
0
0
0
0
0
0
0
0
0
0
0
0
0
0
0
0
0
0
0
0
0
0
0
0
0
0
0
0
0
0
0
224
219
223
218
218
209
210
210
207
210
209
209
208
184
184
158
158
159
159
156
174
174
228
229
229
230
229
231
231
246
254
254
254
253
254
254
254
253
253
254
198
198
126
129
129
129
132
137
137
157
164
165
165
162
165
165
164
165
166
166
164
164
164
163
163
163
164
164
165
165
164
165
165
164
164
165
165
164
165
165
165
166
166
171
174
179
179
182
184
184
183
184
183
183
183
184
184
183
184
178
176
163
164
164
165
164
164
167
155
134
134
127
128
128
127
122
247
247
254
254
254
253
255
255
255
255
254
254
254
254
254
254
253
253
253
254
255
255
255
254
254
0
0
0
0
0
0
0
0
0
0
0
0
0
0
0
0
0
0
0
0
0
0
0
0
0
0
0
0
0
0
0
0
0
0
0
0
0
0
0
0
0
0
0
0
0
0
0
0
0
0
0
0
0
0
0
0
0
0
0
0
0
0
0
0
0
0
0
0
0
0
0
0
0
0
0
0
0
0
0
0
0
0
0
0
0
0
0
0
0
0
0
0
0
0
0
0
0
0
0
0
0
0
0
0
0
0
0
0
0
0
0
0
0
0
0
0
0
0
0
0
0
0
0
0
0
0
0
0
0
0
0
0
0
0
0
0
0
0
0
0
0
0
0
0
0
0
0
0
0
0
0
0
0
0
0
0
0
0
0
0
0
0
0
0
0
0
0
0
0
0
0
0
0
0
0
0
0
0
0
0
0
0
0
0
0
0
0
0
0
0
0
0
0
0
0
0
0
0
0
0
0
0
0
0
0
0
0
0
0
0
0
0
0
0
0
0
0
0
0
0
0
0
0
0
0
0
0
0
0
0
0
0
0
0
0
0
0
0
0
0
0
0
0
0
0
0
0
0
0
0
0
0
0
0
0
0
0
0
0
0
0
0
0
0
0
0
0
0
0
0
0
0
0
0
0
0
0
0
0
0
0
0
0
0
0
0
0
0
0
0
0
0
0
0
0
0
0
0
0
0
0
0
0
0
0
0
0
0
0
0
0
0
0
0
0
0
0
0
0
0
0
0
0
0
0
0
0
0
0
0
0
0
0
0
0
0
0
0
0
0
0
0
0
0
0
0
0
0
0
0
0
0
0
0
0
0
0
0
0
0
0
0
0
0
0
0
0
0
0
0
0
0
0
0
0
0
0
0
0
0
0
0
0
0
0
0
0
0
0
0
0
0
0
0
0
0
0
0
0
0
0
0
0
0
0
0
0
0
0
0
0
0
0
0
0
0
0
0
0
0
0
0
0
0
0
0
0
0
0
220
223
223
220
210
207
209
209
209
209
209
208
181
181
158
158
159
159
158
171
173
229
230
229
231
229
230
231
243
254
254
254
255
254
253
254
254
254
254
252
252
122
123
130
130
128
128
130
152
162
165
165
163
164
165
164
164
165
165
165
164
165
162
163
162
162
162
162
163
164
164
163
163
162
161
164
164
164
165
165
165
165
164
165
163
169
174
170
181
184
182
184
184
183
182
182
184
186
185
183
169
165
162
165
164
164
164
162
162
147
129
126
129
130
131
125
148
251
254
250
252
255
254
255
255
255
254
254
254
254
254
254
254
253
254
254
254
255
255
255
254
254
0
0
0
0
0
0
0
0
0
0
0
0
0
0
0
0
0
0
0
0
0
0
0
0
0
0
0
0
0
0
0
0
0
0
0
0
0
0
0
0
0
0
0
0
0
0
0
0
0
0
0
0
0
0
0
0
0
0
0
0
0
0
0
0
0
0
0
0
0
0
0
0
0
0
0
0
0
0
0
0
0
0
0
0
0
0
0
0
0
0
0
0
0
0
0
0
0
0
0
0
0
0
0
0
0
0
0
0
0
0
0
0
0
0
0
0
0
0
0
0
0
0
0
0
0
0
0
0
0
0
0
0
0
0
0
0
0
0
0
0
0
0
0
0
0
0
0
0
0
0
0
0
0
0
0
0
0
0
0
0
0
0
0
0
0
0
0
0
0
0
0
0
0
0
0
0
0
0
0
0
0
0
0
0
0
0
0
0
0
0
0
0
0
0
0
0
0
0
0
0
0
0
0
0
0
0
0
0
0
0
0
0
0
0
0
0
0
0
0
0
0
0
0
0
0
0
0
0
0
0
0
0
0
0
0
0
0
0
0
0
0
0
0
0
0
0
0
0
0
0
0
0
0
0
0
0
0
0
0
0
0
0
0
0
0
0
0
0
0
0
0
0
0
0
0
0
0
0
0
0
0
0
0
0
0
0
0
0
0
0
0
0
0
0
0
0
0
0
0
0
0
0
0
0
0
0
0
0
0
0
0
0
0
0
0
0
0
0
0
0
0
0
0
0
0
0
0
0
0
0
0
0
0
0
0
0
0
0
0
0
0
0
0
0
0
0
0
0
0
0
0
0
0
0
0
0
0
0
0
0
0
0
0
0
0
0
0
0
0
0
0
0
0
0
0
0
0
0
0
0
0
0
0
0
0
0
0
0
0
0
0
0
0
0
0
0
0
0
0
0
0
0
0
0
0
0
0
0
0
0
0
0
0
0
0
0
0
0
0
0
0
0
0
0
0
0
0
0
224
222
223
214
211
207
210
211
209
209
207
179
181
159
160
160
160
157
168
171
230
230
230
230
229
230
230
240
254
254
255
254
255
255
254
254
254
254
254
252
250
123
124
124
130
128
128
131
149
162
162
164
163
164
163
163
164
164
165
165
164
164
165
163
164
163
162
162
162
164
164
163
163
162
162
163
163
164
163
164
165
164
164
166
166
165
165
170
167
173
181
181
184
183
182
182
182
186
187
187
174
165
162
164
164
164
165
162
162
155
130
126
127
127
129
129
121
250
254
254
251
255
255
254
255
255
255
254
254
254
253
254
254
255
255
254
254
254
255
255
254
254
254
0
0
0
0
0
0
0
0
0
0
0
0
0
0
0
0
0
0
0
0
0
0
0
0
0
0
0
0
0
0
0
0
0
0
0
0
0
0
0
0
0
0
0
0
0
0
0
0
0
0
0
0
0
0
0
0
0
0
0
0
0
0
0
0
0
0
0
0
0
0
0
0
0
0
0
0
0
0
0
0
0
0
0
0
0
0
0
0
0
0
0
0
0
0
0
0
0
0
0
0
0
0
0
0
0
0
0
0
0
0
0
0
0
0
0
0
0
0
0
0
0
0
0
0
0
0
0
0
0
0
0
0
0
0
0
0
0
0
0
0
0
0
0
0
0
0
0
0
0
0
0
0
0
0
0
0
0
0
0
0
0
0
0
0
0
0
0
0
0
0
0
0
0
0
0
0
0
0
0
0
0
0
0
0
0
0
0
0
0
0
0
0
0
0
0
0
0
0
0
0
0
0
0
0
0
0
0
0
0
0
0
0
0
0
0
0
0
0
0
0
0
0
0
0
0
0
0
0
0
0
0
0
0
0
0
0
0
0
0
0
0
0
0
0
0
0
0
0
0
0
0
0
0
0
0
0
0
0
0
0
0
0
0
0
0
0
0
0
0
0
0
0
0
0
0
0
0
0
0
0
0
0
0
0
0
0
0
0
0
0
0
0
0
0
0
0
0
0
0
0
0
0
0
0
0
0
0
0
0
0
0
0
0
0
0
0
0
0
0
0
0
0
0
0
0
0
0
0
0
0
0
0
0
0
0
0
0
0
0
0
0
0
0
0
0
0
0
0
0
0
0
0
0
0
0
0
0
0
0
0
0
0
0
0
0
0
0
0
0
0
0
0
0
0
0
0
0
0
0
0
0
0
0
0
0
0
0
0
0
0
0
0
0
0
0
0
0
0
0
0
0
0
0
0
0
0
0
0
0
0
0
0
0
0
0
0
0
0
0
0
0
0
0
0
0
0
0
214
219
214
208
208
212
208
210
210
207
176
178
158
159
157
159
158
167
168
230
231
231
229
229
229
230
237
254
253
255
255
254
254
255
255
255
254
254
254
253
214
131
125
128
126
129
130
135
140
159
162
163
163
162
163
163
163
164
163
164
165
164
164
164
164
165
163
162
163
163
163
163
163
163
163
162
162
163
163
163
163
163
162
163
165
162
166
166
165
163
170
180
178
183
183
183
183
182
185
187
184
168
163
163
166
165
165
163
161
158
141
131
126
130
126
128
117
166
252
255
255
254
254
255
254
254
254
255
254
253
253
253
254
254
255
254
254
254
254
255
255
254
254
254
0
0
0
0
0
0
0
0
0
0
0
0
0
0
0
0
0
0
0
0
0
0
0
0
0
0
0
0
0
0
0
0
0
0
0
0
0
0
0
0
0
0
0
0
0
0
0
0
0
0
0
0
0
0
0
0
0
0
0
0
0
0
0
0
0
0
0
0
0
0
0
0
0
0
0
0
0
0
0
0
0
0
0
0
0
0
0
0
0
0
0
0
0
0
0
0
0
0
0
0
0
0
0
0
0
0
0
0
0
0
0
0
0
0
0
0
0
0
0
0
0
0
0
0
0
0
0
0
0
0
0
0
0
0
0
0
0
0
0
0
0
0
0
0
0
0
0
0
0
0
0
0
0
0
0
0
0
0
0
0
0
0
0
0
0
0
0
0
0
0
0
0
0
0
0
0
0
0
0
0
0
0
0
0
0
0
0
0
0
0
0
0
0
0
0
0
0
0
0
0
0
0
0
0
0
0
0
0
0
0
0
0
0
0
0
0
0
0
0
0
0
0
0
0
0
0
0
0
0
0
0
0
0
0
0
0
0
0
0
0
0
0
0
0
0
0
0
0
0
0
0
0
0
0
0
0
0
0
0
0
0
0
0
0
0
0
0
0
0
0
0
0
0
0
0
0
0
0
0
0
0
0
0
0
0
0
0
0
0
0
0
0
0
0
0
0
0
0
0
0
0
0
0
0
0
0
0
0
0
0
0
0
0
0
0
0
0
0
0
0
0
0
0
0
0
0
0
0
0
0
0
0
0
0
0
0
0
0
0
0
0
0
0
0
0
0
0
0
0
0
0
0
0
0
0
0
0
0
0
0
0
0
0
0
0
0
0
0
0
0
0
0
0
0
0
0
0
0
0
0
0
0
0
0
0
0
0
0
0
0
0
0
0
0
0
0
0
0
0
0
0
0
0
0
0
0
0
0
0
0
0
0
0
0
0
0
0
0
0
0
0
0
0
0
0
0
214
208
210
210
209
209
210
210
206
174
176
159
158
157
157
156
173
167
230
231
231
228
229
229
229
235
254
254
254
254
255
254
254
255
255
255
254
254
254
253
235
131
122
129
126
128
127
130
140
150
164
163
162
162
163
163
163
163
163
163
164
165
164
165
165
165
164
164
163
162
163
163
163
163
162
162
163
163
163
163
163
162
162
162
162
162
163
163
163
163
163
168
178
177
181
182
183
183
185
187
182
168
165
164
164
164
165
163
160
158
153
130
126
130
129
127
117
127
250
253
255
254
254
255
254
254
254
254
255
254
253
254
254
254
254
255
254
254
254
254
255
255
254
254
254
0
0
0
0
0
0
0
0
0
0
0
0
0
0
0
0
0
0
0
0
0
0
0
0
0
0
0
0
0
0
0
0
0
0
0
0
0
0
0
0
0
0
0
0
0
0
0
0
0
0
0
0
0
0
0
0
0
0
0
0
0
0
0
0
0
0
0
0
0
0
0
0
0
0
0
0
0
0
0
0
0
0
0
0
0
0
0
0
0
0
0
0
0
0
0
0
0
0
0
0
0
0
0
0
0
0
0
0
0
0
0
0
0
0
0
0
0
0
0
0
0
0
0
0
0
0
0
0
0
0
0
0
0
0
0
0
0
0
0
0
0
0
0
0
0
0
0
0
0
0
0
0
0
0
0
0
0
0
0
0
0
0
0
0
0
0
0
0
0
0
0
0
0
0
0
0
0
0
0
0
0
0
0
0
0
0
0
0
0
0
0
0
0
0
0
0
0
0
0
0
0
0
0
0
0
0
0
0
0
0
0
0
0
0
0
0
0
0
0
0
0
0
0
0
0
0
0
0
0
0
0
0
0
0
0
0
0
0
0
0
0
0
0
0
0
0
0
0
0
0
0
0
0
0
0
0
0
0
0
0
0
0
0
0
0
0
0
0
0
0
0
0
0
0
0
0
0
0
0
0
0
0
0
0
0
0
0
0
0
0
0
0
0
0
0
0
0
0
0
0
0
0
0
0
0
0
0
0
0
0
0
0
0
0
0
0
0
0
0
0
0
0
0
0
0
0
0
0
0
0
0
0
0
0
0
0
0
0
0
0
0
0
0
0
0
0
0
0
0
0
0
0
0
0
0
0
0
0
0
0
0
0
0
0
0
0
0
0
0
0
0
0
0
0
0
0
0
0
0
0
0
0
0
0
0
0
0
0
0
0
0
0
0
0
0
0
0
0
0
0
0
0
0
0
0
0
0
0
0
0
0
0
0
0
0
0
0
0
0
0
0
0
0
0
0
208
209
209
212
209
210
210
205
171
171
159
159
158
159
156
173
173
230
232
232
227
229
228
228
234
254
254
254
254
254
254
254
255
255
254
255
255
255
254
252
252
162
123
123
127
130
128
126
133
163
163
163
163
164
164
164
163
163
163
163
163
164
162
165
165
165
165
165
163
163
162
162
164
163
163
163
163
163
164
164
162
162
162
162
162
163
163
163
163
165
163
163
167
175
175
180
186
184
184
182
172
172
163
164
163
163
164
162
162
158
138
134
131
129
124
124
124
179
179
252
254
254
254
255
254
254
254
254
254
255
254
255
255
254
254
254
255
255
254
254
254
254
254
254
254
254
0
0
0
0
0
0
0
0
0
0
0
0
0
0
0
0
0
0
0
0
0
0
0
0
0
0
0
0
0
0
0
0
0
0
0
0
0
0
0
0
0
0
0
0
0
0
0
0
0
0
0
0
0
0
0
0
0
0
0
0
0
0
0
0
0
0
0
0
0
0
0
0
0
0
0
0
0
0
0
0
0
0
0
0
0
0
0
0
0
0
0
0
0
0
0
0
0
0
0
0
0
0
0
0
0
0
0
0
0
0
0
0
0
0
0
0
0
0
0
0
0
0
0
0
0
0
0
0
0
0
0
0
0
0
0
0
0
0
0
0
0
0
0
0
0
0
0
0
0
0
0
0
0
0
0
0
0
0
0
0
0
0
0
0
0
0
0
0
0
0
0
0
0
0
0
0
0
0
0
0
0
0
0
0
0
0
0
0
0
0
0
0
0
0
0
0
0
0
0
0
0
0
0
0
0
0
0
0
0
0
0
0
0
0
0
0
0
0
0
0
0
0
0
0
0
0
0
0
0
0
0
0
0
0
0
0
0
0
0
0
0
0
0
0
0
0
0
0
0
0
0
0
0
0
0
0
0
0
0
0
0
0
0
0
0
0
0
0
0
0
0
0
0
0
0
0
0
0
0
0
0
0
0
0
0
0
0
0
0
0
0
0
0
0
0
0
0
0
0
0
0
0
0
0
0
0
0
0
0
0
0
0
0
0
0
0
0
0
0
0
0
0
0
0
0
0
0
0
0
0
0
0
0
0
0
0
0
0
0
0
0
0
0
0
0
0
0
0
0
0
0
0
0
0
0
0
0
0
0
0
0
0
0
0
0
0
0
0
0
0
0
0
0
0
0
0
0
0
0
0
0
0
0
0
0
0
0
0
0
0
0
0
0
0
0
0
0
0
0
0
0
0
0
0
0
0
0
0
0
0
0
0
0
0
0
0
0
0
0
0
0
0
0
0
209
209
211
209
210
210
207
160
168
158
159
158
158
156
178
174
230
229
229
227
230
229
229
232
254
254
254
255
255
254
254
255
255
254
255
253
255
255
254
253
249
214
121
130
129
128
128
126
130
138
163
163
165
164
165
165
164
163
163
162
163
162
163
163
165
165
165
164
164
163
162
163
163
164
164
164
164
164
165
164
163
162
163
162
164
164
163
163
163
162
164
164
165
165
173
169
174
180
180
173
173
165
165
167
164
163
164
167
161
163
148
134
133
129
133
128
127
122
241
251
254
255
255
254
255
254
254
254
254
254
254
254
255
254
254
254
254
255
255
254
254
254
254
254
254
254
254
0
0
0
0
0
0
0
0
0
0
0
0
0
0
0
0
0
0
0
0
0
0
0
0
0
0
0
0
0
0
0
0
0
0
0
0
0
0
0
0
0
0
0
0
0
0
0
0
0
0
0
0
0
0
0
0
0
0
0
0
0
0
0
0
0
0
0
0
0
0
0
0
0
0
0
0
0
0
0
0
0
0
0
0
0
0
0
0
0
0
0
0
0
0
0
0
0
0
0
0
0
0
0
0
0
0
0
0
0
0
0
0
0
0
0
0
0
0
0
0
0
0
0
0
0
0
0
0
0
0
0
0
0
0
0
0
0
0
0
0
0
0
0
0
0
0
0
0
0
0
0
0
0
0
0
0
0
0
0
0
0
0
0
0
0
0
0
0
0
0
0
0
0
0
0
0
0
0
0
0
0
0
0
0
0
0
0
0
0
0
0
0
0
0
0
0
0
0
0
0
0
0
0
0
0
0
0
0
0
0
0
0
0
0
0
0
0
0
0
0
0
0
0
0
0
0
0
0
0
0
0
0
0
0
0
0
0
0
0
0
0
0
0
0
0
0
0
0
0
0
0
0
0
0
0
0
0
0
0
0
0
0
0
0
0
0
0
0
0
0
0
0
0
0
0
0
0
0
0
0
0
0
0
0
0
0
0
0
0
0
0
0
0
0
0
0
0
0
0
0
0
0
0
0
0
0
0
0
0
0
0
0
0
0
0
0
0
0
0
0
0
0
0
0
0
0
0
0
0
0
0
0
0
0
0
0
0
0
0
0
0
0
0
0
0
0
0
0
0
0
0
0
0
0
0
0
0
0
0
0
0
0
0
0
0
0
0
0
0
0
0
0
0
0
0
0
0
0
0
0
0
0
0
0
0
0
0
0
0
0
0
0
0
0
0
0
0
0
0
0
0
0
0
0
0
0
0
0
0
0
0
0
0
0
0
0
0
0
0
0
0
0
0
209
209
210
210
210
201
160
160
161
159
158
158
155
180
180
230
230
229
230
229
229
229
231
254
254
254
255
255
255
255
254
254
254
254
255
253
254
254
254
255
252
214
153
127
130
130
129
128
128
131
150
162
162
164
165
165
165
163
163
163
161
162
162
163
164
165
165
165
164
164
164
163
163
163
164
164
164
165
165
165
164
163
163
164
165
164
164
164
162
162
163
164
165
164
165
166
166
170
169
173
165
163
167
167
166
163
164
165
162
162
162
135
128
128
130
126
127
128
198
252
252
251
254
254
254
254
254
254
254
254
254
255
255
254
254
254
255
255
255
254
254
254
254
255
255
255
254
254
0
0
0
0
0
0
0
0
0
0
0
0
0
0
0
0
0
0
0
0
0
0
0
0
0
0
0
0
0
0
0
0
0
0
0
0
0
0
0
0
0
0
0
0
0
0
0
0
0
0
0
0
0
0
0
0
0
0
0
0
0
0
0
0
0
0
0
0
0
0
0
0
0
0
0
0
0
0
0
0
0
0
0
0
0
0
0
0
0
0
0
0
0
0
0
0
0
0
0
0
0
0
0
0
0
0
0
0
0
0
0
0
0
0
0
0
0
0
0
0
0
0
0
0
0
0
0
0
0
0
0
0
0
0
0
0
0
0
0
0
0
0
0
0
0
0
0
0
0
0
0
0
0
0
0
0
0
0
0
0
0
0
0
0
0
0
0
0
0
0
0
0
0
0
0
0
0
0
0
0
0
0
0
0
0
0
0
0
0
0
0
0
0
0
0
0
0
0
0
0
0
0
0
0
0
0
0
0
0
0
0
0
0
0
0
0
0
0
0
0
0
0
0
0
0
0
0
0
0
0
0
0
0
0
0
0
0
0
0
0
0
0
0
0
0
0
0
0
0
0
0
0
0
0
0
0
0
0
0
0
0
0
0
0
0
0
0
0
0
0
0
0
0
0
0
0
0
0
0
0
0
0
0
0
0
0
0
0
0
0
0
0
0
0
0
0
0
0
0
0
0
0
0
0
0
0
0
0
0
0
0
0
0
0
0
0
0
0
0
0
0
0
0
0
0
0
0
0
0
0
0
0
0
0
0
0
0
0
0
0
0
0
0
0
0
0
0
0
0
0
0
0
0
0
0
0
0
0
0
0
0
0
0
0
0
0
0
0
0
0
0
0
0
0
0
0
0
0
0
0
0
0
0
0
0
0
0
0
0
0
0
0
0
0
0
0
0
0
0
0
0
0
0
0
0
0
0
0
0
0
0
0
0
0
0
0
0
0
0
0
0
0
208
210
208
209
198
160
160
159
158
158
158
156
190
185
230
229
230
230
229
229
229
230
253
253
254
254
254
255
255
255
255
254
254
254
254
254
255
255
253
254
253
249
123
122
126
132
129
128
125
128
131
154
160
160
165
165
165
164
163
163
165
163
163
162
162
164
165
165
165
164
164
164
163
163
163
164
164
164
165
165
164
164
164
165
165
165
164
164
163
162
163
161
164
164
164
164
165
164
166
165
161
162
164
165
166
166
166
164
163
162
156
145
132
130
128
129
125
118
147
248
254
255
254
255
254
254
254
254
254
254
255
255
255
255
254
254
254
255
255
255
254
254
254
254
255
255
255
254
254
0
0
0
0
0
0
0
0
0
0
0
0
0
0
0
0
0
0
0
0
0
0
0
0
0
0
0
0
0
0
0
0
0
0
0
0
0
0
0
0
0
0
0
0
0
0
0
0
0
0
0
0
0
0
0
0
0
0
0
0
0
0
0
0
0
0
0
0
0
0
0
0
0
0
0
0
0
0
0
0
0
0
0
0
0
0
0
0
0
0
0
0
0
0
0
0
0
0
0
0
0
0
0
0
0
0
0
0
0
0
0
0
0
0
0
0
0
0
0
0
0
0
0
0
0
0
0
0
0
0
0
0
0
0
0
0
0
0
0
0
0
0
0
0
0
0
0
0
0
0
0
0
0
0
0
0
0
0
0
0
0
0
0
0
0
0
0
0
0
0
0
0
0
0
0
0
0
0
0
0
0
0
0
0
0
0
0
0
0
0
0
0
0
0
0
0
0
0
0
0
0
0
0
0
0
0
0
0
0
0
0
0
0
0
0
0
0
0
0
0
0
0
0
0
0
0
0
0
0
0
0
0
0
0
0
0
0
0
0
0
0
0
0
0
0
0
0
0
0
0
0
0
0
0
0
0
0
0
0
0
0
0
0
0
0
0
0
0
0
0
0
0
0
0
0
0
0
0
0
0
0
0
0
0
0
0
0
0
0
0
0
0
0
0
0
0
0
0
0
0
0
0
0
0
0
0
0
0
0
0
0
0
0
0
0
0
0
0
0
0
0
0
0
0
0
0
0
0
0
0
0
0
0
0
0
0
0
0
0
0
0
0
0
0
0
0
0
0
0
0
0
0
0
0
0
0
0
0
0
0
0
0
0
0
0
0
0
0
0
0
0
0
0
0
0
0
0
0
0
0
0
0
0
0
0
0
0
0
0
0
0
0
0
0
0
0
0
0
0
0
0
0
0
0
0
0
0
0
0
0
0
0
0
0
0
0
0
0
0
0
0
210
207
208
184
160
160
159
158
159
158
154
195
190
229
229
229
230
229
229
229
230
252
253
253
254
254
254
254
255
255
255
255
254
254
254
254
255
252
254
254
254
251
182
122
127
128
129
128
129
129
129
130
153
160
161
164
165
164
164
166
165
165
164
162
164
164
164
165
165
164
164
164
164
163
163
163
164
164
164
164
164
163
164
164
165
165
165
164
164
163
163
163
162
163
164
164
163
164
164
165
164
162
165
164
166
164
163
165
163
165
159
145
133
129
128
126
132
126
147
224
254
255
255
254
255
254
254
254
254
255
255
255
255
255
254
254
255
255
255
255
255
254
254
254
254
255
255
255
254
254
0
0
0
0
0
0
0
0
0
0
0
0
0
0
0
0
0
0
0
0
0
0
0
0
0
0
0
0
0
0
0
0
0
0
0
0
0
0
0
0
0
0
0
0
0
0
0
0
0
0
0
0
0
0
0
0
0
0
0
0
0
0
0
0
0
0
0
0
0
0
0
0
0
0
0
0
0
0
0
0
0
0
0
0
0
0
0
0
0
0
0
0
0
0
0
0
0
0
0
0
0
0
0
0
0
0
0
0
0
0
0
0
0
0
0
0
0
0
0
0
0
0
0
0
0
0
0
0
0
0
0
0
0
0
0
0
0
0
0
0
0
0
0
0
0
0
0
0
0
0
0
0
0
0
0
0
0
0
0
0
0
0
0
0
0
0
0
0
0
0
0
0
0
0
0
0
0
0
0
0
0
0
0
0
0
0
0
0
0
0
0
0
0
0
0
0
0
0
0
0
0
0
0
0
0
0
0
0
0
0
0
0
0
0
0
0
0
0
0
0
0
0
0
0
0
0
0
0
0
0
0
0
0
0
0
0
0
0
0
0
0
0
0
0
0
0
0
0
0
0
0
0
0
0
0
0
0
0
0
0
0
0
0
0
0
0
0
0
0
0
0
0
0
0
0
0
0
0
0
0
0
0
0
0
0
0
0
0
0
0
0
0
0
0
0
0
0
0
0
0
0
0
0
0
0
0
0
0
0
0
0
0
0
0
0
0
0
0
0
0
0
0
0
0
0
0
0
0
0
0
0
0
0
0
0
0
0
0
0
0
0
0
0
0
0
0
0
0
0
0
0
0
0
0
0
0
0
0
0
0
0
0
0
0
0
0
0
0
0
0
0
0
0
0
0
0
0
0
0
0
0
0
0
0
0
0
0
0
0
0
0
0
0
0
0
0
0
0
0
0
0
0
0
0
0
0
0
0
0
0
0
0
0
0
0
0
0
0
0
0
206
206
177
160
160
159
158
157
158
154
201
201
229
229
229
230
229
230
230
230
252
252
254
254
255
254
254
254
254
255
255
255
254
254
254
255
255
254
254
255
255
254
250
141
129
129
130
129
129
128
130
131
129
148
162
162
163
164
163
164
166
164
164
164
165
165
164
164
164
164
164
164
164
164
163
163
163
164
164
164
163
163
163
163
164
165
165
165
163
163
163
162
162
162
163
163
163
164
164
164
164
165
167
167
168
164
165
163
163
165
165
149
128
128
130
127
129
130
123
250
250
254
251
254
253
254
254
254
255
255
255
255
255
254
254
254
255
255
255
255
255
255
254
254
254
254
255
255
255
254
254
0
0
0
0
0
0
0
0
0
0
0
0
0
0
0
0
0
0
0
0
0
0
0
0
0
0
0
0
0
0
0
0
0
0
0
0
0
0
0
0
0
0
0
0
0
0
0
0
0
0
0
0
0
0
0
0
0
0
0
0
0
0
0
0
0
0
0
0
0
0
0
0
0
0
0
0
0
0
0
0
0
0
0
0
0
0
0
0
0
0
0
0
0
0
0
0
0
0
0
0
0
0
0
0
0
0
0
0
0
0
0
0
0
0
0
0
0
0
0
0
0
0
0
0
0
0
0
0
0
0
0
0
0
0
0
0
0
0
0
0
0
0
0
0
0
0
0
0
0
0
0
0
0
0
0
0
0
0
0
0
0
0
0
0
0
0
0
0
0
0
0
0
0
0
0
0
0
0
0
0
0
0
0
0
0
0
0
0
0
0
0
0
0
0
0
0
0
0
0
0
0
0
0
0
0
0
0
0
0
0
0
0
0
0
0
0
0
0
0
0
0
0
0
0
0
0
0
0
0
0
0
0
0
0
0
0
0
0
0
0
0
0
0
0
0
0
0
0
0
0
0
0
0
0
0
0
0
0
0
0
0
0
0
0
0
0
0
0
0
0
0
0
0
0
0
0
0
0
0
0
0
0
0
0
0
0
0
0
0
0
0
0
0
0
0
0
0
0
0
0
0
0
0
0
0
0
0
0
0
0
0
0
0
0
0
0
0
0
0
0
0
0
0
0
0
0
0
0
0
0
0
0
0
0
0
0
0
0
0
0
0
0
0
0
0
0
0
0
0
0
0
0
0
0
0
0
0
0
0
0
0
0
0
0
0
0
0
0
0
0
0
0
0
0
0
0
0
0
0
0
0
0
0
0
0
0
0
0
0
0
0
0
0
0
0
0
0
0
0
0
0
0
0
0
0
0
0
0
0
0
0
0
0
0
0
0
0
0
0
206
163
159
160
159
159
156
157
154
218
208
229
230
229
229
229
230
230
230
252
252
253
254
254
255
255
255
254
254
254
255
255
255
254
254
254
254
254
254
253
254
254
252
226
127
128
130
130
129
129
128
131
131
130
142
161
159
162
163
162
163
164
163
163
164
165
165
166
164
164
163
163
164
164
164
163
163
163
164
163
163
163
163
163
163
164
165
164
164
163
163
163
162
163
163
163
163
163
164
164
165
171
171
175
184
173
165
165
163
163
162
156
139
128
127
130
129
128
121
175
251
255
253
254
255
255
254
255
255
255
255
255
254
254
254
255
255
255
255
255
255
255
255
254
254
254
254
255
255
255
254
254
0
0
0
0
0
0
0
0
0
0
0
0
0
0
0
0
0
0
0
0
0
0
0
0
0
0
0
0
0
0
0
0
0
0
0
0
0
0
0
0
0
0
0
0
0
0
0
0
0
0
0
0
0
0
0
0
0
0
0
0
0
0
0
0
0
0
0
0
0
0
0
0
0
0
0
0
0
0
0
0
0
0
0
0
0
0
0
0
0
0
0
0
0
0
0
0
0
0
0
0
0
0
0
0
0
0
0
0
0
0
0
0
0
0
0
0
0
0
0
0
0
0
0
0
0
0
0
0
0
0
0
0
0
0
0
0
0
0
0
0
0
0
0
0
0
0
0
0
0
0
0
0
0
0
0
0
0
0
0
0
0
0
0
0
0
0
0
0
0
0
0
0
0
0
0
0
0
0
0
0
0
0
0
0
0
0
0
0
0
0
0
0
0
0
0
0
0
0
0
0
0
0
0
0
0
0
0
0
0
0
0
0
0
0
0
0
0
0
0
0
0
0
0
0
0
0
0
0
0
0
0
0
0
0
0
0
0
0
0
0
0
0
0
0
0
0
0
0
0
0
0
0
0
0
0
0
0
0
0
0
0
0
0
0
0
0
0
0
0
0
0
0
0
0
0
0
0
0
0
0
0
0
0
0
0
0
0
0
0
0
0
0
0
0
0
0
0
0
0
0
0
0
0
0
0
0
0
0
0
0
0
0
0
0
0
0
0
0
0
0
0
0
0
0
0
0
0
0
0
0
0
0
0
0
0
0
0
0
0
0
0
0
0
0
0
0
0
0
0
0
0
0
0
0
0
0
0
0
0
0
0
0
0
0
0
0
0
0
0
0
0
0
0
0
0
0
0
0
0
0
0
0
0
0
0
0
0
0
0
0
0
0
0
0
0
0
0
0
0
0
0
0
0
0
0
0
0
0
0
0
0
0
0
0
0
0
0
0
160
159
159
158
159
156
156
158
224
224
230
230
230
231
229
230
230
231
253
253
254
254
254
254
254
255
255
255
254
254
254
254
254
254
255
255
255
254
252
253
253
254
245
245
216
122
131
131
129
129
129
129
130
130
130
130
150
150
161
161
161
163
163
163
163
163
163
163
165
163
163
163
163
163
163
163
163
163
164
163
163
163
163
162
162
164
164
164
164
164
163
163
163
163
163
163
163
163
163
165
169
169
181
183
184
184
170
164
164
163
163
156
145
128
129
129
129
128
128
137
251
254
254
254
255
255
255
255
255
255
255
254
254
254
255
255
255
254
254
254
255
255
255
255
254
254
254
254
255
255
255
254
254
0
0
0
0
0
0
0
0
0
0
0
0
0
0
0
0
0
0
0
0
0
0
0
0
0
0
0
0
0
0
0
0
0
0
0
0
0
0
0
0
0
0
0
0
0
0
0
0
0
0
0
0
0
0
0
0
0
0
0
0
0
0
0
0
0
0
0
0
0
0
0
0
0
0
0
0
0
0
0
0
0
0
0
0
0
0
0
0
0
0
0
0
0
0
0
0
0
0
0
0
0
0
0
0
0
0
0
0
0
0
0
0
0
0
0
0
0
0
0
0
0
0
0
0
0
0
0
0
0
0
0
0
0
0
0
0
0
0
0
0
0
0
0
0
0
0
0
0
0
0
0
0
0
0
0
0
0
0
0
0
0
0
0
0
0
0
0
0
0
0
0
0
0
0
0
0
0
0
0
0
0
0
0
0
0
0
0
0
0
0
0
0
0
0
0
0
0
0
0
0
0
0
0
0
0
0
0
0
0
0
0
0
0
0
0
0
0
0
0
0
0
0
0
0
0
0
0
0
0
0
0
0
0
0
0
0
0
0
0
0
0
0
0
0
0
0
0
0
0
0
0
0
0
0
0
0
0
0
0
0
0
0
0
0
0
0
0
0
0
0
0
0
0
0
0
0
0
0
0
0
0
0
0
0
0
0
0
0
0
0
0
0
0
0
0
0
0
0
0
0
0
0
0
0
0
0
0
0
0
0
0
0
0
0
0
0
0
0
0
0
0
0
0
0
0
0
0
0
0
0
0
0
0
0
0
0
0
0
0
0
0
0
0
0
0
0
0
0
0
0
0
0
0
0
0
0
0
0
0
0
0
0
0
0
0
0
0
0
0
0
0
0
0
0
0
0
0
0
0
0
0
0
0
0
0
0
0
0
0
0
0
0
0
0
0
0
0
0
0
0
0
0
0
0
0
0
0
0
0
0
0
0
0
0
0
0
0
158
158
159
160
156
156
166
229
227
229
230
230
230
230
229
230
231
253
253
254
254
254
254
254
254
254
255
255
255
254
254
254
254
255
255
255
254
254
253
254
254
254
254
230
231
207
123
129
127
127
130
132
128
129
130
127
130
142
136
155
159
156
160
164
162
164
164
164
165
164
163
163
163
163
163
163
163
164
164
164
164
164
164
163
163
162
163
164
164
164
164
163
163
163
163
163
163
163
164
164
165
176
180
184
181
177
171
166
162
164
164
160
134
127
131
130
128
128
125
121
251
253
255
253
254
255
254
254
255
255
254
254
254
255
255
255
255
254
254
254
254
255
255
255
255
254
254
254
254
255
255
255
254
254
0
0
0
0
0
0
0
0
0
0
0
0
0
0
0
0
0
0
0
0
0
0
0
0
0
0
0
0
0
0
0
0
0
0
0
0
0
0
0
0
0
0
0
0
0
0
0
0
0
0
0
0
0
0
0
0
0
0
0
0
0
0
0
0
0
0
0
0
0
0
0
0
0
0
0
0
0
0
0
0
0
0
0
0
0
0
0
0
0
0
0
0
0
0
0
0
0
0
0
0
0
0
0
0
0
0
0
0
0
0
0
0
0
0
0
0
0
0
0
0
0
0
0
0
0
0
0
0
0
0
0
0
0
0
0
0
0
0
0
0
0
0
0
0
0
0
0
0
0
0
0
0
0
0
0
0
0
0
0
0
0
0
0
0
0
0
0
0
0
0
0
0
0
0
0
0
0
0
0
0
0
0
0
0
0
0
0
0
0
0
0
0
0
0
0
0
0
0
0
0
0
0
0
0
0
0
0
0
0
0
0
0
0
0
0
0
0
0
0
0
0
0
0
0
0
0
0
0
0
0
0
0
0
0
0
0
0
0
0
0
0
0
0
0
0
0
0
0
0
0
0
0
0
0
0
0
0
0
0
0
0
0
0
0
0
0
0
0
0
0
0
0
0
0
0
0
0
0
0
0
0
0
0
0
0
0
0
0
0
0
0
0
0
0
0
0
0
0
0
0
0
0
0
0
0
0
0
0
0
0
0
0
0
0
0
0
0
0
0
0
0
0
0
0
0
0
0
0
0
0
0
0
0
0
0
0
0
0
0
0
0
0
0
0
0
0
0
0
0
0
0
0
0
0
0
0
0
0
0
0
0
0
0
0
0
0
0
0
0
0
0
0
0
0
0
0
0
0
0
0
0
0
0
0
0
0
0
0
0
0
0
0
0
0
0
0
0
0
0
0
0
0
0
0
0
0
0
0
0
0
0
0
0
0
0
0
158
159
160
153
153
185
230
229
229
229
230
229
230
230
229
232
253
253
255
254
254
254
254
254
254
254
254
255
255
254
254
254
254
254
255
255
255
254
254
253
253
254
254
245
230
230
211
126
127
127
128
132
131
127
129
129
129
131
136
131
135
149
149
157
161
164
163
163
165
165
162
163
163
163
163
163
163
163
164
164
164
165
164
164
163
162
162
163
163
164
163
163
163
163
163
163
163
163
164
164
163
172
180
180
183
173
171
165
164
164
164
164
135
127
128
126
128
130
128
180
180
254
253
253
251
255
254
251
254
254
254
254
255
255
255
255
255
255
254
254
254
254
255
255
255
254
254
254
254
254
255
255
255
254
254
0
0
0
0
0
0
0
0
0
0
0
0
0
0
0
0
0
0
0
0
0
0
0
0
0
0
0
0
0
0
0
0
0
0
0
0
0
0
0
0
0
0
0
0
0
0
0
0
0
0
0
0
0
0
0
0
0
0
0
0
0
0
0
0
0
0
0
0
0
0
0
0
0
0
0
0
0
0
0
0
0
0
0
0
0
0
0
0
0
0
0
0
0
0
0
0
0
0
0
0
0
0
0
0
0
0
0
0
0
0
0
0
0
0
0
0
0
0
0
0
0
0
0
0
0
0
0
0
0
0
0
0
0
0
0
0
0
0
0
0
0
0
0
0
0
0
0
0
0
0
0
0
0
0
0
0
0
0
0
0
0
0
0
0
0
0
0
0
0
0
0
0
0
0
0
0
0
0
0
0
0
0
0
0
0
0
0
0
0
0
0
0
0
0
0
0
0
0
0
0
0
0
0
0
0
0
0
0
0
0
0
0
0
0
0
0
0
0
0
0
0
0
0
0
0
0
0
0
0
0
0
0
0
0
0
0
0
0
0
0
0
0
0
0
0
0
0
0
0
0
0
0
0
0
0
0
0
0
0
0
0
0
0
0
0
0
0
0
0
0
0
0
0
0
0
0
0
0
0
0
0
0
0
0
0
0
0
0
0
0
0
0
0
0
0
0
0
0
0
0
0
0
0
0
0
0
0
0
0
0
0
0
0
0
0
0
0
0
0
0
0
0
0
0
0
0
0
0
0
0
0
0
0
0
0
0
0
0
0
0
0
0
0
0
0
0
0
0
0
0
0
0
0
0
0
0
0
0
0
0
0
0
0
0
0
0
0
0
0
0
0
0
0
0
0
0
0
0
0
0
0
0
0
0
0
0
0
0
0
0
0
0
0
0
0
0
0
0
0
0
0
0
0
0
0
0
0
0
0
0
0
0
0
0
0
159
159
159
156
200
229
230
230
230
230
230
229
229
230
234
254
254
255
254
254
254
254
254
254
254
254
254
254
255
255
254
254
254
254
254
255
255
255
254
255
254
252
253
252
234
228
229
220
136
125
125
126
128
130
130
128
128
131
129
126
127
129
143
133
153
158
163
163
162
164
164
163
162
163
163
162
163
163
163
164
164
165
165
164
164
162
162
162
163
163
163
163
163
163
163
163
163
163
162
162
165
165
172
177
169
174
164
162
162
164
165
163
156
130
129
129
127
130
125
123
243
253
249
255
253
253
253
254
255
252
254
255
255
255
255
255
255
255
255
254
254
254
254
255
255
254
254
254
254
254
254
255
255
255
254
254
0
0
0
0
0
0
0
0
0
0
0
0
0
0
0
0
0
0
0
0
0
0
0
0
0
0
0
0
0
0
0
0
0
0
0
0
0
0
0
0
0
0
0
0
0
0
0
0
0
0
0
0
0
0
0
0
0
0
0
0
0
0
0
0
0
0
0
0
0
0
0
0
0
0
0
0
0
0
0
0
0
0
0
0
0
0
0
0
0
0
0
0
0
0
0
0
0
0
0
0
0
0
0
0
0
0
0
0
0
0
0
0
0
0
0
0
0
0
0
0
0
0
0
0
0
0
0
0
0
0
0
0
0
0
0
0
0
0
0
0
0
0
0
0
0
0
0
0
0
0
0
0
0
0
0
0
0
0
0
0
0
0
0
0
0
0
0
0
0
0
0
0
0
0
0
0
0
0
0
0
0
0
0
0
0
0
0
0
0
0
0
0
0
0
0
0
0
0
0
0
0
0
0
0
0
0
0
0
0
0
0
0
0
0
0
0
0
0
0
0
0
0
0
0
0
0
0
0
0
0
0
0
0
0
0
0
0
0
0
0
0
0
0
0
0
0
0
0
0
0
0
0
0
0
0
0
0
0
0
0
0
0
0
0
0
0
0
0
0
0
0
0
0
0
0
0
0
0
0
0
0
0
0
0
0
0
0
0
0
0
0
0
0
0
0
0
0
0
0
0
0
0
0
0
0
0
0
0
0
0
0
0
0
0
0
0
0
0
0
0
0
0
0
0
0
0
0
0
0
0
0
0
0
0
0
0
0
0
0
0
0
0
0
0
0
0
0
0
0
0
0
0
0
0
0
0
0
0
0
0
0
0
0
0
0
0
0
0
0
0
0
0
0
0
0
0
0
0
0
0
0
0
0
0
0
0
0
0
0
0
0
0
0
0
0
0
0
0
0
0
0
0
0
0
0
0
0
0
0
0
0
0
0
0
156
164
159
219
232
229
231
230
230
230
230
228
229
238
254
254
255
255
255
254
254
254
254
254
254
254
254
254
255
255
255
254
254
254
254
255
255
255
255
255
254
254
255
252
249
229
229
231
229
162
123
126
124
130
126
127
128
130
129
130
127
131
132
133
132
140
157
163
162
163
164
163
164
162
163
163
162
163
163
163
164
165
165
164
163
162
162
162
163
163
163
163
163
163
163
163
163
163
164
163
164
165
164
165
169
164
165
165
162
164
162
163
157
132
130
128
129
130
125
125
230
253
254
255
255
254
253
254
255
253
255
255
255
255
254
255
255
255
255
255
255
254
254
254
254
254
254
254
254
254
254
254
255
255
255
254
254
0
0
0
0
0
0
0
0
0
0
0
0
0
0
0
0
0
0
0
0
0
0
0
0
0
0
0
0
0
0
0
0
0
0
0
0
0
0
0
0
0
0
0
0
0
0
0
0
0
0
0
0
0
0
0
0
0
0
0
0
0
0
0
0
0
0
0
0
0
0
0
0
0
0
0
0
0
0
0
0
0
0
0
0
0
0
0
0
0
0
0
0
0
0
0
0
0
0
0
0
0
0
0
0
0
0
0
0
0
0
0
0
0
0
0
0
0
0
0
0
0
0
0
0
0
0
0
0
0
0
0
0
0
0
0
0
0
0
0
0
0
0
0
0
0
0
0
0
0
0
0
0
0
0
0
0
0
0
0
0
0
0
0
0
0
0
0
0
0
0
0
0
0
0
0
0
0
0
0
0
0
0
0
0
0
0
0
0
0
0
0
0
0
0
0
0
0
0
0
0
0
0
0
0
0
0
0
0
0
0
0
0
0
0
0
0
0
0
0
0
0
0
0
0
0
0
0
0
0
0
0
0
0
0
0
0
0
0
0
0
0
0
0
0
0
0
0
0
0
0
0
0
0
0
0
0
0
0
0
0
0
0
0
0
0
0
0
0
0
0
0
0
0
0
0
0
0
0
0
0
0
0
0
0
0
0
0
0
0
0
0
0
0
0
0
0
0
0
0
0
0
0
0
0
0
0
0
0
0
0
0
0
0
0
0
0
0
0
0
0
0
0
0
0
0
0
0
0
0
0
0
0
0
0
0
0
0
0
0
0
0
0
0
0
0
0
0
0
0
0
0
0
0
0
0
0
0
0
0
0
0
0
0
0
0
0
0
0
0
0
0
0
0
0
0
0
0
0
0
0
0
0
0
0
0
0
0
0
0
0
0
0
0
0
0
0
0
0
0
0
0
0
0
0
0
0
0
0
0
0
0
0
0
191
175
227
231
231
230
228
228
229
230
228
228
240
254
254
255
254
255
255
255
254
254
254
254
254
254
254
255
255
255
254
254
254
254
254
254
255
255
255
255
254
254
254
255
243
243
228
231
231
229
223
155
155
120
124
124
126
130
130
130
127
127
127
129
131
131
135
149
160
160
164
162
162
165
166
162
162
162
162
162
164
165
165
164
163
162
162
163
163
163
163
163
163
163
163
164
164
164
162
162
163
164
163
163
164
164
164
165
163
163
163
163
144
144
129
130
129
129
130
135
135
251
254
254
251
255
252
252
255
255
255
255
255
255
255
254
255
255
255
255
254
254
254
254
254
254
254
254
255
255
254
254
255
255
255
255
254
254
0
0
0
0
0
0
0
0
0
0
0
0
0
0
0
0
0
0
0
0
0
0
0
0
0
0
0
0
0
0
0
0
0
0
0
0
0
0
0
0
0
0
0
0
0
0
0
0
0
0
0
0
0
0
0
0
0
0
0
0
0
0
0
0
0
0
0
0
0
0
0
0
0
0
0
0
0
0
0
0
0
0
0
0
0
0
0
0
0
0
0
0
0
0
0
0
0
0
0
0
0
0
0
0
0
0
0
0
0
0
0
0
0
0
0
0
0
0
0
0
0
0
0
0
0
0
0
0
0
0
0
0
0
0
0
0
0
0
0
0
0
0
0
0
0
0
0
0
0
0
0
0
0
0
0
0
0
0
0
0
0
0
0
0
0
0
0
0
0
0
0
0
0
0
0
0
0
0
0
0
0
0
0
0
0
0
0
0
0
0
0
0
0
0
0
0
0
0
0
0
0
0
0
0
0
0
0
0
0
0
0
0
0
0
0
0
0
0
0
0
0
0
0
0
0
0
0
0
0
0
0
0
0
0
0
0
0
0
0
0
0
0
0
0
0
0
0
0
0
0
0
0
0
0
0
0
0
0
0
0
0
0
0
0
0
0
0
0
0
0
0
0
0
0
0
0
0
0
0
0
0
0
0
0
0
0
0
0
0
0
0
0
0
0
0
0
0
0
0
0
0
0
0
0
0
0
0
0
0
0
0
0
0
0
0
0
0
0
0
0
0
0
0
0
0
0
0
0
0
0
0
0
0
0
0
0
0
0
0
0
0
0
0
0
0
0
0
0
0
0
0
0
0
0
0
0
0
0
0
0
0
0
0
0
0
0
0
0
0
0
0
0
0
0
0
0
0
0
0
0
0
0
0
0
0
0
0
0
0
0
0
0
0
0
0
0
0
0
0
0
0
0
0
0
0
0
0
0
0
0
0
0
191
230
230
229
230
229
228
230
227
229
228
242
254
254
254
254
255
255
255
255
255
254
254
254
254
254
255
255
255
254
254
254
254
254
254
254
254
255
255
255
255
254
254
255
254
237
234
228
230
228
230
227
196
224
138
122
131
124
130
126
123
133
129
130
132
130
130
128
145
158
158
166
165
165
165
163
162
162
162
163
163
164
165
164
163
163
163
163
163
163
163
163
163
163
164
164
164
164
164
162
163
164
163
163
163
163
164
164
163
163
161
162
158
131
126
128
127
126
133
123
219
247
253
254
254
255
253
255
254
254
255
255
255
255
255
255
255
255
255
254
254
254
254
254
254
254
254
255
255
255
255
254
254
255
255
255
255
254
254
0
0
0
0
0
0
0
0
0
0
0
0
0
0
0
0
0
0
0
0
0
0
0
0
0
0
0
0
0
0
0
0
0
0
0
0
0
0
0
0
0
0
0
0
0
0
0
0
0
0
0
0
0
0
0
0
0
0
0
0
0
0
0
0
0
0
0
0
0
0
0
0
0
0
0
0
0
0
0
0
0
0
0
0
0
0
0
0
0
0
0
0
0
0
0
0
0
0
0
0
0
0
0
0
0
0
0
0
0
0
0
0
0
0
0
0
0
0
0
0
0
0
0
0
0
0
0
0
0
0
0
0
0
0
0
0
0
0
0
0
0
0
0
0
0
0
0
0
0
0
0
0
0
0
0
0
0
0
0
0
0
0
0
0
0
0
0
0
0
0
0
0
0
0
0
0
0
0
0
0
0
0
0
0
0
0
0
0
0
0
0
0
0
0
0
0
0
0
0
0
0
0
0
0
0
0
0
0
0
0
0
0
0
0
0
0
0
0
0
0
0
0
0
0
0
0
0
0
0
0
0
0
0
0
0
0
0
0
0
0
0
0
0
0
0
0
0
0
0
0
0
0
0
0
0
0
0
0
0
0
0
0
0
0
0
0
0
0
0
0
0
0
0
0
0
0
0
0
0
0
0
0
0
0
0
0
0
0
0
0
0
0
0
0
0
0
0
0
0
0
0
0
0
0
0
0
0
0
0
0
0
0
0
0
0
0
0
0
0
0
0
0
0
0
0
0
0
0
0
0
0
0
0
0
0
0
0
0
0
0
0
0
0
0
0
0
0
0
0
0
0
0
0
0
0
0
0
0
0
0
0
0
0
0
0
0
0
0
0
0
0
0
0
0
0
0
0
0
0
0
0
0
0
0
0
0
0
0
0
0
0
0
0
0
0
0
0
0
0
0
0
0
0
0
0
0
0
0
0
0
0
228
229
229
230
230
229
231
228
231
231
247
254
254
255
254
255
255
255
254
255
255
255
254
254
254
254
254
254
254
254
254
254
255
255
255
254
254
255
254
255
255
255
254
254
254
255
234
232
230
229
229
230
232
224
233
225
173
173
128
125
125
127
129
130
125
128
129
129
130
141
158
161
164
164
164
165
161
162
162
163
163
164
165
164
164
163
163
163
164
164
163
163
163
164
164
165
165
164
164
164
163
163
162
162
163
162
165
162
162
162
164
162
154
128
129
129
125
127
133
120
218
247
252
251
255
255
255
254
254
254
255
255
255
255
255
255
255
255
254
254
254
255
255
254
254
254
254
255
255
255
254
254
254
254
254
255
255
255
254
254
0
0
0
0
0
0
0
0
0
0
0
0
0
0
0
0
0
0
0
0
0
0
0
0
0
0
0
0
0
0
0
0
0
0
0
0
0
0
0
0
0
0
0
0
0
0
0
0
0
0
0
0
0
0
0
0
0
0
0
0
0
0
0
0
0
0
0
0
0
0
0
0
0
0
0
0
0
0
0
0
0
0
0
0
0
0
0
0
0
0
0
0
0
0
0
0
0
0
0
0
0
0
0
0
0
0
0
0
0
0
0
0
0
0
0
0
0
0
0
0
0
0
0
0
0
0
0
0
0
0
0
0
0
0
0
0
0
0
0
0
0
0
0
0
0
0
0
0
0
0
0
0
0
0
0
0
0
0
0
0
0
0
0
0
0
0
0
0
0
0
0
0
0
0
0
0
0
0
0
0
0
0
0
0
0
0
0
0
0
0
0
0
0
0
0
0
0
0
0
0
0
0
0
0
0
0
0
0
0
0
0
0
0
0
0
0
0
0
0
0
0
0
0
0
0
0
0
0
0
0
0
0
0
0
0
0
0
0
0
0
0
0
0
0
0
0
0
0
0
0
0
0
0
0
0
0
0
0
0
0
0
0
0
0
0
0
0
0
0
0
0
0
0
0
0
0
0
0
0
0
0
0
0
0
0
0
0
0
0
0
0
0
0
0
0
0
0
0
0
0
0
0
0
0
0
0
0
0
0
0
0
0
0
0
0
0
0
0
0
0
0
0
0
0
0
0
0
0
0
0
0
0
0
0
0
0
0
0
0
0
0
0
0
0
0
0
0
0
0
0
0
0
0
0
0
0
0
0
0
0
0
0
0
0
0
0
0
0
0
0
0
0
0
0
0
0
0
0
0
0
0
0
0
0
0
0
0
0
0
0
0
0
0
0
0
0
0
0
0
0
0
0
0
0
0
0
0
0
0
0
231
228
230
230
230
231
228
234
232
251
252
255
254
254
254
255
255
254
254
254
255
255
255
254
255
254
254
254
254
254
254
254
254
255
255
255
254
255
255
254
255
255
255
254
254
254
251
231
232
230
231
232
229
230
231
229
231
225
232
173
128
159
124
129
128
129
124
128
128
131
147
161
165
164
166
166
164
163
162
162
164
165
165
165
163
163
163
164
165
165
164
163
163
164
164
165
165
165
164
164
163
162
162
162
162
165
162
162
163
163
164
159
138
129
130
128
128
127
130
150
150
241
254
252
254
253
254
254
255
255
255
255
254
254
255
255
255
255
254
254
254
254
255
255
254
254
255
255
255
255
255
254
254
254
254
254
255
255
255
254
254
0
0
0
0
0
0
0
0
0
0
0
0
0
0
0
0
0
0
0
0
0
0
0
0
0
0
0
0
0
0
0
0
0
0
0
0
0
0
0
0
0
0
0
0
0
0
0
0
0
0
0
0
0
0
0
0
0
0
0
0
0
0
0
0
0
0
0
0
0
0
0
0
0
0
0
0
0
0
0
0
0
0
0
0
0
0
0
0
0
0
0
0
0
0
0
0
0
0
0
0
0
0
0
0
0
0
0
0
0
0
0
0
0
0
0
0
0
0
0
0
0
0
0
0
0
0
0
0
0
0
0
0
0
0
0
0
0
0
0
0
0
0
0
0
0
0
0
0
0
0
0
0
0
0
0
0
0
0
0
0
0
0
0
0
0
0
0
0
0
0
0
0
0
0
0
0
0
0
0
0
0
0
0
0
0
0
0
0
0
0
0
0
0
0
0
0
0
0
0
0
0
0
0
0
0
0
0
0
0
0
0
0
0
0
0
0
0
0
0
0
0
0
0
0
0
0
0
0
0
0
0
0
0
0
0
0
0
0
0
0
0
0
0
0
0
0
0
0
0
0
0
0
0
0
0
0
0
0
0
0
0
0
0
0
0
0
0
0
0
0
0
0
0
0
0
0
0
0
0
0
0
0
0
0
0
0
0
0
0
0
0
0
0
0
0
0
0
0
0
0
0
0
0
0
0
0
0
0
0
0
0
0
0
0
0
0
0
0
0
0
0
0
0
0
0
0
0
0
0
0
0
0
0
0
0
0
0
0
0
0
0
0
0
0
0
0
0
0
0
0
0
0
0
0
0
0
0
0
0
0
0
0
0
0
0
0
0
0
0
0
0
0
0
0
0
0
0
0
0
0
0
0
0
0
0
0
0
0
0
0
0
0
0
0
0
0
0
0
0
0
0
0
0
0
0
0
0
0
0
231
230
230
230
230
228
237
234
253
252
252
255
254
254
254
254
254
254
254
255
255
255
255
255
255
255
254
254
254
254
255
254
255
255
255
255
254
254
255
254
254
255
255
255
254
254
254
254
232
234
228
232
231
229
230
229
229
229
232
231
234
159
211
149
129
129
130
129
128
129
141
161
165
162
165
166
164
162
165
163
164
165
165
165
163
163
162
163
165
165
165
163
163
163
164
164
165
164
164
164
163
163
162
164
166
163
162
164
163
163
161
149
132
129
131
127
128
129
125
122
227
236
254
252
254
254
254
254
254
255
255
254
254
254
255
255
255
255
255
254
254
254
255
255
255
254
254
255
255
255
255
255
255
254
254
254
255
255
255
254
254
254
0
0
0
0
0
0
0
0
0
0
0
0
0
0
0
0
0
0
0
0
0
0
0
0
0
0
0
0
0
0
0
0
0
0
0
0
0
0
0
0
0
0
0
0
0
0
0
0
0
0
0
0
0
0
0
0
0
0
0
0
0
0
0
0
0
0
0
0
0
0
0
0
0
0
0
0
0
0
0
0
0
0
0
0
0
0
0
0
0
0
0
0
0
0
0
0
0
0
0
0
0
0
0
0
0
0
0
0
0
0
0
0
0
0
0
0
0
0
0
0
0
0
0
0
0
0
0
0
0
0
0
0
0
0
0
0
0
0
0
0
0
0
0
0
0
0
0
0
0
0
0
0
0
0
0
0
0
0
0
0
0
0
0
0
0
0
0
0
0
0
0
0
0
0
0
0
0
0
0
0
0
0
0
0
0
0
0
0
0
0
0
0
0
0
0
0
0
0
0
0
0
0
0
0
0
0
0
0
0
0
0
0
0
0
0
0
0
0
0
0
0
0
0
0
0
0
0
0
0
0
0
0
0
0
0
0
0
0
0
0
0
0
0
0
0
0
0
0
0
0
0
0
0
0
0
0
0
0
0
0
0
0
0
0
0
0
0
0
0
0
0
0
0
0
0
0
0
0
0
0
0
0
0
0
0
0
0
0
0
0
0
0
0
0
0
0
0
0
0
0
0
0
0
0
0
0
0
0
0
0
0
0
0
0
0
0
0
0
0
0
0
0
0
0
0
0
0
0
0
0
0
0
0
0
0
0
0
0
0
0
0
0
0
0
0
0
0
0
0
0
0
0
0
0
0
0
0
0
0
0
0
0
0
0
0
0
0
0
0
0
0
0
0
0
0
0
0
0
0
0
0
0
0
0
0
0
0
0
0
0
0
0
0
0
0
0
0
0
0
0
0
0
0
0
0
0
0
0
230
229
229
230
229
243
240
254
253
253
255
255
255
255
254
254
254
254
255
255
255
254
255
255
255
255
255
254
254
254
255
255
255
255
255
255
255
254
254
254
254
254
255
255
255
254
254
255
253
237
237
228
230
230
229
234
231
231
232
228
228
229
232
182
146
128
128
128
129
137
154
156
162
164
164
165
162
162
161
163
165
165
165
164
164
162
162
163
163
165
164
164
163
163
162
163
163
164
164
163
163
163
165
165
165
165
165
163
163
161
153
134
134
130
128
128
131
130
130
131
230
244
244
253
254
254
255
255
254
254
254
253
253
254
255
255
255
255
255
255
254
254
254
255
255
255
254
255
255
255
254
255
255
255
254
254
254
255
255
255
254
254
254
0
0
0
0
0
0
0
0
0
0
0
0
0
0
0
0
0
0
0
0
0
0
0
0
0
0
0
0
0
0
0
0
0
0
0
0
0
0
0
0
0
0
0
0
0
0
0
0
0
0
0
0
0
0
0
0
0
0
0
0
0
0
0
0
0
0
0
0
0
0
0
0
0
0
0
0
0
0
0
0
0
0
0
0
0
0
0
0
0
0
0
0
0
0
0
0
0
0
0
0
0
0
0
0
0
0
0
0
0
0
0
0
0
0
0
0
0
0
0
0
0
0
0
0
0
0
0
0
0
0
0
0
0
0
0
0
0
0
0
0
0
0
0
0
0
0
0
0
0
0
0
0
0
0
0
0
0
0
0
0
0
0
0
0
0
0
0
0
0
0
0
0
0
0
0
0
0
0
0
0
0
0
0
0
0
0
0
0
0
0
0
0
0
0
0
0
0
0
0
0
0
0
0
0
0
0
0
0
0
0
0
0
0
0
0
0
0
0
0
0
0
0
0
0
0
0
0
0
0
0
0
0
0
0
0
0
0
0
0
0
0
0
0
0
0
0
0
0
0
0
0
0
0
0
0
0
0
0
0
0
0
0
0
0
0
0
0
0
0
0
0
0
0
0
0
0
0
0
0
0
0
0
0
0
0
0
0
0
0
0
0
0
0
0
0
0
0
0
0
0
0
0
0
0
0
0
0
0
0
0
0
0
0
0
0
0
0
0
0
0
0
0
0
0
0
0
0
0
0
0
0
0
0
0
0
0
0
0
0
0
0
0
0
0
0
0
0
0
0
0
0
0
0
0
0
0
0
0
0
0
0
0
0
0
0
0
0
0
0
0
0
0
0
0
0
0
0
0
0
0
0
0
0
0
0
0
0
0
0
0
0
0
0
0
0
0
0
0
0
0
0
0
0
0
0
0
0
229
229
230
232
247
243
254
255
254
254
255
254
255
255
254
254
254
254
255
255
254
254
254
255
254
255
255
254
254
254
255
255
255
254
254
254
255
255
254
254
255
255
254
255
254
255
254
254
255
254
242
248
235
230
230
228
233
230
232
230
230
234
185
182
124
131
126
129
133
151
154
160
162
163
166
165
164
163
162
163
164
165
165
165
163
162
162
163
163
164
163
164
162
162
162
162
163
163
163
164
164
165
165
164
165
163
164
164
161
155
132
134
128
129
131
129
130
127
125
189
232
229
253
253
253
253
254
255
254
255
254
254
253
254
255
255
255
255
255
255
255
254
255
255
255
255
255
255
255
254
254
254
255
255
254
254
254
254
255
255
255
254
254
255
0
0
0
0
0
0
0
0
0
0
0
0
0
0
0
0
0
0
0
0
0
0
0
0
0
0
0
0
0
0
0
0
0
0
0
0
0
0
0
0
0
0
0
0
0
0
0
0
0
0
0
0
0
0
0
0
0
0
0
0
0
0
0
0
0
0
0
0
0
0
0
0
0
0
0
0
0
0
0
0
0
0
0
0
0
0
0
0
0
0
0
0
0
0
0
0
0
0
0
0
0
0
0
0
0
0
0
0
0
0
0
0
0
0
0
0
0
0
0
0
0
0
0
0
0
0
0
0
0
0
0
0
0
0
0
0
0
0
0
0
0
0
0
0
0
0
0
0
0
0
0
0
0
0
0
0
0
0
0
0
0
0
0
0
0
0
0
0
0
0
0
0
0
0
0
0
0
0
0
0
0
0
0
0
0
0
0
0
0
0
0
0
0
0
0
0
0
0
0
0
0
0
0
0
0
0
0
0
0
0
0
0
0
0
0
0
0
0
0
0
0
0
0
0
0
0
0
0
0
0
0
0
0
0
0
0
0
0
0
0
0
0
0
0
0
0
0
0
0
0
0
0
0
0
0
0
0
0
0
0
0
0
0
0
0
0
0
0
0
0
0
0
0
0
0
0
0
0
0
0
0
0
0
0
0
0
0
0
0
0
0
0
0
0
0
0
0
0
0
0
0
0
0
0
0
0
0
0
0
0
0
0
0
0
0
0
0
0
0
0
0
0
0
0
0
0
0
0
0
0
0
0
0
0
0
0
0
0
0
0
0
0
0
0
0
0
0
0
0
0
0
0
0
0
0
0
0
0
0
0
0
0
0
0
0
0
0
0
0
0
0
0
0
0
0
0
0
0
0
0
0
0
0
0
0
0
0
0
0
0
0
0
0
0
0
0
0
0
0
0
0
0
0
0
0
0
229
230
232
250
250
254
255
255
255
255
255
255
254
255
255
254
254
254
254
254
254
254
254
254
254
255
255
254
254
254
255
255
255
254
254
254
254
255
255
254
254
255
255
254
254
254
254
255
255
255
254
252
252
238
232
232
231
226
232
232
229
190
190
122
129
129
128
132
151
151
162
162
162
167
164
165
165
163
162
162
164
165
165
165
164
162
162
162
164
164
162
163
162
162
162
162
162
162
163
164
166
164
164
164
163
164
164
162
154
132
132
130
128
128
128
126
130
130
157
229
229
227
251
253
255
255
255
255
255
255
255
254
254
254
254
254
254
254
254
255
255
255
255
255
255
255
255
255
254
254
254
254
254
255
255
254
254
254
254
254
255
255
254
255
254
0
0
0
0
0
0
0
0
0
0
0
0
0
0
0
0
0
0
0
0
0
0
0
0
0
0
0
0
0
0
0
0
0
0
0
0
0
0
0
0
0
0
0
0
0
0
0
0
0
0
0
0
0
0
0
0
0
0
0
0
0
0
0
0
0
0
0
0
0
0
0
0
0
0
0
0
0
0
0
0
0
0
0
0
0
0
0
0
0
0
0
0
0
0
0
0
0
0
0
0
0
0
0
0
0
0
0
0
0
0
0
0
0
0
0
0
0
0
0
0
0
0
0
0
0
0
0
0
0
0
0
0
0
0
0
0
0
0
0
0
0
0
0
0
0
0
0
0
0
0
0
0
0
0
0
0
0
0
0
0
0
0
0
0
0
0
0
0
0
0
0
0
0
0
0
0
0
0
0
0
0
0
0
0
0
0
0
0
0
0
0
0
0
0
0
0
0
0
0
0
0
0
0
0
0
0
0
0
0
0
0
0
0
0
0
0
0
0
0
0
0
0
0
0
0
0
0
0
0
0
0
0
0
0
0
0
0
0
0
0
0
0
0
0
0
0
0
0
0
0
0
0
0
0
0
0
0
0
0
0
0
0
0
0
0
0
0
0
0
0
0
0
0
0
0
0
0
0
0
0
0
0
0
0
0
0
0
0
0
0
0
0
0
0
0
0
0
0
0
0
0
0
0
0
0
0
0
0
0
0
0
0
0
0
0
0
0
0
0
0
0
0
0
0
0
0
0
0
0
0
0
0
0
0
0
0
0
0
0
0
0
0
0
0
0
0
0
0
0
0
0
0
0
0
0
0
0
0
0
0
0
0
0
0
0
0
0
0
0
0
0
0
0
0
0
0
0
0
0
0
0
0
0
0
0
0
0
0
0
0
0
0
0
0
0
0
0
0
0
0
0
0
0
0
0
228
236
255
254
254
254
255
255
255
255
255
255
255
254
255
255
255
254
254
254
254
255
255
255
254
255
255
255
254
254
254
255
254
255
254
255
255
254
255
255
254
254
254
255
254
255
255
255
255
254
253
254
254
255
250
238
245
231
227
229
184
186
124
128
130
128
131
149
150
162
161
161
164
162
163
165
163
162
162
162
162
164
165
165
164
163
162
162
163
162
165
165
164
163
163
162
162
162
163
166
164
164
164
162
163
165
162
147
134
133
130
128
128
129
130
129
127
127
226
232
230
231
243
255
255
254
255
253
254
255
255
255
255
254
254
254
254
254
254
255
255
255
255
255
255
255
255
254
254
254
254
254
255
255
255
255
255
254
254
254
254
255
255
254
254
254
0
0
0
0
0
0
0
0
0
0
0
0
0
0
0
0
0
0
0
0
0
0
0
0
0
0
0
0
0
0
0
0
0
0
0
0
0
0
0
0
0
0
0
0
0
0
0
0
0
0
0
0
0
0
0
0
0
0
0
0
0
0
0
0
0
0
0
0
0
0
0
0
0
0
0
0
0
0
0
0
0
0
0
0
0
0
0
0
0
0
0
0
0
0
0
0
0
0
0
0
0
0
0
0
0
0
0
0
0
0
0
0
0
0
0
0
0
0
0
0
0
0
0
0
0
0
0
0
0
0
0
0
0
0
0
0
0
0
0
0
0
0
0
0
0
0
0
0
0
0
0
0
0
0
0
0
0
0
0
0
0
0
0
0
0
0
0
0
0
0
0
0
0
0
0
0
0
0
0
0
0
0
0
0
0
0
0
0
0
0
0
0
0
0
0
0
0
0
0
0
0
0
0
0
0
0
0
0
0
0
0
0
0
0
0
0
0
0
0
0
0
0
0
0
0
0
0
0
0
0
0
0
0
0
0
0
0
0
0
0
0
0
0
0
0
0
0
0
0
0
0
0
0
0
0
0
0
0
0
0
0
0
0
0
0
0
0
0
0
0
0
0
0
0
0
0
0
0
0
0
0
0
0
0
0
0
0
0
0
0
0
0
0
0
0
0
0
0
0
0
0
0
0
0
0
0
0
0
0
0
0
0
0
0
0
0
0
0
0
0
0
0
0
0
0
0
0
0
0
0
0
0
0
0
0
0
0
0
0
0
0
0
0
0
0
0
0
0
0
0
0
0
0
0
0
0
0
0
0
0
0
0
0
0
0
0
0
0
0
0
0
0
0
0
0
0
0
0
0
0
0
0
0
0
0
0
0
0
0
0
0
0
0
0
0
0
0
0
0
0
0
0
0
0
247
255
255
254
253
254
254
255
255
255
255
255
255
255
254
255
255
254
255
254
254
255
255
255
254
254
255
255
254
254
255
254
254
254
255
255
255
254
254
255
255
254
255
255
255
255
255
255
254
255
255
253
253
255
253
255
245
253
243
179
184
121
130
128
130
131
149
149
161
161
161
164
165
162
167
165
163
162
162
162
162
163
164
165
164
163
163
162
163
164
165
165
163
163
163
162
163
162
165
165
164
164
164
161
163
161
145
133
133
129
128
128
128
129
130
130
120
211
226
231
227
231
243
254
253
254
255
254
254
255
255
255
255
255
254
254
254
254
254
255
255
255
255
255
255
255
254
254
255
255
255
255
255
255
255
255
255
255
254
254
254
254
255
255
254
254
254
0
0
0
0
0
0
0
0
0
0
0
0
0
0
0
0
0
0
0
0
0
0
0
0
0
0
0
0
0
0
0
0
0
0
0
0
0
0
0
0
0
0
0
0
0
0
0
0
0
0
0
0
0
0
0
0
0
0
0
0
0
0
0
0
0
0
0
0
0
0
0
0
0
0
0
0
0
0
0
0
0
0
0
0
0
0
0
0
0
0
0
0
0
0
0
0
0
0
0
0
0
0
0
0
0
0
0
0
0
0
0
0
0
0
0
0
0
0
0
0
0
0
0
0
0
0
0
0
0
0
0
0
0
0
0
0
0
0
0
0
0
0
0
0
0
0
0
0
0
0
0
0
0
0
0
0
0
0
0
0
0
0
0
0
0
0
0
0
0
0
0
0
0
0
0
0
0
0
0
0
0
0
0
0
0
0
0
0
0
0
0
0
0
0
0
0
0
0
0
0
0
0
0
0
0
0
0
0
0
0
0
0
0
0
0
0
0
0
0
0
0
0
0
0
0
0
0
0
0
0
0
0
0
0
0
0
0
0
0
0
0
0
0
0
0
0
0
0
0
0
0
0
0
0
0
0
0
0
0
0
0
0
0
0
0
0
0
0
0
0
0
0
0
0
0
0
0
0
0
0
0
0
0
0
0
0
0
0
0
0
0
0
0
0
0
0
0
0
0
0
0
0
0
0
0
0
0
0
0
0
0
0
0
0
0
0
0
0
0
0
0
0
0
0
0
0
0
0
0
0
0
0
0
0
0
0
0
0
0
0
0
0
0
0
0
0
0
0
0
0
0
0
0
0
0
0
0
0
0
0
0
0
0
0
0
0
0
0
0
0
0
0
0
0
0
0
0
0
0
0
0
0
0
0
0
0
0
0
0
0
0
0
0
0
0
0
0
0
0
0
0
0
0
255
254
255
253
253
254
255
255
255
255
255
255
255
255
255
254
255
254
255
254
254
254
254
255
255
254
254
255
255
255
254
254
254
255
255
255
255
254
254
254
254
255
255
255
255
255
255
254
254
254
255
254
254
253
255
255
253
251
160
174
122
130
130
130
131
149
149
161
162
161
164
164
164
163
165
164
164
162
162
162
162
163
163
164
164
163
163
164
164
165
164
163
166
164
165
163
163
164
165
163
164
164
160
160
160
142
131
131
129
129
129
128
129
129
130
121
192
203
231
233
233
233
253
254
253
254
255
255
254
253
255
255
255
255
255
254
254
254
254
255
255
255
255
255
255
254
254
255
255
255
255
255
255
254
254
255
255
255
255
254
254
254
254
255
254
254
254
254
0
0
0
0
0
0
0
0
0
0
0
0
0
0
0
0
0
0
0
0
0
0
0
0
0
0
0
0
0
0
0
0
0
0
0
0
0
0
0
0
0
0
0
0
0
0
0
0
0
0
0
0
0
0
0
0
0
0
0
0
0
0
0
0
0
0
0
0
0
0
0
0
0
0
0
0
0
0
0
0
0
0
0
0
0
0
0
0
0
0
0
0
0
0
0
0
0
0
0
0
0
0
0
0
0
0
0
0
0
0
0
0
0
0
0
0
0
0
0
0
0
0
0
0
0
0
0
0
0
0
0
0
0
0
0
0
0
0
0
0
0
0
0
0
0
0
0
0
0
0
0
0
0
0
0
0
0
0
0
0
0
0
0
0
0
0
0
0
0
0
0
0
0
0
0
0
0
0
0
0
0
0
0
0
0
0
0
0
0
0
0
0
0
0
0
0
0
0
0
0
0
0
0
0
0
0
0
0
0
0
0
0
0
0
0
0
0
0
0
0
0
0
0
0
0
0
0
0
0
0
0
0
0
0
0
0
0
0
0
0
0
0
0
0
0
0
0
0
0
0
0
0
0
0
0
0
0
0
0
0
0
0
0
0
0
0
0
0
0
0
0
0
0
0
0
0
0
0
0
0
0
0
0
0
0
0
0
0
0
0
0
0
0
0
0
0
0
0
0
0
0
0
0
0
0
0
0
0
0
0
0
0
0
0
0
0
0
0
0
0
0
0
0
0
0
0
0
0
0
0
0
0
0
0
0
0
0
0
0
0
0
0
0
0
0
0
0
0
0
0
0
0
0
0
0
0
0
0
0
0
0
0
0
0
0
0
0
0
0
0
0
0
0
0
0
0
0
0
0
0
0
0
0
0
0
0
0
0
0
0
0
0
0
0
0
0
0
0
0
0
0
0
255
254
255
254
254
254
255
255
255
255
255
255
255
255
255
255
254
254
255
254
254
254
254
254
255
255
255
254
254
255
255
254
255
255
255
254
254
255
255
254
254
255
255
255
255
255
254
255
254
255
254
254
253
254
254
253
248
139
160
124
127
130
130
132
149
149
161
162
162
164
164
164
163
165
164
164
163
162
162
162
162
163
163
163
162
163
163
164
165
165
169
175
166
169
163
165
161
164
163
163
163
162
161
159
134
130
131
128
129
129
127
129
129
129
121
187
192
229
230
229
228
237
254
254
254
254
255
254
254
255
255
255
255
255
255
255
254
254
255
255
255
255
255
255
255
255
255
255
255
255
255
255
255
255
254
254
255
255
255
255
254
254
254
254
254
255
254
254
254
0
0
0
0
0
0
0
0
0
0
0
0
0
0
0
0
0
0
0
0
0
0
0
0
0
0
0
0
0
0
0
0
0
0
0
0
0
0
0
0
0
0
0
0
0
0
0
0
0
0
0
0
0
0
0
0
0
0
0
0
0
0
0
0
0
0
0
0
0
0
0
0
0
0
0
0
0
0
0
0
0
0
0
0
0
0
0
0
0
0
0
0
0
0
0
0
0
0
0
0
0
0
0
0
0
0
0
0
0
0
0
0
0
0
0
0
0
0
0
0
0
0
0
0
0
0
0
0
0
0
0
0
0
0
0
0
0
0
0
0
0
0
0
0
0
0
0
0
0
0
0
0
0
0
0
0
0
0
0
0
0
0
0
0
0
0
0
0
0
0
0
0
0
0
0
0
0
0
0
0
0
0
0
0
0
0
0
0
0
0
0
0
0
0
0
0
0
0
0
0
0
0
0
0
0
0
0
0
0
0
0
0
0
0
0
0
0
0
0
0
0
0
0
0
0
0
0
0
0
0
0
0
0
0
0
0
0
0
0
0
0
0
0
0
0
0
0
0
0
0
0
0
0
0
0
0
0
0
0
0
0
0
0
0
0
0
0
0
0
0
0
0
0
0
0
0
0
0
0
0
0
0
0
0
0
0
0
0
0
0
0
0
0
0
0
0
0
0
0
0
0
0
0
0
0
0
0
0
0
0
0
0
0
0
0
0
0
0
0
0
0
0
0
0
0
0
0
0
0
0
0
0
0
0
0
0
0
0
0
0
0
0
0
0
0
0
0
0
0
0
0
0
0
0
0
0
0
0
0
0
0
0
0
0
0
0
0
0
0
0
0
0
0
0
0
0
0
0
0
0
0
0
0
0
0
0
0
0
0
0
0
0
0
0
0
0
0
0
0
0
0
254
255
255
254
255
255
255
254
255
255
255
255
255
255
255
254
254
254
255
255
255
255
254
254
254
255
255
254
254
255
255
255
255
255
254
254
254
254
254
254
254
254
255
255
255
254
254
254
254
254
254
255
254
254
251
244
129
129
124
128
128
128
132
149
149
161
162
162
164
164
164
163
165
165
165
163
163
163
163
163
163
163
163
162
162
165
165
168
168
172
179
179
177
163
163
163
162
164
164
162
162
162
155
132
129
129
129
131
131
128
128
128
130
122
187
187
232
231
231
229
231
250
250
255
254
254
255
254
255
255
255
254
254
255
255
255
255
255
255
255
254
255
255
255
255
255
255
255
255
255
255
255
255
255
254
254
254
255
255
255
255
255
254
254
254
255
255
254
254
254
0
0
0
0
0
0
0
0
0
0
0
0
0
0
0
0
0
0
0
0
0
0
0
0
0
0
0
0
0
0
0
0
0
0
0
0
0
0
0
0
0
0
0
0
0
0
0
0
0
0
0
0
0
0
0
0
0
0
0
0
0
0
0
0
0
0
0
0
0
0
0
0
0
0
0
0
0
0
0
0
0
0
0
0
0
0
0
0
0
0
0
0
0
0
0
0
0
0
0
0
0
0
0
0
0
0
0
0
0
0
0
0
0
0
0
0
0
0
0
0
0
0
0
0
0
0
0
0
0
0
0
0
0
0
0
0
0
0
0
0
0
0
0
0
0
0
0
0
0
0
0
0
0
0
0
0
0
0
0
0
0
0
0
0
0
0
0
0
0
0
0
0
0
0
0
0
0
0
0
0
0
0
0
0
0
0
0
0
0
0
0
0
0
0
0
0
0
0
0
0
0
0
0
0
0
0
0
0
0
0
0
0
0
0
0
0
0
0
0
0
0
0
0
0
0
0
0
0
0
0
0
0
0
0
0
0
0
0
0
0
0
0
0
0
0
0
0
0
0
0
0
0
0
0
0
0
0
0
0
0
0
0
0
0
0
0
0
0
0
0
0
0
0
0
0
0
0
0
0
0
0
0
0
0
0
0
0
0
0
0
0
0
0
0
0
0
0
0
0
0
0
0
0
0
0
0
0
0
0
0
0
0
0
0
0
0
0
0
0
0
0
0
0
0
0
0
0
0
0
0
0
0
0
0
0
0
0
0
0
0
0
0
0
0
0
0
0
0
0
0
0
0
0
0
0
0
0
0
0
0
0
0
0
0
0
0
0
0
0
0
0
0
0
0
0
0
0
0
0
0
0
0
0
0
0
0
0
0
0
0
0
0
0
0
0
0
0
0
0
0
255
255
254
254
254
251
253
254
254
255
255
255
255
255
255
255
254
255
255
255
255
255
255
254
254
255
254
254
254
254
255
255
255
255
255
254
254
254
255
254
254
254
254
255
255
254
254
254
254
254
255
254
254
251
220
121
125
125
129
131
128
131
149
149
161
162
162
164
164
164
164
165
165
165
163
164
163
164
165
165
164
164
164
163
165
165
169
166
177
182
181
181
172
168
163
162
165
164
162
162
162
151
130
129
129
131
126
128
128
128
126
129
123
204
193
232
229
231
228
231
237
244
254
254
253
254
254
255
255
255
255
255
254
254
255
255
255
255
255
254
254
254
255
255
255
255
255
255
255
255
254
254
255
255
255
254
254
254
255
255
255
255
254
254
254
254
255
255
254
254
254
0
0
0
0
0
0
0
0
0
0
0
0
0
0
0
0
0
0
0
0
0
0
0
0
0
0
0
0
0
0
0
0
0
0
0
0
0
0
0
0
0
0
0
0
0
0
0
0
0
0
0
0
0
0
0
0
0
0
0
0
0
0
0
0
0
0
0
0
0
0
0
0
0
0
0
0
0
0
0
0
0
0
0
0
0
0
0
0
0
0
0
0
0
0
0
0
0
0
0
0
0
0
0
0
0
0
0
0
0
0
0
0
0
0
0
0
0
0
0
0
0
0
0
0
0
0
0
0
0
0
0
0
0
0
0
0
0
0
0
0
0
0
0
0
0
0
0
0
0
0
0
0
0
0
0
0
0
0
0
0
0
0
0
0
0
0
0
0
0
0
0
0
0
0
0
0
0
0
0
0
0
0
0
0
0
0
0
0
0
0
0
0
0
0
0
0
0
0
0
0
0
0
0
0
0
0
0
0
0
0
0
0
0
0
0
0
0
0
0
0
0
0
0
0
0
0
0
0
0
0
0
0
0
0
0
0
0
0
0
0
0
0
0
0
0
0
0
0
0
0
0
0
0
0
0
0
0
0
0
0
0
0
0
0
0
0
0
0
0
0
0
0
0
0
0
0
0
0
0
0
0
0
0
0
0
0
0
0
0
0
0
0
0
0
0
0
0
0
0
0
0
0
0
0
0
0
0
0
0
0
0
0
0
0
0
0
0
0
0
0
0
0
0
0
0
0
0
0
0
0
0
0
0
0
0
0
0
0
0
0
0
0
0
0
0
0
0
0
0
0
0
0
0
0
0
0
0
0
0
0
0
0
0
0
0
0
0
0
0
0
0
0
0
0
0
0
0
0
0
0
0
0
0
0
0
0
0
0
0
0
0
0
0
0
0
0
0
0
0
255
254
254
255
255
254
253
254
254
254
255
255
255
255
255
255
255
255
255
255
255
255
255
255
254
254
254
254
254
254
255
255
255
254
255
255
254
254
254
255
254
254
254
254
255
255
254
254
254
253
255
254
251
205
119
119
126
126
129
129
131
149
149
161
162
162
164
164
164
164
165
165
165
163
164
164
164
165
165
165
165
164
164
164
165
171
171
183
183
182
182
176
172
165
162
165
165
161
161
162
143
131
129
129
128
128
126
129
128
128
126
125
212
212
229
228
229
230
231
232
232
253
254
254
253
254
255
255
255
255
255
255
254
254
254
255
255
255
255
255
254
254
254
255
255
255
255
255
255
255
254
254
254
254
254
254
254
254
254
254
254
254
255
254
254
254
254
255
255
254
254
254
0
0
0
0
0
0
0
0
0
0
0
0
0
0
0
0
0
0
0
0
0
0
0
0
0
0
0
0
0
0
0
0
0
0
0
0
0
0
0
0
0
0
0
0
0
0
0
0
0
0
0
0
0
0
0
0
0
0
0
0
0
0
0
0
0
0
0
0
0
0
0
0
0
0
0
0
0
0
0
0
0
0
0
0
0
0
0
0
0
0
0
0
0
0
0
0
0
0
0
0
0
0
0
0
0
0
0
0
0
0
0
0
0
0
0
0
0
0
0
0
0
0
0
0
0
0
0
0
0
0
0
0
0
0
0
0
0
0
0
0
0
0
0
0
0
0
0
0
0
0
0
0
0
0
0
0
0
0
0
0
0
0
0
0
0
0
0
0
0
0
0
0
0
0
0
0
0
0
0
0
0
0
0
0
0
0
0
0
0
0
0
0
0
0
0
0
0
0
0
0
0
0
0
0
0
0
0
0
0
0
0
0
0
0
0
0
0
0
0
0
0
0
0
0
0
0
0
0
0
0
0
0
0
0
0
0
0
0
0
0
0
0
0
0
0
0
0
0
0
0
0
0
0
0
0
0
0
0
0
0
0
0
0
0
0
0
0
0
0
0
0
0
0
0
0
0
0
0
0
0
0
0
0
0
0
0
0
0
0
0
0
0
0
0
0
0
0
0
0
0
0
0
0
0
0
0
0
0
0
0
0
0
0
0
0
0
0
0
0
0
0
0
0
0
0
0
0
0
0
0
0
0
0
0
0
0
0
0
0
0
0
0
0
0
0
0
0
0
0
0
0
0
0
0
0
0
0
0
0
0
0
0
0
0
0
0
0
0
0
0
0
0
0
0
0
0
0
0
0
0
0
0
0
0
0
0
0
0
0
0
0
0
0
0
0
0
0
0
254
254
251
254
255
255
252
253
252
252
255
255
255
255
255
255
255
255
255
255
255
255
254
255
254
254
254
254
254
254
254
255
255
255
255
254
254
254
254
253
254
254
254
254
254
255
254
254
254
254
254
251
185
124
123
124
130
129
129
132
149
149
161
162
162
164
164
164
164
165
165
165
163
164
164
164
165
163
164
165
164
165
164
165
175
172
183
183
183
184
180
180
165
163
164
165
161
158
159
141
130
129
129
128
130
131
128
127
127
125
140
228
225
230
230
229
230
230
230
229
251
253
254
253
254
255
255
255
255
255
255
255
255
254
254
254
255
255
255
255
255
254
254
254
255
255
255
255
255
255
255
254
254
254
254
254
255
254
254
255
254
254
254
255
254
254
254
254
255
254
254
254
254
0
0
0
0
0
0
0
0
0
0
0
0
0
0
0
0
0
0
0
0
0
0
0
0
0
0
0
0
0
0
0
0
0
0
0
0
0
0
0
0
0
0
0
0
0
0
0
0
0
0
0
0
0
0
0
0
0
0
0
0
0
0
0
0
0
0
0
0
0
0
0
0
0
0
0
0
0
0
0
0
0
0
0
0
0
0
0
0
0
0
0
0
0
0
0
0
0
0
0
0
0
0
0
0
0
0
0
0
0
0
0
0
0
0
0
0
0
0
0
0
0
0
0
0
0
0
0
0
0
0
0
0
0
0
0
0
0
0
0
0
0
0
0
0
0
0
0
0
0
0
0
0
0
0
0
0
0
0
0
0
0
0
0
0
0
0
0
0
0
0
0
0
0
0
0
0
0
0
0
0
0
0
0
0
0
0
0
0
0
0
0
0
0
0
0
0
0
0
0
0
0
0
0
0
0
0
0
0
0
0
0
0
0
0
0
0
0
0
0
0
0
0
0
0
0
0
0
0
0
0
0
0
0
0
0
0
0
0
0
0
0
0
0
0
0
0
0
0
0
0
0
0
0
0
0
0
0
0
0
0
0
0
0
0
0
0
0
0
0
0
0
0
0
0
0
0
0
0
0
0
0
0
0
0
0
0
0
0
0
0
0
0
0
0
0
0
0
0
0
0
0
0
0
0
0
0
0
0
0
0
0
0
0
0
0
0
0
0
0
0
0
0
0
0
0
0
0
0
0
0
0
0
0
0
0
0
0
0
0
0
0
0
0
0
0
0
0
0
0
0
0
0
0
0
0
0
0
0
0
0
0
0
0
0
0
0
0
0
0
0
0
0
0
0
0
0
0
0
0
0
0
0
0
0
0
0
0
0
0
0
0
0
0
0
0
0
0
254
253
251
254
251
255
254
250
254
254
255
255
255
255
255
255
255
255
255
255
254
254
254
255
255
254
254
254
254
254
254
255
255
255
254
255
254
254
253
253
254
255
254
254
254
253
254
254
251
253
251
154
123
124
125
130
130
129
132
150
149
162
162
162
164
164
164
163
165
165
165
163
164
164
164
165
163
163
163
164
164
163
165
177
175
183
184
183
183
181
181
165
165
163
164
161
155
158
135
130
129
129
130
127
130
127
126
126
124
176
230
228
230
229
230
230
228
230
230
243
254
253
255
255
255
255
255
255
255
255
255
255
255
255
255
254
255
255
255
255
255
255
254
254
254
255
255
254
255
255
255
255
254
254
254
254
255
255
255
255
254
254
254
254
255
254
254
254
254
254
255
255
254
254
0
0
0
0
0
0
0
0
0
0
0
0
0
0
0
0
0
0
0
0
0
0
0
0
0
0
0
0
0
0
0
0
0
0
0
0
0
0
0
0
0
0
0
0
0
0
0
0
0
0
0
0
0
0
0
0
0
0
0
0
0
0
0
0
0
0
0
0
0
0
0
0
0
0
0
0
0
0
0
0
0
0
0
0
0
0
0
0
0
0
0
0
0
0
0
0
0
0
0
0
0
0
0
0
0
0
0
0
0
0
0
0
0
0
0
0
0
0
0
0
0
0
0
0
0
0
0
0
0
0
0
0
0
0
0
0
0
0
0
0
0
0
0
0
0
0
0
0
0
0
0
0
0
0
0
0
0
0
0
0
0
0
0
0
0
0
0
0
0
0
0
0
0
0
0
0
0
0
0
0
0
0
0
0
0
0
0
0
0
0
0
0
0
0
0
0
0
0
0
0
0
0
0
0
0
0
0
0
0
0
0
0
0
0
0
0
0
0
0
0
0
0
0
0
0
0
0
0
0
0
0
0
0
0
0
0
0
0
0
0
0
0
0
0
0
0
0
0
0
0
0
0
0
0
0
0
0
0
0
0
0
0
0
0
0
0
0
0
0
0
0
0
0
0
0
0
0
0
0
0
0
0
0
0
0
0
0
0
0
0
0
0
0
0
0
0
0
0
0
0
0
0
0
0
0
0
0
0
0
0
0
0
0
0
0
0
0
0
0
0
0
0
0
0
0
0
0
0
0
0
0
0
0
0
0
0
0
0
0
0
0
0
0
0
0
0
0
0
0
0
0
0
0
0
0
0
0
0
0
0
0
0
0
0
0
0
0
0
0
0
0
0
0
0
0
0
0
0
0
0
0
0
0
0
0
0
0
0
0
0
0
0
0
0
0
0
253
252
254
254
254
254
254
254
252
250
253
253
255
255
255
255
255
255
255
255
254
254
255
255
255
255
255
254
254
254
254
254
255
254
255
255
255
253
253
254
254
254
255
254
254
254
254
253
253
244
140
124
124
128
129
129
129
131
154
150
162
162
162
164
164
164
164
165
165
165
163
164
164
164
165
163
163
163
163
163
163
165
179
178
183
184
184
183
182
182
166
165
163
163
161
150
150
133
129
130
129
129
131
131
130
126
126
121
197
231
231
229
229
229
229
228
229
230
239
255
255
255
253
255
255
255
255
255
255
255
255
255
255
255
255
255
255
255
255
255
255
255
255
254
254
254
254
254
254
255
255
255
255
254
254
254
255
254
255
255
254
254
254
254
254
255
254
254
254
254
255
255
254
254
254
0
0
0
0
0
0
0
0
0
0
0
0
0
0
0
0
0
0
0
0
0
0
0
0
0
0
0
0
0
0
0
0
0
0
0
0
0
0
0
0
0
0
0
0
0
0
0
0
0
0
0
0
0
0
0
0
0
0
0
0
0
0
0
0
0
0
0
0
0
0
0
0
0
0
0
0
0
0
0
0
0
0
0
0
0
0
0
0
0
0
0
0
0
0
0
0
0
0
0
0
0
0
0
0
0
0
0
0
0
0
0
0
0
0
0
0
0
0
0
0
0
0
0
0
0
0
0
0
0
0
0
0
0
0
0
0
0
0
0
0
0
0
0
0
0
0
0
0
0
0
0
0
0
0
0
0
0
0
0
0
0
0
0
0
0
0
0
0
0
0
0
0
0
0
0
0
0
0
0
0
0
0
0
0
0
0
0
0
0
0
0
0
0
0
0
0
0
0
0
0
0
0
0
0
0
0
0
0
0
0
0
0
0
0
0
0
0
0
0
0
0
0
0
0
0
0
0
0
0
0
0
0
0
0
0
0
0
0
0
0
0
0
0
0
0
0
0
0
0
0
0
0
0
0
0
0
0
0
0
0
0
0
0
0
0
0
0
0
0
0
0
0
0
0
0
0
0
0
0
0
0
0
0
0
0
0
0
0
0
0
0
0
0
0
0
0
0
0
0
0
0
0
0
0
0
0
0
0
0
0
0
0
0
0
0
0
0
0
0
0
0
0
0
0
0
0
0
0
0
0
0
0
0
0
0
0
0
0
0
0
0
0
0
0
0
0
0
0
0
0
0
0
0
0
0
0
0
0
0
0
0
0
0
0
0
0
0
0
0
0
0
0
0
0
0
0
0
0
0
0
0
0
0
0
0
0
0
0
0
0
0
0
0
0
0
253
253
254
253
251
251
252
250
252
253
254
255
255
254
255
255
255
255
255
255
255
255
255
255
255
255
255
255
255
255
254
255
255
254
254
255
254
254
254
254
254
254
254
253
254
253
252
253
235
127
128
127
127
127
128
129
133
155
154
162
162
162
164
164
164
164
165
165
165
163
164
164
164
165
163
163
163
163
163
163
167
181
179
183
184
184
183
182
182
168
165
162
163
161
144
146
134
129
128
130
129
128
130
127
122
126
136
230
231
232
230
230
229
229
231
229
229
239
254
255
255
254
255
255
255
255
255
255
255
255
255
255
255
255
255
255
255
255
254
255
255
255
255
255
254
254
255
255
255
253
254
255
255
255
254
254
254
254
254
255
255
254
254
254
254
254
255
254
254
254
254
254
254
254
254
254
0
0
0
0
0
0
0
0
0
0
0
0
0
0
0
0
0
0
0
0
0
0
0
0
0
0
0
0
0
0
0
0
0
0
0
0
0
0
0
0
0
0
0
0
0
0
0
0
0
0
0
0
0
0
0
0
0
0
0
0
0
0
0
0
0
0
0
0
0
0
0
0
0
0
0
0
0
0
0
0
0
0
0
0
0
0
0
0
0
0
0
0
0
0
0
0
0
0
0
0
0
0
0
0
0
0
0
0
0
0
0
0
0
0
0
0
0
0
0
0
0
0
0
0
0
0
0
0
0
0
0
0
0
0
0
0
0
0
0
0
0
0
0
0
0
0
0
0
0
0
0
0
0
0
0
0
0
0
0
0
0
0
0
0
0
0
0
0
0
0
0
0
0
0
0
0
0
0
0
0
0
0
0
0
0
0
0
0
0
0
0
0
0
0
0
0
0
0
0
0
0
0
0
0
0
0
0
0
0
0
0
0
0
0
0
0
0
0
0
0
0
0
0
0
0
0
0
0
0
0
0
0
0
0
0
0
0
0
0
0
0
0
0
0
0
0
0
0
0
0
0
0
0
0
0
0
0
0
0
0
0
0
0
0
0
0
0
0
0
0
0
0
0
0
0
0
0
0
0
0
0
0
0
0
0
0
0
0
0
0
0
0
0
0
0
0
0
0
0
0
0
0
0
0
0
0
0
0
0
0
0
0
0
0
0
0
0
0
0
0
0
0
0
0
0
0
0
0
0
0
0
0
0
0
0
0
0
0
0
0
0
0
0
0
0
0
0
0
0
0
0
0
0
0
0
0
0
0
0
0
0
0
0
0
0
0
0
0
0
0
0
0
0
0
0
0
0
0
0
0
0
0
0
0
0
0
0
0
0
0
0
0
0
0
253
252
252
249
237
251
229
244
250
250
252
254
255
254
255
255
255
255
255
255
255
255
255
255
254
255
255
255
255
255
255
255
255
255
254
254
254
254
254
254
254
254
252
252
253
251
252
206
124
126
126
128
129
127
129
134
156
156
163
162
162
164
164
164
164
165
165
165
163
164
164
164
165
163
163
163
163
163
165
167
181
181
184
184
184
183
182
182
170
165
163
163
162
140
144
133
128
128
128
130
127
127
128
122
122
178
232
230
230
229
230
230
229
230
229
229
239
254
254
252
255
255
255
255
255
255
255
255
255
255
255
254
254
255
255
255
255
255
254
254
255
255
255
255
254
254
254
255
254
254
254
254
255
255
255
254
254
254
255
255
255
255
254
254
254
254
254
255
254
254
254
254
254
254
254
254
254
0
0
0
0
0
0
0
0
0
0
0
0
0
0
0
0
0
0
0
0
0
0
0
0
0
0
0
0
0
0
0
0
0
0
0
0
0
0
0
0
0
0
0
0
0
0
0
0
0
0
0
0
0
0
0
0
0
0
0
0
0
0
0
0
0
0
0
0
0
0
0
0
0
0
0
0
0
0
0
0
0
0
0
0
0
0
0
0
0
0
0
0
0
0
0
0
0
0
0
0
0
0
0
0
0
0
0
0
0
0
0
0
0
0
0
0
0
0
0
0
0
0
0
0
0
0
0
0
0
0
0
0
0
0
0
0
0
0
0
0
0
0
0
0
0
0
0
0
0
0
0
0
0
0
0
0
0
0
0
0
0
0
0
0
0
0
0
0
0
0
0
0
0
0
0
0
0
0
0
0
0
0
0
0
0
0
0
0
0
0
0
0
0
0
0
0
0
0
0
0
0
0
0
0
0
0
0
0
0
0
0
0
0
0
0
0
0
0
0
0
0
0
0
0
0
0
0
0
0
0
0
0
0
0
0
0
0
0
0
0
0
0
0
0
0
0
0
0
0
0
0
0
0
0
0
0
0
0
0
0
0
0
0
0
0
0
0
0
0
0
0
0
0
0
0
0
0
0
0
0
0
0
0
0
0
0
0
0
0
0
0
0
0
0
0
0
0
0
0
0
0
0
0
0
0
0
0
0
0
0
0
0
0
0
0
0
0
0
0
0
0
0
0
0
0
0
0
0
0
0
0
0
0
0
0
0
0
0
0
0
0
0
0
0
0
0
0
0
0
0
0
0
0
0
0
0
0
0
0
0
0
0
0
0
0
0
0
0
0
0
0
0
0
0
0
0
0
0
0
0
0
0
0
0
0
0
0
0
0
0
0
0
0
249
252
220
127
157
133
136
123
167
237
186
250
253
255
254
255
255
255
255
255
255
255
255
254
254
254
255
255
255
255
255
254
255
255
255
254
254
253
254
255
254
254
253
253
249
250
184
123
129
129
131
129
130
129
134
157
156
163
162
162
164
164
164
164
165
165
165
163
164
164
164
165
163
163
163
162
162
165
169
181
181
184
184
184
183
181
182
170
165
163
163
159
136
138
131
128
127
128
130
125
125
126
134
125
195
229
230
229
229
229
229
230
229
229
229
240
255
255
252
255
255
255
255
255
255
255
255
255
255
255
255
254
255
255
255
255
255
255
255
254
254
255
255
254
254
254
254
254
254
255
255
254
255
255
255
255
254
254
255
255
255
255
255
254
255
254
255
255
255
254
254
254
254
254
255
254
254
254
0
0
0
0
0
0
0
0
0
0
0
0
0
0
0
0
0
0
0
0
0
0
0
0
0
0
0
0
0
0
0
0
0
0
0
0
0
0
0
0
0
0
0
0
0
0
0
0
0
0
0
0
0
0
0
0
0
0
0
0
0
0
0
0
0
0
0
0
0
0
0
0
0
0
0
0
0
0
0
0
0
0
0
0
0
0
0
0
0
0
0
0
0
0
0
0
0
0
0
0
0
0
0
0
0
0
0
0
0
0
0
0
0
0
0
0
0
0
0
0
0
0
0
0
0
0
0
0
0
0
0
0
0
0
0
0
0
0
0
0
0
0
0
0
0
0
0
0
0
0
0
0
0
0
0
0
0
0
0
0
0
0
0
0
0
0
0
0
0
0
0
0
0
0
0
0
0
0
0
0
0
0
0
0
0
0
0
0
0
0
0
0
0
0
0
0
0
0
0
0
0
0
0
0
0
0
0
0
0
0
0
0
0
0
0
0
0
0
0
0
0
0
0
0
0
0
0
0
0
0
0
0
0
0
0
0
0
0
0
0
0
0
0
0
0
0
0
0
0
0
0
0
0
0
0
0
0
0
0
0
0
0
0
0
0
0
0
0
0
0
0
0
0
0
0
0
0
0
0
0
0
0
0
0
0
0
0
0
0
0
0
0
0
0
0
0
0
0
0
0
0
0
0
0
0
0
0
0
0
0
0
0
0
0
0
0
0
0
0
0
0
0
0
0
0
0
0
0
0
0
0
0
0
0
0
0
0
0
0
0
0
0
0
0
0
0
0
0
0
0
0
0
0
0
0
0
0
0
0
0
0
0
0
0
0
0
0
0
0
0
0
0
0
0
0
0
0
0
0
0
0
0
0
0
0
0
0
0
0
0
0
0
249
135
119
127
127
129
127
123
127
120
186
141
237
252
254
250
255
255
254
255
255
255
255
255
254
254
254
255
255
255
254
254
254
255
255
254
253
253
254
255
254
254
253
246
249
146
124
131
129
128
129
129
130
136
157
157
164
163
162
164
164
164
164
165
165
165
163
164
164
164
165
163
163
163
162
162
166
170
182
182
183
184
184
183
183
181
170
165
162
163
156
134
136
129
129
128
127
129
125
125
122
150
134
231
231
229
230
228
230
229
230
229
230
229
245
255
255
254
255
254
254
254
254
255
254
255
255
255
255
255
255
255
255
255
255
255
255
255
255
254
254
254
254
254
254
254
253
254
253
254
255
254
254
255
255
255
255
254
255
255
255
255
255
255
255
254
254
255
255
254
254
254
254
254
255
255
255
254
254
0
0
0
0
0
0
0
0
0
0
0
0
0
0
0
0
0
0
0
0
0
0
0
0
0
0
0
0
0
0
0
0
0
0
0
0
0
0
0
0
0
0
0
0
0
0
0
0
0
0
0
0
0
0
0
0
0
0
0
0
0
0
0
0
0
0
0
0
0
0
0
0
0
0
0
0
0
0
0
0
0
0
0
0
0
0
0
0
0
0
0
0
0
0
0
0
0
0
0
0
0
0
0
0
0
0
0
0
0
0
0
0
0
0
0
0
0
0
0
0
0
0
0
0
0
0
0
0
0
0
0
0
0
0
0
0
0
0
0
0
0
0
0
0
0
0
0
0
0
0
0
0
0
0
0
0
0
0
0
0
0
0
0
0
0
0
0
0
0
0
0
0
0
0
0
0
0
0
0
0
0
0
0
0
0
0
0
0
0
0
0
0
0
0
0
0
0
0
0
0
0
0
0
0
0
0
0
0
0
0
0
0
0
0
0
0
0
0
0
0
0
0
0
0
0
0
0
0
0
0
0
0
0
0
0
0
0
0
0
0
0
0
0
0
0
0
0
0
0
0
0
0
0
0
0
0
0
0
0
0
0
0
0
0
0
0
0
0
0
0
0
0
0
0
0
0
0
0
0
0
0
0
0
0
0
0
0
0
0
0
0
0
0
0
0
0
0
0
0
0
0
0
0
0
0
0
0
0
0
0
0
0
0
0
0
0
0
0
0
0
0
0
0
0
0
0
0
0
0
0
0
0
0
0
0
0
0
0
0
0
0
0
0
0
0
0
0
0
0
0
0
0
0
0
0
0
0
0
0
0
0
0
0
0
0
0
0
0
0
0
0
0
0
0
0
0
0
0
0
0
0
0
0
0
0
0
0
0
0
0
0
123
130
130
128
130
127
129
126
129
129
127
123
120
204
251
253
253
254
254
254
255
255
255
255
255
254
254
254
254
255
255
254
254
254
255
255
255
254
255
254
254
252
236
236
134
125
130
132
128
128
128
130
136
160
158
164
163
163
163
164
164
164
164
164
164
163
164
164
164
165
163
163
163
163
163
166
172
184
182
183
184
184
183
183
183
170
165
161
162
155
133
133
128
129
128
128
127
126
126
122
169
169
231
230
229
229
230
230
230
231
229
233
231
248
254
254
254
255
254
255
254
254
254
254
254
254
255
255
255
255
255
255
255
255
255
255
255
255
255
255
254
254
254
254
255
254
254
253
253
253
254
254
254
253
255
255
255
255
255
254
255
254
254
255
255
254
254
254
254
254
254
254
254
254
254
255
255
255
254
254
0
0
0
0
0
0
0
0
0
0
0
0
0
0
0
0
0
0
0
0
0
0
0
0
0
0
0
0
0
0
0
0
0
0
0
0
0
0
0
0
0
0
0
0
0
0
0
0
0
0
0
0
0
0
0
0
0
0
0
0
0
0
0
0
0
0
0
0
0
0
0
0
0
0
0
0
0
0
0
0
0
0
0
0
0
0
0
0
0
0
0
0
0
0
0
0
0
0
0
0
0
0
0
0
0
0
0
0
0
0
0
0
0
0
0
0
0
0
0
0
0
0
0
0
0
0
0
0
0
0
0
0
0
0
0
0
0
0
0
0
0
0
0
0
0
0
0
0
0
0
0
0
0
0
0
0
0
0
0
0
0
0
0
0
0
0
0
0
0
0
0
0
0
0
0
0
0
0
0
0
0
0
0
0
0
0
0
0
0
0
0
0
0
0
0
0
0
0
0
0
0
0
0
0
0
0
0
0
0
0
0
0
0
0
0
0
0
0
0
0
0
0
0
0
0
0
0
0
0
0
0
0
0
0
0
0
0
0
0
0
0
0
0
0
0
0
0
0
0
0
0
0
0
0
0
0
0
0
0
0
0
0
0
0
0
0
0
0
0
0
0
0
0
0
0
0
0
0
0
0
0
0
0
0
0
0
0
0
0
0
0
0
0
0
0
0
0
0
0
0
0
0
0
0
0
0
0
0
0
0
0
0
0
0
0
0
0
0
0
0
0
0
0
0
0
0
0
0
0
0
0
0
0
0
0
0
0
0
0
0
0
0
0
0
0
0
0
0
0
0
0
0
0
0
0
0
0
0
0
0
0
0
0
0
0
0
0
0
0
0
0
0
0
0
0
0
0
0
0
0
0
0
0
0
0
0
0
0
0
0
128
131
127
129
130
127
130
127
127
124
128
131
120
121
145
249
252
251
254
254
254
255
255
255
255
254
254
254
255
255
254
254
254
254
254
255
255
255
254
254
251
200
226
124
126
128
130
127
131
130
131
140
159
160
165
161
163
163
164
164
164
164
164
164
164
164
164
164
165
163
163
163
163
163
165
173
184
184
183
184
184
183
183
183
170
164
162
161
153
131
132
129
130
128
128
128
126
125
122
198
187
229
229
230
229
230
229
229
227
230
234
233
255
255
255
254
254
254
254
254
255
254
253
254
254
255
255
255
255
254
254
255
255
255
255
255
255
255
255
254
254
255
254
254
255
254
254
254
253
253
254
254
254
254
254
255
255
255
255
254
254
254
254
255
255
255
254
254
254
254
255
255
254
254
254
254
255
255
255
254
254
0
0
0
0
0
0
0
0
0
0
0
0
0
0
0
0
0
0
0
0
0
0
0
0
0
0
0
0
0
0
0
0
0
0
0
0
0
0
0
0
0
0
0
0
0
0
0
0
0
0
0
0
0
0
0
0
0
0
0
0
0
0
0
0
0
0
0
0
0
0
0
0
0
0
0
0
0
0
0
0
0
0
0
0
0
0
0
0
0
0
0
0
0
0
0
0
0
0
0
0
0
0
0
0
0
0
0
0
0
0
0
0
0
0
0
0
0
0
0
0
0
0
0
0
0
0
0
0
0
0
0
0
0
0
0
0
0
0
0
0
0
0
0
0
0
0
0
0
0
0
0
0
0
0
0
0
0
0
0
0
0
0
0
0
0
0
0
0
0
0
0
0
0
0
0
0
0
0
0
0
0
0
0
0
0
0
0
0
0
0
0
0
0
0
0
0
0
0
0
0
0
0
0
0
0
0
0
0
0
0
0
0
0
0
0
0
0
0
0
0
0
0
0
0
0
0
0
0
0
0
0
0
0
0
0
0
0
0
0
0
0
0
0
0
0
0
0
0
0
0
0
0
0
0
0
0
0
0
0
0
0
0
0
0
0
0
0
0
0
0
0
0
0
0
0
0
0
0
0
0
0
0
0
0
0
0
0
0
0
0
0
0
0
0
0
0
0
0
0
0
0
0
0
0
0
0
0
0
0
0
0
0
0
0
0
0
0
0
0
0
0
0
0
0
0
0
0
0
0
0
0
0
0
0
0
0
0
0
0
0
0
0
0
0
0
0
0
0
0
0
0
0
0
0
0
0
0
0
0
0
0
0
0
0
0
0
0
0
0
0
0
0
0
0
0
0
0
0
0
0
0
0
0
0
0
0
0
0
0
128
126
128
127
127
127
131
131
130
129
132
132
127
123
123
129
240
251
251
255
255
255
255
255
255
255
254
254
254
254
253
253
255
255
254
254
254
254
254
250
185
200
122
126
128
128
126
130
130
131
142
161
161
163
161
161
162
164
164
164
164
164
164
164
164
164
164
165
163
163
163
164
164
165
174
184
184
183
184
184
183
183
183
169
164
161
161
149
131
131
130
130
130
130
129
125
125
125
215
198
233
229
232
232
229
230
230
230
230
243
243
255
254
254
255
255
255
255
254
254
254
255
253
253
254
255
255
255
255
254
254
254
255
255
255
255
255
255
255
254
254
254
255
254
254
255
254
254
255
254
254
254
254
255
255
254
255
255
255
255
254
254
254
254
254
255
254
254
254
254
255
255
255
254
254
254
254
255
255
255
254
254
0
0
0
0
0
0
0
0
0
0
0
0
0
0
0
0
0
0
0
0
0
0
0
0
0
0
0
0
0
0
0
0
0
0
0
0
0
0
0
0
0
0
0
0
0
0
0
0
0
0
0
0
0
0
0
0
0
0
0
0
0
0
0
0
0
0
0
0
0
0
0
0
0
0
0
0
0
0
0
0
0
0
0
0
0
0
0
0
0
0
0
0
0
0
0
0
0
0
0
0
0
0
0
0
0
0
0
0
0
0
0
0
0
0
0
0
0
0
0
0
0
0
0
0
0
0
0
0
0
0
0
0
0
0
0
0
0
0
0
0
0
0
0
0
0
0
0
0
0
0
0
0
0
0
0
0
0
0
0
0
0
0
0
0
0
0
0
0
0
0
0
0
0
0
0
0
0
0
0
0
0
0
0
0
0
0
0
0
0
0
0
0
0
0
0
0
0
0
0
0
0
0
0
0
0
0
0
0
0
0
0
0
0
0
0
0
0
0
0
0
0
0
0
0
0
0
0
0
0
0
0
0
0
0
0
0
0
0
0
0
0
0
0
0
0
0
0
0
0
0
0
0
0
0
0
0
0
0
0
0
0
0
0
0
0
0
0
0
0
0
0
0
0
0
0
0
0
0
0
0
0
0
0
0
0
0
0
0
0
0
0
0
0
0
0
0
0
0
0
0
0
0
0
0
0
0
0
0
0
0
0
0
0
0
0
0
0
0
0
0
0
0
0
0
0
0
0
0
0
0
0
0
0
0
0
0
0
0
0
0
0
0
0
0
0
0
0
0
0
0
0
0
0
0
0
0
0
0
0
0
0
0
0
0
0
0
0
0
0
0
0
0
0
0
0
0
0
0
0
0
0
0
0
0
0
0
0
0
130
128
132
129
128
145
133
132
133
128
126
126
132
126
123
123
121
224
251
252
254
254
255
255
255
254
255
255
253
254
254
254
254
254
254
253
253
253
249
139
161
123
127
126
128
128
128
129
131
149
161
161
163
163
163
161
163
164
164
163
163
164
164
164
164
163
163
164
163
164
164
164
165
176
184
184
183
182
184
183
183
183
169
164
161
161
149
131
131
130
128
130
130
129
123
124
130
232
224
229
230
228
230
229
229
230
231
232
251
247
251
254
254
254
255
255
254
255
255
254
254
254
255
254
254
255
255
255
255
255
254
254
254
255
255
255
255
255
255
255
254
254
254
254
254
254
255
255
255
254
254
254
254
254
255
255
254
255
255
255
255
254
254
254
254
254
254
254
254
254
254
255
255
255
254
254
254
254
255
255
254
254
254
0
0
0
0
0
0
0
0
0
0
0
0
0
0
0
0
0
0
0
0
0
0
0
0
0
0
0
0
0
0
0
0
0
0
0
0
0
0
0
0
0
0
0
0
0
0
0
0
0
0
0
0
0
0
0
0
0
0
0
0
0
0
0
0
0
0
0
0
0
0
0
0
0
0
0
0
0
0
0
0
0
0
0
0
0
0
0
0
0
0
0
0
0
0
0
0
0
0
0
0
0
0
0
0
0
0
0
0
0
0
0
0
0
0
0
0
0
0
0
0
0
0
0
0
0
0
0
0
0
0
0
0
0
0
0
0
0
0
0
0
0
0
0
0
0
0
0
0
0
0
0
0
0
0
0
0
0
0
0
0
0
0
0
0
0
0
0
0
0
0
0
0
0
0
0
0
0
0
0
0
0
0
0
0
0
0
0
0
0
0
0
0
0
0
0
0
0
0
0
0
0
0
0
0
0
0
0
0
0
0
0
0
0
0
0
0
0
0
0
0
0
0
0
0
0
0
0
0
0
0
0
0
0
0
0
0
0
0
0
0
0
0
0
0
0
0
0
0
0
0
0
0
0
0
0
0
0
0
0
0
0
0
0
0
0
0
0
0
0
0
0
0
0
0
0
0
0
0
0
0
0
0
0
0
0
0
0
0
0
0
0
0
0
0
0
0
0
0
0
0
0
0
0
0
0
0
0
0
0
0
0
0
0
0
0
0
0
0
0
0
0
0
0
0
0
0
0
0
0
0
0
0
0
0
0
0
0
0
0
0
0
0
0
0
0
0
0
0
0
0
0
0
0
0
0
0
0
0
0
0
0
0
0
0
0
0
0
0
0
0
0
0
0
0
0
0
0
0
0
0
0
0
0
0
0
0
0
129
130
132
144
155
145
156
152
133
133
129
127
132
128
128
124
124
120
194
252
252
254
255
255
255
255
255
255
254
254
254
255
254
254
253
252
253
230
125
139
125
126
127
126
130
129
128
132
151
161
161
165
163
163
162
163
163
164
163
163
163
164
164
164
162
163
164
164
164
164
164
165
177
183
183
183
183
182
184
183
183
169
164
161
161
149
131
131
128
129
129
129
129
122
123
153
235
232
231
231
231
228
230
229
229
229
236
255
255
254
254
254
253
254
255
255
255
254
255
255
254
254
254
255
254
254
254
254
255
255
255
254
254
254
255
255
255
254
255
255
253
254
254
255
255
254
254
255
255
255
255
254
254
254
255
255
255
254
255
255
255
255
254
254
254
254
254
255
255
254
254
255
255
255
255
254
254
254
254
255
255
254
254
254
0
0
0
0
0
0
0
0
0
0
0
0
0
0
0
0
0
0
0
0
0
0
0
0
0
0
0
0
0
0
0
0
0
0
0
0
0
0
0
0
0
0
0
0
0
0
0
0
0
0
0
0
0
0
0
0
0
0
0
0
0
0
0
0
0
0
0
0
0
0
0
0
0
0
0
0
0
0
0
0
0
0
0
0
0
0
0
0
0
0
0
0
0
0
0
0
0
0
0
0
0
0
0
0
0
0
0
0
0
0
0
0
0
0
0
0
0
0
0
0
0
0
0
0
0
0
0
0
0
0
0
0
0
0
0
0
0
0
0
0
0
0
0
0
0
0
0
0
0
0
0
0
0
0
0
0
0
0
0
0
0
0
0
0
0
0
0
0
0
0
0
0
0
0
0
0
0
0
0
0
0
0
0
0
0
0
0
0
0
0
0
0
0
0
0
0
0
0
0
0
0
0
0
0
0
0
0
0
0
0
0
0
0
0
0
0
0
0
0
0
0
0
0
0
0
0
0
0
0
0
0
0
0
0
0
0
0
0
0
0
0
0
0
0
0
0
0
0
0
0
0
0
0
0
0
0
0
0
0
0
0
0
0
0
0
0
0
0
0
0
0
0
0
0
0
0
0
0
0
0
0
0
0
0
0
0
0
0
0
0
0
0
0
0
0
0
0
0
0
0
0
0
0
0
0
0
0
0
0
0
0
0
0
0
0
0
0
0
0
0
0
0
0
0
0
0
0
0
0
0
0
0
0
0
0
0
0
0
0
0
0
0
0
0
0
0
0
0
0
0
0
0
0
0
0
0
0
0
0
0
0
0
0
0
0
0
0
0
0
0
0
0
0
0
0
0
0
0
0
0
0
0
0
0
0
0
140
136
148
159
159
162
163
167
159
138
146
130
129
128
129
126
126
129
121
185
251
251
254
255
255
254
255
255
254
253
255
255
255
253
250
251
203
120
120
124
128
131
130
129
131
131
132
154
161
161
165
163
163
162
163
163
163
163
163
163
164
164
164
162
163
164
164
164
164
164
165
178
183
183
183
184
183
183
183
183
169
164
160
160
147
131
131
128
129
129
129
129
124
123
166
233
233
231
230
228
230
228
230
230
228
241
254
254
254
254
254
254
254
254
254
255
255
255
254
254
254
254
254
254
255
254
254
254
254
255
255
255
254
255
255
255
255
255
255
254
254
254
255
255
255
255
254
254
255
255
254
255
254
254
254
255
254
254
254
254
255
255
255
254
254
254
254
255
255
255
255
255
255
255
255
255
254
254
254
254
255
255
255
254
254
0
0
0
0
0
0
0
0
0
0
0
0
0
0
0
0
0
0
0
0
0
0
0
0
0
0
0
0
0
0
0
0
0
0
0
0
0
0
0
0
0
0
0
0
0
0
0
0
0
0
0
0
0
0
0
0
0
0
0
0
0
0
0
0
0
0
0
0
0
0
0
0
0
0
0
0
0
0
0
0
0
0
0
0
0
0
0
0
0
0
0
0
0
0
0
0
0
0
0
0
0
0
0
0
0
0
0
0
0
0
0
0
0
0
0
0
0
0
0
0
0
0
0
0
0
0
0
0
0
0
0
0
0
0
0
0
0
0
0
0
0
0
0
0
0
0
0
0
0
0
0
0
0
0
0
0
0
0
0
0
0
0
0
0
0
0
0
0
0
0
0
0
0
0
0
0
0
0
0
0
0
0
0
0
0
0
0
0
0
0
0
0
0
0
0
0
0
0
0
0
0
0
0
0
0
0
0
0
0
0
0
0
0
0
0
0
0
0
0
0
0
0
0
0
0
0
0
0
0
0
0
0
0
0
0
0
0
0
0
0
0
0
0
0
0
0
0
0
0
0
0
0
0
0
0
0
0
0
0
0
0
0
0
0
0
0
0
0
0
0
0
0
0
0
0
0
0
0
0
0
0
0
0
0
0
0
0
0
0
0
0
0
0
0
0
0
0
0
0
0
0
0
0
0
0
0
0
0
0
0
0
0
0
0
0
0
0
0
0
0
0
0
0
0
0
0
0
0
0
0
0
0
0
0
0
0
0
0
0
0
0
0
0
0
0
0
0
0
0
0
0
0
0
0
0
0
0
0
0
0
0
0
0
0
0
0
0
0
0
0
0
0
0
0
0
0
0
0
0
0
0
0
0
0
0
140
158
162
162
163
164
163
167
163
158
146
152
134
130
129
130
127
129
129
123
178
251
252
251
255
254
255
255
255
254
254
255
252
249
250
158
123
121
126
131
130
131
127
131
130
135
156
161
161
165
162
163
162
163
163
163
163
163
163
164
164
164
162
163
164
164
165
163
164
166
179
183
183
183
184
184
183
183
183
169
165
160
160
147
131
131
128
130
129
129
129
122
124
185
230
230
231
228
229
228
230
229
228
229
252
255
254
254
254
254
254
255
254
254
254
254
255
255
255
254
254
254
254
254
255
255
254
254
254
254
255
255
255
255
255
254
255
255
255
254
254
255
255
255
255
255
255
254
255
254
254
254
255
254
254
254
255
254
254
254
254
255
255
255
254
254
254
255
255
254
255
255
255
255
255
255
255
254
254
254
255
255
255
255
254
254
0
0
0
0
0
0
0
0
0
0
0
0
0
0
0
0
0
0
0
0
0
0
0
0
0
0
0
0
0
0
0
0
0
0
0
0
0
0
0
0
0
0
0
0
0
0
0
0
0
0
0
0
0
0
0
0
0
0
0
0
0
0
0
0
0
0
0
0
0
0
0
0
0
0
0
0
0
0
0
0
0
0
0
0
0
0
0
0
0
0
0
0
0
0
0
0
0
0
0
0
0
0
0
0
0
0
0
0
0
0
0
0
0
0
0
0
0
0
0
0
0
0
0
0
0
0
0
0
0
0
0
0
0
0
0
0
0
0
0
0
0
0
0
0
0
0
0
0
0
0
0
0
0
0
0
0
0
0
0
0
0
0
0
0
0
0
0
0
0
0
0
0
0
0
0
0
0
0
0
0
0
0
0
0
0
0
0
0
0
0
0
0
0
0
0
0
0
0
0
0
0
0
0
0
0
0
0
0
0
0
0
0
0
0
0
0
0
0
0
0
0
0
0
0
0
0
0
0
0
0
0
0
0
0
0
0
0
0
0
0
0
0
0
0
0
0
0
0
0
0
0
0
0
0
0
0
0
0
0
0
0
0
0
0
0
0
0
0
0
0
0
0
0
0
0
0
0
0
0
0
0
0
0
0
0
0
0
0
0
0
0
0
0
0
0
0
0
0
0
0
0
0
0
0
0
0
0
0
0
0
0
0
0
0
0
0
0
0
0
0
0
0
0
0
0
0
0
0
0
0
0
0
0
0
0
0
0
0
0
0
0
0
0
0
0
0
0
0
0
0
0
0
0
0
0
0
0
0
0
0
0
0
0
0
0
0
0
0
0
0
0
0
0
0
0
0
0
0
0
0
0
0
0
0
161
161
161
161
164
166
166
161
163
163
159
155
157
136
131
130
130
128
129
129
123
176
251
251
255
254
254
254
255
254
254
251
246
246
133
125
125
129
129
128
128
127
132
132
140
158
161
161
165
162
162
162
163
163
163
163
163
163
164
164
164
162
163
164
164
165
163
163
167
180
183
183
183
185
185
182
182
182
168
165
160
160
147
131
131
129
130
128
128
130
123
123
195
232
232
230
229
232
232
229
229
229
236
252
255
255
254
254
254
254
253
254
254
254
254
254
254
255
255
255
254
254
254
254
255
255
255
254
254
254
254
255
255
255
254
254
254
254
254
254
255
255
255
254
255
254
254
253
253
253
254
254
255
255
254
254
254
254
253
253
254
254
255
255
255
254
254
254
254
254
254
255
254
254
255
255
255
255
255
254
254
255
255
255
255
254
254
0
0
0
0
0
0
0
0
0
0
0
0
0
0
0
0
0
0
0
0
0
0
0
0
0
0
0
0
0
0
0
0
0
0
0
0
0
0
0
0
0
0
0
0
0
0
0
0
0
0
0
0
0
0
0
0
0
0
0
0
0
0
0
0
0
0
0
0
0
0
0
0
0
0
0
0
0
0
0
0
0
0
0
0
0
0
0
0
0
0
0
0
0
0
0
0
0
0
0
0
0
0
0
0
0
0
0
0
0
0
0
0
0
0
0
0
0
0
0
0
0
0
0
0
0
0
0
0
0
0
0
0
0
0
0
0
0
0
0
0
0
0
0
0
0
0
0
0
0
0
0
0
0
0
0
0
0
0
0
0
0
0
0
0
0
0
0
0
0
0
0
0
0
0
0
0
0
0
0
0
0
0
0
0
0
0
0
0
0
0
0
0
0
0
0
0
0
0
0
0
0
0
0
0
0
0
0
0
0
0
0
0
0
0
0
0
0
0
0
0
0
0
0
0
0
0
0
0
0
0
0
0
0
0
0
0
0
0
0
0
0
0
0
0
0
0
0
0
0
0
0
0
0
0
0
0
0
0
0
0
0
0
0
0
0
0
0
0
0
0
0
0
0
0
0
0
0
0
0
0
0
0
0
0
0
0
0
0
0
0
0
0
0
0
0
0
0
0
0
0
0
0
0
0
0
0
0
0
0
0
0
0
0
0
0
0
0
0
0
0
0
0
0
0
0
0
0
0
0
0
0
0
0
0
0
0
0
0
0
0
0
0
0
0
0
0
0
0
0
0
0
0
0
0
0
0
0
0
0
0
0
0
0
0
0
0
0
0
0
0
0
0
0
0
0
0
0
0
0
0
0
0
0
162
162
162
164
163
163
162
162
162
165
165
161
157
158
136
130
129
130
131
129
127
124
176
251
251
255
255
255
254
254
251
193
221
116
127
126
128
130
129
129
128
132
132
143
159
162
162
162
164
162
162
163
163
163
164
164
163
164
164
164
162
163
164
164
165
164
164
167
181
183
183
184
186
185
182
182
182
167
163
160
160
146
131
131
129
130
128
128
129
122
123
199
230
230
230
231
229
232
229
229
229
240
254
254
254
255
255
255
254
254
254
254
254
255
254
254
254
254
255
255
255
254
254
254
254
255
255
255
254
254
254
255
255
255
254
254
254
254
254
255
255
255
255
255
254
253
254
255
254
253
254
255
255
255
254
254
254
254
254
255
255
254
254
255
255
255
254
255
255
254
255
255
255
254
254
255
255
255
255
254
254
254
255
254
254
254
254
254
0
0
0
0
0
0
0
0
0
0
0
0
0
0
0
0
0
0
0
0
0
0
0
0
0
0
0
0
0
0
0
0
0
0
0
0
0
0
0
0
0
0
0
0
0
0
0
0
0
0
0
0
0
0
0
0
0
0
0
0
0
0
0
0
0
0
0
0
0
0
0
0
0
0
0
0
0
0
0
0
0
0
0
0
0
0
0
0
0
0
0
0
0
0
0
0
0
0
0
0
0
0
0
0
0
0
0
0
0
0
0
0
0
0
0
0
0
0
0
0
0
0
0
0
0
0
0
0
0
0
0
0
0
0
0
0
0
0
0
0
0
0
0
0
0
0
0
0
0
0
0
0
0
0
0
0
0
0
0
0
0
0
0
0
0
0
0
0
0
0
0
0
0
0
0
0
0
0
0
0
0
0
0
0
0
0
0
0
0
0
0
0
0
0
0
0
0
0
0
0
0
0
0
0
0
0
0
0
0
0
0
0
0
0
0
0
0
0
0
0
0
0
0
0
0
0
0
0
0
0
0
0
0
0
0
0
0
0
0
0
0
0
0
0
0
0
0
0
0
0
0
0
0
0
0
0
0
0
0
0
0
0
0
0
0
0
0
0
0
0
0
0
0
0
0
0
0
0
0
0
0
0
0
0
0
0
0
0
0
0
0
0
0
0
0
0
0
0
0
0
0
0
0
0
0
0
0
0
0
0
0
0
0
0
0
0
0
0
0
0
0
0
0
0
0
0
0
0
0
0
0
0
0
0
0
0
0
0
0
0
0
0
0
0
0
0
0
0
0
0
0
0
0
0
0
0
0
0
0
0
0
0
0
0
0
0
0
0
0
0
0
0
0
0
0
0
0
0
0
0
0
0
162
162
163
162
162
165
163
162
162
161
164
164
162
157
157
135
130
130
131
128
130
130
125
179
251
251
254
251
251
250
170
170
125
127
127
130
127
127
127
129
133
132
149
160
162
162
162
165
164
166
163
163
163
164
164
164
165
164
164
163
163
163
163
164
165
164
168
181
183
183
184
183
183
181
182
182
166
163
161
161
146
131
131
128
131
128
128
127
122
122
216
231
230
230
227
227
227
229
230
229
246
255
254
254
255
253
255
254
254
254
254
254
255
255
255
255
254
254
254
255
255
255
254
254
254
254
255
255
255
254
254
254
255
255
255
254
254
254
255
255
255
255
255
253
253
249
254
255
254
254
252
252
254
254
254
254
254
254
254
254
253
253
255
254
255
255
254
255
255
255
255
255
255
254
254
254
254
255
255
255
254
254
254
254
254
254
254
254
254
0
0
0
0
0
0
0
0
0
0
0
0
0
0
0
0
0
0
0
0
0
0
0
0
0
0
0
0
0
0
0
0
0
0
0
0
0
0
0
0
0
0
0
0
0
0
0
0
0
0
0
0
0
0
0
0
0
0
0
0
0
0
0
0
0
0
0
0
0
0
0
0
0
0
0
0
0
0
0
0
0
0
0
0
0
0
0
0
0
0
0
0
0
0
0
0
0
0
0
0
0
0
0
0
0
0
0
0
0
0
0
0
0
0
0
0
0
0
0
0
0
0
0
0
0
0
0
0
0
0
0
0
0
0
0
0
0
0
0
0
0
0
0
0
0
0
0
0
0
0
0
0
0
0
0
0
0
0
0
0
0
0
0
0
0
0
0
0
0
0
0
0
0
0
0
0
0
0
0
0
0
0
0
0
0
0
0
0
0
0
0
0
0
0
0
0
0
0
0
0
0
0
0
0
0
0
0
0
0
0
0
0
0
0
0
0
0
0
0
0
0
0
0
0
0
0
0
0
0
0
0
0
0
0
0
0
0
0
0
0
0
0
0
0
0
0
0
0
0
0
0
0
0
0
0
0
0
0
0
0
0
0
0
0
0
0
0
0
0
0
0
0
0
0
0
0
0
0
0
0
0
0
0
0
0
0
0
0
0
0
0
0
0
0
0
0
0
0
0
0
0
0
0
0
0
0
0
0
0
0
0
0
0
0
0
0
0
0
0
0
0
0
0
0
0
0
0
0
0
0
0
0
0
0
0
0
0
0
0
0
0
0
0
0
0
0
0
0
0
0
0
0
0
0
0
0
0
0
0
0
0
0
0
0
0
0
0
0
0
0
0
0
0
0
0
0
0
0
0
0
0
163
164
163
162
164
163
162
162
162
163
163
164
163
161
158
157
135
131
128
128
131
132
126
124
184
251
249
252
248
126
145
122
128
128
128
126
130
130
129
136
132
152
161
162
162
163
164
165
166
164
164
164
164
165
165
165
165
165
163
163
163
163
164
165
165
170
182
183
183
184
183
183
183
180
182
165
163
161
161
147
131
131
128
129
127
127
129
125
122
222
231
231
230
228
232
233
231
231
231
249
254
254
254
255
255
254
254
254
255
254
254
255
255
255
255
255
255
254
254
254
255
255
255
254
254
254
254
255
255
255
254
254
254
255
255
255
254
254
254
255
254
255
254
254
254
252
254
254
255
254
253
254
253
254
255
252
254
254
254
254
254
255
254
254
254
254
254
254
255
255
255
255
255
255
254
254
254
254
255
255
255
254
254
254
254
254
254
254
254
254
0
0
0
0
0
0
0
0
0
0
0
0
0
0
0
0
0
0
0
0
0
0
0
0
0
0
0
0
0
0
0
0
0
0
0
0
0
0
0
0
0
0
0
0
0
0
0
0
0
0
0
0
0
0
0
0
0
0
0
0
0
0
0
0
0
0
0
0
0
0
0
0
0
0
0
0
0
0
0
0
0
0
0
0
0
0
0
0
0
0
0
0
0
0
0
0
0
0
0
0
0
0
0
0
0
0
0
0
0
0
0
0
0
0
0
0
0
0
0
0
0
0
0
0
0
0
0
0
0
0
0
0
0
0
0
0
0
0
0
0
0
0
0
0
0
0
0
0
0
0
0
0
0
0
0
0
0
0
0
0
0
0
0
0
0
0
0
0
0
0
0
0
0
0
0
0
0
0
0
0
0
0
0
0
0
0
0
0
0
0
0
0
0
0
0
0
0
0
0
0
0
0
0
0
0
0
0
0
0
0
0
0
0
0
0
0
0
0
0
0
0
0
0
0
0
0
0
0
0
0
0
0
0
0
0
0
0
0
0
0
0
0
0
0
0
0
0
0
0
0
0
0
0
0
0
0
0
0
0
0
0
0
0
0
0
0
0
0
0
0
0
0
0
0
0
0
0
0
0
0
0
0
0
0
0
0
0
0
0
0
0
0
0
0
0
0
0
0
0
0
0
0
0
0
0
0
0
0
0
0
0
0
0
0
0
0
0
0
0
0
0
0
0
0
0
0
0
0
0
0
0
0
0
0
0
0
0
0
0
0
0
0
0
0
0
0
0
0
0
0
0
0
0
0
0
0
0
0
0
0
0
0
0
0
0
0
0
0
0
0
0
0
0
0
0
0
0
0
0
0
164
164
163
165
163
163
163
163
164
163
163
163
163
162
160
157
157
132
127
128
130
127
126
127
120
209
249
196
125
126
129
129
128
130
128
127
130
129
136
136
159
162
161
162
164
163
164
165
164
164
164
164
164
165
165
165
165
163
163
163
163
165
165
165
170
183
183
183
182
184
183
183
180
180
164
163
161
161
147
131
131
128
129
128
127
128
125
125
230
230
231
229
230
230
232
230
232
231
251
254
254
254
253
255
255
255
254
255
255
255
255
255
255
255
255
255
255
254
254
254
254
255
255
255
254
254
254
254
255
255
255
254
254
254
255
255
254
254
254
254
254
255
254
255
252
252
255
251
252
254
252
252
253
252
255
252
254
255
254
254
254
251
254
254
255
255
254
254
254
255
254
254
255
255
255
254
254
254
254
255
255
255
254
254
254
254
254
255
255
254
254
0
0
0
0
0
0
0
0
0
0
0
0
0
0
0
0
0
0
0
0
0
0
0
0
0
0
0
0
0
0
0
0
0
0
0
0
0
0
0
0
0
0
0
0
0
0
0
0
0
0
0
0
0
0
0
0
0
0
0
0
0
0
0
0
0
0
0
0
0
0
0
0
0
0
0
0
0
0
0
0
0
0
0
0
0
0
0
0
0
0
0
0
0
0
0
0
0
0
0
0
0
0
0
0
0
0
0
0
0
0
0
0
0
0
0
0
0
0
0
0
0
0
0
0
0
0
0
0
0
0
0
0
0
0
0
0
0
0
0
0
0
0
0
0
0
0
0
0
0
0
0
0
0
0
0
0
0
0
0
0
0
0
0
0
0
0
0
0
0
0
0
0
0
0
0
0
0
0
0
0
0
0
0
0
0
0
0
0
0
0
0
0
0
0
0
0
0
0
0
0
0
0
0
0
0
0
0
0
0
0
0
0
0
0
0
0
0
0
0
0
0
0
0
0
0
0
0
0
0
0
0
0
0
0
0
0
0
0
0
0
0
0
0
0
0
0
0
0
0
0
0
0
0
0
0
0
0
0
0
0
0
0
0
0
0
0
0
0
0
0
0
0
0
0
0
0
0
0
0
0
0
0
0
0
0
0
0
0
0
0
0
0
0
0
0
0
0
0
0
0
0
0
0
0
0
0
0
0
0
0
0
0
0
0
0
0
0
0
0
0
0
0
0
0
0
0
0
0
0
0
0
0
0
0
0
0
0
0
0
0
0
0
0
0
0
0
0
0
0
0
0
0
0
0
0
0
0
0
0
0
0
0
0
0
0
0
0
0
0
0
0
0
0
0
0
0
0
0
0
166
165
165
164
164
163
163
163
164
164
163
163
163
162
162
161
156
155
132
130
133
133
124
126
122
127
161
126
126
131
132
132
129
127
130
128
131
137
137
160
162
164
162
165
163
163
165
164
164
165
163
164
164
165
165
165
164
163
164
164
165
165
165
173
183
183
183
182
183
183
183
179
179
164
163
161
161
148
131
131
128
129
128
128
128
132
132
231
230
230
229
230
228
228
230
233
233
254
254
254
254
253
255
255
255
254
255
254
255
255
255
255
255
255
254
255
254
255
255
254
254
254
255
255
255
254
254
254
254
255
255
255
254
254
254
254
255
255
254
254
255
254
255
254
254
254
248
242
248
247
246
246
249
251
251
250
255
252
254
255
254
254
254
254
255
254
255
255
255
255
254
254
254
255
255
253
253
254
254
254
255
255
255
254
254
254
255
255
255
255
254
254
0
0
0
0
0
0
0
0
0
0
0
0
0
0
0
0
0
0
0
0
0
0
0
0
0
0
0
0
0
0
0
0
0
0
0
0
0
0
0
0
0
0
0
0
0
0
0
0
0
0
0
0
0
0
0
0
0
0
0
0
0
0
0
0
0
0
0
0
0
0
0
0
0
0
0
0
0
0
0
0
0
0
0
0
0
0
0
0
0
0
0
0
0
0
0
0
0
0
0
0
0
0
0
0
0
0
0
0
0
0
0
0
0
0
0
0
0
0
0
0
0
0
0
0
0
0
0
0
0
0
0
0
0
0
0
0
0
0
0
0
0
0
0
0
0
0
0
0
0
0
0
0
0
0
0
0
0
0
0
0
0
0
0
0
0
0
0
0
0
0
0
0
0
0
0
0
0
0
0
0
0
0
0
0
0
0
0
0
0
0
0
0
0
0
0
0
0
0
0
0
0
0
0
0
0
0
0
0
0
0
0
0
0
0
0
0
0
0
0
0
0
0
0
0
0
0
0
0
0
0
0
0
0
0
0
0
0
0
0
0
0
0
0
0
0
0
0
0
0
0
0
0
0
0
0
0
0
0
0
0
0
0
0
0
0
0
0
0
0
0
0
0
0
0
0
0
0
0
0
0
0
0
0
0
0
0
0
0
0
0
0
0
0
0
0
0
0
0
0
0
0
0
0
0
0
0
0
0
0
0
0
0
0
0
0
0
0
0
0
0
0
0
0
0
0
0
0
0
0
0
0
0
0
0
0
0
0
0
0
0
0
0
0
0
0
0
0
0
0
0
0
0
0
0
0
0
0
0
0
0
0
0
0
0
0
0
0
0
0
0
0
0
0
0
0
0
0
0
166
166
165
164
164
164
163
163
163
164
164
163
164
163
163
166
162
155
153
133
129
128
128
130
122
130
127
127
132
129
127
126
129
130
130
131
146
142
161
164
164
164
164
163
163
165
164
164
164
163
163
163
165
165
165
164
163
164
164
165
165
165
172
182
183
183
182
183
183
183
178
179
164
163
162
161
148
131
131
128
129
128
128
128
131
132
232
229
230
229
230
228
228
231
238
235
254
254
254
254
254
255
255
255
254
255
255
255
254
254
255
255
255
254
254
254
254
255
255
255
254
254
254
255
255
255
254
254
254
255
255
255
255
254
254
254
254
255
255
255
255
254
254
255
249
233
175
242
136
125
201
200
125
216
236
174
226
252
246
249
254
251
252
254
255
253
254
255
255
255
254
254
254
255
255
255
254
253
255
255
254
255
255
255
254
254
254
255
255
255
254
254
254
0
0
0
0
0
0
0
0
0
0
0
0
0
0
0
0
0
0
0
0
0
0
0
0
0
0
0
0
0
0
0
0
0
0
0
0
0
0
0
0
0
0
0
0
0
0
0
0
0
0
0
0
0
0
0
0
0
0
0
0
0
0
0
0
0
0
0
0
0
0
0
0
0
0
0
0
0
0
0
0
0
0
0
0
0
0
0
0
0
0
0
0
0
0
0
0
0
0
0
0
0
0
0
0
0
0
0
0
0
0
0
0
0
0
0
0
0
0
0
0
0
0
0
0
0
0
0
0
0
0
0
0
0
0
0
0
0
0
0
0
0
0
0
0
0
0
0
0
0
0
0
0
0
0
0
0
0
0
0
0
0
0
0
0
0
0
0
0
0
0
0
0
0
0
0
0
0
0
0
0
0
0
0
0
0
0
0
0
0
0
0
0
0
0
0
0
0
0
0
0
0
0
0
0
0
0
0
0
0
0
0
0
0
0
0
0
0
0
0
0
0
0
0
0
0
0
0
0
0
0
0
0
0
0
0
0
0
0
0
0
0
0
0
0
0
0
0
0
0
0
0
0
0
0
0
0
0
0
0
0
0
0
0
0
0
0
0
0
0
0
0
0
0
0
0
0
0
0
0
0
0
0
0
0
0
0
0
0
0
0
0
0
0
0
0
0
0
0
0
0
0
0
0
0
0
0
0
0
0
0
0
0
0
0
0
0
0
0
0
0
0
0
0
0
0
0
0
0
0
0
0
0
0
0
0
0
0
0
0
0
0
0
0
0
0
0
0
0
0
0
0
0
0
0
0
0
0
0
0
0
0
0
0
0
0
0
0
0
0
0
0
0
0
0
0
0
0
166
165
165
164
164
163
163
163
163
163
164
162
164
164
163
166
166
160
149
149
131
128
131
131
131
129
129
129
128
129
127
129
128
128
133
149
149
161
164
164
164
164
164
164
165
164
164
164
163
163
163
164
165
165
165
164
164
164
165
165
165
176
181
183
183
183
183
183
183
178
178
165
162
162
162
150
132
132
128
129
128
128
128
131
131
232
229
229
230
230
230
230
231
240
240
255
254
254
254
255
255
255
254
254
254
254
255
255
255
254
254
255
255
254
254
254
254
255
255
255
255
254
254
254
255
255
255
254
254
254
255
255
255
254
254
254
254
255
254
254
253
251
251
246
185
131
131
127
119
119
126
121
125
123
120
126
126
158
215
215
243
246
251
251
253
255
255
255
254
255
255
254
255
255
254
255
255
254
255
254
254
254
255
255
254
254
254
254
255
254
254
254
254
254
0
0
0
0
0
0
0
0
0
0
0
0
0
0
0
0
0
0
0
0
0
0
0
0
0
0
0
0
0
0
0
0
0
0
0
0
0
0
0
0
0
0
0
0
0
0
0
0
0
0
0
0
0
0
0
0
0
0
0
0
0
0
0
0
0
0
0
0
0
0
0
0
0
0
0
0
0
0
0
0
0
0
0
0
0
0
0
0
0
0
0
0
0
0
0
0
0
0
0
0
0
0
0
0
0
0
0
0
0
0
0
0
0
0
0
0
0
0
0
0
0
0
0
0
0
0
0
0
0
0
0
0
0
0
0
0
0
0
0
0
0
0
0
0
0
0
0
0
0
0
0
0
0
0
0
0
0
0
0
0
0
0
0
0
0
0
0
0
0
0
0
0
0
0
0
0
0
0
0
0
0
0
0
0
0
0
0
0
0
0
0
0
0
0
0
0
0
0
0
0
0
0
0
0
0
0
0
0
0
0
0
0
0
0
0
0
0
0
0
0
0
0
0
0
0
0
0
0
0
0
0
0
0
0
0
0
0
0
0
0
0
0
0
0
0
0
0
0
0
0
0
0
0
0
0
0
0
0
0
0
0
0
0
0
0
0
0
0
0
0
0
0
0
0
0
0
0
0
0
0
0
0
0
0
0
0
0
0
0
0
0
0
0
0
0
0
0
0
0
0
0
0
0
0
0
0
0
0
0
0
0
0
0
0
0
0
0
0
0
0
0
0
0
0
0
0
0
0
0
0
0
0
0
0
0
0
0
0
0
0
0
0
0
0
0
0
0
0
0
0
0
0
0
0
0
0
0
0
0
0
0
0
0
0
0
0
0
0
0
0
0
0
0
0
0
0
164
165
164
164
164
163
163
164
163
163
164
164
162
165
164
162
164
163
160
144
140
130
129
128
129
129
129
129
128
127
129
129
129
136
155
151
162
164
163
163
163
163
164
164
164
164
164
163
163
163
164
164
164
165
164
163
163
165
165
165
177
182
183
183
182
183
184
183
177
177
165
162
162
162
151
132
132
129
128
128
128
128
131
131
232
229
229
230
230
229
230
230
244
242
255
254
255
255
255
255
255
254
254
255
254
254
254
255
255
254
254
254
255
254
254
254
254
254
255
255
255
254
254
254
254
255
254
255
254
254
254
255
254
254
254
254
254
255
254
253
248
250
234
120
124
124
122
127
126
123
125
124
128
128
126
122
122
124
119
148
121
148
240
251
247
255
254
251
254
254
254
251
255
253
253
254
255
254
254
255
254
254
254
255
255
254
254
254
254
255
254
254
254
254
254
0
0
0
0
0
0
0
0
0
0
0
0
0
0
0
0
0
0
0
0
0
0
0
0
0
0
0
0
0
0
0
0
0
0
0
0
0
0
0
0
0
0
0
0
0
0
0
0
0
0
0
0
0
0
0
0
0
0
0
0
0
0
0
0
0
0
0
0
0
0
0
0
0
0
0
0
0
0
0
0
0
0
0
0
0
0
0
0
0
0
0
0
0
0
0
0
0
0
0
0
0
0
0
0
0
0
0
0
0
0
0
0
0
0
0
0
0
0
0
0
0
0
0
0
0
0
0
0
0
0
0
0
0
0
0
0
0
0
0
0
0
0
0
0
0
0
0
0
0
0
0
0
0
0
0
0
0
0
0
0
0
0
0
0
0
0
0
0
0
0
0
0
0
0
0
0
0
0
0
0
0
0
0
0
0
0
0
0
0
0
0
0
0
0
0
0
0
0
0
0
0
0
0
0
0
0
0
0
0
0
0
0
0
0
0
0
0
0
0
0
0
0
0
0
0
0
0
0
0
0
0
0
0
0
0
0
0
0
0
0
0
0
0
0
0
0
0
0
0
0
0
0
0
0
0
0
0
0
0
0
0
0
0
0
0
0
0
0
0
0
0
0
0
0
0
0
0
0
0
0
0
0
0
0
0
0
0
0
0
0
0
0
0
0
0
0
0
0
0
0
0
0
0
0
0
0
0
0
0
0
0
0
0
0
0
0
0
0
0
0
0
0
0
0
0
0
0
0
0
0
0
0
0
0
0
0
0
0
0
0
0
0
0
0
0
0
0
0
0
0
0
0
0
0
0
0
0
0
0
0
0
0
0
0
0
0
0
0
0
0
0
0
0
0
0
164
164
164
164
164
164
164
164
164
164
164
164
163
163
164
164
162
163
163
159
137
137
129
130
129
127
130
129
128
128
129
129
140
160
155
162
164
163
163
162
163
163
163
164
164
164
163
163
163
164
164
164
165
164
163
163
164
165
165
178
182
184
184
183
183
183
181
178
177
165
163
162
162
155
131
132
130
127
129
129
128
131
131
232
229
229
230
230
229
229
230
245
244
255
254
255
255
255
255
255
254
254
255
255
255
255
254
254
255
254
254
254
254
254
255
254
254
254
254
254
254
255
254
254
254
254
254
254
255
254
254
254
254
254
255
255
254
254
251
248
248
182
119
124
124
126
128
127
127
128
125
129
125
126
126
127
124
124
125
127
122
122
122
152
247
221
247
251
250
253
254
251
253
255
253
254
254
254
254
255
254
254
254
255
255
255
255
254
254
254
254
254
254
254
254
254
0
0
0
0
0
0
0
0
0
0
0
0
0
0
0
0
0
0
0
0
0
0
0
0
0
0
0
0
0
0
0
0
0
0
0
0
0
0
0
0
0
0
0
0
0
0
0
0
0
0
0
0
0
0
0
0
0
0
0
0
0
0
0
0
0
0
0
0
0
0
0
0
0
0
0
0
0
0
0
0
0
0
0
0
0
0
0
0
0
0
0
0
0
0
0
0
0
0
0
0
0
0
0
0
0
0
0
0
0
0
0
0
0
0
0
0
0
0
0
0
0
0
0
0
0
0
0
0
0
0
0
0
0
0
0
0
0
0
0
0
0
0
0
0
0
0
0
0
0
0
0
0
0
0
0
0
0
0
0
0
0
0
0
0
0
0
0
0
0
0
0
0
0
0
0
0
0
0
0
0
0
0
0
0
0
0
0
0
0
0
0
0
0
0
0
0
0
0
0
0
0
0
0
0
0
0
0
0
0
0
0
0
0
0
0
0
0
0
0
0
0
0
0
0
0
0
0
0
0
0
0
0
0
0
0
0
0
0
0
0
0
0
0
0
0
0
0
0
0
0
0
0
0
0
0
0
0
0
0
0
0
0
0
0
0
0
0
0
0
0
0
0
0
0
0
0
0
0
0
0
0
0
0
0
0
0
0
0
0
0
0
0
0
0
0
0
0
0
0
0
0
0
0
0
0
0
0
0
0
0
0
0
0
0
0
0
0
0
0
0
0
0
0
0
0
0
0
0
0
0
0
0
0
0
0
0
0
0
0
0
0
0
0
0
0
0
0
0
0
0
0
0
0
0
0
0
0
0
0
0
0
0
0
0
0
0
0
0
0
0
0
0
0
0
163
163
163
163
164
164
164
164
164
164
164
164
164
163
163
162
162
163
162
162
157
135
132
126
128
130
130
128
127
129
129
142
161
161
162
164
162
162
162
162
162
163
164
164
164
163
163
163
163
164
164
164
164
164
163
164
167
167
179
182
183
183
183
183
183
181
177
177
165
162
162
162
157
131
131
131
127
129
129
129
132
132
232
229
229
230
229
229
229
230
246
246
255
253
255
255
254
255
255
254
254
254
254
255
255
255
255
254
254
255
255
255
254
255
255
255
255
254
254
254
254
254
255
254
255
255
254
254
254
255
254
254
254
255
255
254
254
250
244
247
166
124
125
124
128
124
124
125
125
125
125
127
132
127
127
128
128
127
126
128
125
126
125
121
122
163
163
229
248
243
252
254
254
254
255
255
254
254
254
254
255
254
254
254
255
255
255
255
254
253
253
254
254
254
254
254
254
0
0
0
0
0
0
0
0
0
0
0
0
0
0
0
0
0
0
0
0
0
0
0
0
0
0
0
0
0
0
0
0
0
0
0
0
0
0
0
0
0
0
0
0
0
0
0
0
0
0
0
0
0
0
0
0
0
0
0
0
0
0
0
0
0
0
0
0
0
0
0
0
0
0
0
0
0
0
0
0
0
0
0
0
0
0
0
0
0
0
0
0
0
0
0
0
0
0
0
0
0
0
0
0
0
0
0
0
0
0
0
0
0
0
0
0
0
0
0
0
0
0
0
0
0
0
0
0
0
0
0
0
0
0
0
0
0
0
0
0
0
0
0
0
0
0
0
0
0
0
0
0
0
0
0
0
0
0
0
0
0
0
0
0
0
0
0
0
0
0
0
0
0
0
0
0
0
0
0
0
0
0
0
0
0
0
0
0
0
0
0
0
0
0
0
0
0
0
0
0
0
0
0
0
0
0
0
0
0
0
0
0
0
0
0
0
0
0
0
0
0
0
0
0
0
0
0
0
0
0
0
0
0
0
0
0
0
0
0
0
0
0
0
0
0
0
0
0
0
0
0
0
0
0
0
0
0
0
0
0
0
0
0
0
0
0
0
0
0
0
0
0
0
0
0
0
0
0
0
0
0
0
0
0
0
0
0
0
0
0
0
0
0
0
0
0
0
0
0
0
0
0
0
0
0
0
0
0
0
0
0
0
0
0
0
0
0
0
0
0
0
0
0
0
0
0
0
0
0
0
0
0
0
0
0
0
0
0
0
0
0
0
0
0
0
0
0
0
0
0
0
0
0
0
0
0
0
0
0
0
0
0
0
0
0
0
0
0
0
0
0
0
0
162
162
163
163
163
164
164
165
164
164
164
164
164
164
164
163
164
163
164
162
161
150
132
131
129
130
129
130
132
129
150
160
160
162
164
163
162
162
162
162
163
164
164
164
164
163
163
163
163
163
164
164
164
164
165
167
167
179
183
184
183
182
182
183
183
176
176
164
164
161
162
159
130
131
131
127
129
129
128
129
132
230
230
229
230
230
229
229
230
248
247
255
254
255
255
253
254
255
255
254
254
254
255
255
255
255
255
254
254
254
255
255
255
254
254
255
255
255
254
254
254
254
254
254
255
254
254
254
254
255
255
254
254
254
254
254
252
244
244
158
119
125
125
125
127
124
125
132
124
127
159
163
132
161
152
126
124
130
124
128
126
127
125
125
130
122
125
120
134
243
217
248
253
254
255
253
254
252
254
254
254
254
254
254
254
254
255
255
255
254
254
254
254
254
255
255
254
254
0
0
0
0
0
0
0
0
0
0
0
0
0
0
0
0
0
0
0
0
0
0
0
0
0
0
0
0
0
0
0
0
0
0
0
0
0
0
0
0
0
0
0
0
0
0
0
0
0
0
0
0
0
0
0
0
0
0
0
0
0
0
0
0
0
0
0
0
0
0
0
0
0
0
0
0
0
0
0
0
0
0
0
0
0
0
0
0
0
0
0
0
0
0
0
0
0
0
0
0
0
0
0
0
0
0
0
0
0
0
0
0
0
0
0
0
0
0
0
0
0
0
0
0
0
0
0
0
0
0
0
0
0
0
0
0
0
0
0
0
0
0
0
0
0
0
0
0
0
0
0
0
0
0
0
0
0
0
0
0
0
0
0
0
0
0
0
0
0
0
0
0
0
0
0
0
0
0
0
0
0
0
0
0
0
0
0
0
0
0
0
0
0
0
0
0
0
0
0
0
0
0
0
0
0
0
0
0
0
0
0
0
0
0
0
0
0
0
0
0
0
0
0
0
0
0
0
0
0
0
0
0
0
0
0
0
0
0
0
0
0
0
0
0
0
0
0
0
0
0
0
0
0
0
0
0
0
0
0
0
0
0
0
0
0
0
0
0
0
0
0
0
0
0
0
0
0
0
0
0
0
0
0
0
0
0
0
0
0
0
0
0
0
0
0
0
0
0
0
0
0
0
0
0
0
0
0
0
0
0
0
0
0
0
0
0
0
0
0
0
0
0
0
0
0
0
0
0
0
0
0
0
0
0
0
0
0
0
0
0
0
0
0
0
0
0
0
0
0
0
0
0
0
0
0
0
0
0
0
0
0
0
0
0
0
0
0
0
0
0
0
0
162
162
162
163
163
164
164
164
164
164
164
164
164
164
164
163
164
163
163
165
162
162
148
129
129
127
130
134
134
154
161
161
162
164
164
164
163
162
162
162
164
164
165
164
164
164
163
163
163
164
164
164
164
165
168
168
179
182
183
183
183
181
181
183
175
175
165
164
162
162
159
131
131
131
128
129
129
129
125
125
231
229
229
230
230
229
229
230
250
250
255
254
255
255
253
254
254
255
254
254
254
255
255
255
254
255
255
255
254
254
254
255
255
255
254
254
255
255
255
254
254
254
254
254
254
254
255
255
254
255
255
255
254
255
255
252
246
246
157
123
127
127
127
127
127
125
140
140
157
165
166
166
167
165
165
165
161
147
147
132
123
123
127
126
126
126
126
124
124
124
169
169
239
251
254
254
254
253
253
254
253
253
254
253
254
254
254
255
255
255
254
254
254
254
255
255
255
254
254
0
0
0
0
0
0
0
0
0
0
0
0
0
0
0
0
0
0
0
0
0
0
0
0
0
0
0
0
0
0
0
0
0
0
0
0
0
0
0
0
0
0
0
0
0
0
0
0
0
0
0
0
0
0
0
0
0
0
0
0
0
0
0
0
0
0
0
0
0
0
0
0
0
0
0
0
0
0
0
0
0
0
0
0
0
0
0
0
0
0
0
0
0
0
0
0
0
0
0
0
0
0
0
0
0
0
0
0
0
0
0
0
0
0
0
0
0
0
0
0
0
0
0
0
0
0
0
0
0
0
0
0
0
0
0
0
0
0
0
0
0
0
0
0
0
0
0
0
0
0
0
0
0
0
0
0
0
0
0
0
0
0
0
0
0
0
0
0
0
0
0
0
0
0
0
0
0
0
0
0
0
0
0
0
0
0
0
0
0
0
0
0
0
0
0
0
0
0
0
0
0
0
0
0
0
0
0
0
0
0
0
0
0
0
0
0
0
0
0
0
0
0
0
0
0
0
0
0
0
0
0
0
0
0
0
0
0
0
0
0
0
0
0
0
0
0
0
0
0
0
0
0
0
0
0
0
0
0
0
0
0
0
0
0
0
0
0
0
0
0
0
0
0
0
0
0
0
0
0
0
0
0
0
0
0
0
0
0
0
0
0
0
0
0
0
0
0
0
0
0
0
0
0
0
0
0
0
0
0
0
0
0
0
0
0
0
0
0
0
0
0
0
0
0
0
0
0
0
0
0
0
0
0
0
0
0
0
0
0
0
0
0
0
0
0
0
0
0
0
0
0
0
0
0
0
0
0
0
0
0
0
0
0
0
0
0
0
0
0
0
0
162
162
162
162
163
163
164
164
163
163
164
164
164
164
164
163
163
164
162
165
163
161
159
146
132
140
144
135
160
163
161
162
164
164
164
164
164
163
163
165
165
165
165
165
164
163
163
163
164
164
165
165
165
170
169
181
182
183
183
183
183
182
183
174
174
165
164
163
163
159
135
133
132
128
129
129
129
120
122
231
231
230
229
231
229
229
230
250
250
255
254
255
254
255
254
254
255
253
254
254
255
255
255
254
254
254
255
254
255
254
254
254
255
254
254
254
255
255
255
255
254
254
254
254
255
255
254
255
255
254
254
255
254
254
250
250
247
162
121
126
127
126
125
126
126
155
148
165
165
166
166
166
166
167
164
162
164
164
164
167
150
131
147
125
126
130
127
124
125
126
119
130
118
171
249
254
250
254
253
252
254
252
253
255
252
254
254
253
255
255
255
254
254
254
254
255
255
254
254
254
0
0
0
0
0
0
0
0
0
0
0
0
0
0
0
0
0
0
0
0
0
0
0
0
0
0
0
0
0
0
0
0
0
0
0
0
0
0
0
0
0
0
0
0
0
0
0
0
0
0
0
0
0
0
0
0
0
0
0
0
0
0
0
0
0
0
0
0
0
0
0
0
0
0
0
0
0
0
0
0
0
0
0
0
0
0
0
0
0
0
0
0
0
0
0
0
0
0
0
0
0
0
0
0
0
0
0
0
0
0
0
0
0
0
0
0
0
0
0
0
0
0
0
0
0
0
0
0
0
0
0
0
0
0
0
0
0
0
0
0
0
0
0
0
0
0
0
0
0
0
0
0
0
0
0
0
0
0
0
0
0
0
0
0
0
0
0
0
0
0
0
0
0
0
0
0
0
0
0
0
0
0
0
0
0
0
0
0
0
0
0
0
0
0
0
0
0
0
0
0
0
0
0
0
0
0
0
0
0
0
0
0
0
0
0
0
0
0
0
0
0
0
0
0
0
0
0
0
0
0
0
0
0
0
0
0
0
0
0
0
0
0
0
0
0
0
0
0
0
0
0
0
0
0
0
0
0
0
0
0
0
0
0
0
0
0
0
0
0
0
0
0
0
0
0
0
0
0
0
0
0
0
0
0
0
0
0
0
0
0
0
0
0
0
0
0
0
0
0
0
0
0
0
0
0
0
0
0
0
0
0
0
0
0
0
0
0
0
0
0
0
0
0
0
0
0
0
0
0
0
0
0
0
0
0
0
0
0
0
0
0
0
0
0
0
0
0
0
0
0
0
0
0
0
0
0
0
0
0
0
0
0
0
0
0
0
0
0
0
0
162
162
162
162
163
163
164
163
163
163
163
164
164
164
164
163
163
163
165
165
164
163
159
161
158
152
152
159
165
163
164
164
164
164
164
164
164
164
164
165
165
165
165
165
164
163
163
163
164
165
165
165
171
170
181
182
183
183
183
183
183
182
174
174
165
163
163
163
160
136
135
131
127
129
129
130
122
120
225
230
231
230
231
229
229
230
250
250
255
254
255
255
255
254
254
255
253
254
254
255
255
255
254
254
254
255
255
254
254
255
254
254
254
255
255
255
254
254
255
255
255
254
254
254
254
254
255
254
255
255
254
254
254
254
250
250
184
122
125
125
128
126
126
126
157
155
166
165
166
166
166
164
166
165
167
165
165
165
165
167
165
166
147
162
134
123
123
126
127
126
129
127
123
123
137
229
250
249
253
252
252
255
254
254
255
254
254
254
255
255
255
255
254
254
254
254
255
255
254
254
254
0
0
0
0
0
0
0
0
0
0
0
0
0
0
0
0
0
0
0
0
0
0
0
0
0
0
0
0
0
0
0
0
0
0
0
0
0
0
0
0
0
0
0
0
0
0
0
0
0
0
0
0
0
0
0
0
0
0
0
0
0
0
0
0
0
0
0
0
0
0
0
0
0
0
0
0
0
0
0
0
0
0
0
0
0
0
0
0
0
0
0
0
0
0
0
0
0
0
0
0
0
0
0
0
0
0
0
0
0
0
0
0
0
0
0
0
0
0
0
0
0
0
0
0
0
0
0
0
0
0
0
0
0
0
0
0
0
0
0
0
0
0
0
0
0
0
0
0
0
0
0
0
0
0
0
0
0
0
0
0
0
0
0
0
0
0
0
0
0
0
0
0
0
0
0
0
0
0
0
0
0
0
0
0
0
0
0
0
0
0
0
0
0
0
0
0
0
0
0
0
0
0
0
0
0
0
0
0
0
0
0
0
0
0
0
0
0
0
0
0
0
0
0
0
0
0
0
0
0
0
0
0
0
0
0
0
0
0
0
0
0
0
0
0
0
0
0
0
0
0
0
0
0
0
0
0
0
0
0
0
0
0
0
0
0
0
0
0
0
0
0
0
0
0
0
0
0
0
0
0
0
0
0
0
0
0
0
0
0
0
0
0
0
0
0
0
0
0
0
0
0
0
0
0
0
0
0
0
0
0
0
0
0
0
0
0
0
0
0
0
0
0
0
0
0
0
0
0
0
0
0
0
0
0
0
0
0
0
0
0
0
0
0
0
0
0
0
0
0
0
0
0
0
0
0
0
0
0
0
0
0
0
0
0
0
0
0
0
0
162
162
162
163
163
163
163
163
163
163
163
163
164
164
164
164
164
164
164
165
162
162
163
163
165
164
161
164
167
164
164
164
164
164
164
164
164
164
164
165
165
165
165
164
163
163
163
164
165
165
165
173
171
182
183
183
183
183
183
183
182
172
172
166
163
165
164
160
137
137
131
128
129
129
127
123
125
219
229
229
230
231
230
229
230
250
250
255
254
255
254
255
254
254
255
254
255
254
255
255
255
255
255
254
255
254
254
254
255
255
255
254
254
254
255
255
255
254
254
255
255
255
254
254
254
255
255
255
254
255
255
255
254
253
251
207
123
126
125
125
127
124
124
155
156
164
167
164
165
165
165
165
167
167
166
165
165
164
168
165
166
166
163
167
165
150
127
134
126
124
129
126
125
126
124
123
192
246
246
252
253
254
255
254
255
255
254
254
254
255
255
255
255
254
254
254
254
255
255
254
254
254
0
0
0
0
0
0
0
0
0
0
0
0
0
0
0
0
0
0
0
0
0
0
0
0
0
0
0
0
0
0
0
0
0
0
0
0
0
0
0
0
0
0
0
0
0
0
0
0
0
0
0
0
0
0
0
0
0
0
0
0
0
0
0
0
0
0
0
0
0
0
0
0
0
0
0
0
0
0
0
0
0
0
0
0
0
0
0
0
0
0
0
0
0
0
0
0
0
0
0
0
0
0
0
0
0
0
0
0
0
0
0
0
0
0
0
0
0
0
0
0
0
0
0
0
0
0
0
0
0
0
0
0
0
0
0
0
0
0
0
0
0
0
0
0
0
0
0
0
0
0
0
0
0
0
0
0
0
0
0
0
0
0
0
0
0
0
0
0
0
0
0
0
0
0
0
0
0
0
0
0
0
0
0
0
0
0
0
0
0
0
0
0
0
0
0
0
0
0
0
0
0
0
0
0
0
0
0
0
0
0
0
0
0
0
0
0
0
0
0
0
0
0
0
0
0
0
0
0
0
0
0
0
0
0
0
0
0
0
0
0
0
0
0
0
0
0
0
0
0
0
0
0
0
0
0
0
0
0
0
0
0
0
0
0
0
0
0
0
0
0
0
0
0
0
0
0
0
0
0
0
0
0
0
0
0
0
0
0
0
0
0
0
0
0
0
0
0
0
0
0
0
0
0
0
0
0
0
0
0
0
0
0
0
0
0
0
0
0
0
0
0
0
0
0
0
0
0
0
0
0
0
0
0
0
0
0
0
0
0
0
0
0
0
0
0
0
0
0
0
0
0
0
0
0
0
0
0
0
0
0
0
0
0
0
0
0
0
0
162
163
163
163
163
163
163
163
163
163
163
163
163
164
164
164
164
164
164
164
162
162
163
161
165
165
164
164
164
164
164
164
164
164
164
164
164
164
164
164
165
165
164
163
163
162
163
164
165
165
175
173
182
183
183
183
183
183
183
182
172
172
165
165
165
165
161
138
137
130
128
129
129
127
125
123
208
229
229
229
229
229
230
230
250
250
254
254
255
255
255
253
254
254
254
255
255
255
254
255
254
255
255
255
255
254
254
254
255
255
254
255
255
254
254
255
255
254
254
254
255
255
255
254
254
253
255
255
255
251
255
252
254
253
241
119
126
126
127
127
127
125
148
155
166
166
163
164
167
165
165
164
165
166
166
166
165
164
166
163
165
168
166
164
165
165
165
134
142
128
128
126
124
129
124
126
122
166
241
231
249
254
254
254
255
255
253
255
254
254
255
255
255
255
254
254
254
254
255
255
253
254
255
0
0
0
0
0
0
0
0
0
0
0
0
0
0
0
0
0
0
0
0
0
0
0
0
0
0
0
0
0
0
0
0
0
0
0
0
0
0
0
0
0
0
0
0
0
0
0
0
0
0
0
0
0
0
0
0
0
0
0
0
0
0
0
0
0
0
0
0
0
0
0
0
0
0
0
0
0
0
0
0
0
0
0
0
0
0
0
0
0
0
0
0
0
0
0
0
0
0
0
0
0
0
0
0
0
0
0
0
0
0
0
0
0
0
0
0
0
0
0
0
0
0
0
0
0
0
0
0
0
0
0
0
0
0
0
0
0
0
0
0
0
0
0
0
0
0
0
0
0
0
0
0
0
0
0
0
0
0
0
0
0
0
0
0
0
0
0
0
0
0
0
0
0
0
0
0
0
0
0
0
0
0
0
0
0
0
0
0
0
0
0
0
0
0
0
0
0
0
0
0
0
0
0
0
0
0
0
0
0
0
0
0
0
0
0
0
0
0
0
0
0
0
0
0
0
0
0
0
0
0
0
0
0
0
0
0
0
0
0
0
0
0
0
0
0
0
0
0
0
0
0
0
0
0
0
0
0
0
0
0
0
0
0
0
0
0
0
0
0
0
0
0
0
0
0
0
0
0
0
0
0
0
0
0
0
0
0
0
0
0
0
0
0
0
0
0
0
0
0
0
0
0
0
0
0
0
0
0
0
0
0
0
0
0
0
0
0
0
0
0
0
0
0
0
0
0
0
0
0
0
0
0
0
0
0
0
0
0
0
0
0
0
0
0
0
0
0
0
0
0
0
0
0
0
0
0
0
0
0
0
0
0
0
0
0
0
0
164
163
163
163
163
163
163
163
163
163
163
163
163
163
164
164
164
164
164
164
162
161
163
163
162
164
164
165
164
164
164
164
164
164
164
164
164
164
164
164
164
164
163
163
162
163
163
164
165
176
176
182
183
184
183
183
183
183
182
171
171
165
165
163
163
161
139
139
130
128
129
129
127
123
123
201
227
227
230
230
228
228
230
250
250
254
255
254
255
255
254
254
254
254
255
255
255
255
255
254
254
254
255
255
255
254
254
254
254
255
254
255
255
255
254
254
255
254
254
254
255
255
255
254
254
254
255
255
255
255
255
255
255
246
137
124
125
127
125
125
126
140
140
167
165
164
163
166
164
164
164
165
167
167
164
166
166
164
168
168
164
163
166
166
164
166
166
166
152
161
129
128
124
124
128
126
126
124
121
214
214
249
254
254
254
255
255
255
254
254
254
255
255
255
255
254
253
253
254
255
255
254
255
255
0
0
0
0
0
0
0
0
0
0
0
0
0
0
0
0
0
0
0
0
0
0
0
0
0
0
0
0
0
0
0
0
0
0
0
0
0
0
0
0
0
0
0
0
0
0
0
0
0
0
0
0
0
0
0
0
0
0
0
0
0
0
0
0
0
0
0
0
0
0
0
0
0
0
0
0
0
0
0
0
0
0
0
0
0
0
0
0
0
0
0
0
0
0
0
0
0
0
0
0
0
0
0
0
0
0
0
0
0
0
0
0
0
0
0
0
0
0
0
0
0
0
0
0
0
0
0
0
0
0
0
0
0
0
0
0
0
0
0
0
0
0
0
0
0
0
0
0
0
0
0
0
0
0
0
0
0
0
0
0
0
0
0
0
0
0
0
0
0
0
0
0
0
0
0
0
0
0
0
0
0
0
0
0
0
0
0
0
0
0
0
0
0
0
0
0
0
0
0
0
0
0
0
0
0
0
0
0
0
0
0
0
0
0
0
0
0
0
0
0
0
0
0
0
0
0
0
0
0
0
0
0
0
0
0
0
0
0
0
0
0
0
0
0
0
0
0
0
0
0
0
0
0
0
0
0
0
0
0
0
0
0
0
0
0
0
0
0
0
0
0
0
0
0
0
0
0
0
0
0
0
0
0
0
0
0
0
0
0
0
0
0
0
0
0
0
0
0
0
0
0
0
0
0
0
0
0
0
0
0
0
0
0
0
0
0
0
0
0
0
0
0
0
0
0
0
0
0
0
0
0
0
0
0
0
0
0
0
0
0
0
0
0
0
0
0
0
0
0
0
0
0
0
0
0
0
0
0
0
0
0
0
0
0
0
0
164
164
164
164
163
163
163
163
163
163
163
163
163
163
163
164
164
164
164
163
163
162
162
162
164
163
164
164
164
164
164
164
164
164
164
164
164
164
164
164
164
164
164
163
163
163
163
165
178
177
182
183
184
184
182
183
183
182
171
171
165
165
164
164
161
141
140
130
129
128
129
128
123
122
197
230
232
230
230
229
229
230
250
250
254
255
254
254
254
254
254
254
254
254
255
255
255
255
255
255
254
255
255
255
255
255
255
254
254
254
255
255
255
255
254
254
254
254
254
255
254
255
254
255
255
255
255
254
255
251
252
254
249
195
124
124
124
127
125
126
127
131
166
166
163
164
164
166
164
165
164
166
167
164
165
165
166
165
164
167
164
167
165
165
164
165
166
164
165
161
166
141
126
124
124
127
126
127
124
119
191
166
249
254
255
253
255
255
255
254
254
254
255
255
255
255
254
254
254
254
255
255
255
255
254
0
0
0
0
0
0
0
0
0
0
0
0
0
0
0
0
0
0
0
0
0
0
0
0
0
0
0
0
0
0
0
0
0
0
0
0
0
0
0
0
0
0
0
0
0
0
0
0
0
0
0
0
0
0
0
0
0
0
0
0
0
0
0
0
0
0
0
0
0
0
0
0
0
0
0
0
0
0
0
0
0
0
0
0
0
0
0
0
0
0
0
0
0
0
0
0
0
0
0
0
0
0
0
0
0
0
0
0
0
0
0
0
0
0
0
0
0
0
0
0
0
0
0
0
0
0
0
0
0
0
0
0
0
0
0
0
0
0
0
0
0
0
0
0
0
0
0
0
0
0
0
0
0
0
0
0
0
0
0
0
0
0
0
0
0
0
0
0
0
0
0
0
0
0
0
0
0
0
0
0
0
0
0
0
0
0
0
0
0
0
0
0
0
0
0
0
0
0
0
0
0
0
0
0
0
0
0
0
0
0
0
0
0
0
0
0
0
0
0
0
0
0
0
0
0
0
0
0
0
0
0
0
0
0
0
0
0
0
0
0
0
0
0
0
0
0
0
0
0
0
0
0
0
0
0
0
0
0
0
0
0
0
0
0
0
0
0
0
0
0
0
0
0
0
0
0
0
0
0
0
0
0
0
0
0
0
0
0
0
0
0
0
0
0
0
0
0
0
0
0
0
0
0
0
0
0
0
0
0
0
0
0
0
0
0
0
0
0
0
0
0
0
0
0
0
0
0
0
0
0
0
0
0
0
0
0
0
0
0
0
0
0
0
0
0
0
0
0
0
0
0
0
0
0
0
0
0
0
0
0
0
0
0
0
0
164
165
164
164
164
163
163
163
163
163
163
163
163
163
163
163
164
164
164
164
163
163
164
163
164
163
163
164
164
164
164
164
164
164
164
164
164
164
164
164
164
164
164
164
164
164
165
179
179
183
183
184
184
183
182
182
180
170
171
165
165
164
164
162
141
141
130
129
128
128
128
123
123
189
230
230
231
228
227
227
232
249
250
254
255
254
254
254
255
255
254
255
255
255
254
255
255
255
255
255
255
255
254
254
255
255
255
254
254
254
254
255
255
255
255
254
254
254
254
254
254
254
254
255
254
255
255
255
251
254
254
249
229
122
122
125
127
127
126
126
127
160
166
164
164
166
169
169
164
164
167
167
164
164
164
167
163
165
165
165
165
165
165
167
164
165
166
165
165
166
165
165
150
126
124
125
126
126
126
125
124
166
151
248
254
254
253
254
254
254
255
254
254
255
255
255
255
254
254
254
254
254
254
254
254
254
0
0
0
0
0
0
0
0
0
0
0
0
0
0
0
0
0
0
0
0
0
0
0
0
0
0
0
0
0
0
0
0
0
0
0
0
0
0
0
0
0
0
0
0
0
0
0
0
0
0
0
0
0
0
0
0
0
0
0
0
0
0
0
0
0
0
0
0
0
0
0
0
0
0
0
0
0
0
0
0
0
0
0
0
0
0
0
0
0
0
0
0
0
0
0
0
0
0
0
0
0
0
0
0
0
0
0
0
0
0
0
0
0
0
0
0
0
0
0
0
0
0
0
0
0
0
0
0
0
0
0
0
0
0
0
0
0
0
0
0
0
0
0
0
0
0
0
0
0
0
0
0
0
0
0
0
0
0
0
0
0
0
0
0
0
0
0
0
0
0
0
0
0
0
0
0
0
0
0
0
0
0
0
0
0
0
0
0
0
0
0
0
0
0
0
0
0
0
0
0
0
0
0
0
0
0
0
0
0
0
0
0
0
0
0
0
0
0
0
0
0
0
0
0
0
0
0
0
0
0
0
0
0
0
0
0
0
0
0
0
0
0
0
0
0
0
0
0
0
0
0
0
0
0
0
0
0
0
0
0
0
0
0
0
0
0
0
0
0
0
0
0
0
0
0
0
0
0
0
0
0
0
0
0
0
0
0
0
0
0
0
0
0
0
0
0
0
0
0
0
0
0
0
0
0
0
0
0
0
0
0
0
0
0
0
0
0
0
0
0
0
0
0
0
0
0
0
0
0
0
0
0
0
0
0
0
0
0
0
0
0
0
0
0
0
0
0
0
0
0
0
0
0
0
0
0
0
0
0
0
0
0
0
0
165
164
164
164
164
164
163
163
163
163
163
163
163
163
163
163
163
164
164
164
164
164
164
164
163
163
163
163
164
164
164
164
164
164
164
164
164
164
164
164
164
164
164
164
164
165
179
179
184
182
183
184
184
183
183
181
169
170
165
165
164
164
162
142
141
130
129
130
128
128
123
123
184
231
230
230
229
229
229
231
249
249
254
255
254
254
254
255
254
254
254
254
255
255
255
254
255
255
255
255
255
255
254
255
254
254
254
254
254
254
254
254
255
254
254
254
254
254
254
254
255
254
254
254
254
254
254
255
253
254
253
249
151
122
123
126
125
127
125
126
146
164
165
165
167
164
165
164
165
164
166
166
165
164
167
165
164
166
165
180
165
164
167
164
166
167
165
166
164
164
165
166
166
156
128
125
125
127
126
125
125
124
135
128
244
254
254
253
254
254
254
255
254
254
254
255
254
255
254
254
254
254
255
255
254
254
254
0
0
0
0
0
0
0
0
0
0
0
0
0
0
0
0
0
0
0
0
0
0
0
0
0
0
0
0
0
0
0
0
0
0
0
0
0
0
0
0
0
0
0
0
0
0
0
0
0
0
0
0
0
0
0
0
0
0
0
0
0
0
0
0
0
0
0
0
0
0
0
0
0
0
0
0
0
0
0
0
0
0
0
0
0
0
0
0
0
0
0
0
0
0
0
0
0
0
0
0
0
0
0
0
0
0
0
0
0
0
0
0
0
0
0
0
0
0
0
0
0
0
0
0
0
0
0
0
0
0
0
0
0
0
0
0
0
0
0
0
0
0
0
0
0
0
0
0
0
0
0
0
0
0
0
0
0
0
0
0
0
0
0
0
0
0
0
0
0
0
0
0
0
0
0
0
0
0
0
0
0
0
0
0
0
0
0
0
0
0
0
0
0
0
0
0
0
0
0
0
0
0
0
0
0
0
0
0
0
0
0
0
0
0
0
0
0
0
0
0
0
0
0
0
0
0
0
0
0
0
0
0
0
0
0
0
0
0
0
0
0
0
0
0
0
0
0
0
0
0
0
0
0
0
0
0
0
0
0
0
0
0
0
0
0
0
0
0
0
0
0
0
0
0
0
0
0
0
0
0
0
0
0
0
0
0
0
0
0
0
0
0
0
0
0
0
0
0
0
0
0
0
0
0
0
0
0
0
0
0
0
0
0
0
0
0
0
0
0
0
0
0
0
0
0
0
0
0
0
0
0
0
0
0
0
0
0
0
0
0
0
0
0
0
0
0
0
0
0
0
0
0
0
0
0
0
0
0
0
0
0
0
0
163
164
164
164
164
164
164
163
163
163
163
163
163
163
163
163
163
163
164
164
164
164
164
164
163
163
163
163
163
164
164
164
164
164
164
164
164
164
164
164
164
164
164
164
165
181
179
184
182
184
184
184
184
183
181
169
169
165
164
163
164
162
142
142
130
129
130
130
129
123
123
177
232
231
229
230
230
229
230
246
249
254
255
254
254
254
254
255
255
254
254
254
254
255
255
255
254
255
255
255
255
255
255
255
254
254
254
254
254
254
254
254
255
255
254
254
254
254
254
254
255
254
254
254
255
254
255
254
253
252
253
204
204
125
128
126
124
125
125
125
169
166
165
165
164
164
166
164
165
165
165
165
165
165
166
165
164
175
187
180
185
185
167
174
170
162
165
165
166
164
165
165
166
166
168
136
125
126
127
125
126
125
124
128
122
231
254
253
254
255
255
255
255
254
255
254
254
254
254
255
254
254
254
255
255
254
254
254
0
0
0
0
0
0
0
0
0
0
0
0
0
0
0
0
0
0
0
0
0
0
0
0
0
0
0
0
0
0
0
0
0
0
0
0
0
0
0
0
0
0
0
0
0
0
0
0
0
0
0
0
0
0
0
0
0
0
0
0
0
0
0
0
0
0
0
0
0
0
0
0
0
0
0
0
0
0
0
0
0
0
0
0
0
0
0
0
0
0
0
0
0
0
0
0
0
0
0
0
0
0
0
0
0
0
0
0
0
0
0
0
0
0
0
0
0
0
0
0
0
0
0
0
0
0
0
0
0
0
0
0
0
0
0
0
0
0
0
0
0
0
0
0
0
0
0
0
0
0
0
0
0
0
0
0
0
0
0
0
0
0
0
0
0
0
0
0
0
0
0
0
0
0
0
0
0
0
0
0
0
0
0
0
0
0
0
0
0
0
0
0
0
0
0
0
0
0
0
0
0
0
0
0
0
0
0
0
0
0
0
0
0
0
0
0
0
0
0
0
0
0
0
0
0
0
0
0
0
0
0
0
0
0
0
0
0
0
0
0
0
0
0
0
0
0
0
0
0
0
0
0
0
0
0
0
0
0
0
0
0
0
0
0
0
0
0
0
0
0
0
0
0
0
0
0
0
0
0
0
0
0
0
0
0
0
0
0
0
0
0
0
0
0
0
0
0
0
0
0
0
0
0
0
0
0
0
0
0
0
0
0
0
0
0
0
0
0
0
0
0
0
0
0
0
0
0
0
0
0
0
0
0
0
0
0
0
0
0
0
0
0
0
0
0
0
0
0
0
0
0
0
0
0
0
0
0
0
0
0
0
0
163
163
164
164
164
164
164
164
163
163
163
163
163
163
163
163
163
163
163
164
164
164
164
164
164
163
163
163
163
163
164
164
164
164
164
164
164
164
164
164
164
164
164
165
181
181
183
182
183
184
184
184
184
182
168
168
165
163
164
162
161
142
142
130
129
130
130
129
123
123
175
232
232
230
229
229
230
230
245
245
255
255
254
254
255
254
254
254
254
255
254
255
255
254
255
255
255
254
255
255
255
254
255
255
255
254
254
254
254
255
255
255
255
255
255
254
254
255
254
254
254
254
254
254
254
252
254
254
254
254
248
238
120
124
127
126
128
128
126
156
165
166
165
165
165
166
165
165
165
165
166
165
164
166
166
164
168
185
189
187
190
190
188
185
191
175
168
164
164
167
165
165
166
165
164
169
142
125
125
126
127
127
125
124
119
119
226
252
252
254
255
254
254
255
255
255
254
254
254
255
254
254
254
254
254
254
254
254
254
0
0
0
0
0
0
0
0
0
0
0
0
0
0
0
0
0
0
0
0
0
0
0
0
0
0
0
0
0
0
0
0
0
0
0
0
0
0
0
0
0
0
0
0
0
0
0
0
0
0
0
0
0
0
0
0
0
0
0
0
0
0
0
0
0
0
0
0
0
0
0
0
0
0
0
0
0
0
0
0
0
0
0
0
0
0
0
0
0
0
0
0
0
0
0
0
0
0
0
0
0
0
0
0
0
0
0
0
0
0
0
0
0
0
0
0
0
0
0
0
0
0
0
0
0
0
0
0
0
0
0
0
0
0
0
0
0
0
0
0
0
0
0
0
0
0
0
0
0
0
0
0
0
0
0
0
0
0
0
0
0
0
0
0
0
0
0
0
0
0
0
0
0
0
0
0
0
0
0
0
0
0
0
0
0
0
0
0
0
0
0
0
0
0
0
0
0
0
0
0
0
0
0
0
0
0
0
0
0
0
0
0
0
0
0
0
0
0
0
0
0
0
0
0
0
0
0
0
0
0
0
0
0
0
0
0
0
0
0
0
0
0
0
0
0
0
0
0
0
0
0
0
0
0
0
0
0
0
0
0
0
0
0
0
0
0
0
0
0
0
0
0
0
0
0
0
0
0
0
0
0
0
0
0
0
0
0
0
0
0
0
0
0
0
0
0
0
0
0
0
0
0
0
0
0
0
0
0
0
0
0
0
0
0
0
0
0
0
0
0
0
0
0
0
0
0
0
0
0
0
0
0
0
0
0
0
0
0
0
0
0
0
0
0
0
0
0
0
0
0
0
0
0
0
0
0
0
0
0
0
0
163
164
164
164
164
164
164
164
164
163
163
163
163
163
163
163
163
163
163
163
164
164
164
164
164
164
163
163
163
163
163
164
164
164
164
164
164
164
164
164
164
164
165
174
179
183
184
182
183
183
184
184
182
167
168
165
163
164
164
160
142
142
130
130
130
130
131
123
123
170
230
232
230
230
230
229
228
242
244
255
254
255
254
254
255
255
254
254
254
255
255
255
255
254
254
255
255
255
254
255
255
254
254
255
255
255
254
254
254
255
255
255
254
255
255
255
254
254
253
254
254
254
254
254
252
254
254
254
253
250
248
179
126
124
126
124
124
126
125
164
165
167
163
165
164
165
165
165
165
166
166
165
164
164
165
164
164
185
186
190
189
189
188
188
191
190
188
176
162
167
166
165
165
166
164
164
165
148
124
124
126
127
126
127
127
120
121
220
252
253
252
254
254
254
254
255
255
254
254
255
255
254
254
254
254
254
254
254
254
254
0
0
0
0
0
0
0
0
0
0
0
0
0
0
0
0
0
0
0
0
0
0
0
0
0
0
0
0
0
0
0
0
0
0
0
0
0
0
0
0
0
0
0
0
0
0
0
0
0
0
0
0
0
0
0
0
0
0
0
0
0
0
0
0
0
0
0
0
0
0
0
0
0
0
0
0
0
0
0
0
0
0
0
0
0
0
0
0
0
0
0
0
0
0
0
0
0
0
0
0
0
0
0
0
0
0
0
0
0
0
0
0
0
0
0
0
0
0
0
0
0
0
0
0
0
0
0
0
0
0
0
0
0
0
0
0
0
0
0
0
0
0
0
0
0
0
0
0
0
0
0
0
0
0
0
0
0
0
0
0
0
0
0
0
0
0
0
0
0
0
0
0
0
0
0
0
0
0
0
0
0
0
0
0
0
0
0
0
0
0
0
0
0
0
0
0
0
0
0
0
0
0
0
0
0
0
0
0
0
0
0
0
0
0
0
0
0
0
0
0
0
0
0
0
0
0
0
0
0
0
0
0
0
0
0
0
0
0
0
0
0
0
0
0
0
0
0
0
0
0
0
0
0
0
0
0
0
0
0
0
0
0
0
0
0
0
0
0
0
0
0
0
0
0
0
0
0
0
0
0
0
0
0
0
0
0
0
0
0
0
0
0
0
0
0
0
0
0
0
0
0
0
0
0
0
0
0
0
0
0
0
0
0
0
0
0
0
0
0
0
0
0
0
0
0
0
0
0
0
0
0
0
0
0
0
0
0
0
0
0
0
0
0
0
0
0
0
0
0
0
0
0
0
0
0
0
0
0
0
0
164
164
164
164
164
164
164
164
164
164
163
163
163
163
163
163
163
163
163
163
164
164
164
164
164
164
164
163
163
163
163
163
164
164
164
164
164
164
164
164
164
165
171
171
183
182
183
183
183
183
183
182
167
167
165
164
163
163
160
141
141
130
130
130
130
130
124
124
170
230
230
230
230
231
231
230
241
241
253
254
255
255
254
255
255
255
255
254
254
255
255
255
254
254
254
254
255
255
255
254
255
255
254
254
255
255
255
254
254
254
255
255
255
255
255
255
255
254
254
252
254
253
253
254
254
254
254
252
251
251
225
118
118
125
126
126
125
127
160
160
164
164
164
166
164
166
166
165
165
165
166
165
165
165
165
164
164
166
184
184
190
191
189
189
188
187
187
189
187
167
173
163
166
166
166
165
165
164
156
125
125
126
126
126
127
125
122
122
221
253
253
253
254
254
254
255
255
255
254
255
255
255
254
254
254
254
254
254
254
254
254
0
0
0
0
0
0
0
0
0
0
0
0
0
0
0
0
0
0
0
0
0
0
0
0
0
0
0
0
0
0
0
0
0
0
0
0
0
0
0
0
0
0
0
0
0
0
0
0
0
0
0
0
0
0
0
0
0
0
0
0
0
0
0
0
0
0
0
0
0
0
0
0
0
0
0
0
0
0
0
0
0
0
0
0
0
0
0
0
0
0
0
0
0
0
0
0
0
0
0
0
0
0
0
0
0
0
0
0
0
0
0
0
0
0
0
0
0
0
0
0
0
0
0
0
0
0
0
0
0
0
0
0
0
0
0
0
0
0
0
0
0
0
0
0
0
0
0
0
0
0
0
0
0
0
0
0
0
0
0
0
0
0
0
0
0
0
0
0
0
0
0
0
0
0
0
0
0
0
0
0
0
0
0
0
0
0
0
0
0
0
0
0
0
0
0
0
0
0
0
0
0
0
0
0
0
0
0
0
0
0
0
0
0
0
0
0
0
0
0
0
0
0
0
0
0
0
0
0
0
0
0
0
0
0
0
0
0
0
0
0
0
0
0
0
0
0
0
0
0
0
0
0
0
0
0
0
0
0
0
0
0
0
0
0
0
0
0
0
0
0
0
0
0
0
0
0
0
0
0
0
0
0
0
0
0
0
0
0
0
0
0
0
0
0
0
0
0
0
0
0
0
0
0
0
0
0
0
0
0
0
0
0
0
0
0
0
0
0
0
0
0
0
0
0
0
0
0
0
0
0
0
0
0
0
0
0
0
0
0
0
0
0
0
0
0
0
0
0
0
0
0
0
0
0
0
0
0
0
0
164
164
164
164
164
164
164
164
164
164
164
163
163
163
163
163
163
163
163
164
164
164
164
164
164
164
164
164
163
163
163
163
163
164
164
164
164
164
164
164
165
167
169
182
182
182
183
183
183
184
181
167
167
164
164
162
163
160
139
140
130
129
130
130
129
123
123
170
230
230
230
229
229
230
230
239
240
254
254
255
255
254
254
254
254
254
254
254
255
255
255
255
255
254
255
255
254
255
255
255
254
255
255
254
254
255
255
255
254
255
255
255
255
255
255
255
254
254
252
254
254
252
254
255
253
254
252
254
253
248
162
124
123
125
127
126
126
124
141
168
163
168
165
164
165
165
165
165
165
164
164
166
165
164
164
166
165
165
167
178
172
186
190
190
190
188
187
188
189
189
179
184
164
166
165
165
167
166
166
157
125
127
126
125
125
127
125
124
121
223
252
253
254
255
255
254
255
254
254
254
254
254
254
254
254
254
254
254
254
254
254
254
0
0
0
0
0
0
0
0
0
0
0
0
0
0
0
0
0
0
0
0
0
0
0
0
0
0
0
0
0
0
0
0
0
0
0
0
0
0
0
0
0
0
0
0
0
0
0
0
0
0
0
0
0
0
0
0
0
0
0
0
0
0
0
0
0
0
0
0
0
0
0
0
0
0
0
0
0
0
0
0
0
0
0
0
0
0
0
0
0
0
0
0
0
0
0
0
0
0
0
0
0
0
0
0
0
0
0
0
0
0
0
0
0
0
0
0
0
0
0
0
0
0
0
0
0
0
0
0
0
0
0
0
0
0
0
0
0
0
0
0
0
0
0
0
0
0
0
0
0
0
0
0
0
0
0
0
0
0
0
0
0
0
0
0
0
0
0
0
0
0
0
0
0
0
0
0
0
0
0
0
0
0
0
0
0
0
0
0
0
0
0
0
0
0
0
0
0
0
0
0
0
0
0
0
0
0
0
0
0
0
0
0
0
0
0
0
0
0
0
0
0
0
0
0
0
0
0
0
0
0
0
0
0
0
0
0
0
0
0
0
0
0
0
0
0
0
0
0
0
0
0
0
0
0
0
0
0
0
0
0
0
0
0
0
0
0
0
0
0
0
0
0
0
0
0
0
0
0
0
0
0
0
0
0
0
0
0
0
0
0
0
0
0
0
0
0
0
0
0
0
0
0
0
0
0
0
0
0
0
0
0
0
0
0
0
0
0
0
0
0
0
0
0
0
0
0
0
0
0
0
0
0
0
0
0
0
0
0
0
0
0
0
0
0
0
0
0
0
0
0
0
0
0
0
0
0
0
0
164
164
165
164
164
164
164
164
164
164
164
164
163
163
163
163
163
163
163
163
164
164
164
164
164
164
164
164
164
163
163
163
163
163
164
164
164
164
164
165
165
167
177
184
182
182
183
184
183
175
165
167
164
164
162
162
159
138
139
130
129
129
129
129
122
123
169
230
230
229
230
230
229
228
239
239
254
255
255
255
253
254
254
253
254
254
254
255
254
255
254
254
255
255
255
254
254
254
255
255
255
254
255
255
254
254
255
255
255
255
255
254
255
255
255
255
254
254
254
254
254
253
255
255
255
255
253
253
254
224
162
122
125
125
127
126
123
123
156
165
163
166
165
165
165
165
166
165
164
164
164
165
165
164
164
165
165
165
165
165
167
167
186
187
190
190
189
188
189
188
190
184
186
169
165
165
164
165
165
166
159
127
127
126
125
125
127
127
121
122
230
253
254
253
255
255
254
255
254
254
255
254
254
254
254
254
254
254
254
254
254
254
254
0
0
0
0
0
0
0
0
0
0
0
0
0
0
0
0
0
0
0
0
0
0
0
0
0
0
0
0
0
0
0
0
0
0
0
0
0
0
0
0
0
0
0
0
0
0
0
0
0
0
0
0
0
0
0
0
0
0
0
0
0
0
0
0
0
0
0
0
0
0
0
0
0
0
0
0
0
0
0
0
0
0
0
0
0
0
0
0
0
0
0
0
0
0
0
0
0
0
0
0
0
0
0
0
0
0
0
0
0
0
0
0
0
0
0
0
0
0
0
0
0
0
0
0
0
0
0
0
0
0
0
0
0
0
0
0
0
0
0
0
0
0
0
0
0
0
0
0
0
0
0
0
0
0
0
0
0
0
0
0
0
0
0
0
0
0
0
0
0
0
0
0
0
0
0
0
0
0
0
0
0
0
0
0
0
0
0
0
0
0
0
0
0
0
0
0
0
0
0
0
0
0
0
0
0
0
0
0
0
0
0
0
0
0
0
0
0
0
0
0
0
0
0
0
0
0
0
0
0
0
0
0
0
0
0
0
0
0
0
0
0
0
0
0
0
0
0
0
0
0
0
0
0
0
0
0
0
0
0
0
0
0
0
0
0
0
0
0
0
0
0
0
0
0
0
0
0
0
0
0
0
0
0
0
0
0
0
0
0
0
0
0
0
0
0
0
0
0
0
0
0
0
0
0
0
0
0
0
0
0
0
0
0
0
0
0
0
0
0
0
0
0
0
0
0
0
0
0
0
0
0
0
0
0
0
0
0
0
0
0
0
0
0
0
0
0
0
0
0
0
0
0
0
0
0
0
0
163
164
164
165
164
164
164
164
164
164
164
164
164
163
163
163
163
163
163
163
163
164
164
164
164
164
164
164
164
164
163
163
163
163
163
164
164
164
165
165
165
171
183
182
183
183
183
184
173
165
165
164
165
162
161
159
136
137
131
129
129
129
129
123
123
170
230
230
229
229
230
230
230
237
237
254
255
255
255
253
255
254
254
254
254
254
255
255
255
254
254
254
255
255
255
254
254
254
254
255
255
255
254
255
255
254
254
255
255
255
255
254
254
255
255
255
254
254
253
254
253
254
255
254
254
254
255
255
250
243
121
125
125
126
125
127
128
136
164
168
165
166
164
164
164
164
165
165
164
164
164
166
165
165
165
166
166
164
165
165
165
163
162
185
188
189
189
188
190
190
187
188
188
188
172
163
164
164
166
164
166
159
126
126
127
126
127
126
126
121
121
238
255
255
251
255
253
255
255
254
254
253
254
254
253
254
254
254
254
254
254
254
254
254
0
0
0
0
0
0
0
0
0
0
0
0
0
0
0
0
0
0
0
0
0
0
0
0
0
0
0
0
0
0
0
0
0
0
0
0
0
0
0
0
0
0
0
0
0
0
0
0
0
0
0
0
0
0
0
0
0
0
0
0
0
0
0
0
0
0
0
0
0
0
0
0
0
0
0
0
0
0
0
0
0
0
0
0
0
0
0
0
0
0
0
0
0
0
0
0
0
0
0
0
0
0
0
0
0
0
0
0
0
0
0
0
0
0
0
0
0
0
0
0
0
0
0
0
0
0
0
0
0
0
0
0
0
0
0
0
0
0
0
0
0
0
0
0
0
0
0
0
0
0
0
0
0
0
0
0
0
0
0
0
0
0
0
0
0
0
0
0
0
0
0
0
0
0
0
0
0
0
0
0
0
0
0
0
0
0
0
0
0
0
0
0
0
0
0
0
0
0
0
0
0
0
0
0
0
0
0
0
0
0
0
0
0
0
0
0
0
0
0
0
0
0
0
0
0
0
0
0
0
0
0
0
0
0
0
0
0
0
0
0
0
0
0
0
0
0
0
0
0
0
0
0
0
0
0
0
0
0
0
0
0
0
0
0
0
0
0
0
0
0
0
0
0
0
0
0
0
0
0
0
0
0
0
0
0
0
0
0
0
0
0
0
0
0
0
0
0
0
0
0
0
0
0
0
0
0
0
0
0
0
0
0
0
0
0
0
0
0
0
0
0
0
0
0
0
0
0
0
0
0
0
0
0
0
0
0
0
0
0
0
0
0
0
0
0
0
0
0
0
0
0
0
0
0
0
0
163
163
164
164
164
164
164
164
164
164
164
164
164
164
163
163
164
163
163
163
163
163
164
164
164
164
164
164
164
164
164
163
163
163
163
163
164
164
166
165
165
167
180
182
182
180
183
170
165
165
165
166
163
162
159
135
136
131
129
129
129
128
123
123
169
231
230
229
230
230
230
230
236
236
255
255
255
255
253
255
255
254
255
254
254
254
254
255
254
254
254
255
255
254
255
255
255
254
254
254
255
255
255
254
255
255
255
254
255
255
255
254
254
254
255
255
255
254
253
254
255
254
255
254
253
254
254
251
250
215
122
125
127
125
125
127
125
149
164
166
165
163
164
165
165
164
165
166
164
165
164
165
165
165
165
166
165
165
165
165
166
166
162
167
175
189
188
188
187
190
190
189
188
189
186
179
164
165
166
164
165
166
158
126
125
125
127
127
125
126
121
123
248
255
255
255
253
254
254
255
254
254
254
254
254
254
254
254
254
254
254
255
254
254
254
0
0
0
0
0
0
0
0
0
0
0
0
0
0
0
0
0
0
0
0
0
0
0
0
0
0
0
0
0
0
0
0
0
0
0
0
0
0
0
0
0
0
0
0
0
0
0
0
0
0
0
0
0
0
0
0
0
0
0
0
0
0
0
0
0
0
0
0
0
0
0
0
0
0
0
0
0
0
0
0
0
0
0
0
0
0
0
0
0
0
0
0
0
0
0
0
0
0
0
0
0
0
0
0
0
0
0
0
0
0
0
0
0
0
0
0
0
0
0
0
0
0
0
0
0
0
0
0
0
0
0
0
0
0
0
0
0
0
0
0
0
0
0
0
0
0
0
0
0
0
0
0
0
0
0
0
0
0
0
0
0
0
0
0
0
0
0
0
0
0
0
0
0
0
0
0
0
0
0
0
0
0
0
0
0
0
0
0
0
0
0
0
0
0
0
0
0
0
0
0
0
0
0
0
0
0
0
0
0
0
0
0
0
0
0
0
0
0
0
0
0
0
0
0
0
0
0
0
0
0
0
0
0
0
0
0
0
0
0
0
0
0
0
0
0
0
0
0
0
0
0
0
0
0
0
0
0
0
0
0
0
0
0
0
0
0
0
0
0
0
0
0
0
0
0
0
0
0
0
0
0
0
0
0
0
0
0
0
0
0
0
0
0
0
0
0
0
0
0
0
0
0
0
0
0
0
0
0
0
0
0
0
0
0
0
0
0
0
0
0
0
0
0
0
0
0
0
0
0
0
0
0
0
0
0
0
0
0
0
0
0
0
0
0
0
0
0
0
0
0
0
0
0
0
0
164
163
163
164
164
164
164
164
164
164
164
164
164
164
164
164
164
164
163
163
163
163
163
164
164
164
164
164
164
164
164
164
163
163
163
163
164
164
164
165
166
166
167
181
174
174
168
164
164
165
166
163
163
156
133
133
131
129
130
129
129
123
123
170
230
230
230
230
230
230
230
236
236
255
254
255
255
253
255
255
254
255
254
254
254
254
254
254
254
254
255
254
254
254
255
255
255
255
254
254
254
255
255
255
254
255
255
255
254
255
255
255
254
254
255
255
255
254
254
255
255
255
254
254
254
254
254
254
245
119
119
128
127
126
126
127
130
130
166
165
166
165
166
165
165
164
165
165
164
164
164
164
164
165
165
165
165
165
166
165
166
166
163
166
166
171
188
189
189
188
189
189
191
188
187
187
180
165
165
166
165
166
165
158
124
124
126
127
127
125
125
135
135
248
255
255
252
254
254
255
254
254
254
254
254
254
254
255
254
254
254
255
255
254
254
254
0
0
0
0
0
0
0
0
0
0
0
0
0
0
0
0
0
0
0
0
0
0
0
0
0
0
0
0
0
0
0
0
0
0
0
0
0
0
0
0
0
0
0
0
0
0
0
0
0
0
0
0
0
0
0
0
0
0
0
0
0
0
0
0
0
0
0
0
0
0
0
0
0
0
0
0
0
0
0
0
0
0
0
0
0
0
0
0
0
0
0
0
0
0
0
0
0
0
0
0
0
0
0
0
0
0
0
0
0
0
0
0
0
0
0
0
0
0
0
0
0
0
0
0
0
0
0
0
0
0
0
0
0
0
0
0
0
0
0
0
0
0
0
0
0
0
0
0
0
0
0
0
0
0
0
0
0
0
0
0
0
0
0
0
0
0
0
0
0
0
0
0
0
0
0
0
0
0
0
0
0
0
0
0
0
0
0
0
0
0
0
0
0
0
0
0
0
0
0
0
0
0
0
0
0
0
0
0
0
0
0
0
0
0
0
0
0
0
0
0
0
0
0
0
0
0
0
0
0
0
0
0
0
0
0
0
0
0
0
0
0
0
0
0
0
0
0
0
0
0
0
0
0
0
0
0
0
0
0
0
0
0
0
0
0
0
0
0
0
0
0
0
0
0
0
0
0
0
0
0
0
0
0
0
0
0
0
0
0
0
0
0
0
0
0
0
0
0
0
0
0
0
0
0
0
0
0
0
0
0
0
0
0
0
0
0
0
0
0
0
0
0
0
0
0
0
0
0
0
0
0
0
0
0
0
0
0
0
0
0
0
0
0
0
0
0
0
0
0
0
0
0
0
0
164
164
163
163
164
164
164
164
163
163
164
164
164
164
164
164
164
164
164
163
163
163
163
163
164
164
164
164
164
164
164
164
164
163
163
164
166
164
163
163
164
166
165
165
170
165
163
163
164
164
162
162
154
132
132
130
127
130
130
128
124
123
171
230
230
229
228
229
230
230
235
235
255
254
255
254
254
255
255
254
254
254
254
254
254
254
254
254
254
255
255
254
254
254
254
255
255
255
255
254
254
254
255
255
255
254
255
255
255
254
255
255
255
254
254
254
255
255
255
254
255
254
255
254
255
255
255
250
218
154
125
127
129
127
127
125
124
160
166
165
166
165
164
165
165
166
164
164
164
164
164
164
164
164
165
165
165
165
165
164
164
167
167
163
165
164
165
187
189
188
188
189
189
189
188
189
189
180
165
165
165
166
166
165
156
124
125
126
127
127
125
124
152
167
248
255
255
255
254
253
253
255
254
254
254
254
254
254
254
254
254
254
255
254
255
254
254
0
0
0
0
0
0
0
0
0
0
0
0
0
0
0
0
0
0
0
0
0
0
0
0
0
0
0
0
0
0
0
0
0
0
0
0
0
0
0
0
0
0
0
0
0
0
0
0
0
0
0
0
0
0
0
0
0
0
0
0
0
0
0
0
0
0
0
0
0
0
0
0
0
0
0
0
0
0
0
0
0
0
0
0
0
0
0
0
0
0
0
0
0
0
0
0
0
0
0
0
0
0
0
0
0
0
0
0
0
0
0
0
0
0
0
0
0
0
0
0
0
0
0
0
0
0
0
0
0
0
0
0
0
0
0
0
0
0
0
0
0
0
0
0
0
0
0
0
0
0
0
0
0
0
0
0
0
0
0
0
0
0
0
0
0
0
0
0
0
0
0
0
0
0
0
0
0
0
0
0
0
0
0
0
0
0
0
0
0
0
0
0
0
0
0
0
0
0
0
0
0
0
0
0
0
0
0
0
0
0
0
0
0
0
0
0
0
0
0
0
0
0
0
0
0
0
0
0
0
0
0
0
0
0
0
0
0
0
0
0
0
0
0
0
0
0
0
0
0
0
0
0
0
0
0
0
0
0
0
0
0
0
0
0
0
0
0
0
0
0
0
0
0
0
0
0
0
0
0
0
0
0
0
0
0
0
0
0
0
0
0
0
0
0
0
0
0
0
0
0
0
0
0
0
0
0
0
0
0
0
0
0
0
0
0
0
0
0
0
0
0
0
0
0
0
0
0
0
0
0
0
0
0
0
0
0
0
0
0
0
0
0
0
0
0
0
0
0
0
0
0
0
0
161
163
163
163
163
164
164
164
163
163
163
164
164
164
164
164
164
164
164
164
163
163
163
163
163
164
164
164
164
164
164
164
164
164
165
171
166
172
167
164
164
163
165
165
165
165
163
162
161
160
160
149
132
132
127
128
130
130
128
124
124
177
229
230
229
229
229
229
229
236
235
254
254
255
255
254
255
255
255
254
254
254
254
254
254
254
255
254
255
254
254
254
254
254
254
254
255
255
255
255
254
254
254
255
255
255
254
255
255
255
254
255
255
254
253
253
254
255
255
255
254
254
254
255
255
255
254
248
218
122
126
127
127
130
126
125
125
163
166
166
165
165
165
164
167
166
164
165
166
166
164
165
164
164
165
165
165
165
163
163
165
164
167
167
167
164
164
164
184
188
188
188
189
189
189
190
189
189
180
165
165
165
166
166
164
147
125
125
125
127
127
125
125
167
188
249
254
254
255
255
255
253
254
254
254
254
254
254
254
254
254
254
255
254
254
255
254
254
0
0
0
0
0
0
0
0
0
0
0
0
0
0
0
0
0
0
0
0
0
0
0
0
0
0
0
0
0
0
0
0
0
0
0
0
0
0
0
0
0
0
0
0
0
0
0
0
0
0
0
0
0
0
0
0
0
0
0
0
0
0
0
0
0
0
0
0
0
0
0
0
0
0
0
0
0
0
0
0
0
0
0
0
0
0
0
0
0
0
0
0
0
0
0
0
0
0
0
0
0
0
0
0
0
0
0
0
0
0
0
0
0
0
0
0
0
0
0
0
0
0
0
0
0
0
0
0
0
0
0
0
0
0
0
0
0
0
0
0
0
0
0
0
0
0
0
0
0
0
0
0
0
0
0
0
0
0
0
0
0
0
0
0
0
0
0
0
0
0
0
0
0
0
0
0
0
0
0
0
0
0
0
0
0
0
0
0
0
0
0
0
0
0
0
0
0
0
0
0
0
0
0
0
0
0
0
0
0
0
0
0
0
0
0
0
0
0
0
0
0
0
0
0
0
0
0
0
0
0
0
0
0
0
0
0
0
0
0
0
0
0
0
0
0
0
0
0
0
0
0
0
0
0
0
0
0
0
0
0
0
0
0
0
0
0
0
0
0
0
0
0
0
0
0
0
0
0
0
0
0
0
0
0
0
0
0
0
0
0
0
0
0
0
0
0
0
0
0
0
0
0
0
0
0
0
0
0
0
0
0
0
0
0
0
0
0
0
0
0
0
0
0
0
0
0
0
0
0
0
0
0
0
0
0
0
0
0
0
0
0
0
0
0
0
0
0
0
0
0
0
0
142
161
163
163
163
163
164
164
164
163
163
164
164
164
164
164
164
164
164
164
164
163
163
163
163
163
164
164
164
164
164
164
164
165
177
174
178
176
179
169
163
162
162
163
163
163
162
161
158
159
144
131
131
127
129
129
129
129
125
124
179
230
230
229
229
230
231
229
235
236
254
254
255
255
254
255
255
255
254
255
255
254
254
254
254
254
254
255
255
255
254
254
254
254
254
254
254
255
255
255
255
254
255
255
255
255
255
254
255
255
255
254
255
255
254
254
255
255
255
254
254
254
254
254
255
254
253
251
159
127
124
125
127
123
129
128
152
164
167
165
166
167
165
166
167
164
167
165
165
166
165
164
165
165
165
165
165
164
165
164
164
165
164
167
166
167
165
165
165
182
189
189
189
189
188
189
190
189
188
179
165
165
165
166
166
164
143
126
126
125
127
128
125
121
208
227
250
253
252
254
255
254
255
252
254
254
254
254
254
254
254
254
253
255
254
255
254
254
254
0
0
0
0
0
0
0
0
0
0
0
0
0
0
0
0
0
0
0
0
0
0
0
0
0
0
0
0
0
0
0
0
0
0
0
0
0
0
0
0
0
0
0
0
0
0
0
0
0
0
0
0
0
0
0
0
0
0
0
0
0
0
0
0
0
0
0
0
0
0
0
0
0
0
0
0
0
0
0
0
0
0
0
0
0
0
0
0
0
0
0
0
0
0
0
0
0
0
0
0
0
0
0
0
0
0
0
0
0
0
0
0
0
0
0
0
0
0
0
0
0
0
0
0
0
0
0
0
0
0
0
0
0
0
0
0
0
0
0
0
0
0
0
0
0
0
0
0
0
0
0
0
0
0
0
0
0
0
0
0
0
0
0
0
0
0
0
0
0
0
0
0
0
0
0
0
0
0
0
0
0
0
0
0
0
0
0
0
0
0
0
0
0
0
0
0
0
0
0
0
0
0
0
0
0
0
0
0
0
0
0
0
0
0
0
0
0
0
0
0
0
0
0
0
0
0
0
0
0
0
0
0
0
0
0
0
0
0
0
0
0
0
0
0
0
0
0
0
0
0
0
0
0
0
0
0
0
0
0
0
0
0
0
0
0
0
0
0
0
0
0
0
0
0
0
0
0
0
0
0
0
0
0
0
0
0
0
0
0
0
0
0
0
0
0
0
0
0
0
0
0
0
0
0
0
0
0
0
0
0
0
0
0
0
0
0
0
0
0
0
0
0
0
0
0
0
0
0
0
0
0
0
0
0
0
0
0
0
0
0
0
0
0
0
0
0
0
0
0
0
0
142
142
161
163
163
163
163
164
163
163
163
164
164
164
164
164
164
164
164
164
164
164
163
163
163
163
163
164
164
164
164
164
165
174
177
184
184
183
179
178
167
162
163
164
163
162
164
158
158
138
130
131
128
130
129
129
128
121
125
184
230
230
230
230
229
230
230
235
235
255
254
255
255
253
254
255
254
254
254
255
255
255
254
254
254
254
254
255
255
255
254
254
254
255
254
254
254
254
255
255
255
255
255
255
255
255
255
255
255
255
255
255
255
255
255
255
255
255
254
254
254
255
254
254
255
254
253
248
126
126
124
128
127
123
128
126
162
164
166
165
166
166
165
166
165
166
165
165
164
165
165
165
164
164
165
165
165
164
165
165
164
165
166
164
166
166
164
165
166
165
182
189
190
189
188
188
188
189
188
188
178
165
165
164
166
166
166
133
126
126
126
128
129
124
121
227
242
251
252
253
252
254
254
255
254
254
254
254
254
254
254
253
253
254
254
255
255
254
254
254
0
0
0
0
0
0
0
0
0
0
0
0
0
0
0
0
0
0
0
0
0
0
0
0
0
0
0
0
0
0
0
0
0
0
0
0
0
0
0
0
0
0
0
0
0
0
0
0
0
0
0
0
0
0
0
0
0
0
0
0
0
0
0
0
0
0
0
0
0
0
0
0
0
0
0
0
0
0
0
0
0
0
0
0
0
0
0
0
0
0
0
0
0
0
0
0
0
0
0
0
0
0
0
0
0
0
0
0
0
0
0
0
0
0
0
0
0
0
0
0
0
0
0
0
0
0
0
0
0
0
0
0
0
0
0
0
0
0
0
0
0
0
0
0
0
0
0
0
0
0
0
0
0
0
0
0
0
0
0
0
0
0
0
0
0
0
0
0
0
0
0
0
0
0
0
0
0
0
0
0
0
0
0
0
0
0
0
0
0
0
0
0
0
0
0
0
0
0
0
0
0
0
0
0
0
0
0
0
0
0
0
0
0
0
0
0
0
0
0
0
0
0
0
0
0
0
0
0
0
0
0
0
0
0
0
0
0
0
0
0
0
0
0
0
0
0
0
0
0
0
0
0
0
0
0
0
0
0
0
0
0
0
0
0
0
0
0
0
0
0
0
0
0
0
0
0
0
0
0
0
0
0
0
0
0
0
0
0
0
0
0
0
0
0
0
0
0
0
0
0
0
0
0
0
0
0
0
0
0
0
0
0
0
0
0
0
0
0
0
0
0
0
0
0
0
0
0
0
0
0
0
0
0
0
0
0
0
0
0
0
0
0
0
0
0
0
0
0
0
0
130
143
143
161
163
162
163
163
163
163
163
164
164
164
164
164
164
164
164
164
164
164
164
163
163
163
163
163
164
164
164
165
166
166
185
181
184
182
184
176
176
165
164
164
164
163
160
157
136
129
129
128
130
130
130
125
121
121
189
231
231
230
230
230
230
229
235
235
254
254
255
255
254
254
254
254
254
255
254
254
255
255
255
254
254
254
254
254
255
254
254
254
254
255
255
255
254
254
254
255
255
255
255
254
254
255
255
255
255
255
255
254
255
255
255
255
255
254
254
254
255
255
254
251
254
254
251
183
120
128
128
127
127
125
127
127
137
166
166
166
165
165
165
164
166
166
164
165
164
164
165
165
165
164
164
165
165
165
164
164
165
164
164
166
165
166
166
164
166
166
165
181
190
190
187
188
189
189
189
189
189
174
165
165
164
167
166
165
126
126
126
125
127
124
124
133
247
247
252
254
254
252
254
254
255
254
254
254
254
255
255
254
254
254
254
254
255
255
254
254
254
0
0
0
0
0
0
0
0
0
0
0
0
0
0
0
0
0
0
0
0
0
0
0
0
0
0
0
0
0
0
0
0
0
0
0
0
0
0
0
0
0
0
0
0
0
0
0
0
0
0
0
0
0
0
0
0
0
0
0
0
0
0
0
0
0
0
0
0
0
0
0
0
0
0
0
0
0
0
0
0
0
0
0
0
0
0
0
0
0
0
0
0
0
0
0
0
0
0
0
0
0
0
0
0
0
0
0
0
0
0
0
0
0
0
0
0
0
0
0
0
0
0
0
0
0
0
0
0
0
0
0
0
0
0
0
0
0
0
0
0
0
0
0
0
0
0
0
0
0
0
0
0
0
0
0
0
0
0
0
0
0
0
0
0
0
0
0
0
0
0
0
0
0
0
0
0
0
0
0
0
0
0
0
0
0
0
0
0
0
0
0
0
0
0
0
0
0
0
0
0
0
0
0
0
0
0
0
0
0
0
0
0
0
0
0
0
0
0
0
0
0
0
0
0
0
0
0
0
0
0
0
0
0
0
0
0
0
0
0
0
0
0
0
0
0
0
0
0
0
0
0
0
0
0
0
0
0
0
0
0
0
0
0
0
0
0
0
0
0
0
0
0
0
0
0
0
0
0
0
0
0
0
0
0
0
0
0
0
0
0
0
0
0
0
0
0
0
0
0
0
0
0
0
0
0
0
0
0
0
0
0
0
0
0
0
0
0
0
0
0
0
0
0
0
0
0
0
0
0
0
0
0
0
0
0
0
0
0
0
0
0
0
0
0
0
0
0
0
0
130
131
144
145
160
162
163
163
163
162
163
163
164
164
164
164
164
164
164
164
164
164
164
164
163
163
163
163
163
164
164
165
166
179
182
182
184
185
184
183
171
165
164
163
162
162
160
150
130
129
128
128
130
130
131
127
126
197
233
231
230
229
230
230
230
235
235
254
254
254
255
255
255
255
254
254
255
255
255
254
254
254
255
255
254
254
254
254
254
255
254
254
254
254
255
255
255
254
255
255
254
255
254
255
254
254
254
255
255
255
254
254
254
255
255
255
255
255
254
254
255
255
255
254
252
254
250
147
120
125
129
122
124
123
126
127
146
166
168
166
166
166
166
166
164
166
166
166
166
165
166
165
165
165
164
165
166
166
166
165
164
165
164
164
165
165
166
166
164
166
166
164
181
189
189
188
189
189
190
188
188
188
169
165
166
165
166
166
161
122
128
128
127
124
125
124
159
248
252
254
253
254
254
254
254
255
255
254
254
254
255
255
255
254
254
254
254
255
255
254
254
254
0
0
0
0
0
0
0
0
0
0
0
0
0
0
0
0
0
0
0
0
0
0
0
0
0
0
0
0
0
0
0
0
0
0
0
0
0
0
0
0
0
0
0
0
0
0
0
0
0
0
0
0
0
0
0
0
0
0
0
0
0
0
0
0
0
0
0
0
0
0
0
0
0
0
0
0
0
0
0
0
0
0
0
0
0
0
0
0
0
0
0
0
0
0
0
0
0
0
0
0
0
0
0
0
0
0
0
0
0
0
0
0
0
0
0
0
0
0
0
0
0
0
0
0
0
0
0
0
0
0
0
0
0
0
0
0
0
0
0
0
0
0
0
0
0
0
0
0
0
0
0
0
0
0
0
0
0
0
0
0
0
0
0
0
0
0
0
0
0
0
0
0
0
0
0
0
0
0
0
0
0
0
0
0
0
0
0
0
0
0
0
0
0
0
0
0
0
0
0
0
0
0
0
0
0
0
0
0
0
0
0
0
0
0
0
0
0
0
0
0
0
0
0
0
0
0
0
0
0
0
0
0
0
0
0
0
0
0
0
0
0
0
0
0
0
0
0
0
0
0
0
0
0
0
0
0
0
0
0
0
0
0
0
0
0
0
0
0
0
0
0
0
0
0
0
0
0
0
0
0
0
0
0
0
0
0
0
0
0
0
0
0
0
0
0
0
0
0
0
0
0
0
0
0
0
0
0
0
0
0
0
0
0
0
0
0
0
0
0
0
0
0
0
0
0
0
0
0
0
0
0
0
0
0
0
0
0
0
0
0
0
0
0
0
0
0
0
0
130
130
130
146
146
160
163
163
163
164
162
162
163
164
164
164
164
164
164
164
164
164
164
164
164
163
163
163
163
163
164
164
165
177
182
182
183
183
183
179
170
165
165
164
163
163
156
139
139
128
127
129
129
130
126
126
174
229
233
232
229
230
230
230
235
235
255
254
254
254
255
255
255
255
254
254
254
255
255
255
254
254
255
255
254
254
254
254
254
254
254
254
254
254
254
255
255
255
254
255
255
254
254
254
255
254
254
254
255
255
255
254
254
254
255
255
255
255
254
254
254
254
252
252
255
253
228
228
121
129
129
126
125
129
129
127
137
137
151
160
166
164
164
166
166
164
166
166
166
165
166
166
165
165
165
165
164
166
165
165
165
165
165
166
166
164
164
165
165
164
166
166
165
183
189
189
189
187
187
189
188
188
188
164
165
165
166
165
165
152
124
126
126
127
127
127
120
226
252
254
254
254
254
253
254
254
255
255
254
254
254
255
255
255
254
254
254
254
255
255
254
254
255
0
0
0
0
0
0
0
0
0
0
0
0
0
0
0
0
0
0
0
0
0
0
0
0
0
0
0
0
0
0
0
0
0
0
0
0
0
0
0
0
0
0
0
0
0
0
0
0
0
0
0
0
0
0
0
0
0
0
0
0
0
0
0
0
0
0
0
0
0
0
0
0
0
0
0
0
0
0
0
0
0
0
0
0
0
0
0
0
0
0
0
0
0
0
0
0
0
0
0
0
0
0
0
0
0
0
0
0
0
0
0
0
0
0
0
0
0
0
0
0
0
0
0
0
0
0
0
0
0
0
0
0
0
0
0
0
0
0
0
0
0
0
0
0
0
0
0
0
0
0
0
0
0
0
0
0
0
0
0
0
0
0
0
0
0
0
0
0
0
0
0
0
0
0
0
0
0
0
0
0
0
0
0
0
0
0
0
0
0
0
0
0
0
0
0
0
0
0
0
0
0
0
0
0
0
0
0
0
0
0
0
0
0
0
0
0
0
0
0
0
0
0
0
0
0
0
0
0
0
0
0
0
0
0
0
0
0
0
0
0
0
0
0
0
0
0
0
0
0
0
0
0
0
0
0
0
0
0
0
0
0
0
0
0
0
0
0
0
0
0
0
0
0
0
0
0
0
0
0
0
0
0
0
0
0
0
0
0
0
0
0
0
0
0
0
0
0
0
0
0
0
0
0
0
0
0
0
0
0
0
0
0
0
0
0
0
0
0
0
0
0
0
0
0
0
0
0
0
0
0
0
0
0
0
0
0
0
0
0
0
0
0
0
0
0
0
0
129
129
129
130
147
149
160
163
163
163
163
163
163
163
164
164
165
164
164
164
164
164
164
164
164
164
163
163
163
164
161
164
164
167
180
182
183
184
182
174
172
165
164
163
163
164
163
148
134
132
130
129
127
132
133
127
123
182
229
231
232
231
230
235
235
255
254
255
254
255
254
254
255
255
255
254
254
254
255
255
255
254
254
255
255
254
254
254
254
254
254
254
254
254
254
254
255
254
254
254
255
255
254
254
254
255
254
255
255
255
255
255
254
254
254
254
255
255
255
254
255
253
255
255
249
253
248
133
121
126
127
125
124
129
123
128
125
125
121
127
137
154
131
165
166
163
165
165
165
166
164
165
165
165
165
165
164
166
165
165
165
164
165
165
165
164
165
165
166
166
165
166
166
165
185
189
190
189
189
190
188
189
187
185
164
165
165
166
162
165
129
125
125
125
127
126
124
125
243
255
254
255
254
254
254
254
254
254
255
254
254
255
255
255
254
254
254
254
254
255
255
254
255
255
0
0
0
0
0
0
0
0
0
0
0
0
0
0
0
0
0
0
0
0
0
0
0
0
0
0
0
0
0
0
0
0
0
0
0
0
0
0
0
0
0
0
0
0
0
0
0
0
0
0
0
0
0
0
0
0
0
0
0
0
0
0
0
0
0
0
0
0
0
0
0
0
0
0
0
0
0
0
0
0
0
0
0
0
0
0
0
0
0
0
0
0
0
0
0
0
0
0
0
0
0
0
0
0
0
0
0
0
0
0
0
0
0
0
0
0
0
0
0
0
0
0
0
0
0
0
0
0
0
0
0
0
0
0
0
0
0
0
0
0
0
0
0
0
0
0
0
0
0
0
0
0
0
0
0
0
0
0
0
0
0
0
0
0
0
0
0
0
0
0
0
0
0
0
0
0
0
0
0
0
0
0
0
0
0
0
0
0
0
0
0
0
0
0
0
0
0
0
0
0
0
0
0
0
0
0
0
0
0
0
0
0
0
0
0
0
0
0
0
0
0
0
0
0
0
0
0
0
0
0
0
0
0
0
0
0
0
0
0
0
0
0
0
0
0
0
0
0
0
0
0
0
0
0
0
0
0
0
0
0
0
0
0
0
0
0
0
0
0
0
0
0
0
0
0
0
0
0
0
0
0
0
0
0
0
0
0
0
0
0
0
0
0
0
0
0
0
0
0
0
0
0
0
0
0
0
0
0
0
0
0
0
0
0
0
0
0
0
0
0
0
0
0
0
0
0
0
0
0
0
0
0
0
0
0
0
0
0
0
0
0
0
0
0
0
0
128
129
129
129
133
149
152
161
163
163
164
164
163
163
163
164
164
164
164
164
164
164
164
164
164
164
164
163
163
164
162
164
165
165
167
177
183
179
171
174
165
164
163
163
162
162
163
159
134
131
131
129
126
132
132
127
123
123
166
233
232
228
237
235
255
254
255
255
255
254
254
254
255
254
254
255
254
254
254
255
255
255
254
255
255
255
254
254
254
254
254
254
254
254
254
254
254
254
254
254
254
255
255
254
254
255
255
254
254
255
255
255
255
254
255
255
254
255
255
254
255
253
255
255
254
254
248
136
121
126
124
127
127
125
125
128
127
129
121
129
127
124
131
127
133
163
153
167
165
165
166
165
165
167
165
165
165
165
166
165
165
166
165
164
164
164
164
165
163
166
166
165
165
165
166
189
190
190
189
190
190
187
189
185
179
165
165
165
165
167
167
125
125
125
125
125
124
126
175
251
254
254
255
254
254
254
254
254
254
255
254
254
254
255
255
255
254
254
254
255
255
254
255
254
254
0
0
0
0
0
0
0
0
0
0
0
0
0
0
0
0
0
0
0
0
0
0
0
0
0
0
0
0
0
0
0
0
0
0
0
0
0
0
0
0
0
0
0
0
0
0
0
0
0
0
0
0
0
0
0
0
0
0
0
0
0
0
0
0
0
0
0
0
0
0
0
0
0
0
0
0
0
0
0
0
0
0
0
0
0
0
0
0
0
0
0
0
0
0
0
0
0
0
0
0
0
0
0
0
0
0
0
0
0
0
0
0
0
0
0
0
0
0
0
0
0
0
0
0
0
0
0
0
0
0
0
0
0
0
0
0
0
0
0
0
0
0
0
0
0
0
0
0
0
0
0
0
0
0
0
0
0
0
0
0
0
0
0
0
0
0
0
0
0
0
0
0
0
0
0
0
0
0
0
0
0
0
0
0
0
0
0
0
0
0
0
0
0
0
0
0
0
0
0
0
0
0
0
0
0
0
0
0
0
0
0
0
0
0
0
0
0
0
0
0
0
0
0
0
0
0
0
0
0
0
0
0
0
0
0
0
0
0
0
0
0
0
0
0
0
0
0
0
0
0
0
0
0
0
0
0
0
0
0
0
0
0
0
0
0
0
0
0
0
0
0
0
0
0
0
0
0
0
0
0
0
0
0
0
0
0
0
0
0
0
0
0
0
0
0
0
0
0
0
0
0
0
0
0
0
0
0
0
0
0
0
0
0
0
0
0
0
0
0
0
0
0
0
0
0
0
0
0
0
0
0
0
0
0
0
0
0
0
0
0
0
0
0
0
0
134
130
129
130
130
132
153
154
161
163
163
163
164
163
163
164
164
164
164
164
164
164
164
164
164
164
164
164
163
163
163
163
164
164
165
165
172
164
164
165
165
163
163
163
163
163
162
158
159
134
128
128
129
130
129
129
131
125
124
159
231
236
236
255
255
255
255
255
254
254
254
254
254
254
255
255
255
254
254
254
255
255
255
255
254
255
255
254
254
254
254
254
254
254
254
254
254
254
254
254
254
254
255
255
254
255
254
255
254
254
255
255
254
254
255
255
255
254
254
254
254
255
253
255
254
255
250
235
119
125
121
128
130
125
127
125
128
128
127
126
127
126
128
124
124
127
139
129
164
166
165
164
163
164
164
164
165
165
166
166
166
166
166
165
165
164
165
165
165
164
166
166
165
165
163
166
188
190
190
188
189
188
188
186
175
175
164
165
166
165
158
142
125
124
125
125
125
124
120
214
252
254
254
255
254
254
254
254
255
255
255
254
254
254
255
255
255
255
254
254
254
254
254
255
254
254
0
0
0
0
0
0
0
0
0
0
0
0
0
0
0
0
0
0
0
0
0
0
0
0
0
0
0
0
0
0
0
0
0
0
0
0
0
0
0
0
0
0
0
0
0
0
0
0
0
0
0
0
0
0
0
0
0
0
0
0
0
0
0
0
0
0
0
0
0
0
0
0
0
0
0
0
0
0
0
0
0
0
0
0
0
0
0
0
0
0
0
0
0
0
0
0
0
0
0
0
0
0
0
0
0
0
0
0
0
0
0
0
0
0
0
0
0
0
0
0
0
0
0
0
0
0
0
0
0
0
0
0
0
0
0
0
0
0
0
0
0
0
0
0
0
0
0
0
0
0
0
0
0
0
0
0
0
0
0
0
0
0
0
0
0
0
0
0
0
0
0
0
0
0
0
0
0
0
0
0
0
0
0
0
0
0
0
0
0
0
0
0
0
0
0
0
0
0
0
0
0
0
0
0
0
0
0
0
0
0
0
0
0
0
0
0
0
0
0
0
0
0
0
0
0
0
0
0
0
0
0
0
0
0
0
0
0
0
0
0
0
0
0
0
0
0
0
0
0
0
0
0
0
0
0
0
0
0
0
0
0
0
0
0
0
0
0
0
0
0
0
0
0
0
0
0
0
0
0
0
0
0
0
0
0
0
0
0
0
0
0
0
0
0
0
0
0
0
0
0
0
0
0
0
0
0
0
0
0
0
0
0
0
0
0
0
0
0
0
0
0
0
0
0
0
0
0
0
0
0
0
0
0
0
0
0
0
0
0
0
0
0
0
0
134
127
128
129
130
130
133
154
154
161
163
163
164
164
163
164
164
164
164
164
164
164
164
164
164
164
165
164
165
164
164
163
165
165
165
165
164
165
165
164
163
163
163
164
164
164
164
161
159
157
137
128
129
130
128
131
127
131
124
123
145
241
252
252
254
255
255
254
254
255
255
254
254
254
255
255
255
255
254
254
254
255
255
255
255
254
255
255
255
254
254
254
254
254
255
255
254
254
254
254
254
254
255
255
255
254
254
255
255
254
254
255
255
254
254
255
255
254
254
253
255
255
254
255
251
254
250
251
140
127
121
129
127
125
125
125
125
123
127
127
127
127
126
126
126
126
127
129
125
154
165
166
165
164
164
164
165
165
165
165
165
166
164
165
165
165
164
165
165
164
165
166
165
165
163
164
174
188
190
190
189
188
188
191
185
169
167
164
166
166
167
142
132
128
125
126
125
126
120
133
248
254
254
255
255
254
254
254
255
255
255
254
254
254
255
255
255
255
255
254
254
254
254
254
254
254
254
0
0
0
0
0
0
0
0
0
0
0
0
0
0
0
0
0
0
0
0
0
0
0
0
0
0
0
0
0
0
0
0
0
0
0
0
0
0
0
0
0
0
0
0
0
0
0
0
0
0
0
0
0
0
0
0
0
0
0
0
0
0
0
0
0
0
0
0
0
0
0
0
0
0
0
0
0
0
0
0
0
0
0
0
0
0
0
0
0
0
0
0
0
0
0
0
0
0
0
0
0
0
0
0
0
0
0
0
0
0
0
0
0
0
0
0
0
0
0
0
0
0
0
0
0
0
0
0
0
0
0
0
0
0
0
0
0
0
0
0
0
0
0
0
0
0
0
0
0
0
0
0
0
0
0
0
0
0
0
0
0
0
0
0
0
0
0
0
0
0
0
0
0
0
0
0
0
0
0
0
0
0
0
0
0
0
0
0
0
0
0
0
0
0
0
0
0
0
0
0
0
0
0
0
0
0
0
0
0
0
0
0
0
0
0
0
0
0
0
0
0
0
0
0
0
0
0
0
0
0
0
0
0
0
0
0
0
0
0
0
0
0
0
0
0
0
0
0
0
0
0
0
0
0
0
0
0
0
0
0
0
0
0
0
0
0
0
0
0
0
0
0
0
0
0
0
0
0
0
0
0
0
0
0
0
0
0
0
0
0
0
0
0
0
0
0
0
0
0
0
0
0
0
0
0
0
0
0
0
0
0
0
0
0
0
0
0
0
0
0
0
0
0
0
0
0
0
0
0
0
0
0
0
0
0
0
0
0
0
0
0
0
0
230
124
124
130
129
130
130
134
156
156
161
163
163
164
163
164
164
164
164
164
163
164
164
164
164
164
164
165
165
165
164
164
164
164
164
165
165
164
163
163
163
163
163
163
164
164
162
162
164
158
158
138
129
129
130
128
128
128
132
124
124
145
248
252
252
254
255
255
255
255
255
255
254
255
255
255
254
254
255
254
254
254
254
255
255
255
254
255
255
255
254
254
254
254
254
255
255
254
254
254
255
255
254
255
255
255
254
255
255
255
254
254
255
255
254
254
254
254
254
254
254
255
255
254
254
254
254
248
241
133
124
123
123
129
127
127
128
126
127
127
125
127
127
122
127
125
125
124
125
125
148
167
167
164
166
164
164
165
165
165
165
164
165
165
165
165
165
164
165
165
165
165
165
165
167
164
164
179
190
190
190
189
188
188
187
184
165
165
164
166
166
167
129
129
125
127
127
127
126
178
178
250
254
255
255
255
255
255
254
255
255
255
254
254
254
255
255
255
255
254
254
254
254
255
255
254
254
254
0
0
0
0
0
0
0
0
0
0
0
0
0
0
0
0
0
0
0
0
0
0
0
0
0
0
0
0
0
0
0
0
0
0
0
0
0
0
0
0
0
0
0
0
0
0
0
0
0
0
0
0
0
0
0
0
0
0
0
0
0
0
0
0
0
0
0
0
0
0
0
0
0
0
0
0
0
0
0
0
0
0
0
0
0
0
0
0
0
0
0
0
0
0
0
0
0
0
0
0
0
0
0
0
0
0
0
0
0
0
0
0
0
0
0
0
0
0
0
0
0
0
0
0
0
0
0
0
0
0
0
0
0
0
0
0
0
0
0
0
0
0
0
0
0
0
0
0
0
0
0
0
0
0
0
0
0
0
0
0
0
0
0
0
0
0
0
0
0
0
0
0
0
0
0
0
0
0
0
0
0
0
0
0
0
0
0
0
0
0
0
0
0
0
0
0
0
0
0
0
0
0
0
0
0
0
0
0
0
0
0
0
0
0
0
0
0
0
0
0
0
0
0
0
0
0
0
0
0
0
0
0
0
0
0
0
0
0
0
0
0
0
0
0
0
0
0
0
0
0
0
0
0
0
0
0
0
0
0
0
0
0
0
0
0
0
0
0
0
0
0
0
0
0
0
0
0
0
0
0
0
0
0
0
0
0
0
0
0
0
0
0
0
0
0
0
0
0
0
0
0
0
0
0
0
0
0
0
0
0
0
0
0
0
0
0
0
0
0
0
0
0
0
0
0
0
0
0
0
0
0
0
0
0
0
0
0
0
0
0
0
0
230
229
124
123
129
128
130
130
134
157
159
162
163
163
163
163
164
164
164
163
163
163
164
164
163
164
164
164
165
165
164
164
164
163
165
163
163
163
162
162
162
163
162
163
164
165
162
164
164
164
158
158
138
129
130
129
130
130
126
131
125
125
130
248
253
251
254
255
255
255
255
255
255
254
254
254
254
254
254
254
254
255
255
254
255
255
255
254
255
255
255
254
255
254
254
254
254
255
254
254
254
255
255
254
255
255
255
254
255
255
255
254
254
255
255
254
254
254
254
254
254
254
254
254
252
252
252
253
241
237
162
121
127
121
125
124
126
124
125
125
129
126
128
129
127
127
124
127
122
125
126
148
166
165
167
164
165
165
165
165
165
164
165
165
165
165
165
164
164
165
166
164
167
166
167
166
164
164
186
190
189
190
191
189
188
190
177
165
165
166
166
166
158
126
128
127
125
123
122
121
229
246
255
254
254
255
255
255
255
254
255
255
255
254
254
255
255
255
255
255
254
254
254
254
255
255
254
254
254
0
0
0
0
0
0
0
0
0
0
0
0
0
0
0
0
0
0
0
0
0
0
0
0
0
0
0
0
0
0
0
0
0
0
0
0
0
0
0
0
0
0
0
0
0
0
0
0
0
0
0
0
0
0
0
0
0
0
0
0
0
0
0
0
0
0
0
0
0
0
0
0
0
0
0
0
0
0
0
0
0
0
0
0
0
0
0
0
0
0
0
0
0
0
0
0
0
0
0
0
0
0
0
0
0
0
0
0
0
0
0
0
0
0
0
0
0
0
0
0
0
0
0
0
0
0
0
0
0
0
0
0
0
0
0
0
0
0
0
0
0
0
0
0
0
0
0
0
0
0
0
0
0
0
0
0
0
0
0
0
0
0
0
0
0
0
0
0
0
0
0
0
0
0
0
0
0
0
0
0
0
0
0
0
0
0
0
0
0
0
0
0
0
0
0
0
0
0
0
0
0
0
0
0
0
0
0
0
0
0
0
0
0
0
0
0
0
0
0
0
0
0
0
0
0
0
0
0
0
0
0
0
0
0
0
0
0
0
0
0
0
0
0
0
0
0
0
0
0
0
0
0
0
0
0
0
0
0
0
0
0
0
0
0
0
0
0
0
0
0
0
0
0
0
0
0
0
0
0
0
0
0
0
0
0
0
0
0
0
0
0
0
0
0
0
0
0
0
0
0
0
0
0
0
0
0
0
0
0
0
0
0
0
0
0
0
0
0
0
0
0
0
0
0
0
0
0
0
0
0
0
0
0
0
0
0
0
0
0
0
0
230
231
223
123
123
129
129
130
130
134
159
159
162
163
163
163
163
164
164
164
163
163
164
164
163
163
164
164
164
164
164
164
164
164
165
163
162
162
162
162
163
163
163
164
164
164
163
162
164
164
163
158
159
140
130
130
130
128
126
128
130
127
127
127
246
251
253
254
255
255
255
254
254
255
254
254
254
254
255
255
255
255
255
255
254
255
255
255
254
255
255
255
255
255
254
254
254
255
255
254
254
254
254
254
254
255
255
255
254
255
255
255
254
254
254
254
254
255
254
254
254
255
254
254
255
254
252
252
253
228
228
200
152
121
123
119
122
122
124
122
129
123
124
125
125
124
126
127
127
125
126
127
155
164
164
166
165
165
165
165
165
165
165
164
165
165
165
165
165
164
166
166
164
164
167
166
163
167
167
188
190
190
188
190
188
188
190
166
165
165
166
166
166
128
126
126
123
129
122
123
157
248
248
252
255
255
255
255
255
255
254
255
255
255
254
255
254
254
255
255
254
254
254
254
254
255
255
254
254
254
0
0
0
0
0
0
0
0
0
0
0
0
0
0
0
0
0
0
0
0
0
0
0
0
0
0
0
0
0
0
0
0
0
0
0
0
0
0
0
0
0
0
0
0
0
0
0
0
0
0
0
0
0
0
0
0
0
0
0
0
0
0
0
0
0
0
0
0
0
0
0
0
0
0
0
0
0
0
0
0
0
0
0
0
0
0
0
0
0
0
0
0
0
0
0
0
0
0
0
0
0
0
0
0
0
0
0
0
0
0
0
0
0
0
0
0
0
0
0
0
0
0
0
0
0
0
0
0
0
0
0
0
0
0
0
0
0
0
0
0
0
0
0
0
0
0
0
0
0
0
0
0
0
0
0
0
0
0
0
0
0
0
0
0
0
0
0
0
0
0
0
0
0
0
0
0
0
0
0
0
0
0
0
0
0
0
0
0
0
0
0
0
0
0
0
0
0
0
0
0
0
0
0
0
0
0
0
0
0
0
0
0
0
0
0
0
0
0
0
0
0
0
0
0
0
0
0
0
0
0
0
0
0
0
0
0
0
0
0
0
0
0
0
0
0
0
0
0
0
0
0
0
0
0
0
0
0
0
0
0
0
0
0
0
0
0
0
0
0
0
0
0
0
0
0
0
0
0
0
0
0
0
0
0
0
0
0
0
0
0
0
0
0
0
0
0
0
0
0
0
0
0
0
0
0
0
0
0
0
0
0
0
0
0
0
0
0
0
0
0
0
0
0
0
0
0
0
0
0
0
0
0
0
0
0
0
0
0
0
0
230
230
229
218
123
124
130
130
130
130
136
159
159
162
163
163
163
163
164
164
164
164
164
164
163
163
163
163
163
163
164
164
164
164
163
162
162
162
162
163
163
164
164
165
165
165
165
163
162
164
164
162
159
159
140
131
132
128
127
130
130
129
128
127
126
247
253
252
254
254
254
254
255
255
255
254
254
254
255
255
255
255
255
255
255
254
255
255
255
254
255
255
255
254
254
254
254
254
255
255
254
254
254
254
254
254
255
254
254
254
255
255
255
254
254
254
255
255
255
254
255
255
255
254
255
255
254
254
254
241
226
232
225
212
188
229
159
140
211
129
122
123
131
123
125
129
127
126
127
127
126
126
125
161
164
165
164
167
166
163
165
164
165
164
165
166
166
164
164
165
166
166
165
166
163
166
166
163
172
176
190
190
189
189
188
188
188
187
165
166
166
166
164
150
125
128
128
123
125
119
125
209
253
254
254
255
255
255
255
255
255
254
255
255
255
255
254
254
254
255
255
254
254
254
254
254
255
255
254
254
254
0
0
0
0
0
0
0
0
0
0
0
0
0
0
0
0
0
0
0
0
0
0
0
0
0
0
0
0
0
0
0
0
0
0
0
0
0
0
0
0
0
0
0
0
0
0
0
0
0
0
0
0
0
0
0
0
0
0
0
0
0
0
0
0
0
0
0
0
0
0
0
0
0
0
0
0
0
0
0
0
0
0
0
0
0
0
0
0
0
0
0
0
0
0
0
0
0
0
0
0
0
0
0
0
0
0
0
0
0
0
0
0
0
0
0
0
0
0
0
0
0
0
0
0
0
0
0
0
0
0
0
0
0
0
0
0
0
0
0
0
0
0
0
0
0
0
0
0
0
0
0
0
0
0
0
0
0
0
0
0
0
0
0
0
0
0
0
0
0
0
0
0
0
0
0
0
0
0
0
0
0
0
0
0
0
0
0
0
0
0
0
0
0
0
0
0
0
0
0
0
0
0
0
0
0
0
0
0
0
0
0
0
0
0
0
0
0
0
0
0
0
0
0
0
0
0
0
0
0
0
0
0
0
0
0
0
0
0
0
0
0
0
0
0
0
0
0
0
0
0
0
0
0
0
0
0
0
0
0
0
0
0
0
0
0
0
0
0
0
0
0
0
0
0
0
0
0
0
0
0
0
0
0
0
0
0
0
0
0
0
0
0
0
0
0
0
0
0
0
0
0
0
0
0
0
0
0
0
0
0
0
0
0
0
0
0
0
0
0
0
0
0
0
0
0
0
0
0
0
0
0
0
0
0
0
0
0
0
0
240
229
229
229
210
124
124
129
130
130
132
138
159
159
162
163
163
163
163
164
163
163
164
164
164
163
163
163
163
163
163
164
164
164
163
163
162
162
163
163
164
164
165
165
165
165
165
163
163
163
164
164
161
159
159
142
132
131
128
128
130
128
127
127
127
132
249
252
253
254
254
254
255
255
255
255
254
254
254
255
255
255
255
255
255
255
254
255
255
254
254
255
255
255
254
254
254
254
255
255
254
254
254
254
254
254
254
254
254
254
254
255
255
255
254
254
255
255
255
255
255
255
255
254
254
255
255
251
254
242
229
232
230
229
230
229
229
229
211
229
227
224
131
177
120
129
121
124
126
126
127
125
125
130
165
165
168
169
166
163
163
165
165
165
166
165
166
166
166
165
164
164
165
164
166
163
166
166
165
176
186
187
189
189
190
187
188
188
171
164
166
165
166
150
133
124
128
124
126
126
125
144
247
254
251
254
255
255
255
255
255
255
255
255
255
255
255
254
254
254
255
255
254
254
254
254
254
255
255
255
254
254
0
0
0
0
0
0
0
0
0
0
0
0
0
0
0
0
0
0
0
0
0
0
0
0
0
0
0
0
0
0
0
0
0
0
0
0
0
0
0
0
0
0
0
0
0
0
0
0
0
0
0
0
0
0
0
0
0
0
0
0
0
0
0
0
0
0
0
0
0
0
0
0
0
0
0
0
0
0
0
0
0
0
0
0
0
0
0
0
0
0
0
0
0
0
0
0
0
0
0
0
0
0
0
0
0
0
0
0
0
0
0
0
0
0
0
0
0
0
0
0
0
0
0
0
0
0
0
0
0
0
0
0
0
0
0
0
0
0
0
0
0
0
0
0
0
0
0
0
0
0
0
0
0
0
0
0
0
0
0
0
0
0
0
0
0
0
0
0
0
0
0
0
0
0
0
0
0
0
0
0
0
0
0
0
0
0
0
0
0
0
0
0
0
0
0
0
0
0
0
0
0
0
0
0
0
0
0
0
0
0
0
0
0
0
0
0
0
0
0
0
0
0
0
0
0
0
0
0
0
0
0
0
0
0
0
0
0
0
0
0
0
0
0
0
0
0
0
0
0
0
0
0
0
0
0
0
0
0
0
0
0
0
0
0
0
0
0
0
0
0
0
0
0
0
0
0
0
0
0
0
0
0
0
0
0
0
0
0
0
0
0
0
0
0
0
0
0
0
0
0
0
0
0
0
0
0
0
0
0
0
0
0
0
0
0
0
0
0
0
0
0
0
0
0
0
0
0
0
0
0
0
0
0
0
0
0
0
0
255
239
229
230
230
205
123
123
129
128
132
132
138
159
159
162
163
163
163
163
163
163
163
164
164
164
163
163
163
163
163
163
164
164
163
163
163
163
163
164
164
165
165
165
165
165
165
163
163
165
165
162
162
161
160
160
142
131
130
128
127
129
129
130
125
127
136
251
253
253
254
255
255
255
255
255
255
255
254
254
255
255
255
255
255
255
255
254
255
255
254
254
255
255
255
254
254
254
255
254
254
254
254
254
254
255
255
254
254
254
254
254
255
255
255
254
254
255
255
255
255
254
255
255
254
254
255
255
253
230
230
230
229
231
229
227
227
227
227
228
229
232
225
222
222
148
123
123
123
127
126
126
125
142
142
163
162
165
165
166
164
164
165
164
165
165
165
165
165
165
164
164
164
164
165
166
164
166
166
163
187
188
189
188
189
189
188
187
187
164
166
166
166
165
125
125
125
125
128
125
120
210
210
252
254
254
252
255
255
255
255
255
255
255
255
255
255
255
254
254
254
255
255
254
254
254
254
254
255
255
255
254
254
0
0
0
0
0
0
0
0
0
0
0
0
0
0
0
0
0
0
0
0
0
0
0
0
0
0
0
0
0
0
0
0
0
0
0
0
0
0
0
0
0
0
0
0
0
0
0
0
0
0
0
0
0
0
0
0
0
0
0
0
0
0
0
0
0
0
0
0
0
0
0
0
0
0
0
0
0
0
0
0
0
0
0
0
0
0
0
0
0
0
0
0
0
0
0
0
0
0
0
0
0
0
0
0
0
0
0
0
0
0
0
0
0
0
0
0
0
0
0
0
0
0
0
0
0
0
0
0
0
0
0
0
0
0
0
0
0
0
0
0
0
0
0
0
0
0
0
0
0
0
0
0
0
0
0
0
0
0
0
0
0
0
0
0
0
0
0
0
0
0
0
0
0
0
0
0
0
0
0
0
0
0
0
0
0
0
0
0
0
0
0
0
0
0
0
0
0
0
0
0
0
0
0
0
0
0
0
0
0
0
0
0
0
0
0
0
0
0
0
0
0
0
0
0
0
0
0
0
0
0
0
0
0
0
0
0
0
0
0
0
0
0
0
0
0
0
0
0
0
0
0
0
0
0
0
0
0
0
0
0
0
0
0
0
0
0
0
0
0
0
0
0
0
0
0
0
0
0
0
0
0
0
0
0
0
0
0
0
0
0
0
0
0
0
0
0
0
0
0
0
0
0
0
0
0
0
0
0
0
0
0
0
0
0
0
0
0
0
0
0
0
0
0
0
0
0
0
0
0
0
0
0
0
0
0
0
0
255
255
237
229
231
230
201
123
122
129
127
132
131
138
161
162
162
163
163
164
164
163
163
163
164
164
164
163
163
163
163
164
164
163
163
163
163
163
163
164
164
165
164
164
165
164
164
164
163
163
164
164
162
162
161
160
160
140
130
131
129
129
129
129
130
127
121
185
251
253
254
253
255
255
254
255
255
255
255
254
254
255
255
255
255
255
255
254
254
255
255
254
254
255
255
255
255
255
254
254
254
254
254
254
254
254
255
255
254
254
254
254
254
255
255
255
254
254
255
254
255
254
254
255
255
254
254
254
255
252
228
230
226
231
230
232
233
233
230
230
229
231
226
233
225
227
169
120
120
126
125
126
126
124
152
164
166
165
167
164
165
166
165
164
165
165
164
164
164
164
165
165
165
165
165
166
163
164
167
163
179
188
189
189
189
189
189
188
185
175
168
164
165
166
154
126
127
127
128
125
127
119
246
245
255
254
254
254
255
255
255
255
255
255
255
255
255
255
255
254
254
254
255
255
254
254
254
254
254
254
254
254
254
254
0
0
0
0
0
0
0
0
0
0
0
0
0
0
0
0
0
0
0
0
0
0
0
0
0
0
0
0
0
0
0
0
0
0
0
0
0
0
0
0
0
0
0
0
0
0
0
0
0
0
0
0
0
0
0
0
0
0
0
0
0
0
0
0
0
0
0
0
0
0
0
0
0
0
0
0
0
0
0
0
0
0
0
0
0
0
0
0
0
0
0
0
0
0
0
0
0
0
0
0
0
0
0
0
0
0
0
0
0
0
0
0
0
0
0
0
0
0
0
0
0
0
0
0
0
0
0
0
0
0
0
0
0
0
0
0
0
0
0
0
0
0
0
0
0
0
0
0
0
0
0
0
0
0
0
0
0
0
0
0
0
0
0
0
0
0
0
0
0
0
0
0
0
0
0
0
0
0
0
0
0
0
0
0
0
0
0
0
0
0
0
0
0
0
0
0
0
0
0
0
0
0
0
0
0
0
0
0
0
0
0
0
0
0
0
0
0
0
0
0
0
0
0
0
0
0
0
0
0
0
0
0
0
0
0
0
0
0
0
0
0
0
0
0
0
0
0
0
0
0
0
0
0
0
0
0
0
0
0
0
0
0
0
0
0
0
0
0
0
0
0
0
0
0
0
0
0
0
0
0
0
0
0
0
0
0
0
0
0
0
0
0
0
0
0
0
0
0
0
0
0
0
0
0
0
0
0
0
0
0
0
0
0
0
0
0
0
0
0
0
0
0
0
0
0
0
0
0
0
0
0
0
0
0
0
0
254
255
255
236
229
230
231
194
121
121
128
128
131
129
139
162
162
162
163
163
164
164
163
163
163
164
164
164
163
163
164
164
164
164
163
163
163
163
163
164
164
163
164
164
164
164
164
163
163
163
163
162
162
162
162
163
160
160
140
130
130
129
128
128
128
127
126
126
222
253
254
254
254
254
254
255
255
255
255
255
254
254
255
255
255
255
254
254
254
254
255
255
254
254
255
255
255
254
254
254
254
254
254
255
254
254
254
255
255
254
254
254
254
254
255
255
255
254
254
255
255
254
254
254
255
255
255
254
255
255
238
231
231
231
227
227
226
230
224
224
230
230
230
229
229
227
231
175
122
122
125
128
126
127
132
164
164
165
165
165
167
165
165
165
164
165
165
164
165
164
164
164
165
165
165
166
166
163
166
160
160
187
187
187
188
189
189
188
187
165
165
166
166
166
164
125
127
127
127
129
129
119
215
251
251
251
255
255
254
255
255
255
255
255
255
255
255
255
255
255
254
254
254
255
255
254
254
254
254
254
254
254
254
254
254
0
0
0
0
0
0
0
0
0
0
0
0
0
0
0
0
0
0
0
0
0
0
0
0
0
0
0
0
0
0
0
0
0
0
0
0
0
0
0
0
0
0
0
0
0
0
0
0
0
0
0
0
0
0
0
0
0
0
0
0
0
0
0
0
0
0
0
0
0
0
0
0
0
0
0
0
0
0
0
0
0
0
0
0
0
0
0
0
0
0
0
0
0
0
0
0
0
0
0
0
0
0
0
0
0
0
0
0
0
0
0
0
0
0
0
0
0
0
0
0
0
0
0
0
0
0
0
0
0
0
0
0
0
0
0
0
0
0
0
0
0
0
0
0
0
0
0
0
0
0
0
0
0
0
0
0
0
0
0
0
0
0
0
0
0
0
0
0
0
0
0
0
0
0
0
0
0
0
0
0
0
0
0
0
0
0
0
0
0
0
0
0
0
0
0
0
0
0
0
0
0
0
0
0
0
0
0
0
0
0
0
0
0
0
0
0
0
0
0
0
0
0
0
0
0
0
0
0
0
0
0
0
0
0
0
0
0
0
0
0
0
0
0
0
0
0
0
0
0
0
0
0
0
0
0
0
0
0
0
0
0
0
0
0
0
0
0
0
0
0
0
0
0
0
0
0
0
0
0
0
0
0
0
0
0
0
0
0
0
0
0
0
0
0
0
0
0
0
0
0
0
0
0
0
0
0
0
0
0
0
0
0
0
0
0
0
0
0
0
0
0
0
0
0
0
0
0
0
0
0
0
0
0
0
0
255
254
254
254
235
229
232
230
192
121
123
128
128
130
129
139
160
159
161
163
163
164
164
163
163
163
164
164
164
164
164
165
164
164
164
163
163
163
163
163
163
162
163
164
164
164
163
163
163
163
164
165
163
164
165
165
163
159
158
139
129
128
131
128
128
129
132
123
146
249
252
254
254
254
255
255
255
255
255
255
255
254
254
255
255
255
255
254
254
254
254
255
255
255
254
254
254
255
254
254
254
254
254
255
255
254
254
254
255
255
254
254
254
255
254
255
255
255
255
254
254
255
255
255
254
255
254
254
254
255
254
237
231
227
228
229
229
228
230
231
228
230
228
231
231
227
228
222
171
124
127
126
124
125
124
149
165
165
165
166
167
165
165
166
165
165
165
165
165
165
164
164
164
165
165
165
164
166
163
169
163
173
189
187
189
188
189
190
188
188
163
166
164
165
150
133
125
127
127
126
124
124
168
245
254
250
255
253
254
254
255
255
255
255
255
255
255
255
255
255
255
254
254
254
255
255
254
254
254
254
254
254
255
253
254
254
0
0
0
0
0
0
0
0
0
0
0
0
0
0
0
0
0
0
0
0
0
0
0
0
0
0
0
0
0
0
0
0
0
0
0
0
0
0
0
0
0
0
0
0
0
0
0
0
0
0
0
0
0
0
0
0
0
0
0
0
0
0
0
0
0
0
0
0
0
0
0
0
0
0
0
0
0
0
0
0
0
0
0
0
0
0
0
0
0
0
0
0
0
0
0
0
0
0
0
0
0
0
0
0
0
0
0
0
0
0
0
0
0
0
0
0
0
0
0
0
0
0
0
0
0
0
0
0
0
0
0
0
0
0
0
0
0
0
0
0
0
0
0
0
0
0
0
0
0
0
0
0
0
0
0
0
0
0
0
0
0
0
0
0
0
0
0
0
0
0
0
0
0
0
0
0
0
0
0
0
0
0
0
0
0
0
0
0
0
0
0
0
0
0
0
0
0
0
0
0
0
0
0
0
0
0
0
0
0
0
0
0
0
0
0
0
0
0
0
0
0
0
0
0
0
0
0
0
0
0
0
0
0
0
0
0
0
0
0
0
0
0
0
0
0
0
0
0
0
0
0
0
0
0
0
0
0
0
0
0
0
0
0
0
0
0
0
0
0
0
0
0
0
0
0
0
0
0
0
0
0
0
0
0
0
0
0
0
0
0
0
0
0
0
0
0
0
0
0
0
0
0
0
0
0
0
0
0
0
0
0
0
0
0
0
0
0
0
0
0
0
0
0
0
0
0
0
0
0
0
0
0
0
0
255
255
255
254
254
234
229
230
230
187
123
123
128
128
129
128
139
159
158
161
163
163
164
164
163
163
163
164
164
164
165
165
165
164
164
164
163
163
163
162
162
162
163
164
164
164
164
164
163
164
165
165
165
165
165
165
164
163
158
158
136
129
129
129
129
129
127
123
146
210
252
254
254
255
253
255
255
255
255
255
255
255
254
254
254
255
255
255
254
254
254
255
255
255
255
254
254
254
255
254
254
254
254
254
255
255
254
254
254
255
255
254
254
255
255
254
255
255
254
254
254
255
255
255
255
254
254
254
254
254
254
254
253
227
236
234
233
233
226
230
228
227
228
231
228
233
230
222
230
122
127
125
126
126
124
135
165
165
166
165
165
165
166
165
165
165
165
165
165
165
164
164
164
164
165
164
164
166
166
164
162
173
183
188
189
191
187
188
188
188
165
166
164
166
160
133
127
127
127
128
127
120
120
230
254
250
254
254
254
254
254
255
255
255
255
255
254
254
255
255
255
254
254
254
254
255
255
255
254
254
254
254
255
255
255
255
255
0
0
0
0
0
0
0
0
0
0
0
0
0
0
0
0
0
0
0
0
0
0
0
0
0
0
0
0
0
0
0
0
0
0
0
0
0
0
0
0
0
0
0
0
0
0
0
0
0
0
0
0
0
0
0
0
0
0
0
0
0
0
0
0
0
0
0
0
0
0
0
0
0
0
0
0
0
0
0
0
0
0
0
0
0
0
0
0
0
0
0
0
0
0
0
0
0
0
0
0
0
0
0
0
0
0
0
0
0
0
0
0
0
0
0
0
0
0
0
0
0
0
0
0
0
0
0
0
0
0
0
0
0
0
0
0
0
0
0
0
0
0
0
0
0
0
0
0
0
0
0
0
0
0
0
0
0
0
0
0
0
0
0
0
0
0
0
0
0
0
0
0
0
0
0
0
0
0
0
0
0
0
0
0
0
0
0
0
0
0
0
0
0
0
0
0
0
0
0
0
0
0
0
0
0
0
0
0
0
0
0
0
0
0
0
0
0
0
0
0
0
0
0
0
0
0
0
0
0
0
0
0
0
0
0
0
0
0
0
0
0
0
0
0
0
0
0
0
0
0
0
0
0
0
0
0
0
0
0
0
0
0
0
0
0
0
0
0
0
0
0
0
0
0
0
0
0
0
0
0
0
0
0
0
0
0
0
0
0
0
0
0
0
0
0
0
0
0
0
0
0
0
0
0
0
0
0
0
0
0
0
0
0
0
0
0
0
0
0
0
0
0
0
0
0
0
0
0
0
0
0
0
0
255
254
254
255
254
254
233
229
231
231
184
123
123
127
129
131
131
137
158
157
161
163
163
164
164
163
163
163
164
164
164
165
164
164
164
163
163
163
163
163
162
163
164
164
164
164
164
164
164
165
165
165
165
165
166
164
164
164
163
156
147
133
128
130
131
128
128
128
121
248
253
254
252
254
254
255
255
255
255
255
255
255
255
254
254
254
255
255
255
254
254
254
255
255
255
255
254
255
255
255
254
254
254
254
254
255
255
255
255
254
255
255
254
254
255
255
254
255
255
254
254
254
255
254
255
255
254
254
254
254
254
254
254
254
250
255
245
241
255
236
236
234
234
229
228
231
231
229
219
219
121
125
128
127
125
156
156
164
166
166
164
164
165
164
165
164
164
166
165
165
165
165
164
164
164
164
164
164
166
164
166
164
188
188
186
188
190
188
188
186
186
163
165
166
164
143
125
125
126
126
126
127
132
191
251
254
255
255
254
254
254
254
255
255
255
255
254
254
254
254
254
255
254
254
254
254
255
255
255
254
254
254
254
255
255
255
255
254
0
0
0
0
0
0
0
0
0
0
0
0
0
0
0
0
0
0
0
0
0
0
0
0
0
0
0
0
0
0
0
0
0
0
0
0
0
0
0
0
0
0
0
0
0
0
0
0
0
0
0
0
0
0
0
0
0
0
0
0
0
0
0
0
0
0
0
0
0
0
0
0
0
0
0
0
0
0
0
0
0
0
0
0
0
0
0
0
0
0
0
0
0
0
0
0
0
0
0
0
0
0
0
0
0
0
0
0
0
0
0
0
0
0
0
0
0
0
0
0
0
0
0
0
0
0
0
0
0
0
0
0
0
0
0
0
0
0
0
0
0
0
0
0
0
0
0
0
0
0
0
0
0
0
0
0
0
0
0
0
0
0
0
0
0
0
0
0
0
0
0
0
0
0
0
0
0
0
0
0
0
0
0
0
0
0
0
0
0
0
0
0
0
0
0
0
0
0
0
0
0
0
0
0
0
0
0
0
0
0
0
0
0
0
0
0
0
0
0
0
0
0
0
0
0
0
0
0
0
0
0
0
0
0
0
0
0
0
0
0
0
0
0
0
0
0
0
0
0
0
0
0
0
0
0
0
0
0
0
0
0
0
0
0
0
0
0
0
0
0
0
0
0
0
0
0
0
0
0
0
0
0
0
0
0
0
0
0
0
0
0
0
0
0
0
0
0
0
0
0
0
0
0
0
0
0
0
0
0
0
0
0
0
0
0
0
0
0
0
0
0
0
0
0
0
0
0
0
0
0
0
0
255
254
254
254
255
254
253
232
229
231
230
179
123
124
126
128
130
129
136
157
157
161
163
163
164
164
164
165
163
164
164
164
164
164
164
164
163
164
163
163
162
164
164
165
165
164
164
164
164
164
165
165
164
165
163
163
164
163
162
160
147
139
128
130
130
128
130
122
122
247
253
252
254
254
255
254
254
255
255
255
255
255
255
254
254
254
254
255
255
255
254
254
255
255
255
255
254
254
255
255
255
254
254
254
254
255
255
255
255
255
255
255
255
254
254
255
254
255
255
255
255
254
254
254
254
255
255
255
254
255
255
254
254
254
255
255
255
254
255
255
252
244
244
251
246
231
233
228
229
180
128
125
128
124
126
124
167
165
167
166
167
165
165
165
165
164
164
165
165
165
164
165
164
164
164
165
164
165
165
164
164
166
173
191
189
188
190
189
187
191
175
163
166
166
165
158
127
125
128
126
126
127
122
191
242
255
251
254
254
254
254
254
254
255
255
255
255
254
254
254
254
254
255
254
254
254
254
255
255
255
255
254
254
254
255
255
254
254
254
0
0
0
0
0
0
0
0
0
0
0
0
0
0
0
0
0
0
0
0
0
0
0
0
0
0
0
0
0
0
0
0
0
0
0
0
0
0
0
0
0
0
0
0
0
0
0
0
0
0
0
0
0
0
0
0
0
0
0
0
0
0
0
0
0
0
0
0
0
0
0
0
0
0
0
0
0
0
0
0
0
0
0
0
0
0
0
0
0
0
0
0
0
0
0
0
0
0
0
0
0
0
0
0
0
0
0
0
0
0
0
0
0
0
0
0
0
0
0
0
0
0
0
0
0
0
0
0
0
0
0
0
0
0
0
0
0
0
0
0
0
0
0
0
0
0
0
0
0
0
0
0
0
0
0
0
0
0
0
0
0
0
0
0
0
0
0
0
0
0
0
0
0
0
0
0
0
0
0
0
0
0
0
0
0
0
0
0
0
0
0
0
0
0
0
0
0
0
0
0
0
0
0
0
0
0
0
0
0
0
0
0
0
0
0
0
0
0
0
0
0
0
0
0
0
0
0
0
0
0
0
0
0
0
0
0
0
0
0
0
0
0
0
0
0
0
0
0
0
0
0
0
0
0
0
0
0
0
0
0
0
0
0
0
0
0
0
0
0
0
0
0
0
0
0
0
0
0
0
0
0
0
0
0
0
0
0
0
0
0
0
0
0
0
0
0
0
0
0
0
0
0
0
0
0
0
0
0
0
0
0
0
0
0
0
0
0
0
0
0
0
0
0
0
0
0
0
0
0
0
0
255
255
254
254
254
255
252
252
231
230
231
231
178
124
124
127
129
129
129
135
155
155
161
164
164
163
165
163
163
163
163
163
163
164
164
164
165
164
164
162
163
163
165
165
164
164
163
163
163
164
165
164
164
163
163
163
163
162
165
165
151
129
129
129
130
130
130
127
155
155
252
254
254
254
255
255
255
253
255
255
255
255
255
255
254
254
254
254
254
254
255
255
255
255
255
255
255
254
254
255
255
254
254
254
254
255
255
255
255
255
255
254
255
255
254
254
254
254
255
255
255
255
254
254
255
255
255
255
255
255
255
255
254
255
255
255
255
255
255
255
255
255
255
254
254
253
241
241
229
221
120
120
125
129
129
125
164
163
163
164
166
166
165
165
165
165
164
166
166
165
164
164
165
164
165
165
165
164
164
165
166
166
163
188
188
188
188
187
187
189
182
162
162
164
165
165
132
126
129
129
125
122
122
155
250
250
255
254
254
254
255
254
254
254
255
255
255
254
254
254
254
255
255
255
254
254
254
254
255
255
255
254
254
254
254
255
255
254
254
254
0
0
0
0
0
0
0
0
0
0
0
0
0
0
0
0
0
0
0
0
0
0
0
0
0
0
0
0
0
0
0
0
0
0
0
0
0
0
0
0
0
0
0
0
0
0
0
0
0
0
0
0
0
0
0
0
0
0
0
0
0
0
0
0
0
0
0
0
0
0
0
0
0
0
0
0
0
0
0
0
0
0
0
0
0
0
0
0
0
0
0
0
0
0
0
0
0
0
0
0
0
0
0
0
0
0
0
0
0
0
0
0
0
0
0
0
0
0
0
0
0
0
0
0
0
0
0
0
0
0
0
0
0
0
0
0
0
0
0
0
0
0
0
0
0
0
0
0
0
0
0
0
0
0
0
0
0
0
0
0
0
0
0
0
0
0
0
0
0
0
0
0
0
0
0
0
0
0
0
0
0
0
0
0
0
0
0
0
0
0
0
0
0
0
0
0
0
0
0
0
0
0
0
0
0
0
0
0
0
0
0
0
0
0
0
0
0
0
0
0
0
0
0
0
0
0
0
0
0
0
0
0
0
0
0
0
0
0
0
0
0
0
0
0
0
0
0
0
0
0
0
0
0
0
0
0
0
0
0
0
0
0
0
0
0
0
0
0
0
0
0
0
0
0
0
0
0
0
0
0
0
0
0
0
0
0
0
0
0
0
0
0
0
0
0
0
0
0
0
0
0
0
0
0
0
0
0
0
0
0
0
0
0
0
0
0
0
0
0
0
0
0
0
0
0
0
0
0
0
0
254
253
253
255
254
254
255
252
252
230
229
232
231
177
123
122
129
130
129
129
133
153
152
161
163
164
164
164
164
163
163
163
163
164
164
165
165
164
163
163
163
165
165
165
165
163
162
162
163
164
164
164
163
163
162
162
162
162
164
157
132
132
129
128
129
130
129
124
121
246
254
253
255
253
255
255
254
254
254
255
254
255
255
255
255
254
254
254
254
254
254
254
254
254
254
255
254
254
254
254
255
255
254
254
254
254
254
254
255
255
255
254
254
255
254
254
254
255
255
255
255
255
255
254
254
254
255
255
255
255
255
255
255
254
255
255
255
254
255
255
254
255
254
255
254
254
255
247
248
229
155
126
125
123
125
125
161
165
168
166
166
166
165
165
165
165
166
165
166
166
165
164
164
165
165
165
164
164
165
165
165
166
162
184
191
187
189
189
188
190
185
171
167
164
168
167
147
130
124
127
126
126
121
128
230
255
254
254
254
254
254
255
254
255
255
255
254
254
254
255
255
255
255
255
255
254
254
255
255
255
255
255
254
254
254
255
255
255
254
254
254
0
0
0
0
0
0
0
0
0
0
0
0
0
0
0
0
0
0
0
0
0
0
0
0
0
0
0
0
0
0
0
0
0
0
0
0
0
0
0
0
0
0
0
0
0
0
0
0
0
0
0
0
0
0
0
0
0
0
0
0
0
0
0
0
0
0
0
0
0
0
0
0
0
0
0
0
0
0
0
0
0
0
0
0
0
0
0
0
0
0
0
0
0
0
0
0
0
0
0
0
0
0
0
0
0
0
0
0
0
0
0
0
0
0
0
0
0
0
0
0
0
0
0
0
0
0
0
0
0
0
0
0
0
0
0
0
0
0
0
0
0
0
0
0
0
0
0
0
0
0
0
0
0
0
0
0
0
0
0
0
0
0
0
0
0
0
0
0
0
0
0
0
0
0
0
0
0
0
0
0
0
0
0
0
0
0
0
0
0
0
0
0
0
0
0
0
0
0
0
0
0
0
0
0
0
0
0
0
0
0
0
0
0
0
0
0
0
0
0
0
0
0
0
0
0
0
0
0
0
0
0
0
0
0
0
0
0
0
0
0
0
0
0
0
0
0
0
0
0
0
0
0
0
0
0
0
0
0
0
0
0
0
0
0
0
0
0
0
0
0
0
0
0
0
0
0
0
0
0
0
0
0
0
0
0
0
0
0
0
0
0
0
0
0
0
0
0
0
0
0
0
0
0
0
0
0
0
0
0
0
0
0
0
0
0
0
0
0
0
0
0
0
0
0
0
0
0
0
0
254
255
253
254
255
254
254
255
252
252
229
229
231
231
181
122
122
129
129
129
130
133
152
151
161
164
164
164
164
163
163
163
163
163
164
165
165
163
163
163
164
165
165
165
164
162
162
162
163
164
164
164
163
163
163
162
162
162
161
134
132
129
128
128
128
129
127
127
126
241
254
250
255
254
254
254
254
254
251
254
254
255
255
255
255
255
254
254
254
254
255
255
254
254
254
254
254
254
254
254
254
255
255
254
254
254
254
254
254
255
255
254
254
255
254
254
254
254
255
255
255
255
255
254
252
252
254
254
255
255
254
255
255
255
254
255
255
255
255
255
255
255
255
254
254
254
254
254
248
248
178
124
125
128
127
140
140
167
165
166
166
166
165
165
164
166
166
165
165
166
165
164
164
164
165
165
164
164
165
165
165
168
169
169
188
188
189
189
187
190
190
179
164
164
166
165
125
125
126
127
126
125
122
128
204
253
254
254
254
254
254
255
255
255
255
254
255
254
254
255
255
255
254
254
254
255
255
255
255
255
255
255
254
254
254
254
255
255
255
254
254
254
0
0
0
0
0
0
0
0
0
0
0
0
0
0
0
0
0
0
0
0
0
0
0
0
0
0
0
0
0
0
0
0
0
0
0
0
0
0
0
0
0
0
0
0
0
0
0
0
0
0
0
0
0
0
0
0
0
0
0
0
0
0
0
0
0
0
0
0
0
0
0
0
0
0
0
0
0
0
0
0
0
0
0
0
0
0
0
0
0
0
0
0
0
0
0
0
0
0
0
0
0
0
0
0
0
0
0
0
0
0
0
0
0
0
0
0
0
0
0
0
0
0
0
0
0
0
0
0
0
0
0
0
0
0
0
0
0
0
0
0
0
0
0
0
0
0
0
0
0
0
0
0
0
0
0
0
0
0
0
0
0
0
0
0
0
0
0
0
0
0
0
0
0
0
0
0
0
0
0
0
0
0
0
0
0
0
0
0
0
0
0
0
0
0
0
0
0
0
0
0
0
0
0
0
0
0
0
0
0
0
0
0
0
0
0
0
0
0
0
0
0
0
0
0
0
0
0
0
0
0
0
0
0
0
0
0
0
0
0
0
0
0
0
0
0
0
0
0
0
0
0
0
0
0
0
0
0
0
0
0
0
0
0
0
0
0
0
0
0
0
0
0
0
0
0
0
0
0
0
0
0
0
0
0
0
0
0
0
0
0
0
0
0
0
0
0
0
0
0
0
0
0
0
0
0
0
0
0
0
0
0
0
0
0
0
0
0
0
0
0
0
0
0
0
0
0
0
0
254
254
255
254
254
255
254
254
255
252
251
230
229
231
231
185
122
121
129
129
130
130
130
147
143
162
164
164
164
164
163
163
163
163
164
163
163
163
163
164
165
164
165
164
162
162
163
163
164
164
165
165
164
163
162
161
161
156
132
135
131
129
129
129
128
130
129
121
181
215
251
252
254
253
255
254
252
253
254
254
254
255
254
255
255
255
255
254
254
254
255
255
255
255
254
254
254
254
255
255
254
254
255
255
255
255
255
254
254
255
255
255
254
255
255
254
255
254
255
255
255
255
255
254
253
253
254
254
254
255
254
254
255
255
255
254
255
255
255
254
253
255
255
254
254
255
253
254
255
239
185
123
127
127
123
125
161
168
165
168
165
165
166
165
165
164
166
165
166
165
165
165
165
165
164
164
165
165
165
165
165
167
163
180
188
187
187
188
188
187
188
183
167
164
165
166
151
125
128
125
127
127
127
124
240
252
254
255
255
255
255
255
255
255
255
255
255
255
254
254
255
255
255
254
254
255
255
255
255
255
255
255
255
254
254
254
254
255
254
254
254
254
255
0
0
0
0
0
0
0
0
0
0
0
0
0
0
0
0
0
0
0
0
0
0
0
0
0
0
0
0
0
0
0
0
0
0
0
0
0
0
0
0
0
0
0
0
0
0
0
0
0
0
0
0
0
0
0
0
0
0
0
0
0
0
0
0
0
0
0
0
0
0
0
0
0
0
0
0
0
0
0
0
0
0
0
0
0
0
0
0
0
0
0
0
0
0
0
0
0
0
0
0
0
0
0
0
0
0
0
0
0
0
0
0
0
0
0
0
0
0
0
0
0
0
0
0
0
0
0
0
0
0
0
0
0
0
0
0
0
0
0
0
0
0
0
0
0
0
0
0
0
0
0
0
0
0
0
0
0
0
0
0
0
0
0
0
0
0
0
0
0
0
0
0
0
0
0
0
0
0
0
0
0
0
0
0
0
0
0
0
0
0
0
0
0
0
0
0
0
0
0
0
0
0
0
0
0
0
0
0
0
0
0
0
0
0
0
0
0
0
0
0
0
0
0
0
0
0
0
0
0
0
0
0
0
0
0
0
0
0
0
0
0
0
0
0
0
0
0
0
0
0
0
0
0
0
0
0
0
0
0
0
0
0
0
0
0
0
0
0
0
0
0
0
0
0
0
0
0
0
0
0
0
0
0
0
0
0
0
0
0
0
0
0
0
0
0
0
0
0
0
0
0
0
0
0
0
0
0
0
0
0
0
0
0
0
0
0
0
0
0
0
0
0
0
0
0
0
0
254
254
255
254
254
255
255
254
254
255
251
251
230
230
231
230
193
121
122
130
129
131
131
130
143
139
160
164
164
165
163
163
162
163
164
164
164
163
164
165
164
164
164
162
162
163
162
165
164
165
165
165
164
162
161
161
147
132
132
129
128
128
130
127
129
130
129
148
181
229
238
254
254
254
254
254
254
255
254
254
255
255
254
254
255
255
255
255
254
254
254
254
255
255
255
254
254
254
255
255
254
254
254
255
255
255
255
255
254
255
255
254
254
255
255
255
255
255
255
255
255
255
254
254
254
255
254
254
254
254
254
254
254
255
255
255
254
255
255
255
253
254
254
254
253
255
255
254
255
245
185
123
129
130
123
125
164
168
165
167
165
165
165
165
165
165
165
165
166
165
165
165
165
164
164
164
164
164
165
165
166
167
165
175
188
189
188
190
188
189
187
183
167
163
164
166
159
125
128
126
126
126
123
121
234
252
254
254
255
254
254
254
255
255
255
255
255
255
255
254
254
255
255
254
255
255
255
255
255
255
254
255
255
255
254
254
255
255
254
254
254
255
255
254
0
0
0
0
0
0
0
0
0
0
0
0
0
0
0
0
0
0
0
0
0
0
0
0
0
0
0
0
0
0
0
0
0
0
0
0
0
0
0
0
0
0
0
0
0
0
0
0
0
0
0
0
0
0
0
0
0
0
0
0
0
0
0
0
0
0
0
0
0
0
0
0
0
0
0
0
0
0
0
0
0
0
0
0
0
0
0
0
0
0
0
0
0
0
0
0
0
0
0
0
0
0
0
0
0
0
0
0
0
0
0
0
0
0
0
0
0
0
0
0
0
0
0
0
0
0
0
0
0
0
0
0
0
0
0
0
0
0
0
0
0
0
0
0
0
0
0
0
0
0
0
0
0
0
0
0
0
0
0
0
0
0
0
0
0
0
0
0
0
0
0
0
0
0
0
0
0
0
0
0
0
0
0
0
0
0
0
0
0
0
0
0
0
0
0
0
0
0
0
0
0
0
0
0
0
0
0
0
0
0
0
0
0
0
0
0
0
0
0
0
0
0
0
0
0
0
0
0
0
0
0
0
0
0
0
0
0
0
0
0
0
0
0
0
0
0
0
0
0
0
0
0
0
0
0
0
0
0
0
0
0
0
0
0
0
0
0
0
0
0
0
0
0
0
0
0
0
0
0
0
0
0
0
0
0
0
0
0
0
0
0
0
0
0
0
0
0
0
0
0
0
0
0
0
0
0
0
0
0
0
0
0
0
0
0
0
0
0
0
0
0
0
0
0
0
0
254
255
255
255
254
255
255
254
255
255
255
251
250
230
230
229
229
197
124
124
129
127
130
130
130
137
137
160
164
161
164
163
164
164
162
164
164
164
164
164
164
164
162
162
162
162
163
164
163
165
165
164
161
153
158
141
131
131
130
130
130
129
126
127
127
127
134
134
228
232
232
248
253
255
255
254
255
255
255
255
254
254
255
254
254
255
255
255
255
254
254
254
254
255
255
255
254
254
254
255
254
254
254
254
254
254
254
254
254
254
254
254
254
254
255
255
255
255
255
255
255
254
254
254
254
254
255
254
254
254
254
254
254
254
255
255
255
254
255
255
255
254
254
254
255
253
250
251
249
249
159
123
125
126
124
147
147
165
166
166
167
167
164
164
165
166
166
166
166
165
165
165
165
165
164
164
164
165
165
164
164
165
164
164
185
187
187
188
189
190
190
187
162
165
166
167
136
136
128
125
125
127
128
156
156
247
251
251
254
254
254
254
254
255
255
254
254
254
255
255
255
255
255
255
255
254
255
254
255
255
254
254
255
255
255
254
255
254
254
254
254
254
255
254
254
0
0
0
0
0
0
0
0
0
0
0
0
0
0
0
0
0
0
0
0
0
0
0
0
0
0
0
0
0
0
0
0
0
0
0
0
0
0
0
0
0
0
0
0
0
0
0
0
0
0
0
0
0
0
0
0
0
0
0
0
0
0
0
0
0
0
0
0
0
0
0
0
0
0
0
0
0
0
0
0
0
0
0
0
0
0
0
0
0
0
0
0
0
0
0
0
0
0
0
0
0
0
0
0
0
0
0
0
0
0
0
0
0
0
0
0
0
0
0
0
0
0
0
0
0
0
0
0
0
0
0
0
0
0
0
0
0
0
0
0
0
0
0
0
0
0
0
0
0
0
0
0
0
0
0
0
0
0
0
0
0
0
0
0
0
0
0
0
0
0
0
0
0
0
0
0
0
0
0
0
0
0
0
0
0
0
0
0
0
0
0
0
0
0
0
0
0
0
0
0
0
0
0
0
0
0
0
0
0
0
0
0
0
0
0
0
0
0
0
0
0
0
0
0
0
0
0
0
0
0
0
0
0
0
0
0
0
0
0
0
0
0
0
0
0
0
0
0
0
0
0
0
0
0
0
0
0
0
0
0
0
0
0
0
0
0
0
0
0
0
0
0
0
0
0
0
0
0
0
0
0
0
0
0
0
0
0
0
0
0
0
0
0
0
0
0
0
0
0
0
0
0
0
0
0
0
0
0
0
0
0
0
0
0
0
0
0
0
0
0
0
0
0
0
0
254
254
255
255
255
254
254
254
255
255
254
254
250
250
229
230
229
230
201
121
121
130
127
128
126
128
135
133
156
161
158
161
161
166
165
163
162
162
163
164
164
162
163
162
165
163
163
166
162
165
163
161
145
153
133
129
130
129
128
128
127
128
127
126
129
123
128
227
229
227
232
245
255
254
255
255
255
255
255
254
254
254
254
255
254
254
255
255
255
254
254
254
254
254
255
255
255
254
254
254
255
254
255
254
254
254
254
254
254
255
254
254
254
254
255
255
255
255
255
255
253
254
254
254
254
255
255
254
254
254
254
254
255
255
254
255
255
255
254
255
255
254
254
254
255
253
255
253
251
231
125
125
125
125
121
128
165
165
163
165
164
165
163
164
164
165
166
166
166
165
165
165
165
165
166
164
164
165
164
164
165
167
163
173
184
189
187
189
188
189
188
190
162
165
166
165
159
122
128
124
128
126
123
121
228
251
255
254
255
254
254
254
255
255
254
254
254
254
254
254
255
255
255
255
254
254
254
254
254
254
255
254
254
255
254
254
255
255
254
254
254
254
254
254
254
254
0
0
0
0
0
0
0
0
0
0
0
0
0
0
0
0
0
0
0
0
0
0
0
0
0
0
0
0
0
0
0
0
0
0
0
0
0
0
0
0
0
0
0
0
0
0
0
0
0
0
0
0
0
0
0
0
0
0
0
0
0
0
0
0
0
0
0
0
0
0
0
0
0
0
0
0
0
0
0
0
0
0
0
0
0
0
0
0
0
0
0
0
0
0
0
0
0
0
0
0
0
0
0
0
0
0
0
0
0
0
0
0
0
0
0
0
0
0
0
0
0
0
0
0
0
0
0
0
0
0
0
0
0
0
0
0
0
0
0
0
0
0
0
0
0
0
0
0
0
0
0
0
0
0
0
0
0
0
0
0
0
0
0
0
0
0
0
0
0
0
0
0
0
0
0
0
0
0
0
0
0
0
0
0
0
0
0
0
0
0
0
0
0
0
0
0
0
0
0
0
0
0
0
0
0
0
0
0
0
0
0
0
0
0
0
0
0
0
0
0
0
0
0
0
0
0
0
0
0
0
0
0
0
0
0
0
0
0
0
0
0
0
0
0
0
0
0
0
0
0
0
0
0
0
0
0
0
0
0
0
0
0
0
0
0
0
0
0
0
0
0
0
0
0
0
0
0
0
0
0
0
0
0
0
0
0
0
0
0
0
0
0
0
0
0
0
0
0
0
0
0
0
0
0
0
0
0
0
0
0
0
0
0
0
0
0
0
0
0
0
0
0
0
0
254
254
254
255
255
255
255
254
254
255
255
255
254
249
249
229
230
230
231
215
122
122
129
129
126
126
128
131
131
151
159
159
160
163
165
162
166
162
162
164
162
162
162
165
164
164
164
160
160
161
156
139
139
133
129
129
127
127
128
128
128
127
127
126
122
123
219
227
230
230
232
255
255
254
254
255
255
255
254
254
254
254
254
255
254
255
255
255
255
255
254
254
254
254
255
255
255
254
254
254
254
254
254
254
254
253
254
254
255
255
255
254
254
254
254
255
255
255
255
254
254
254
254
254
254
254
254
254
255
253
253
254
255
255
255
254
255
255
255
254
255
255
254
252
252
253
255
255
246
184
124
124
125
126
126
139
167
165
164
166
166
166
166
165
164
164
166
166
166
166
165
165
165
166
166
166
165
165
165
164
164
167
164
171
190
190
188
188
188
190
185
171
171
166
167
167
165
124
128
128
132
130
130
122
216
251
251
255
254
254
254
255
255
254
254
254
254
254
254
254
254
255
255
255
255
254
254
254
254
254
254
254
254
254
254
254
254
255
255
254
255
254
254
254
254
254
254
0
0
0
0
0
0
0
0
0
0
0
0
0
0
0
0
0
0
0
0
0
0
0
0
0
0
0
0
0
0
0
0
0
0
0
0
0
0
0
0
0
0
0
0
0
0
0
0
0
0
0
0
0
0
0
0
0
0
0
0
0
0
0
0
0
0
0
0
0
0
0
0
0
0
0
0
0
0
0
0
0
0
0
0
0
0
0
0
0
0
0
0
0
0
0
0
0
0
0
0
0
0
0
0
0
0
0
0
0
0
0
0
0
0
0
0
0
0
0
0
0
0
0
0
0
0
0
0
0
0
0
0
0
0
0
0
0
0
0
0
0
0
0
0
0
0
0
0
0
0
0
0
0
0
0
0
0
0
0
0
0
0
0
0
0
0
0
0
0
0
0
0
0
0
0
0
0
0
0
0
0
0
0
0
0
0
0
0
0
0
0
0
0
0
0
0
0
0
0
0
0
0
0
0
0
0
0
0
0
0
0
0
0
0
0
0
0
0
0
0
0
0
0
0
0
0
0
0
0
0
0
0
0
0
0
0
0
0
0
0
0
0
0
0
0
0
0
0
0
0
0
0
0
0
0
0
0
0
0
0
0
0
0
0
0
0
0
0
0
0
0
0
0
0
0
0
0
0
0
0
0
0
0
0
0
0
0
0
0
0
0
0
0
0
0
0
0
0
0
0
0
0
0
0
0
0
0
0
0
0
0
0
0
0
0
0
0
0
0
0
0
0
0
255
254
254
254
255
254
255
255
254
253
254
255
255
254
249
249
229
229
231
230
223
125
130
129
128
126
129
130
131
131
144
159
154
161
164
162
163
165
165
165
165
164
165
163
165
162
163
161
159
141
129
134
130
130
130
126
128
127
130
129
127
128
124
135
127
221
230
228
229
227
233
246
253
253
254
254
254
255
255
254
255
255
254
254
254
254
254
254
255
255
255
254
254
254
254
255
255
254
254
254
254
254
254
254
254
254
253
254
254
255
255
255
254
254
254
255
255
255
254
254
254
255
254
254
253
253
254
255
254
254
253
254
255
255
255
255
254
255
255
255
254
255
255
255
254
254
253
255
248
126
123
127
126
127
125
155
163
165
167
165
165
167
164
164
166
165
166
166
166
166
166
166
166
165
166
165
165
165
166
166
163
164
161
171
182
187
188
189
189
189
188
189
162
169
166
166
162
137
129
124
129
124
125
121
138
246
251
254
255
253
255
255
255
255
254
254
254
255
254
254
255
254
255
255
255
254
254
254
254
254
254
254
255
254
254
254
255
255
255
255
255
255
255
255
255
254
254
254
0
0
0
0
0
0
0
0
0
0
0
0
0
0
0
0
0
0
0
0
0
0
0
0
0
0
0
0
0
0
0
0
0
0
0
0
0
0
0
0
0
0
0
0
0
0
0
0
0
0
0
0
0
0
0
0
0
0
0
0
0
0
0
0
0
0
0
0
0
0
0
0
0
0
0
0
0
0
0
0
0
0
0
0
0
0
0
0
0
0
0
0
0
0
0
0
0
0
0
0
0
0
0
0
0
0
0
0
0
0
0
0
0
0
0
0
0
0
0
0
0
0
0
0
0
0
0
0
0
0
0
0
0
0
0
0
0
0
0
0
0
0
0
0
0
0
0
0
0
0
0
0
0
0
0
0
0
0
0
0
0
0
0
0
0
0
0
0
0
0
0
0
0
0
0
0
0
0
0
0
0
0
0
0
0
0
0
0
0
0
0
0
0
0
0
0
0
0
0
0
0
0
0
0
0
0
0
0
0
0
0
0
0
0
0
0
0
0
0
0
0
0
0
0
0
0
0
0
0
0
0
0
0
0
0
0
0
0
0
0
0
0
0
0
0
0
0
0
0
0
0
0
0
0
0
0
0
0
0
0
0
0
0
0
0
0
0
0
0
0
0
0
0
0
0
0
0
0
0
0
0
0
0
0
0
0
0
0
0
0
0
0
0
0
0
0
0
0
0
0
0
0
0
0
0
0
0
0
0
0
0
0
0
0
0
0
0
0
0
0
0
0
255
255
254
254
254
254
254
255
254
253
253
255
255
255
254
249
250
230
229
230
230
232
130
143
126
127
129
129
131
131
130
134
154
146
161
162
163
164
164
165
162
162
161
163
161
159
163
146
134
129
129
130
127
130
128
128
128
129
128
127
127
123
147
135
225
227
229
228
230
230
233
253
254
253
254
254
255
255
255
255
255
254
254
253
254
252
253
254
254
254
255
255
255
254
254
253
253
254
254
254
254
254
254
254
254
255
254
254
254
255
255
255
254
254
254
254
254
254
254
254
254
255
255
254
253
253
254
254
254
254
254
254
254
255
255
255
255
254
255
255
254
253
255
254
253
254
254
251
153
153
125
125
126
125
135
155
168
165
165
165
167
164
164
165
165
166
166
166
166
166
166
166
166
166
166
165
165
165
164
166
165
166
167
171
186
190
188
188
185
188
188
186
160
169
163
168
162
134
128
125
129
126
128
121
137
236
254
254
254
254
255
255
255
255
255
254
255
255
255
255
255
255
254
255
255
255
254
254
254
254
254
255
255
255
254
254
255
255
255
255
255
255
254
254
255
255
254
254
254
0
0
0
0
0
0
0
0
0
0
0
0
0
0
0
0
0
0
0
0
0
0
0
0
0
0
0
0
0
0
0
0
0
0
0
0
0
0
0
0
0
0
0
0
0
0
0
0
0
0
0
0
0
0
0
0
0
0
0
0
0
0
0
0
0
0
0
0
0
0
0
0
0
0
0
0
0
0
0
0
0
0
0
0
0
0
0
0
0
0
0
0
0
0
0
0
0
0
0
0
0
0
0
0
0
0
0
0
0
0
0
0
0
0
0
0
0
0
0
0
0
0
0
0
0
0
0
0
0
0
0
0
0
0
0
0
0
0
0
0
0
0
0
0
0
0
0
0
0
0
0
0
0
0
0
0
0
0
0
0
0
0
0
0
0
0
0
0
0
0
0
0
0
0
0
0
0
0
0
0
0
0
0
0
0
0
0
0
0
0
0
0
0
0
0
0
0
0
0
0
0
0
0
0
0
0
0
0
0
0
0
0
0
0
0
0
0
0
0
0
0
0
0
0
0
0
0
0
0
0
0
0
0
0
0
0
0
0
0
0
0
0
0
0
0
0
0
0
0
0
0
0
0
0
0
0
0
0
0
0
0
0
0
0
0
0
0
0
0
0
0
0
0
0
0
0
0
0
0
0
0
0
0
0
0
0
0
0
0
0
0
0
0
0
0
0
0
0
0
0
0
0
0
0
0
0
0
0
0
0
0
0
0
0
0
0
0
0
0
0
0
254
255
255
254
254
254
254
254
255
254
253
253
255
255
255
254
250
251
230
229
230
230
231
157
167
124
126
128
128
130
129
129
131
139
134
152
160
160
160
163
162
153
159
162
152
152
138
131
128
130
129
128
128
130
129
129
127
129
124
125
124
165
165
232
228
231
228
229
230
230
243
255
255
255
254
254
254
255
255
255
255
254
252
254
254
254
254
254
254
254
255
255
254
254
254
253
253
252
254
254
254
254
254
254
255
255
255
255
254
255
255
254
254
254
254
254
253
253
254
254
254
254
255
254
254
253
254
254
254
254
254
254
254
254
255
255
255
255
255
254
254
254
253
254
254
253
249
214
192
123
126
126
124
130
130
166
165
167
166
167
164
164
165
165
165
165
166
166
166
166
166
166
166
166
166
166
165
165
165
165
163
165
166
170
190
190
187
189
190
189
192
185
174
167
165
165
159
125
128
127
126
127
127
121
219
231
251
253
255
255
254
255
255
255
255
255
255
255
254
254
255
255
255
254
255
254
254
254
254
254
254
255
255
255
255
255
255
255
255
255
255
255
254
254
254
255
255
254
254
254
0
0
0
0
0
0
0
0
0
0
0
0
0
0
0
0
0
0
0
0
0
0
0
0
0
0
0
0
0
0
0
0
0
0
0
0
0
0
0
0
0
0
0
0
0
0
0
0
0
0
0
0
0
0
0
0
0
0
0
0
0
0
0
0
0
0
0
0
0
0
0
0
0
0
0
0
0
0
0
0
0
0
0
0
0
0
0
0
0
0
0
0
0
0
0
0
0
0
0
0
0
0
0
0
0
0
0
0
0
0
0
0
0
0
0
0
0
0
0
0
0
0
0
0
0
0
0
0
0
0
0
0
0
0
0
0
0
0
0
0
0
0
0
0
0
0
0
0
0
0
0
0
0
0
0
0
0
0
0
0
0
0
0
0
0
0
0
0
0
0
0
0
0
0
0
0
0
0
0
0
0
0
0
0
0
0
0
0
0
0
0
0
0
0
0
0
0
0
0
0
0
0
0
0
0
0
0
0
0
0
0
0
0
0
0
0
0
0
0
0
0
0
0
0
0
0
0
0
0
0
0
0
0
0
0
0
0
0
0
0
0
0
0
0
0
0
0
0
0
0
0
0
0
0
0
0
0
0
0
0
0
0
0
0
0
0
0
0
0
0
0
0
0
0
0
0
0
0
0
0
0
0
0
0
0
0
0
0
0
0
0
0
0
0
0
0
0
0
0
0
0
0
0
0
0
0
0
0
0
0
0
0
0
0
0
0
0
0
0
0
254
254
254
254
254
255
254
254
254
255
255
254
254
255
254
254
254
251
251
231
229
229
229
232
167
182
119
124
127
127
127
128
130
130
134
131
135
149
156
140
140
153
137
134
143
133
129
128
128
130
127
128
128
128
129
126
128
124
124
133
215
189
233
229
230
231
232
228
229
234
254
255
254
254
255
254
255
254
255
255
255
255
252
254
254
254
252
251
254
254
254
255
254
254
254
254
253
254
254
254
253
254
255
255
254
254
255
255
255
255
254
254
255
254
254
253
253
253
254
254
254
254
254
254
254
253
254
254
254
255
255
255
255
254
254
255
255
255
255
254
254
253
253
254
253
249
227
214
123
124
126
125
126
126
159
166
163
167
162
165
165
165
165
165
165
165
165
166
165
165
165
166
166
166
166
166
166
166
165
165
165
165
166
176
186
189
187
188
190
188
187
185
169
164
165
168
158
124
128
125
129
125
123
121
220
231
248
255
255
255
255
254
254
254
255
255
255
255
254
254
254
255
255
255
254
255
254
254
254
254
255
255
255
255
255
255
255
255
255
255
255
255
254
254
254
254
255
255
254
254
254
0
0
0
0
0
0
0
0
0
0
0
0
0
0
0
0
0
0
0
0
0
0
0
0
0
0
0
0
0
0
0
0
0
0
0
0
0
0
0
0
0
0
0
0
0
0
0
0
0
0
0
0
0
0
0
0
0
0
0
0
0
0
0
0
0
0
0
0
0
0
0
0
0
0
0
0
0
0
0
0
0
0
0
0
0
0
0
0
0
0
0
0
0
0
0
0
0
0
0
0
0
0
0
0
0
0
0
0
0
0
0
0
0
0
0
0
0
0
0
0
0
0
0
0
0
0
0
0
0
0
0
0
0
0
0
0
0
0
0
0
0
0
0
0
0
0
0
0
0
0
0
0
0
0
0
0
0
0
0
0
0
0
0
0
0
0
0
0
0
0
0
0
0
0
0
0
0
0
0
0
0
0
0
0
0
0
0
0
0
0
0
0
0
0
0
0
0
0
0
0
0
0
0
0
0
0
0
0
0
0
0
0
0
0
0
0
0
0
0
0
0
0
0
0
0
0
0
0
0
0
0
0
0
0
0
0
0
0
0
0
0
0
0
0
0
0
0
0
0
0
0
0
0
0
0
0
0
0
0
0
0
0
0
0
0
0
0
0
0
0
0
0
0
0
0
0
0
0
0
0
0
0
0
0
0
0
0
0
0
0
0
0
0
0
0
0
0
0
0
0
0
0
0
0
0
0
0
0
0
0
0
0
0
0
0
0
0
0
0
255
254
254
254
255
255
255
254
254
254
255
255
254
253
255
255
255
255
252
252
231
229
229
229
228
200
200
117
127
127
128
126
127
127
129
129
129
132
128
131
131
128
130
130
130
129
129
129
130
127
127
130
129
129
128
124
123
123
163
228
228
229
229
230
230
230
228
228
230
252
254
254
254
254
254
254
254
254
254
254
255
255
254
254
254
250
254
255
255
254
255
255
255
254
254
254
254
254
254
255
254
254
254
255
254
254
254
255
255
255
255
254
254
254
254
254
253
254
254
254
254
254
254
253
254
254
253
254
254
254
255
255
255
254
254
254
255
254
254
254
252
253
253
254
250
235
235
123
123
123
126
127
127
140
165
164
164
165
168
168
166
165
165
165
165
165
165
165
166
165
165
166
166
166
166
166
166
166
165
165
165
164
166
166
187
188
186
186
188
189
189
186
164
164
164
168
129
129
127
126
126
122
125
154
154
234
252
252
254
255
255
255
255
255
255
255
255
255
255
254
254
254
255
255
255
254
254
254
255
255
255
255
255
255
255
255
255
255
255
255
254
254
255
255
254
254
254
255
255
254
254
254
0
0
0
0
0
0
0
0
0
0
0
0
0
0
0
0
0
0
0
0
0
0
0
0
0
0
0
0
0
0
0
0
0
0
0
0
0
0
0
0
0
0
0
0
0
0
0
0
0
0
0
0
0
0
0
0
0
0
0
0
0
0
0
0
0
0
0
0
0
0
0
0
0
0
0
0
0
0
0
0
0
0
0
0
0
0
0
0
0
0
0
0
0
0
0
0
0
0
0
0
0
0
0
0
0
0
0
0
0
0
0
0
0
0
0
0
0
0
0
0
0
0
0
0
0
0
0
0
0
0
0
0
0
0
0
0
0
0
0
0
0
0
0
0
0
0
0
0
0
0
0
0
0
0
0
0
0
0
0
0
0
0
0
0
0
0
0
0
0
0
0
0
0
0
0
0
0
0
0
0
0
0
0
0
0
0
0
0
0
0
0
0
0
0
0
0
0
0
0
0
0
0
0
0
0
0
0
0
0
0
0
0
0
0
0
0
0
0
0
0
0
0
0
0
0
0
0
0
0
0
0
0
0
0
0
0
0
0
0
0
0
0
0
0
0
0
0
0
0
0
0
0
0
0
0
0
0
0
0
0
0
0
0
0
0
0
0
0
0
0
0
0
0
0
0
0
0
0
0
0
0
0
0
0
0
0
0
0
0
0
0
0
0
0
0
0
0
0
0
0
0
0
0
0
0
0
0
0
0
0
0
0
0
0
0
0
0
0
255
255
254
255
255
255
255
255
254
254
254
255
254
254
254
255
255
255
255
252
253
232
229
232
230
231
221
231
127
123
128
128
128
127
127
129
127
130
129
128
132
131
129
129
129
131
130
127
130
128
126
130
130
127
119
155
131
195
231
231
231
229
231
232
229
231
229
231
246
250
253
255
254
254
254
254
254
255
254
254
254
248
249
252
251
245
244
252
254
252
254
253
254
249
255
253
255
254
253
252
255
254
255
255
255
254
254
254
254
254
255
254
255
254
255
254
254
254
254
254
254
254
253
254
253
254
254
254
254
255
255
255
255
255
254
254
254
254
253
253
254
253
254
249
232
235
126
122
122
126
127
127
132
163
166
167
165
165
165
166
166
166
165
165
165
165
165
165
165
166
166
166
166
166
166
166
166
166
166
165
164
166
164
177
188
189
187
189
190
190
189
180
165
165
167
168
152
125
129
125
124
129
124
121
222
232
244
255
255
254
254
255
255
254
255
255
255
255
255
254
254
254
254
255
255
255
254
255
255
255
255
255
255
255
255
255
255
255
255
254
254
254
255
255
255
254
254
254
255
255
254
254
254
0
0
0
0
0
0
0
0
0
0
0
0
0
0
0
0
0
0
0
0
0
0
0
0
0
0
0
0
0
0
0
0
0
0
0
0
0
0
0
0
0
0
0
0
0
0
0
0
0
0
0
0
0
0
0
0
0
0
0
0
0
0
0
0
0
0
0
0
0
0
0
0
0
0
0
0
0
0
0
0
0
0
0
0
0
0
0
0
0
0
0
0
0
0
0
0
0
0
0
0
0
0
0
0
0
0
0
0
0
0
0
0
0
0
0
0
0
0
0
0
0
0
0
0
0
0
0
0
0
0
0
0
0
0
0
0
0
0
0
0
0
0
0
0
0
0
0
0
0
0
0
0
0
0
0
0
0
0
0
0
0
0
0
0
0
0
0
0
0
0
0
0
0
0
0
0
0
0
0
0
0
0
0
0
0
0
0
0
0
0
0
0
0
0
0
0
0
0
0
0
0
0
0
0
0
0
0
0
0
0
0
0
0
0
0
0
0
0
0
0
0
0
0
0
0
0
0
0
0
0
0
0
0
0
0
0
0
0
0
0
0
0
0
0
0
0
0
0
0
0
0
0
0
0
0
0
0
0
0
0
0
0
0
0
0
0
0
0
0
0
0
0
0
0
0
0
0
0
0
0
0
0
0
0
0
0
0
0
0
0
0
0
0
0
0
0
0
0
0
0
0
0
0
0
0
0
0
0
0
0
0
0
0
0
0
0
0
255
255
255
255
255
255
255
255
255
254
254
254
255
255
254
254
255
255
254
255
253
253
235
229
230
229
228
231
233
177
128
128
125
124
127
128
133
128
128
126
127
131
126
130
129
129
128
130
130
129
128
130
125
122
194
194
230
230
231
230
228
229
229
228
231
231
230
246
246
254
255
255
254
254
254
254
254
252
254
254
251
236
249
212
194
198
198
213
231
252
248
250
254
249
254
251
251
255
254
252
255
252
254
254
255
255
254
255
254
254
255
255
254
254
254
255
254
254
254
254
254
254
254
254
252
255
254
255
255
254
255
254
255
255
255
255
255
255
255
255
254
255
249
229
229
127
122
122
125
125
127
126
160
165
165
165
165
165
166
165
166
166
166
165
165
165
165
165
165
166
166
166
166
166
166
166
166
166
166
166
164
166
162
187
189
189
189
189
190
187
190
180
164
164
164
164
147
125
129
128
124
124
124
122
228
232
245
255
255
255
255
255
255
254
255
255
255
255
255
255
254
254
254
254
255
255
255
254
255
255
255
255
255
255
255
255
255
255
255
254
254
254
255
255
255
254
254
254
254
255
255
254
254
254
0
0
0
0
0
0
0
0
0
0
0
0
0
0
0
0
0
0
0
0
0
0
0
0
0
0
0
0
0
0
0
0
0
0
0
0
0
0
0
0
0
0
0
0
0
0
0
0
0
0
0
0
0
0
0
0
0
0
0
0
0
0
0
0
0
0
0
0
0
0
0
0
0
0
0
0
0
0
0
0
0
0
0
0
0
0
0
0
0
0
0
0
0
0
0
0
0
0
0
0
0
0
0
0
0
0
0
0
0
0
0
0
0
0
0
0
0
0
0
0
0
0
0
0
0
0
0
0
0
0
0
0
0
0
0
0
0
0
0
0
0
0
0
0
0
0
0
0
0
0
0
0
0
0
0
0
0
0
0
0
0
0
0
0
0
0
0
0
0
0
0
0
0
0
0
0
0
0
0
0
0
0
0
0
0
0
0
0
0
0
0
0
0
0
0
0
0
0
0
0
0
0
0
0
0
0
0
0
0
0
0
0
0
0
0
0
0
0
0
0
0
0
0
0
0
0
0
0
0
0
0
0
0
0
0
0
0
0
0
0
0
0
0
0
0
0
0
0
0
0
0
0
0
0
0
0
0
0
0
0
0
0
0
0
0
0
0
0
0
0
0
0
0
0
0
0
0
0
0
0
0
0
0
0
0
0
0
0
0
0
0
0
0
0
0
0
0
0
0
0
0
0
0
0
0
0
0
0
0
0
0
0
0
0
0
0
254
255
255
255
255
255
255
255
255
255
255
254
255
255
255
254
254
255
254
254
255
252
252
237
229
230
230
228
232
229
209
137
121
121
123
128
126
127
131
129
126
129
126
128
128
127
122
128
126
126
126
119
164
232
225
233
228
230
230
229
230
228
230
230
230
230
247
247
254
254
254
254
254
255
255
254
251
244
251
235
127
174
130
124
123
121
124
125
133
159
211
211
243
248
244
248
252
252
252
253
254
250
254
254
254
255
255
255
255
254
255
253
253
252
253
253
255
254
254
254
254
254
254
254
254
254
252
255
255
255
254
254
254
254
255
255
251
253
252
252
255
249
199
219
125
123
122
125
127
127
125
155
165
164
165
163
164
166
166
166
165
166
166
166
165
165
165
165
166
166
166
166
166
166
166
166
166
166
166
166
164
161
180
190
188
188
189
188
188
189
189
173
164
165
167
163
137
125
126
124
128
126
121
126
191
228
252
252
254
254
254
255
255
255
255
255
255
254
255
255
255
255
254
254
254
255
255
255
254
255
255
255
255
255
254
254
255
255
255
255
255
255
254
254
254
255
255
254
254
254
255
255
254
254
254
0
0
0
0
0
0
0
0
0
0
0
0
0
0
0
0
0
0
0
0
0
0
0
0
0
0
0
0
0
0
0
0
0
0
0
0
0
0
0
0
0
0
0
0
0
0
0
0
0
0
0
0
0
0
0
0
0
0
0
0
0
0
0
0
0
0
0
0
0
0
0
0
0
0
0
0
0
0
0
0
0
0
0
0
0
0
0
0
0
0
0
0
0
0
0
0
0
0
0
0
0
0
0
0
0
0
0
0
0
0
0
0
0
0
0
0
0
0
0
0
0
0
0
0
0
0
0
0
0
0
0
0
0
0
0
0
0
0
0
0
0
0
0
0
0
0
0
0
0
0
0
0
0
0
0
0
0
0
0
0
0
0
0
0
0
0
0
0
0
0
0
0
0
0
0
0
0
0
0
0
0
0
0
0
0
0
0
0
0
0
0
0
0
0
0
0
0
0
0
0
0
0
0
0
0
0
0
0
0
0
0
0
0
0
0
0
0
0
0
0
0
0
0
0
0
0
0
0
0
0
0
0
0
0
0
0
0
0
0
0
0
0
0
0
0
0
0
0
0
0
0
0
0
0
0
0
0
0
0
0
0
0
0
0
0
0
0
0
0
0
0
0
0
0
0
0
0
0
0
0
0
0
0
0
0
0
0
0
0
0
0
0
0
0
0
0
0
0
0
0
0
0
0
0
0
0
0
0
0
0
0
0
0
0
0
255
255
255
255
255
255
254
254
255
255
255
255
255
254
254
255
254
254
255
254
254
255
252
253
241
229
230
228
232
229
227
229
178
128
157
125
126
122
118
129
123
121
122
128
124
121
122
123
154
123
154
232
231
232
228
227
228
230
229
231
230
230
230
230
229
252
249
253
254
254
254
254
254
254
254
249
229
244
144
123
127
126
127
127
123
128
125
125
125
131
121
143
120
144
244
207
239
252
249
251
253
250
254
253
254
253
255
255
255
254
254
253
255
254
251
254
255
254
254
253
255
254
254
254
253
254
254
253
255
254
254
254
254
254
254
255
253
250
252
250
244
169
199
120
124
123
127
126
126
126
147
165
165
167
165
163
166
166
166
166
166
165
166
166
166
165
165
166
166
166
166
166
166
166
166
166
166
166
167
166
165
166
186
190
189
191
189
187
187
187
185
165
165
165
167
161
137
125
127
126
128
129
119
126
214
227
246
255
255
254
254
254
255
255
255
255
255
254
254
255
255
255
255
254
254
254
255
255
255
254
255
255
255
255
254
254
254
255
255
255
254
255
254
254
254
255
255
255
254
254
254
255
255
254
254
254
0
0
0
0
0
0
0
0
0
0
0
0
0
0
0
0
0
0
0
0
0
0
0
0
0
0
0
0
0
0
0
0
0
0
0
0
0
0
0
0
0
0
0
0
0
0
0
0
0
0
0
0
0
0
0
0
0
0
0
0
0
0
0
0
0
0
0
0
0
0
0
0
0
0
0
0
0
0
0
0
0
0
0
0
0
0
0
0
0
0
0
0
0
0
0
0
0
0
0
0
0
0
0
0
0
0
0
0
0
0
0
0
0
0
0
0
0
0
0
0
0
0
0
0
0
0
0
0
0
0
0
0
0
0
0
0
0
0
0
0
0
0
0
0
0
0
0
0
0
0
0
0
0
0
0
0
0
0
0
0
0
0
0
0
0
0
0
0
0
0
0
0
0
0
0
0
0
0
0
0
0
0
0
0
0
0
0
0
0
0
0
0
0
0
0
0
0
0
0
0
0
0
0
0
0
0
0
0
0
0
0
0
0
0
0
0
0
0
0
0
0
0
0
0
0
0
0
0
0
0
0
0
0
0
0
0
0
0
0
0
0
0
0
0
0
0
0
0
0
0
0
0
0
0
0
0
0
0
0
0
0
0
0
0
0
0
0
0
0
0
0
0
0
0
0
0
0
0
0
0
0
0
0
0
0
0
0
0
0
0
0
0
0
0
0
0
0
0
0
0
0
0
0
0
0
0
0
0
0
0
0
0
0
0
255
255
255
255
255
254
254
254
254
255
255
255
254
254
254
254
254
254
254
255
254
254
255
253
253
243
229
229
229
229
231
231
229
228
218
218
176
143
143
132
129
197
130
130
145
145
179
217
217
232
230
229
229
229
230
230
229
230
228
230
230
229
229
236
254
254
254
254
254
254
254
255
255
253
248
208
208
127
124
124
125
127
130
126
124
127
127
130
124
124
121
128
124
124
121
145
145
206
244
193
250
248
250
250
251
254
254
255
254
254
254
253
255
255
253
251
254
254
253
254
254
253
252
252
254
255
254
254
253
254
254
253
255
252
252
254
252
252
247
223
122
141
124
123
123
128
126
126
125
147
167
167
166
165
165
166
166
166
166
166
166
166
165
166
166
166
166
166
166
166
166
166
166
166
166
166
166
166
166
165
163
176
181
187
188
188
185
189
189
187
175
165
165
165
165
165
126
124
125
125
125
122
122
146
229
229
247
254
254
254
255
255
255
255
255
255
255
254
254
254
255
255
255
254
254
254
254
255
255
255
254
255
255
255
255
254
254
254
255
255
255
254
254
254
255
255
255
255
255
254
254
254
255
255
254
254
254
0
0
0
0
0
0
0
0
0
0
0
0
0
0
0
0
0
0
0
0
0
0
0
0
0
0
0
0
0
0
0
0
0
0
0
0
0
0
0
0
0
0
0
0
0
0
0
0
0
0
0
0
0
0
0
0
0
0
0
0
0
0
0
0
0
0
0
0
0
0
0
0
0
0
0
0
0
0
0
0
0
0
0
0
0
0
0
0
0
0
0
0
0
0
0
0
0
0
0
0
0
0
0
0
0
0
0
0
0
0
0
0
0
0
0
0
0
0
0
0
0
0
0
0
0
0
0
0
0
0
0
0
0
0
0
0
0
0
0
0
0
0
0
0
0
0
0
0
0
0
0
0
0
0
0
0
0
0
0
0
0
0
0
0
0
0
0
0
0
0
0
0
0
0
0
0
0
0
0
0
0
0
0
0
0
0
0
0
0
0
0
0
0
0
0
0
0
0
0
0
0
0
0
0
0
0
0
0
0
0
0
0
0
0
0
0
0
0
0
0
0
0
0
0
0
0
0
0
0
0
0
0
0
0
0
0
0
0
0
0
0
0
0
0
0
0
0
0
0
0
0
0
0
0
0
0
0
0
0
0
0
0
0
0
0
0
0
0
0
0
0
0
0
0
0
0
0
0
0
0
0
0
0
0
0
0
0
0
0
0
0
0
0
0
0
0
0
0
0
0
0
0
0
0
0
0
0
0
0
0
0
0
0
255
255
254
254
254
254
254
253
254
254
255
255
255
254
254
254
255
254
255
254
255
254
254
255
253
254
249
230
231
229
231
230
232
230
231
233
228
229
216
231
231
197
227
231
219
231
229
232
231
228
229
229
230
231
232
231
230
229
228
231
231
229
239
255
255
254
254
254
254
253
255
255
254
247
159
184
119
125
119
124
127
130
130
129
126
126
125
128
125
128
127
130
126
124
130
122
120
124
120
193
133
178
248
248
244
251
254
253
252
251
254
249
254
251
254
254
254
255
253
253
254
255
254
255
254
254
252
252
255
254
254
250
248
253
250
245
249
239
132
125
122
125
126
124
127
125
126
125
151
165
166
165
166
164
166
166
166
166
166
166
166
166
166
165
166
166
166
166
166
166
166
166
166
166
166
166
165
165
165
165
169
176
189
190
189
189
188
189
188
192
164
164
164
165
167
146
125
125
125
125
124
130
122
174
225
229
248
254
254
254
254
255
255
255
255
255
255
255
254
254
254
255
255
255
255
254
254
254
255
255
255
254
255
255
255
255
254
254
254
255
255
255
254
255
254
254
255
255
255
255
254
254
254
255
255
254
254
254
0
0
0
0
0
0
0
0
0
0
0
0
0
0
0
0
0
0
0
0
0
0
0
0
0
0
0
0
0
0
0
0
0
0
0
0
0
0
0
0
0
0
0
0
0
0
0
0
0
0
0
0
0
0
0
0
0
0
0
0
0
0
0
0
0
0
0
0
0
0
0
0
0
0
0
0
0
0
0
0
0
0
0
0
0
0
0
0
0
0
0
0
0
0
0
0
0
0
0
0
0
0
0
0
0
0
0
0
0
0
0
0
0
0
0
0
0
0
0
0
0
0
0
0
0
0
0
0
0
0
0
0
0
0
0
0
0
0
0
0
0
0
0
0
0
0
0
0
0
0
0
0
0
0
0
0
0
0
0
0
0
0
0
0
0
0
0
0
0
0
0
0
0
0
0
0
0
0
0
0
0
0
0
0
0
0
0
0
0
0
0
0
0
0
0
0
0
0
0
0
0
0
0
0
0
0
0
0
0
0
0
0
0
0
0
0
0
0
0
0
0
0
0
0
0
0
0
0
0
0
0
0
0
0
0
0
0
0
0
0
0
0
0
0
0
0
0
0
0
0
0
0
0
0
0
0
0
0
0
0
0
0
0
0
0
0
0
0
0
0
0
0
0
0
0
0
0
0
0
0
0
0
0
0
0
0
0
0
0
0
0
0
0
0
0
0
0
0
0
0
0
0
0
0
0
0
0
0
0
0
0
0
255
255
255
254
254
254
255
255
255
255
254
255
255
255
254
255
255
254
254
254
254
254
254
254
254
255
255
250
233
229
233
232
230
230
231
231
228
231
230
231
231
232
231
231
231
233
229
232
233
232
232
230
229
231
230
229
230
230
229
235
235
251
253
255
253
254
254
254
254
254
255
253
241
140
140
125
122
125
127
125
127
127
125
128
128
132
128
128
124
125
126
126
124
126
130
125
124
127
127
122
118
118
127
154
244
197
234
245
245
246
249
249
249
250
249
249
253
254
253
254
252
255
254
253
253
253
252
254
255
251
249
248
248
238
205
245
142
121
123
123
125
127
127
127
125
125
127
155
165
165
166
165
166
165
166
166
166
166
166
166
166
166
166
166
165
166
166
166
166
166
166
166
166
166
166
167
165
165
167
166
166
188
189
189
189
187
188
190
188
174
174
165
167
165
167
134
125
125
124
127
127
122
123
174
228
230
252
252
254
254
254
255
255
255
255
255
255
255
255
254
254
254
255
255
255
255
254
254
254
255
255
255
255
255
255
255
255
254
254
254
255
255
255
254
254
254
254
255
255
255
255
254
254
254
254
254
254
254
254
0
0
0
0
0
0
0
0
0
0
0
0
0
0
0
0
0
0
0
0
0
0
0
0
0
0
0
0
0
0
0
0
0
0
0
0
0
0
0
0
0
0
0
0
0
0
0
0
0
0
0
0
0
0
0
0
0
0
0
0
0
0
0
0
0
0
0
0
0
0
0
0
0
0
0
0
0
0
0
0
0
0
0
0
0
0
0
0
0
0
0
0
0
0
0
0
0
0
0
0
0
0
0
0
0
0
0
0
0
0
0
0
0
0
0
0
0
0
0
0
0
0
0
0
0
0
0
0
0
0
0
0
0
0
0
0
0
0
0
0
0
0
0
0
0
0
0
0
0
0
0
0
0
0
0
0
0
0
0
0
0
0
0
0
0
0
0
0
0
0
0
0
0
0
0
0
0
0
0
0
0
0
0
0
0
0
0
0
0
0
0
0
0
0
0
0
0
0
0
0
0
0
0
0
0
0
0
0
0
0
0
0
0
0
0
0
0
0
0
0
0
0
0
0
0
0
0
0
0
0
0
0
0
0
0
0
0
0
0
0
0
0
0
0
0
0
0
0
0
0
0
0
0
0
0
0
0
0
0
0
0
0
0
0
0
0
0
0
0
0
0
0
0
0
0
0
0
0
0
0
0
0
0
0
0
0
0
0
0
0
0
0
0
0
0
0
0
0
0
0
0
0
0
0
0
0
0
0
0
0
0
254
254
254
254
254
254
255
255
255
255
254
254
255
255
255
255
254
254
254
254
254
254
254
255
255
254
255
255
252
236
229
228
228
228
226
232
232
231
230
229
231
228
232
231
230
229
231
227
230
229
228
230
231
229
229
229
230
229
252
242
254
255
254
255
254
255
255
253
253
254
252
233
123
132
126
125
125
125
122
129
125
135
166
152
159
167
154
145
130
148
124
127
125
126
127
129
125
126
125
126
128
124
128
120
121
129
122
157
195
128
225
241
245
205
249
251
233
250
249
249
249
250
248
236
250
250
224
246
250
240
146
221
178
122
133
118
125
125
122
127
125
126
124
124
126
130
159
166
166
165
164
164
166
166
166
166
166
166
166
166
166
166
166
165
166
165
166
166
166
166
166
166
166
166
164
166
164
166
164
165
187
186
186
189
189
188
189
189
188
187
163
165
166
164
150
125
124
125
125
125
127
123
126
209
230
234
250
253
254
254
254
255
255
255
255
255
255
255
255
255
255
254
254
255
255
255
255
254
254
254
255
255
255
254
255
255
255
255
254
255
254
255
254
254
255
254
254
254
255
255
255
255
254
254
254
254
254
254
254
254
0
0
0
0
0
0
0
0
0
0
0
0
0
0
0
0
0
0
0
0
0
0
0
0
0
0
0
0
0
0
0
0
0
0
0
0
0
0
0
0
0
0
0
0
0
0
0
0
0
0
0
0
0
0
0
0
0
0
0
0
0
0
0
0
0
0
0
0
0
0
0
0
0
0
0
0
0
0
0
0
0
0
0
0
0
0
0
0
0
0
0
0
0
0
0
0
0
0
0
0
0
0
0
0
0
0
0
0
0
0
0
0
0
0
0
0
0
0
0
0
0
0
0
0
0
0
0
0
0
0
0
0
0
0
0
0
0
0
0
0
0
0
0
0
0
0
0
0
0
0
0
0
0
0
0
0
0
0
0
0
0
0
0
0
0
0
0
0
0
0
0
0
0
0
0
0
0
0
0
0
0
0
0
0
0
0
0
0
0
0
0
0
0
0
0
0
0
0
0
0
0
0
0
0
0
0
0
0
0
0
0
0
0
0
0
0
0
0
0
0
0
0
0
0
0
0
0
0
0
0
0
0
0
0
0
0
0
0
0
0
0
0
0
0
0
0
0
0
0
0
0
0
0
0
0
0
0
0
0
0
0
0
0
0
0
0
0
0
0
0
0
0
0
0
0
0
0
0
0
0
0
0
0
0
0
0
0
0
0
0
0
0
0
0
0
0
0
0
0
0
0
0
0
0
0
0
0
0
0
0
254
254
254
254
255
255
254
255
255
255
254
254
254
254
255
254
254
254
254
254
254
255
255
254
255
255
255
255
255
255
247
228
234
233
226
230
233
231
230
230
229
228
228
230
230
229
232
228
230
230
230
230
229
230
230
229
242
255
252
253
254
255
255
254
255
255
253
253
253
250
209
120
123
123
125
125
128
125
131
129
158
165
166
164
166
167
166
165
166
148
163
141
125
126
124
126
125
125
126
126
126
125
128
130
126
127
122
126
126
128
122
119
122
205
126
135
233
141
152
239
237
157
154
236
152
138
224
127
121
120
146
120
123
122
127
128
126
125
126
126
125
127
123
124
140
166
165
166
164
164
164
164
166
166
166
166
166
166
166
166
166
166
166
166
166
166
166
166
166
166
166
166
166
164
164
165
165
166
164
181
188
186
190
188
189
188
189
188
188
170
166
165
164
166
133
125
126
124
125
126
125
123
119
223
225
234
251
253
254
254
254
254
255
255
255
255
255
255
255
255
255
255
254
254
255
255
255
255
254
254
255
255
255
255
254
255
255
255
255
255
255
255
254
254
255
255
254
254
254
255
255
255
254
254
254
254
254
254
254
254
254
0
0
0
0
0
0
0
0
0
0
0
0
0
0
0
0
0
0
0
0
0
0
0
0
0
0
0
0
0
0
0
0
0
0
0
0
0
0
0
0
0
0
0
0
0
0
0
0
0
0
0
0
0
0
0
0
0
0
0
0
0
0
0
0
0
0
0
0
0
0
0
0
0
0
0
0
0
0
0
0
0
0
0
0
0
0
0
0
0
0
0
0
0
0
0
0
0
0
0
0
0
0
0
0
0
0
0
0
0
0
0
0
0
0
0
0
0
0
0
0
0
0
0
0
0
0
0
0
0
0
0
0
0
0
0
0
0
0
0
0
0
0
0
0
0
0
0
0
0
0
0
0
0
0
0
0
0
0
0
0
0
0
0
0
0
0
0
0
0
0
0
0
0
0
0
0
0
0
0
0
0
0
0
0
0
0
0
0
0
0
0
0
0
0
0
0
0
0
0
0
0
0
0
0
0
0
0
0
0
0
0
0
0
0
0
0
0
0
0
0
0
0
0
0
0
0
0
0
0
0
0
0
0
0
0
0
0
0
0
0
0
0
0
0
0
0
0
0
0
0
0
0
0
0
0
0
0
0
0
0
0
0
0
0
0
0
0
0
0
0
0
0
0
0
0
0
0
0
0
0
0
0
0
0
0
0
0
0
0
0
0
0
0
0
0
0
0
0
0
0
0
0
0
0
0
0
0
0
0
254
254
254
254
255
255
255
254
255
255
254
254
255
254
255
254
254
254
254
254
254
255
255
255
254
255
255
255
255
255
255
252
236
236
232
228
230
230
229
231
231
231
231
231
230
226
229
229
229
230
230
227
231
247
236
251
254
254
253
254
254
255
254
254
255
254
253
253
249
197
123
121
126
125
125
126
124
140
133
168
166
166
167
163
163
165
162
166
165
164
168
168
158
138
152
126
124
128
128
126
124
124
127
124
127
126
128
126
126
123
125
128
126
122
124
124
124
122
122
123
120
124
124
121
119
119
122
124
123
123
127
127
127
128
124
125
125
126
127
127
125
126
126
151
166
167
166
165
165
165
164
165
166
166
166
166
166
166
166
166
166
166
166
166
166
166
166
166
166
166
166
166
166
166
167
167
164
166
177
190
190
189
189
189
189
187
188
188
177
164
164
164
167
165
151
125
126
126
127
125
125
124
196
226
232
237
254
254
254
254
255
254
255
255
255
255
255
255
255
255
255
255
255
254
254
255
255
255
255
254
255
255
255
255
255
254
255
255
255
255
255
255
255
255
255
255
255
254
254
254
255
255
254
254
254
254
254
255
255
254
254
254
0
0
0
0
0
0
0
0
0
0
0
0
0
0
0
0
0
0
0
0
0
0
0
0
0
0
0
0
0
0
0
0
0
0
0
0
0
0
0
0
0
0
0
0
0
0
0
0
0
0
0
0
0
0
0
0
0
0
0
0
0
0
0
0
0
0
0
0
0
0
0
0
0
0
0
0
0
0
0
0
0
0
0
0
0
0
0
0
0
0
0
0
0
0
0
0
0
0
0
0
0
0
0
0
0
0
0
0
0
0
0
0
0
0
0
0
0
0
0
0
0
0
0
0
0
0
0
0
0
0
0
0
0
0
0
0
0
0
0
0
0
0
0
0
0
0
0
0
0
0
0
0
0
0
0
0
0
0
0
0
0
0
0
0
0
0
0
0
0
0
0
0
0
0
0
0
0
0
0
0
0
0
0
0
0
0
0
0
0
0
0
0
0
0
0
0
0
0
0
0
0
0
0
0
0
0
0
0
0
0
0
0
0
0
0
0
0
0
0
0
0
0
0
0
0
0
0
0
0
0
0
0
0
0
0
0
0
0
0
0
0
0
0
0
0
0
0
0
0
0
0
0
0
0
0
0
0
0
0
0
0
0
0
0
0
0
0
0
0
0
0
0
0
0
0
0
0
0
0
0
0
0
0
0
0
0
0
0
0
0
0
0
0
0
0
0
0
0
0
0
0
0
0
0
0
0
0
0
255
254
254
254
254
255
255
255
254
254
254
255
255
255
255
255
254
254
254
254
254
254
255
255
255
253
255
255
254
255
255
255
254
243
254
241
230
235
229
229
229
227
229
230
229
230
229
230
230
228
229
245
255
247
254
254
253
254
254
255
255
254
253
254
254
251
251
248
180
122
123
126
128
128
125
125
143
140
165
167
163
165
164
165
166
166
166
166
167
163
162
166
164
167
152
165
154
124
126
127
124
124
126
124
127
126
126
125
125
128
126
128
129
126
124
122
126
126
125
124
127
120
124
125
123
129
122
129
123
124
124
124
124
127
124
125
126
126
126
123
152
136
162
165
167
167
163
166
164
164
165
165
166
166
166
166
166
166
166
166
166
166
166
166
166
166
166
166
165
166
166
165
165
166
165
164
164
181
189
189
188
188
189
190
187
188
188
188
164
164
164
165
165
165
131
125
127
126
125
126
124
126
224
226
231
242
252
254
255
255
255
254
254
255
254
255
255
255
255
255
255
255
255
255
254
254
255
255
255
255
254
254
254
255
255
255
254
255
255
255
255
255
255
255
255
255
255
255
254
254
254
255
255
255
254
254
254
254
255
255
254
254
254
0
0
0
0
0
0
0
0
0
0
0
0
0
0
0
0
0
0
0
0
0
0
0
0
0
0
0
0
0
0
0
0
0
0
0
0
0
0
0
0
0
0
0
0
0
0
0
0
0
0
0
0
0
0
0
0
0
0
0
0
0
0
0
0
0
0
0
0
0
0
0
0
0
0
0
0
0
0
0
0
0
0
0
0
0
0
0
0
0
0
0
0
0
0
0
0
0
0
0
0
0
0
0
0
0
0
0
0
0
0
0
0
0
0
0
0
0
0
0
0
0
0
0
0
0
0
0
0
0
0
0
0
0
0
0
0
0
0
0
0
0
0
0
0
0
0
0
0
0
0
0
0
0
0
0
0
0
0
0
0
0
0
0
0
0
0
0
0
0
0
0
0
0
0
0
0
0
0
0
0
0
0
0
0
0
0
0
0
0
0
0
0
0
0
0
0
0
0
0
0
0
0
0
0
0
0
0
0
0
0
0
0
0
0
0
0
0
0
0
0
0
0
0
0
0
0
0
0
0
0
0
0
0
0
0
0
0
0
0
0
0
0
0
0
0
0
0
0
0
0
0
0
0
0
0
0
0
0
0
0
0
0
0
0
0
0
0
0
0
0
0
0
0
0
0
0
0
0
0
0
0
0
0
0
0
0
0
0
0
0
0
0
0
0
0
0
0
0
0
0
0
0
0
0
0
0
0
255
255
255
254
254
254
255
255
254
254
254
254
255
255
255
255
255
254
254
254
254
254
254
254
255
255
254
255
255
254
255
255
255
255
255
255
250
244
244
239
234
227
233
234
232
232
234
241
241
249
253
253
253
254
255
255
255
254
254
254
255
253
253
254
252
252
248
170
121
121
125
127
127
125
126
147
147
166
165
165
167
166
164
165
165
164
164
166
163
163
167
165
166
166
167
167
167
166
157
127
140
128
129
129
129
124
124
126
125
126
126
124
125
125
126
128
126
124
130
127
127
127
125
125
127
129
126
126
127
127
127
127
127
128
128
126
128
128
146
163
152
164
163
165
165
167
166
166
165
166
165
165
165
166
166
166
166
166
166
166
166
166
166
166
166
166
166
166
166
165
166
166
164
164
165
165
184
188
188
189
188
188
188
189
188
188
189
167
167
167
165
164
164
144
125
125
126
125
125
127
120
182
182
231
230
230
253
254
254
254
255
254
254
255
254
255
255
255
255
255
255
255
255
255
254
254
254
255
255
255
255
254
254
254
255
255
255
254
255
255
255
255
255
255
255
255
255
255
255
254
254
254
255
255
255
254
254
254
255
255
255
254
254
254
0
0
0
0
0
0
0
0
0
0
0
0
0
0
0
0
0
0
0
0
0
0
0
0
0
0
0
0
0
0
0
0
0
0
0
0
0
0
0
0
0
0
0
0
0
0
0
0
0
0
0
0
0
0
0
0
0
0
0
0
0
0
0
0
0
0
0
0
0
0
0
0
0
0
0
0
0
0
0
0
0
0
0
0
0
0
0
0
0
0
0
0
0
0
0
0
0
0
0
0
0
0
0
0
0
0
0
0
0
0
0
0
0
0
0
0
0
0
0
0
0
0
0
0
0
0
0
0
0
0
0
0
0
0
0
0
0
0
0
0
0
0
0
0
0
0
0
0
0
0
0
0
0
0
0
0
0
0
0
0
0
0
0
0
0
0
0
0
0
0
0
0
0
0
0
0
0
0
0
0
0
0
0
0
0
0
0
0
0
0
0
0
0
0
0
0
0
0
0
0
0
0
0
0
0
0
0
0
0
0
0
0
0
0
0
0
0
0
0
0
0
0
0
0
0
0
0
0
0
0
0
0
0
0
0
0
0
0
0
0
0
0
0
0
0
0
0
0
0
0
0
0
0
0
0
0
0
0
0
0
0
0
0
0
0
0
0
0
0
0
0
0
0
0
0
0
0
0
0
0
0
0
0
0
0
0
0
0
0
0
0
0
0
0
0
0
0
0
0
0
0
0
0
0
0
0
254
255
255
255
254
254
254
255
255
254
254
255
255
255
255
255
255
255
254
254
254
254
254
255
254
255
255
254
255
255
254
255
255
255
254
254
253
255
251
254
247
247
245
254
247
252
253
255
254
253
254
252
254
254
255
255
255
254
253
255
255
255
253
252
252
247
161
123
122
126
128
127
125
125
149
149
167
166
166
166
166
166
167
166
165
163
163
165
166
164
166
166
166
166
167
164
166
167
167
165
161
162
150
129
160
123
125
133
130
125
128
125
127
128
123
125
124
127
124
129
125
128
124
125
126
124
126
126
125
126
124
128
136
122
127
158
145
161
165
166
163
166
165
164
168
164
165
166
165
166
166
165
165
165
166
166
166
166
166
166
166
166
166
166
166
166
166
166
164
165
165
165
166
175
170
186
189
187
188
189
189
188
190
188
188
189
175
170
165
165
167
166
161
126
126
126
127
127
126
124
121
139
231
228
230
247
254
253
254
255
255
255
254
255
255
255
255
255
255
255
255
255
255
255
255
254
254
254
255
255
255
255
254
254
254
255
255
254
254
255
255
255
255
255
255
255
255
255
255
255
254
254
255
255
255
255
255
255
255
255
255
255
255
254
255
0
0
0
0
0
0
0
0
0
0
0
0
0
0
0
0
0
0
0
0
0
0
0
0
0
0
0
0
0
0
0
0
0
0
0
0
0
0
0
0
0
0
0
0
0
0
0
0
0
0
0
0
0
0
0
0
0
0
0
0
0
0
0
0
0
0
0
0
0
0
0
0
0
0
0
0
0
0
0
0
0
0
0
0
0
0
0
0
0
0
0
0
0
0
0
0
0
0
0
0
0
0
0
0
0
0
0
0
0
0
0
0
0
0
0
0
0
0
0
0
0
0
0
0
0
0
0
0
0
0
0
0
0
0
0
0
0
0
0
0
0
0
0
0
0
0
0
0
0
0
0
0
0
0
0
0
0
0
0
0
0
0
0
0
0
0
0
0
0
0
0
0
0
0
0
0
0
0
0
0
0
0
0
0
0
0
0
0
0
0
0
0
0
0
0
0
0
0
0
0
0
0
0
0
0
0
0
0
0
0
0
0
0
0
0
0
0
0
0
0
0
0
0
0
0
0
0
0
0
0
0
0
0
0
0
0
0
0
0
0
0
0
0
0
0
0
0
0
0
0
0
0
0
0
0
0
0
0
0
0
0
0
0
0
0
0
0
0
0
0
0
0
0
0
0
0
0
0
0
0
0
0
0
0
0
0
0
0
0
0
0
0
0
0
0
0
0
0
0
0
0
0
0
0
0
254
254
255
255
255
254
254
254
255
255
255
255
255
255
255
255
255
255
255
254
254
254
254
254
255
255
255
255
255
255
255
255
255
255
255
255
253
254
254
254
254
255
254
254
255
255
253
254
254
255
255
254
253
254
254
254
255
254
255
255
255
254
252
252
246
158
123
123
127
127
128
125
125
151
151
164
166
166
165
166
166
166
164
166
165
167
166
165
166
166
166
166
165
163
167
167
165
167
165
165
167
162
167
168
160
165
161
155
155
151
139
125
135
132
123
128
129
124
124
123
124
128
126
127
123
124
129
129
125
136
146
160
160
163
167
158
168
166
165
166
167
166
165
166
165
164
166
165
165
165
166
166
165
165
166
166
166
166
166
166
166
166
166
166
166
166
166
165
165
165
164
168
181
181
189
189
189
189
188
189
188
190
187
188
190
176
175
165
165
165
165
165
135
126
125
126
127
125
127
120
121
195
226
228
233
252
253
253
254
254
255
254
255
255
254
255
255
255
255
255
255
255
255
255
255
255
255
254
254
255
255
255
255
254
254
254
254
254
255
254
255
255
255
255
255
255
255
255
255
255
254
254
255
255
255
255
255
255
255
255
254
255
255
255
254
254
0
0
0
0
0
0
0
0
0
0
0
0
0
0
0
0
0
0
0
0
0
0
0
0
0
0
0
0
0
0
0
0
0
0
0
0
0
0
0
0
0
0
0
0
0
0
0
0
0
0
0
0
0
0
0
0
0
0
0
0
0
0
0
0
0
0
0
0
0
0
0
0
0
0
0
0
0
0
0
0
0
0
0
0
0
0
0
0
0
0
0
0
0
0
0
0
0
0
0
0
0
0
0
0
0
0
0
0
0
0
0
0
0
0
0
0
0
0
0
0
0
0
0
0
0
0
0
0
0
0
0
0
0
0
0
0
0
0
0
0
0
0
0
0
0
0
0
0
0
0
0
0
0
0
0
0
0
0
0
0
0
0
0
0
0
0
0
0
0
0
0
0
0
0
0
0
0
0
0
0
0
0
0
0
0
0
0
0
0
0
0
0
0
0
0
0
0
0
0
0
0
0
0
0
0
0
0
0
0
0
0
0
0
0
0
0
0
0
0
0
0
0
0
0
0
0
0
0
0
0
0
0
0
0
0
0
0
0
0
0
0
0
0
0
0
0
0
0
0
0
0
0
0
0
0
0
0
0
0
0
0
0
0
0
0
0
0
0
0
0
0
0
0
0
0
0
0
0
0
0
0
0
0
0
0
0
0
0
0
0
0
0
0
0
0
0
0
0
0
0
0
0
0
0
255
254
254
255
255
255
254
254
254
254
255
255
255
255
255
255
255
255
255
255
255
255
254
254
254
255
255
255
255
255
255
255
254
254
254
255
255
254
254
254
255
254
254
254
255
255
255
255
254
255
254
254
255
255
253
253
254
255
254
254
254
252
252
247
158
122
123
126
126
126
126
124
156
154
164
166
166
165
166
166
166
166
166
165
165
167
167
165
165
165
165
165
165
165
164
165
165
165
165
166
166
167
167
167
165
165
164
168
165
167
163
161
157
157
153
148
167
144
146
143
143
140
143
166
145
152
156
156
164
166
166
166
163
166
166
167
167
167
164
164
163
164
165
166
166
165
165
165
165
166
165
166
165
165
165
166
166
166
166
166
166
166
166
166
166
166
165
165
166
165
181
192
188
190
188
189
190
189
189
188
189
188
187
189
177
177
165
166
165
164
166
158
147
124
125
125
126
126
126
125
152
229
229
231
239
252
254
254
254
254
253
255
255
254
254
254
255
255
255
255
255
255
255
255
255
255
255
254
254
254
255
255
255
255
254
255
255
254
255
254
254
255
255
255
255
255
254
254
254
254
254
254
255
255
255
255
255
255
255
254
254
254
255
255
254
254
254
0
0
0
0
0
0
0
0
0
0
0
0
0
0
0
0
0
0
0
0
0
0
0
0
0
0
0
0
0
0
0
0
0
0
0
0
0
0
0
0
0
0
0
0
0
0
0
0
0
0
0
0
0
0
0
0
0
0
0
0
0
0
0
0
0
0
0
0
0
0
0
0
0
0
0
0
0
0
0
0
0
0
0
0
0
0
0
0
0
0
0
0
0
0
0
0
0
0
0
0
0
0
0
0
0
0
0
0
0
0
0
0
0
0
0
0
0
0
0
0
0
0
0
0
0
0
0
0
0
0
0
0
0
0
0
0
0
0
0
0
0
0
0
0
0
0
0
0
0
0
0
0
0
0
0
0
0
0
0
0
0
0
0
0
0
0
0
0
0
0
0
0
0
0
0
0
0
0
0
0
0
0
0
0
0
0
0
0
0
0
0
0
0
0
0
0
0
0
0
0
0
0
0
0
0
0
0
0
0
0
0
0
0
0
0
0
0
0
0
0
0
0
0
0
0
0
0
0
0
0
0
0
0
0
0
0
0
0
0
0
0
0
0
0
0
0
0
0
0
0
0
0
0
0
0
0
0
0
0
0
0
0
0
0
0
0
0
0
0
0
0
0
0
0
0
0
0
0
0
0
0
0
0
0
0
0
0
0
0
0
0
0
0
0
0
0
0
0
0
0
0
0
0
255
254
254
254
255
255
255
254
254
254
255
255
255
255
254
254
255
255
255
255
255
255
255
254
254
254
255
255
254
254
254
255
255
254
254
254
255
255
253
252
253
254
255
254
254
255
255
255
254
254
252
254
254
254
253
254
254
254
254
255
252
251
246
159
122
122
126
126
126
125
124
157
156
167
165
166
166
166
165
166
166
166
166
166
165
163
165
166
166
165
164
165
165
166
166
165
163
164
165
166
167
164
166
166
165
167
164
165
164
167
164
164
164
169
166
164
167
167
167
162
166
168
165
166
165
168
165
167
162
164
166
162
165
166
164
164
165
165
167
166
163
167
164
166
165
166
164
165
165
165
165
164
165
165
165
166
166
166
166
166
166
166
166
166
166
165
165
165
182
190
189
192
188
190
188
188
189
190
188
189
188
188
189
180
181
166
164
166
165
166
165
158
123
126
126
125
127
124
126
118
214
230
227
229
248
252
253
253
254
253
254
254
254
255
254
254
254
255
255
255
255
255
255
255
255
255
255
255
255
254
255
255
255
255
255
254
254
254
255
254
254
254
255
255
255
255
254
254
254
254
255
255
254
254
254
254
255
255
255
255
254
254
254
255
255
254
254
254
0
0
0
0
0
0
0
0
0
0
0
0
0
0
0
0
0
0
0
0
0
0
0
0
0
0
0
0
0
0
0
0
0
0
0
0
0
0
0
0
0
0
0
0
0
0
0
0
0
0
0
0
0
0
0
0
0
0
0
0
0
0
0
0
0
0
0
0
0
0
0
0
0
0
0
0
0
0
0
0
0
0
0
0
0
0
0
0
0
0
0
0
0
0
0
0
0
0
0
0
0
0
0
0
0
0
0
0
0
0
0
0
0
0
0
0
0
0
0
0
0
0
0
0
0
0
0
0
0
0
0
0
0
0
0
0
0
0
0
0
0
0
0
0
0
0
0
0
0
0
0
0
0
0
0
0
0
0
0
0
0
0
0
0
0
0
0
0
0
0
0
0
0
0
0
0
0
0
0
0
0
0
0
0
0
0
0
0
0
0
0
0
0
0
0
0
0
0
0
0
0
0
0
0
0
0
0
0
0
0
0
0
0
0
0
0
0
0
0
0
0
0
0
0
0
0
0
0
0
0
0
0
0
0
0
0
0
0
0
0
0
0
0
0
0
0
0
0
0
0
0
0
0
0
0
0
0
0
0
0
0
0
0
0
0
0
0
0
0
0
0
0
0
0
0
0
0
0
0
0
0
0
0
0
0
0
0
0
0
0
0
0
0
0
0
0
0
0
0
0
0
0
255
254
254
254
254
255
255
254
254
254
255
255
255
254
254
254
254
255
254
254
255
255
255
255
254
254
254
255
255
254
254
254
255
255
254
254
254
255
255
255
255
254
255
255
255
254
255
255
255
254
254
255
254
254
254
254
254
254
255
252
252
246
158
122
122
126
126
126
125
124
154
155
165
164
164
166
166
166
166
166
166
166
166
166
166
168
165
166
166
166
165
165
165
166
166
165
166
164
164
167
166
166
166
166
165
165
167
166
166
168
167
167
164
167
167
167
165
163
163
164
163
164
164
167
166
166
166
168
167
167
168
164
164
164
165
165
166
167
164
164
165
165
165
166
166
164
164
165
165
165
164
164
164
165
166
166
166
166
166
166
166
166
166
166
165
166
166
188
189
189
187
186
189
189
187
189
189
189
188
189
189
189
179
179
165
165
166
166
166
167
167
126
126
126
127
127
128
128
123
176
176
231
231
240
240
254
254
254
255
254
254
254
255
254
254
255
254
254
255
255
255
255
255
255
255
255
255
255
255
255
255
255
255
255
255
255
254
254
254
255
254
254
254
255
255
255
254
254
254
254
255
255
254
254
254
254
254
254
254
254
255
254
254
254
255
255
254
254
254
0
0
0
0
0
0
0
0
0
0
0
0
0
0
0
0
0
0
0
0
0
0
0
0
0
0
0
0
0
0
0
0
0
0
0
0
0
0
0
0
0
0
0
0
0
0
0
0
0
0
0
0
0
0
0
0
0
0
0
0
0
0
0
0
0
0
0
0
0
0
0
0
0
0
0
0
0
0
0
0
0
0
0
0
0
0
0
0
0
0
0
0
0
0
0
0
0
0
0
0
0
0
0
0
0
0
0
0
0
0
0
0
0
0
0
0
0
0
0
0
0
0
0
0
0
0
0
0
0
0
0
0
0
0
0
0
0
0
0
0
0
0
0
0
0
0
0
0
0
0
0
0
0
0
0
0
0
0
0
0
0
0
0
0
0
0
0
0
0
0
0
0
0
0
0
0
0
0
0
0
0
0
0
0
0
0
0
0
0
0
0
0
0
0
0
0
0
0
0
0
0
0
0
0
0
0
0
0
0
0
0
0
0
0
0
0
0
0
0
0
0
0
0
0
0
0
0
0
0
0
0
0
0
0
0
0
0
0
0
0
0
0
0
0
0
0
0
0
0
0
0
0
0
0
0
0
0
0
0
0
0
0
0
0
0
0
0
0
0
0
0
0
0
0
0
0
0
0
0
0
0
0
0
0
0
0
0
0
0
0
0
0
0
0
0
0
0
0
0
0
0
254
255
254
254
254
254
255
255
255
255
255
255
254
254
254
254
254
255
255
254
254
255
255
255
255
254
254
254
255
255
254
254
255
255
255
254
254
255
255
254
254
254
254
255
255
255
254
255
255
255
254
254
254
254
254
254
254
253
251
252
246
158
121
122
126
127
127
125
125
152
154
164
166
166
166
166
166
166
166
166
166
166
166
166
166
165
165
165
166
166
166
165
166
166
166
165
165
165
166
165
167
166
167
166
165
165
166
166
165
167
164
164
164
164
163
166
164
167
167
164
164
168
165
164
164
167
163
164
165
164
165
165
163
166
167
165
165
165
164
164
165
166
165
165
165
165
165
165
165
165
165
164
164
167
166
166
166
166
166
166
166
166
166
165
165
165
186
189
189
189
191
189
189
188
188
191
190
188
188
189
189
174
177
165
165
165
165
166
164
166
133
125
125
127
128
128
127
123
124
142
229
228
228
231
254
253
255
254
254
254
254
254
254
254
254
254
254
254
254
254
255
255
255
255
255
255
255
255
255
255
255
255
254
255
255
254
254
254
253
254
255
254
255
254
255
255
255
254
254
254
254
254
255
255
255
255
254
254
254
254
255
255
254
254
254
255
255
255
254
254
0
0
0
0
0
0
0
0
0
0
0
0
0
0
0
0
0
0
0
0
0
0
0
0
0
0
0
0
0
0
0
0
0
0
0
0
0
0
0
0
0
0
0
0
0
0
0
0
0
0
0
0
0
0
0
0
0
0
0
0
0
0
0
0
0
0
0
0
0
0
0
0
0
0
0
0
0
0
0
0
0
0
0
0
0
0
0
0
0
0
0
0
0
0
0
0
0
0
0
0
0
0
0
0
0
0
0
0
0
0
0
0
0
0
0
0
0
0
0
0
0
0
0
0
0
0
0
0
0
0
0
0
0
0
0
0
0
0
0
0
0
0
0
0
0
0
0
0
0
0
0
0
0
0
0
0
0
0
0
0
0
0
0
0
0
0
0
0
0
0
0
0
0
0
0
0
0
0
0
0
0
0
0
0
0
0
0
0
0
0
0
0
0
0
0
0
0
0
0
0
0
0
0
0
0
0
0
0
0
0
0
0
0
0
0
0
0
0
0
0
0
0
0
0
0
0
0
0
0
0
0
0
0
0
0
0
0
0
0
0
0
0
0
0
0
0
0
0
0
0
0
0
0
0
0
0
0
0
0
0
0
0
0
0
0
0
0
0
0
0
0
0
0
0
0
0
0
0
0
0
0
0
0
0
0
0
0
0
0
0
0
0
0
0
0
0
0
0
0
0
254
254
255
254
254
254
254
255
255
255
255
254
254
255
255
255
254
255
255
255
254
254
255
255
255
255
254
254
254
255
254
254
254
255
255
255
254
255
255
255
255
254
253
254
255
255
254
255
255
255
254
254
255
255
254
254
254
253
251
248
160
121
121
125
126
127
125
125
150
150
164
166
166
165
165
166
166
166
166
166
166
166
166
166
166
165
165
165
165
166
166
165
166
166
165
165
165
165
165
165
164
165
166
166
165
167
166
166
166
167
165
167
168
168
166
167
164
165
164
164
164
166
163
164
165
166
167
167
166
164
165
165
166
166
164
163
167
167
166
165
165
166
165
165
165
165
164
165
164
164
165
165
163
165
165
165
165
166
166
166
166
166
166
164
165
168
189
186
186
189
188
188
192
189
188
188
191
188
188
186
171
174
167
165
165
165
164
166
164
148
125
125
127
127
126
126
125
122
124
210
230
229
229
236
253
253
254
254
254
254
254
254
254
254
254
254
254
254
254
254
253
255
255
255
255
255
255
255
255
255
255
252
254
254
255
254
254
254
254
254
254
255
254
254
254
254
255
255
255
254
254
254
255
255
255
255
254
254
254
254
254
255
254
254
254
254
255
255
255
254
254
0
0
0
0
0
0
0
0
0
0
0
0
0
0
0
0
0
0
0
0
0
0
0
0
0
0
0
0
0
0
0
0
0
0
0
0
0
0
0
0
0
0
0
0
0
0
0
0
0
0
0
0
0
0
0
0
0
0
0
0
0
0
0
0
0
0
0
0
0
0
0
0
0
0
0
0
0
0
0
0
0
0
0
0
0
0
0
0
0
0
0
0
0
0
0
0
0
0
0
0
0
0
0
0
0
0
0
0
0
0
0
0
0
0
0
0
0
0
0
0
0
0
0
0
0
0
0
0
0
0
0
0
0
0
0
0
0
0
0
0
0
0
0
0
0
0
0
0
0
0
0
0
0
0
0
0
0
0
0
0
0
0
0
0
0
0
0
0
0
0
0
0
0
0
0
0
0
0
0
0
0
0
0
0
0
0
0
0
0
0
0
0
0
0
0
0
0
0
0
0
0
0
0
0
0
0
0
0
0
0
0
0
0
0
0
0
0
0
0
0
0
0
0
0
0
0
0
0
0
0
0
0
0
0
0
0
0
0
0
0
0
0
0
0
0
0
0
0
0
0
0
0
0
0
0
0
0
0
0
0
0
0
0
0
0
0
0
0
0
0
0
0
0
0
0
0
0
0
0
0
0
0
0
0
0
0
0
0
0
0
0
0
0
0
0
0
0
0
0
255
254
254
255
254
254
254
254
255
255
254
254
254
254
255
255
254
254
255
255
255
254
254
255
255
255
255
254
254
254
255
254
254
254
255
255
255
255
254
254
255
255
254
254
255
255
254
255
255
255
255
255
254
255
255
255
254
253
249
167
124
121
125
126
125
125
125
147
148
166
165
165
165
165
165
165
166
165
165
166
166
166
166
166
166
166
165
166
165
166
165
165
166
166
165
165
166
166
165
165
165
165
166
165
166
167
166
166
166
166
165
167
163
166
162
166
164
165
165
164
164
164
166
168
167
163
166
164
165
165
165
166
166
166
163
166
166
166
164
166
165
164
164
165
166
166
166
164
165
165
164
166
167
165
164
165
165
165
166
166
166
166
164
166
164
177
183
187
187
190
188
189
187
188
188
188
189
186
186
166
167
166
164
165
165
165
165
166
150
125
125
126
127
126
126
126
123
122
186
227
232
230
230
248
253
255
254
254
254
255
255
254
254
254
255
254
255
254
254
255
253
254
254
255
254
255
255
254
255
255
255
255
254
252
255
254
255
255
253
254
254
254
255
254
253
254
255
255
255
255
254
255
255
255
255
255
255
254
255
254
254
254
255
255
254
254
254
255
255
255
254
254
0
0
0
0
0
0
0
0
0
0
0
0
0
0
0
0
0
0
0
0
0
0
0
0
0
0
0
0
0
0
0
0
0
0
0
0
0
0
0
0
0
0
0
0
0
0
0
0
0
0
0
0
0
0
0
0
0
0
0
0
0
0
0
0
0
0
0
0
0
0
0
0
0
0
0
0
0
0
0
0
0
0
0
0
0
0
0
0
0
0
0
0
0
0
0
0
0
0
0
0
0
0
0
0
0
0
0
0
0
0
0
0
0
0
0
0
0
0
0
0
0
0
0
0
0
0
0
0
0
0
0
0
0
0
0
0
0
0
0
0
0
0
0
0
0
0
0
0
0
0
0
0
0
0
0
0
0
0
0
0
0
0
0
0
0
0
0
0
0
0
0
0
0
0
0
0
0
0
0
0
0
0
0
0
0
0
0
0
0
0
0
0
0
0
0
0
0
0
0
0
0
0
0
0
0
0
0
0
0
0
0
0
0
0
0
0
0
0
0
0
0
0
0
0
0
0
0
0
0
0
0
0
0
0
0
0
0
0
0
0
0
0
0
0
0
0
0
0
0
0
0
0
0
0
0
0
0
0
0
0
0
0
0
0
0
0
0
0
0
0
0
0
0
0
0
0
0
0
0
0
0
0
0
0
0
0
0
0
0
0
0
0
0
0
0
0
0
0
255
254
254
254
254
254
255
255
254
254
254
254
254
255
255
255
255
254
254
255
255
255
254
254
255
255
255
255
254
254
255
255
254
254
254
255
255
255
254
254
254
255
255
254
255
254
254
254
255
255
254
254
254
255
255
254
254
249
184
124
124
128
127
126
124
125
147
147
166
165
165
166
166
165
165
165
165
165
165
166
166
166
166
166
166
166
166
166
166
165
164
165
165
166
165
165
166
166
166
165
165
165
166
166
166
166
166
166
166
166
166
167
165
169
162
166
165
165
165
165
165
164
165
164
163
163
166
165
165
165
166
165
166
166
166
166
165
165
164
166
164
165
164
165
164
166
166
166
165
164
167
163
167
167
166
165
166
165
166
166
166
164
164
166
163
166
183
179
190
190
187
191
187
189
190
184
189
171
163
166
165
164
166
165
167
165
165
156
125
125
126
126
126
126
127
125
123
134
230
229
232
231
239
248
254
253
253
254
254
254
255
254
255
254
254
254
255
254
252
253
253
255
254
254
254
254
254
254
254
251
255
255
251
251
255
253
255
255
255
255
254
254
254
254
253
254
254
255
255
255
255
255
254
254
255
254
254
254
255
254
254
254
255
254
255
254
254
254
255
255
254
254
254
0
0
0
0
0
0
0
0
0
0
0
0
0
0
0
0
0
0
0
0
0
0
0
0
0
0
0
0
0
0
0
0
0
0
0
0
0
0
0
0
0
0
0
0
0
0
0
0
0
0
0
0
0
0
0
0
0
0
0
0
0
0
0
0
0
0
0
0
0
0
0
0
0
0
0
0
0
0
0
0
0
0
0
0
0
0
0
0
0
0
0
0
0
0
0
0
0
0
0
0
0
0
0
0
0
0
0
0
0
0
0
0
0
0
0
0
0
0
0
0
0
0
0
0
0
0
0
0
0
0
0
0
0
0
0
0
0
0
0
0
0
0
0
0
0
0
0
0
0
0
0
0
0
0
0
0
0
0
0
0
0
0
0
0
0
0
0
0
0
0
0
0
0
0
0
0
0
0
0
0
0
0
0
0
0
0
0
0
0
0
0
0
0
0
0
0
0
0
0
0
0
0
0
0
0
0
0
0
0
0
0
0
0
0
0
0
0
0
0
0
0
0
0
0
0
0
0
0
0
0
0
0
0
0
0
0
0
0
0
0
0
0
0
0
0
0
0
0
0
0
0
0
0
0
0
0
0
0
0
0
0
0
0
0
0
0
0
0
0
0
0
0
0
0
0
0
0
0
0
0
0
0
0
0
0
0
0
0
0
0
0
0
0
0
0
0
0
255
255
254
254
254
254
255
255
255
254
254
254
255
255
255
255
255
255
254
254
255
255
255
254
255
255
255
255
255
254
255
255
255
255
254
254
254
255
255
254
254
254
255
255
254
254
254
254
254
255
254
254
254
255
254
254
253
204
124
125
127
127
127
124
125
142
143
166
165
165
166
166
166
165
165
165
165
166
165
165
166
166
166
166
166
166
166
166
166
166
164
165
166
166
166
165
165
166
166
166
165
164
167
167
166
166
166
166
166
166
166
166
165
165
163
166
166
166
165
165
165
166
165
164
166
166
165
165
165
165
165
166
165
166
166
163
166
166
165
165
164
164
165
165
165
164
166
166
166
165
163
163
164
161
161
167
166
164
166
166
165
165
166
166
166
163
166
170
170
181
186
186
185
181
165
172
163
165
165
163
165
166
167
167
166
166
156
124
124
126
125
127
127
127
126
126
123
228
229
228
230
229
229
252
254
254
255
254
254
254
254
255
255
255
254
254
254
255
255
255
255
255
253
254
254
255
255
254
255
255
254
254
254
254
254
253
253
255
255
255
255
254
254
254
254
254
254
254
254
255
255
255
254
254
254
254
254
254
254
254
254
255
255
255
254
255
254
254
254
255
255
254
254
254
0
0
0
0
0
0
0
0
0
0
0
0
0
0
0
0
0
0
0
0
0
0
0
0
0
0
0
0
0
0
0
0
0
0
0
0
0
0
0
0
0
0
0
0
0
0
0
0
0
0
0
0
0
0
0
0
0
0
0
0
0
0
0
0
0
0
0
0
0
0
0
0
0
0
0
0
0
0
0
0
0
0
0
0
0
0
0
0
0
0
0
0
0
0
0
0
0
0
0
0
0
0
0
0
0
0
0
0
0
0
0
0
0
0
0
0
0
0
0
0
0
0
0
0
0
0
0
0
0
0
0
0
0
0
0
0
0
0
0
0
0
0
0
0
0
0
0
0
0
0
0
0
0
0
0
0
0
0
0
0
0
0
0
0
0
0
0
0
0
0
0
0
0
0
0
0
0
0
0
0
0
0
0
0
0
0
0
0
0
0
0
0
0
0
0
0
0
0
0
0
0
0
0
0
0
0
0
0
0
0
0
0
0
0
0
0
0
0
0
0
0
0
0
0
0
0
0
0
0
0
0
0
0
0
0
0
0
0
0
0
0
0
0
0
0
0
0
0
0
0
0
0
0
0
0
0
0
0
0
0
0
0
0
0
0
0
0
0
0
0
0
0
0
0
0
0
0
0
0
0
0
0
0
0
0
0
0
0
0
0
0
0
0
0
0
0
255
255
255
254
254
254
255
255
255
255
254
255
255
255
254
254
254
255
255
254
254
255
255
255
255
255
255
255
255
255
254
255
255
255
255
254
254
254
255
255
254
254
254
255
254
254
255
254
255
255
255
254
255
255
255
252
242
122
124
125
125
126
126
125
138
142
165
165
164
166
166
166
166
166
166
165
166
166
166
166
166
165
166
166
166
166
166
166
166
166
166
166
166
166
166
165
165
165
166
166
165
165
166
165
165
166
166
166
166
166
166
166
165
167
165
165
166
166
166
165
166
166
165
164
165
165
164
165
165
165
165
165
165
165
166
165
166
165
164
165
164
166
166
166
164
165
165
166
165
166
164
165
174
166
163
165
166
164
166
165
163
167
165
165
166
167
164
163
164
165
168
173
164
166
165
166
164
165
166
166
163
166
167
165
166
154
125
124
126
125
128
127
126
128
127
120
203
229
229
230
229
228
254
254
254
254
254
254
253
254
254
254
255
254
254
254
253
254
255
254
253
254
253
254
255
255
254
255
253
254
255
255
254
255
254
252
254
255
255
255
255
255
254
254
254
255
254
253
253
255
255
255
254
254
254
254
254
254
254
254
255
254
255
255
255
254
255
254
254
254
255
255
255
254
254
0
0
0
0
0
0
0
0
0
0
0
0
0
0
0
0
0
0
0
0
0
0
0
0
0
0
0
0
0
0
0
0
0
0
0
0
0
0
0
0
0
0
0
0
0
0
0
0
0
0
0
0
0
0
0
0
0
0
0
0
0
0
0
0
0
0
0
0
0
0
0
0
0
0
0
0
0
0
0
0
0
0
0
0
0
0
0
0
0
0
0
0
0
0
0
0
0
0
0
0
0
0
0
0
0
0
0
0
0
0
0
0
0
0
0
0
0
0
0
0
0
0
0
0
0
0
0
0
0
0
0
0
0
0
0
0
0
0
0
0
0
0
0
0
0
0
0
0
0
0
0
0
0
0
0
0
0
0
0
0
0
0
0
0
0
0
0
0
0
0
0
0
0
0
0
0
0
0
0
0
0
0
0
0
0
0
0
0
0
0
0
0
0
0
0
0
0
0
0
0
0
0
0
0
0
0
0
0
0
0
0
0
0
0
0
0
0
0
0
0
0
0
0
0
0
0
0
0
0
0
0
0
0
0
0
0
0
0
0
0
0
0
0
0
0
0
0
0
0
0
0
0
0
0
0
0
0
0
0
0
0
0
0
0
0
0
0
0
0
0
0
0
0
0
0
0
0
0
0
0
0
0
0
0
0
0
0
0
0
0
0
0
0
0
0
255
255
255
255
254
254
254
255
255
255
255
254
255
255
255
254
254
254
255
255
254
254
254
254
255
255
255
254
255
255
255
255
255
255
255
255
254
254
254
255
255
254
254
254
255
255
255
255
254
255
255
254
254
255
255
247
134
134
125
126
126
129
125
132
132
164
166
166
166
166
166
166
166
166
166
166
166
166
166
166
166
166
165
166
166
166
165
166
166
166
166
166
166
166
166
166
165
165
165
166
165
165
165
165
165
165
166
166
166
166
166
166
166
166
165
165
165
166
166
166
166
166
166
165
164
164
165
164
165
165
165
165
165
165
165
165
166
164
164
164
165
166
166
165
166
165
166
165
166
166
165
182
174
186
184
168
168
166
167
167
164
164
165
165
164
167
167
166
165
165
167
168
166
166
164
164
164
167
164
165
165
166
166
166
142
125
125
128
125
127
127
127
127
128
121
187
230
230
230
229
229
235
254
254
254
254
254
254
254
254
254
254
254
254
254
254
255
255
252
254
254
254
255
254
254
253
255
255
255
254
252
252
255
251
254
255
255
254
254
255
255
255
254
254
254
254
254
254
254
255
255
255
255
254
254
254
254
254
254
254
254
254
254
255
255
255
254
255
254
254
254
255
255
255
254
254
0
0
0
0
0
0
0
0
0
0
0
0
0
0
0
0
0
0
0
0
0
0
0
0
0
0
0
0
0
0
0
0
0
0
0
0
0
0
0
0
0
0
0
0
0
0
0
0
0
0
0
0
0
0
0
0
0
0
0
0
0
0
0
0
0
0
0
0
0
0
0
0
0
0
0
0
0
0
0
0
0
0
0
0
0
0
0
0
0
0
0
0
0
0
0
0
0
0
0
0
0
0
0
0
0
0
0
0
0
0
0
0
0
0
0
0
0
0
0
0
0
0
0
0
0
0
0
0
0
0
0
0
0
0
0
0
0
0
0
0
0
0
0
0
0
0
0
0
0
0
0
0
0
0
0
0
0
0
0
0
0
0
0
0
0
0
0
0
0
0
0
0
0
0
0
0
0
0
0
0
0
0
0
0
0
0
0
0
0
0
0
0
0
0
0
0
0
0
0
0
0
0
0
0
0
0
0
0
0
0
0
0
0
0
0
0
0
0
0
0
0
0
0
0
0
0
0
0
0
0
0
0
0
0
0
0
0
0
0
0
0
0
0
0
0
0
0
0
0
0
0
0
0
0
0
0
0
0
0
0
0
0
0
0
0
0
0
0
0
0
0
0
0
0
0
0
0
0
0
0
0
0
0
0
0
0
0
0
0
0
0
0
0
0
255
255
255
255
255
254
254
254
255
255
255
255
254
255
254
254
254
254
254
255
255
254
254
254
254
255
255
255
254
255
255
255
255
255
254
255
255
254
254
254
255
255
254
254
254
254
254
253
254
253
254
254
254
254
250
213
168
126
125
127
126
126
126
126
166
166
166
166
166
166
166
166
166
166
166
166
166
166
166
166
166
166
166
165
166
166
166
165
166
166
166
166
166
165
166
166
166
165
165
165
166
165
165
165
165
165
165
166
166
166
166
166
166
166
166
165
165
165
166
166
166
166
166
165
164
164
164
165
164
165
165
165
165
165
165
166
166
166
165
165
165
165
164
164
165
166
167
165
164
164
185
184
190
187
190
190
166
165
162
163
166
165
165
165
166
165
166
165
168
164
164
165
164
164
167
167
164
165
166
165
166
160
165
138
126
125
127
126
127
126
127
125
126
123
177
229
229
229
229
229
230
251
254
254
255
254
254
254
254
254
254
254
254
254
254
254
254
253
254
253
254
254
254
254
254
255
254
254
255
252
252
254
253
254
254
254
253
253
254
255
255
255
255
254
254
254
254
254
254
253
253
255
255
255
254
254
254
254
254
255
255
254
254
254
255
255
255
254
255
254
255
255
255
255
254
254
254
0
0
0
0
0
0
0
0
0
0
0
0
0
0
0
0
0
0
0
0
0
0
0
0
0
0
0
0
0
0
0
0
0
0
0
0
0
0
0
0
0
0
0
0
0
0
0
0
0
0
0
0
0
0
0
0
0
0
0
0
0
0
0
0
0
0
0
0
0
0
0
0
0
0
0
0
0
0
0
0
0
0
0
0
0
0
0
0
0
0
0
0
0
0
0
0
0
0
0
0
0
0
0
0
0
0
0
0
0
0
0
0
0
0
0
0
0
0
0
0
0
0
0
0
0
0
0
0
0
0
0
0
0
0
0
0
0
0
0
0
0
0
0
0
0
0
0
0
0
0
0
0
0
0
0
0
0
0
0
0
0
0
0
0
0
0
0
0
0
0
0
0
0
0
0
0
0
0
0
0
0
0
0
0
0
0
0
0
0
0
0
0
0
0
0
0
0
0
0
0
0
0
0
0
0
0
0
0
0
0
0
0
0
0
0
0
0
0
0
0
0
0
0
0
0
0
0
0
0
0
0
0
0
0
0
0
0
0
0
0
0
0
0
0
0
0
0
0
0
0
0
0
0
0
0
0
0
0
0
0
0
0
0
0
0
0
0
0
0
0
0
0
0
0
0
0
0
0
0
0
0
0
0
0
0
0
0
0
0
0
0
0
0
255
255
254
255
254
255
254
254
254
255
255
255
255
254
254
254
255
254
254
255
254
254
254
254
254
254
255
255
254
254
255
255
255
254
254
254
255
255
254
254
254
255
255
254
254
254
255
255
254
254
255
254
255
253
247
213
124
129
125
124
125
125
125
158
166
166
166
166
166
166
166
166
166
166
166
166
166
166
166
166
166
166
166
166
165
166
166
166
166
166
166
166
166
166
165
166
166
166
165
165
165
165
165
165
165
165
165
166
166
166
166
165
166
166
166
166
165
166
166
166
166
166
165
165
165
164
164
164
165
165
165
165
166
165
165
165
166
166
166
165
165
164
164
164
165
165
164
165
164
173
185
189
188
189
190
185
179
165
165
167
166
166
166
164
166
166
165
165
166
167
165
165
166
165
167
166
165
165
165
166
150
160
129
126
126
126
126
127
127
127
126
125
122
163
225
229
229
231
229
230
244
251
254
255
254
254
253
254
254
254
254
254
254
253
254
254
254
255
253
253
252
254
254
251
250
255
249
248
247
252
246
247
253
247
251
253
253
254
253
255
254
254
255
254
254
254
254
254
255
253
255
255
255
255
255
255
254
255
254
255
255
255
254
254
254
255
255
255
254
255
255
255
255
255
254
255
254
254
0
0
0
0
0
0
0
0
0
0
0
0
0
0
0
0
0
0
0
0
0
0
0
0
0
0
0
0
0
0
0
0
0
0
0
0
0
0
0
0
0
0
0
0
0
0
0
0
0
0
0
0
0
0
0
0
0
0
0
0
0
0
0
0
0
0
0
0
0
0
0
0
0
0
0
0
0
0
0
0
0
0
0
0
0
0
0
0
0
0
0
0
0
0
0
0
0
0
0
0
0
0
0
0
0
0
0
0
0
0
0
0
0
0
0
0
0
0
0
0
0
0
0
0
0
0
0
0
0
0
0
0
0
0
0
0
0
0
0
0
0
0
0
0
0
0
0
0
0
0
0
0
0
0
0
0
0
0
0
0
0
0
0
0
0
0
0
0
0
0
0
0
0
0
0
0
0
0
0
0
0
0
0
0
0
0
0
0
0
0
0
0
0
0
0
0
0
0
0
0
0
0
0
0
0
0
0
0
0
0
0
0
0
0
0
0
0
0
0
0
0
0
0
0
0
0
0
0
0
0
0
0
0
0
0
0
0
0
0
0
0
0
0
0
0
0
0
0
0
0
0
0
0
0
0
0
0
0
0
0
0
0
0
0
0
0
0
0
0
0
0
0
0
0
0
0
0
0
0
0
0
0
0
0
0
0
0
0
0
0
0
0
255
254
254
254
255
255
255
254
255
255
255
255
255
255
254
255
255
255
255
255
255
254
254
254
254
254
254
255
254
254
254
255
255
255
254
254
254
255
255
254
254
254
254
254
254
255
255
255
254
255
255
254
255
255
250
153
125
125
124
126
122
125
142
166
166
166
166
166
166
166
166
165
166
166
166
166
166
166
166
166
166
166
166
166
166
165
166
166
166
166
166
166
166
166
166
165
166
166
166
165
165
165
165
165
166
165
165
166
166
166
166
166
166
166
166
166
165
166
166
165
166
166
166
165
166
166
164
165
165
166
166
166
166
165
165
165
165
166
166
166
165
164
164
164
164
165
167
163
168
168
184
190
188
188
188
189
189
170
165
164
167
165
165
166
164
166
166
166
165
167
167
165
167
167
167
164
165
166
163
131
138
126
127
127
124
126
127
126
126
126
126
123
159
227
226
232
232
232
230
237
237
254
255
254
254
254
253
253
254
254
254
254
255
254
254
253
253
255
254
254
246
251
249
247
247
235
220
109
208
210
222
222
232
244
175
246
248
251
251
251
254
254
253
254
254
254
252
254
254
254
254
252
254
255
255
255
255
254
254
254
255
255
255
254
254
254
255
255
254
254
255
255
255
255
254
254
255
254
254
0
0
0
0
0
0
0
0
0
0
0
0
0
0
0
0
0
0
0
0
0
0
0
0
0
0
0
0
0
0
0
0
0
0
0
0
0
0
0
0
0
0
0
0
0
0
0
0
0
0
0
0
0
0
0
0
0
0
0
0
0
0
0
0
0
0
0
0
0
0
0
0
0
0
0
0
0
0
0
0
0
0
0
0
0
0
0
0
0
0
0
0
0
0
0
0
0
0
0
0
0
0
0
0
0
0
0
0
0
0
0
0
0
0
0
0
0
0
0
0
0
0
0
0
0
0
0
0
0
0
0
0
0
0
0
0
0
0
0
0
0
0
0
0
0
0
0
0
0
0
0
0
0
0
0
0
0
0
0
0
0
0
0
0
0
0
0
0
0
0
0
0
0
0
0
0
0
0
0
0
0
0
0
0
0
0
0
0
0
0
0
0
0
0
0
0
0
0
0
0
0
0
0
0
0
0
0
0
0
0
0
0
0
0
0
0
0
0
0
0
0
0
0
0
0
0
0
0
0
0
0
0
0
0
0
0
0
0
0
0
0
0
0
0
0
0
0
0
0
0
0
0
0
0
0
0
0
0
0
0
0
0
0
0
0
0
0
0
0
0
0
0
0
0
0
0
0
0
0
0
0
0
0
0
0
0
0
0
0
0
0
255
255
254
254
254
255
255
255
255
255
255
255
255
255
255
254
255
255
255
255
255
255
254
254
254
254
254
254
255
254
255
254
255
255
254
254
254
254
255
255
254
255
254
254
254
254
255
255
255
254
254
254
254
255
250
130
120
127
128
128
122
128
163
166
165
165
165
166
166
166
166
165
165
166
166
166
166
166
166
166
166
166
166
166
166
166
166
166
166
166
166
166
166
166
166
166
166
166
166
166
165
165
165
166
166
166
165
166
166
166
166
166
166
166
166
165
165
166
166
165
165
166
166
166
166
166
166
166
165
164
166
166
165
165
165
165
165
166
165
166
166
164
164
163
166
165
165
166
162
176
183
190
188
187
187
189
180
166
163
164
165
166
165
165
165
163
165
165
165
167
164
167
168
167
165
162
165
141
126
131
126
127
128
125
126
124
127
125
125
125
122
165
229
227
230
229
229
229
230
233
253
254
254
254
254
254
254
254
255
254
254
253
255
253
253
254
253
255
251
245
246
201
125
205
149
103
105
109
100
104
109
119
105
101
175
101
122
235
247
207
249
251
246
249
254
254
255
255
255
255
253
252
254
253
255
255
254
254
254
254
254
255
254
255
255
254
254
254
254
254
254
255
255
254
254
254
255
254
254
254
0
0
0
0
0
0
0
0
0
0
0
0
0
0
0
0
0
0
0
0
0
0
0
0
0
0
0
0
0
0
0
0
0
0
0
0
0
0
0
0
0
0
0
0
0
0
0
0
0
0
0
0
0
0
0
0
0
0
0
0
0
0
0
0
0
0
0
0
0
0
0
0
0
0
0
0
0
0
0
0
0
0
0
0
0
0
0
0
0
0
0
0
0
0
0
0
0
0
0
0
0
0
0
0
0
0
0
0
0
0
0
0
0
0
0
0
0
0
0
0
0
0
0
0
0
0
0
0
0
0
0
0
0
0
0
0
0
0
0
0
0
0
0
0
0
0
0
0
0
0
0
0
0
0
0
0
0
0
0
0
0
0
0
0
0
0
0
0
0
0
0
0
0
0
0
0
0
0
0
0
0
0
0
0
0
0
0
0
0
0
0
0
0
0
0
0
0
0
0
0
0
0
0
0
0
0
0
0
0
0
0
0
0
0
0
0
0
0
0
0
0
0
0
0
0
0
0
0
0
0
0
0
0
0
0
0
0
0
0
0
0
0
0
0
0
0
0
0
0
0
0
0
0
0
0
0
0
0
0
0
0
0
0
0
0
0
0
0
0
0
0
0
0
0
0
0
0
0
0
0
0
0
0
0
0
0
0
0
0
0
255
255
255
254
254
254
255
255
255
255
255
255
255
255
255
255
254
255
255
255
255
255
255
254
254
254
254
254
254
255
255
255
254
254
254
254
254
254
254
255
255
255
255
254
254
254
254
255
255
254
254
255
255
252
198
198
123
126
126
126
124
133
133
164
164
164
166
166
165
165
166
166
166
165
166
166
166
166
166
166
166
166
166
166
166
166
166
166
166
166
166
166
166
166
166
166
166
165
166
166
166
166
165
165
166
166
166
165
165
166
166
166
166
166
166
166
166
166
166
165
165
165
166
166
166
166
166
166
165
164
164
165
165
165
165
165
166
166
166
165
166
165
166
164
164
166
165
165
166
166
186
186
187
189
189
188
173
164
164
166
165
165
167
166
166
166
167
164
164
163
164
164
164
165
150
150
130
126
126
127
126
126
127
125
125
125
128
126
126
120
178
229
229
230
230
230
230
230
230
252
254
254
254
254
254
254
254
255
255
255
254
255
255
254
254
253
253
250
224
224
137
102
102
106
105
105
105
105
107
107
107
105
105
105
107
102
102
103
104
207
128
182
233
233
245
249
249
252
251
253
253
252
254
254
255
254
255
255
255
254
254
254
254
254
255
255
254
254
254
254
254
254
254
254
254
254
255
255
254
254
254
0
0
0
0
0
0
0
0
0
0
0
0
0
0
0
0
0
0
0
0
0
0
0
0
0
0
0
0
0
0
0
0
0
0
0
0
0
0
0
0
0
0
0
0
0
0
0
0
0
0
0
0
0
0
0
0
0
0
0
0
0
0
0
0
0
0
0
0
0
0
0
0
0
0
0
0
0
0
0
0
0
0
0
0
0
0
0
0
0
0
0
0
0
0
0
0
0
0
0
0
0
0
0
0
0
0
0
0
0
0
0
0
0
0
0
0
0
0
0
0
0
0
0
0
0
0
0
0
0
0
0
0
0
0
0
0
0
0
0
0
0
0
0
0
0
0
0
0
0
0
0
0
0
0
0
0
0
0
0
0
0
0
0
0
0
0
0
0
0
0
0
0
0
0
0
0
0
0
0
0
0
0
0
0
0
0
0
0
0
0
0
0
0
0
0
0
0
0
0
0
0
0
0
0
0
0
0
0
0
0
0
0
0
0
0
0
0
0
0
0
0
0
0
0
0
0
0
0
0
0
0
0
0
0
0
0
0
0
0
0
0
0
0
0
0
0
0
0
0
0
0
0
0
0
0
0
0
0
0
0
0
0
0
0
0
0
0
0
0
0
0
0
0
0
0
0
0
0
0
0
0
0
0
0
0
0
0
0
0
254
255
255
255
254
254
254
255
255
255
255
255
255
255
255
255
254
255
255
255
255
255
255
255
254
254
254
254
255
255
255
254
254
254
254
254
254
254
254
254
255
255
255
255
254
254
254
255
255
255
254
253
252
254
248
122
119
125
127
126
130
125
159
164
165
164
165
166
166
165
165
165
165
165
165
166
166
166
166
166
166
166
166
166
166
166
166
166
166
166
166
166
166
166
166
166
166
166
165
166
166
166
166
165
165
166
166
166
166
165
166
166
166
166
166
166
166
166
167
166
165
166
166
166
166
166
166
166
166
165
165
166
166
165
166
166
166
166
165
166
165
165
163
165
164
165
165
165
166
165
167
187
178
189
188
171
165
165
167
164
164
165
165
166
165
165
163
164
164
168
166
168
142
125
137
125
127
127
126
127
126
126
128
128
127
126
124
126
121
204
229
229
229
229
230
231
230
230
244
253
254
254
254
254
253
254
255
255
255
254
255
253
254
252
253
255
247
160
192
110
106
102
105
105
103
111
111
101
108
102
107
105
105
106
109
105
108
108
106
105
102
104
110
166
111
233
245
227
247
253
254
253
253
250
254
255
254
255
255
255
254
255
254
254
254
254
255
254
254
254
254
255
254
254
254
254
255
255
255
254
254
254
0
0
0
0
0
0
0
0
0
0
0
0
0
0
0
0
0
0
0
0
0
0
0
0
0
0
0
0
0
0
0
0
0
0
0
0
0
0
0
0
0
0
0
0
0
0
0
0
0
0
0
0
0
0
0
0
0
0
0
0
0
0
0
0
0
0
0
0
0
0
0
0
0
0
0
0
0
0
0
0
0
0
0
0
0
0
0
0
0
0
0
0
0
0
0
0
0
0
0
0
0
0
0
0
0
0
0
0
0
0
0
0
0
0
0
0
0
0
0
0
0
0
0
0
0
0
0
0
0
0
0
0
0
0
0
0
0
0
0
0
0
0
0
0
0
0
0
0
0
0
0
0
0
0
0
0
0
0
0
0
0
0
0
0
0
0
0
0
0
0
0
0
0
0
0
0
0
0
0
0
0
0
0
0
0
0
0
0
0
0
0
0
0
0
0
0
0
0
0
0
0
0
0
0
0
0
0
0
0
0
0
0
0
0
0
0
0
0
0
0
0
0
0
0
0
0
0
0
0
0
0
0
0
0
0
0
0
0
0
0
0
0
0
0
0
0
0
0
0
0
0
0
0
0
0
0
0
0
0
0
0
0
0
0
0
0
0
0
0
0
0
0
0
0
0
0
0
0
0
0
0
0
0
0
0
0
0
0
254
254
255
255
255
254
254
254
255
255
255
255
255
255
255
254
254
254
254
255
255
255
255
255
255
254
254
254
255
255
254
255
254
254
254
255
254
255
254
254
254
254
255
255
255
254
254
254
255
255
255
253
254
254
249
131
122
122
127
127
130
126
138
164
167
165
165
165
166
166
165
165
165
165
165
165
166
166
166
166
166
166
166
166
166
166
166
166
166
166
166
166
166
166
166
166
166
166
166
165
166
166
166
166
165
166
166
165
165
165
165
166
166
166
166
166
166
165
167
166
165
166
166
166
166
166
165
166
166
166
166
167
167
166
166
166
166
165
165
165
166
164
163
167
164
165
166
166
165
165
164
168
178
166
166
164
164
164
164
164
165
164
165
164
167
163
163
165
163
168
144
128
124
124
128
124
127
128
129
127
125
129
126
126
125
122
124
138
219
229
229
229
230
229
230
229
230
238
255
254
254
254
254
254
253
255
255
255
255
255
255
251
253
252
252
243
135
160
104
107
106
105
105
107
107
108
108
101
108
105
105
105
107
105
109
105
102
108
105
106
110
104
109
101
111
100
107
162
162
228
246
253
248
252
255
255
251
254
255
255
255
255
255
254
255
255
254
255
254
254
255
254
254
254
254
254
254
254
255
255
254
254
254
0
0
0
0
0
0
0
0
0
0
0
0
0
0
0
0
0
0
0
0
0
0
0
0
0
0
0
0
0
0
0
0
0
0
0
0
0
0
0
0
0
0
0
0
0
0
0
0
0
0
0
0
0
0
0
0
0
0
0
0
0
0
0
0
0
0
0
0
0
0
0
0
0
0
0
0
0
0
0
0
0
0
0
0
0
0
0
0
0
0
0
0
0
0
0
0
0
0
0
0
0
0
0
0
0
0
0
0
0
0
0
0
0
0
0
0
0
0
0
0
0
0
0
0
0
0
0
0
0
0
0
0
0
0
0
0
0
0
0
0
0
0
0
0
0
0
0
0
0
0
0
0
0
0
0
0
0
0
0
0
0
0
0
0
0
0
0
0
0
0
0
0
0
0
0
0
0
0
0
0
0
0
0
0
0
0
0
0
0
0
0
0
0
0
0
0
0
0
0
0
0
0
0
0
0
0
0
0
0
0
0
0
0
0
0
0
0
0
0
0
0
0
0
0
0
0
0
0
0
0
0
0
0
0
0
0
0
0
0
0
0
0
0
0
0
0
0
0
0
0
0
0
0
0
0
0
0
0
0
0
0
0
0
0
0
0
0
0
0
0
0
0
0
0
0
0
0
0
0
0
0
0
0
0
0
0
0
254
254
254
255
255
255
254
254
254
255
255
255
255
255
255
255
254
254
254
254
255
255
255
255
255
255
254
254
254
254
254
254
255
254
254
254
255
255
255
254
254
254
255
255
254
254
254
254
255
251
255
254
255
250
220
156
122
125
126
126
125
126
126
151
167
164
166
165
165
166
166
165
165
166
166
165
165
166
166
166
166
166
166
165
166
166
166
166
166
165
165
166
166
166
165
166
166
166
166
166
165
166
166
166
166
166
166
165
165
165
165
165
166
165
166
166
167
165
167
165
165
167
166
166
166
165
165
165
167
166
165
166
166
165
166
166
165
165
165
165
166
166
167
166
166
165
166
166
166
165
165
164
163
164
166
165
166
164
163
167
166
166
164
168
164
166
167
131
151
129
125
126
126
125
130
126
128
125
125
126
127
125
125
124
123
121
160
225
229
228
229
231
230
230
229
229
236
254
254
254
254
254
254
255
255
255
255
255
255
255
254
252
254
254
240
117
122
103
105
105
105
104
103
103
106
108
109
107
105
128
106
105
118
108
106
106
106
104
110
105
104
104
108
108
107
106
103
103
110
105
170
236
249
242
254
254
252
255
254
255
255
255
255
253
255
255
254
255
254
255
255
255
254
254
254
254
254
254
254
255
254
254
254
254
0
0
0
0
0
0
0
0
0
0
0
0
0
0
0
0
0
0
0
0
0
0
0
0
0
0
0
0
0
0
0
0
0
0
0
0
0
0
0
0
0
0
0
0
0
0
0
0
0
0
0
0
0
0
0
0
0
0
0
0
0
0
0
0
0
0
0
0
0
0
0
0
0
0
0
0
0
0
0
0
0
0
0
0
0
0
0
0
0
0
0
0
0
0
0
0
0
0
0
0
0
0
0
0
0
0
0
0
0
0
0
0
0
0
0
0
0
0
0
0
0
0
0
0
0
0
0
0
0
0
0
0
0
0
0
0
0
0
0
0
0
0
0
0
0
0
0
0
0
0
0
0
0
0
0
0
0
0
0
0
0
0
0
0
0
0
0
0
0
0
0
0
0
0
0
0
0
0
0
0
0
0
0
0
0
0
0
0
0
0
0
0
0
0
0
0
0
0
0
0
0
0
0
0
0
0
0
0
0
0
0
0
0
0
0
0
0
0
0
0
0
0
0
0
0
0
0
0
0
0
0
0
0
0
0
0
0
0
0
0
0
0
0
0
0
0
0
0
0
0
0
0
0
0
0
0
0
0
0
0
0
0
0
0
0
0
0
0
0
0
0
0
0
0
0
0
0
0
0
0
0
0
0
0
0
0
254
254
255
255
254
254
253
254
254
254
255
255
255
254
255
255
255
254
254
254
255
255
255
255
255
255
255
254
255
255
254
254
255
255
254
254
254
254
254
255
254
254
254
254
255
254
254
255
255
255
254
254
254
254
245
156
122
127
126
127
125
127
125
123
165
164
164
166
165
165
166
165
165
165
165
165
165
166
165
166
166
166
166
166
166
166
166
166
165
165
165
165
166
165
165
165
166
166
166
166
166
165
166
166
165
165
166
166
165
165
165
165
165
165
165
165
167
164
166
167
165
164
165
166
166
165
165
165
166
166
165
166
166
165
164
165
165
165
166
166
166
165
164
165
165
167
166
166
164
167
165
165
165
166
166
163
164
164
166
164
165
166
163
153
164
134
129
131
128
127
126
126
127
127
130
124
126
124
125
124
126
125
123
139
123
212
228
229
229
230
229
231
229
230
229
235
253
255
254
255
254
254
255
255
255
255
254
255
255
253
255
251
254
239
113
117
107
106
104
106
106
103
103
108
127
108
146
154
156
128
153
155
118
156
152
113
109
130
118
105
106
106
107
107
104
105
103
106
104
105
104
102
123
242
204
244
252
248
250
254
255
255
255
253
253
253
254
255
255
254
255
254
254
254
255
255
254
253
254
254
254
255
254
254
254
0
0
0
0
0
0
0
0
0
0
0
0
0
0
0
0
0
0
0
0
0
0
0
0
0
0
0
0
0
0
0
0
0
0
0
0
0
0
0
0
0
0
0
0
0
0
0
0
0
0
0
0
0
0
0
0
0
0
0
0
0
0
0
0
0
0
0
0
0
0
0
0
0
0
0
0
0
0
0
0
0
0
0
0
0
0
0
0
0
0
0
0
0
0
0
0
0
0
0
0
0
0
0
0
0
0
0
0
0
0
0
0
0
0
0
0
0
0
0
0
0
0
0
0
0
0
0
0
0
0
0
0
0
0
0
0
0
0
0
0
0
0
0
0
0
0
0
0
0
0
0
0
0
0
0
0
0
0
0
0
0
0
0
0
0
0
0
0
0
0
0
0
0
0
0
0
0
0
0
0
0
0
0
0
0
0
0
0
0
0
0
0
0
0
0
0
0
0
0
0
0
0
0
0
0
0
0
0
0
0
0
0
0
0
0
0
0
0
0
0
0
0
0
0
0
0
0
0
0
0
0
0
0
0
0
0
0
0
0
0
0
0
0
0
0
0
0
0
0
0
0
0
0
0
0
0
0
0
0
0
0
0
0
0
0
0
0
0
0
0
0
0
0
0
0
0
0
0
0
0
0
0
0
0
0
254
254
254
255
254
253
253
254
254
254
254
255
255
254
254
255
255
255
254
254
254
255
255
255
254
255
255
254
255
255
255
255
255
255
255
254
254
254
255
255
255
254
254
254
254
254
253
253
252
254
254
254
252
252
253
216
119
119
125
127
127
126
125
126
126
166
165
165
165
165
165
166
165
165
165
165
165
165
165
166
166
166
166
166
166
166
166
166
166
165
165
165
166
165
165
165
166
166
166
166
166
166
165
165
165
165
166
165
165
165
165
165
166
165
164
164
164
163
163
165
165
165
165
165
166
166
165
166
166
166
166
166
166
166
166
166
165
165
165
165
165
165
165
166
167
165
165
165
165
165
165
165
167
165
166
169
169
167
165
165
162
153
137
137
126
126
126
126
124
127
127
128
125
125
129
124
124
123
126
122
122
123
176
176
227
228
230
229
229
229
229
230
231
231
233
253
254
254
255
255
255
254
254
255
255
254
252
252
255
253
254
251
242
117
117
106
105
105
105
106
104
104
116
145
145
160
159
156
156
154
160
160
156
157
157
157
158
155
155
151
133
133
118
107
106
106
107
105
105
106
105
102
102
99
139
139
228
248
248
254
252
255
255
255
254
254
255
255
253
255
254
254
254
255
255
255
255
254
253
253
255
255
255
254
254
254
0
0
0
0
0
0
0
0
0
0
0
0
0
0
0
0
0
0
0
0
0
0
0
0
0
0
0
0
0
0
0
0
0
0
0
0
0
0
0
0
0
0
0
0
0
0
0
0
0
0
0
0
0
0
0
0
0
0
0
0
0
0
0
0
0
0
0
0
0
0
0
0
0
0
0
0
0
0
0
0
0
0
0
0
0
0
0
0
0
0
0
0
0
0
0
0
0
0
0
0
0
0
0
0
0
0
0
0
0
0
0
0
0
0
0
0
0
0
0
0
0
0
0
0
0
0
0
0
0
0
0
0
0
0
0
0
0
0
0
0
0
0
0
0
0
0
0
0
0
0
0
0
0
0
0
0
0
0
0
0
0
0
0
0
0
0
0
0
0
0
0
0
0
0
0
0
0
0
0
0
0
0
0
0
0
0
0
0
0
0
0
0
0
0
0
0
0
0
0
0
0
0
0
0
0
0
0
0
0
0
0
0
0
0
0
0
0
0
0
0
0
0
0
0
0
0
0
0
0
0
0
0
0
0
0
0
0
0
0
0
0
0
0
0
0
0
0
0
0
0
0
0
0
0
0
0
0
0
0
0
0
0
0
0
0
0
0
0
0
0
0
0
0
0
0
0
0
0
0
0
0
0
0
0
254
254
254
255
254
253
254
254
254
254
254
254
255
255
254
254
255
255
255
254
254
255
255
254
254
254
254
254
254
255
254
254
255
255
255
254
254
254
255
255
255
255
254
254
254
254
254
254
255
252
254
254
254
252
251
250
171
122
123
125
126
126
127
125
133
141
164
167
165
164
165
166
165
165
166
166
165
165
165
166
166
166
166
166
166
166
166
166
166
166
165
166
166
166
165
165
165
166
166
166
166
166
167
166
165
166
166
166
165
166
164
165
166
164
166
163
167
165
164
166
166
166
165
163
164
166
164
166
166
166
166
166
166
166
166
167
165
166
165
165
167
166
167
166
165
164
167
166
163
167
166
165
167
165
163
165
164
153
164
155
124
125
127
125
127
126
125
128
127
127
124
126
125
129
124
122
125
119
125
118
143
227
212
230
232
230
230
230
229
229
231
229
229
234
254
254
254
255
254
255
255
255
254
254
254
254
252
255
255
254
254
246
138
125
105
105
104
106
105
106
105
130
156
159
156
156
156
156
157
158
156
155
155
159
161
154
156
158
157
154
155
154
156
155
124
110
123
103
106
104
108
102
105
107
103
105
104
174
245
216
244
251
255
254
254
255
255
254
253
252
255
254
253
253
255
255
255
254
254
255
255
255
255
254
254
254
254
0
0
0
0
0
0
0
0
0
0
0
0
0
0
0
0
0
0
0
0
0
0
0
0
0
0
0
0
0
0
0
0
0
0
0
0
0
0
0
0
0
0
0
0
0
0
0
0
0
0
0
0
0
0
0
0
0
0
0
0
0
0
0
0
0
0
0
0
0
0
0
0
0
0
0
0
0
0
0
0
0
0
0
0
0
0
0
0
0
0
0
0
0
0
0
0
0
0
0
0
0
0
0
0
0
0
0
0
0
0
0
0
0
0
0
0
0
0
0
0
0
0
0
0
0
0
0
0
0
0
0
0
0
0
0
0
0
0
0
0
0
0
0
0
0
0
0
0
0
0
0
0
0
0
0
0
0
0
0
0
0
0
0
0
0
0
0
0
0
0
0
0
0
0
0
0
0
0
0
0
0
0
0
0
0
0
0
0
0
0
0
0
0
0
0
0
0
0
0
0
0
0
0
0
0
0
0
0
0
0
0
0
0
0
0
0
0
0
0
0
0
0
0
0
0
0
0
0
0
0
0
0
0
0
0
0
0
0
0
0
0
0
0
0
0
0
0
0
0
0
0
0
0
0
0
0
0
0
0
0
0
0
0
0
0
0
0
0
0
0
0
0
0
0
0
0
0
0
0
0
0
0
0
254
254
254
255
255
254
254
254
254
254
255
255
254
255
255
254
254
255
255
255
254
254
255
254
254
255
255
254
254
254
254
254
254
255
255
255
254
254
254
255
255
255
254
254
254
254
254
254
255
255
254
252
252
254
251
251
239
120
123
124
125
126
126
127
125
141
145
165
166
166
165
166
166
165
166
166
165
165
166
166
166
166
166
166
166
166
166
166
166
166
166
166
166
166
165
165
165
166
166
166
166
166
166
166
166
166
166
165
165
165
165
165
167
167
167
164
167
167
164
165
165
165
167
163
166
162
165
165
166
166
166
166
166
166
165
164
161
161
165
166
167
165
164
165
165
166
168
166
165
165
164
164
167
162
162
152
133
153
123
125
126
126
126
127
127
125
128
127
127
127
125
125
127
127
124
120
122
160
160
220
229
227
230
229
229
229
228
231
231
230
230
229
237
255
255
255
254
253
254
254
255
255
255
254
254
254
255
255
254
254
248
161
161
102
105
105
105
107
105
105
143
153
156
158
157
156
156
156
154
154
154
156
155
160
158
159
159
156
155
154
157
158
156
156
155
160
123
152
127
105
105
105
106
106
106
104
104
104
106
173
173
241
251
254
254
254
254
254
254
253
253
254
254
253
253
254
254
254
254
255
255
255
255
254
254
254
254
254
0
0
0
0
0
0
0
0
0
0
0
0
0
0
0
0
0
0
0
0
0
0
0
0
0
0
0
0
0
0
0
0
0
0
0
0
0
0
0
0
0
0
0
0
0
0
0
0
0
0
0
0
0
0
0
0
0
0
0
0
0
0
0
0
0
0
0
0
0
0
0
0
0
0
0
0
0
0
0
0
0
0
0
0
0
0
0
0
0
0
0
0
0
0
0
0
0
0
0
0
0
0
0
0
0
0
0
0
0
0
0
0
0
0
0
0
0
0
0
0
0
0
0
0
0
0
0
0
0
0
0
0
0
0
0
0
0
0
0
0
0
0
0
0
0
0
0
0
0
0
0
0
0
0
0
0
0
0
0
0
0
0
0
0
0
0
0
0
0
0
0
0
0
0
0
0
0
0
0
0
0
0
0
0
0
0
0
0
0
0
0
0
0
0
0
0
0
0
0
0
0
0
0
0
0
0
0
0
0
0
0
0
0
0
0
0
0
0
0
0
0
0
0
0
0
0
0
0
0
0
0
0
0
0
0
0
0
0
0
0
0
0
0
0
0
0
0
0
0
0
0
0
0
0
0
0
0
0
0
0
0
0
0
0
0
0
0
0
0
0
0
0
0
0
0
0
0
0
0
0
0
0
255
254
254
254
255
255
254
254
254
254
255
255
254
254
255
255
254
254
254
254
255
255
255
255
254
255
255
255
254
254
254
254
254
255
255
255
255
254
255
254
254
255
254
254
254
254
254
254
255
250
252
255
252
254
252
250
243
218
118
126
126
126
126
127
127
125
148
149
166
165
165
165
166
166
165
166
164
165
165
166
166
166
166
166
166
166
166
166
166
166
166
166
166
166
166
165
166
166
166
166
166
164
163
167
165
166
165
165
165
165
165
164
167
161
165
164
165
163
164
164
164
165
165
164
166
166
165
166
166
166
166
165
165
164
166
167
167
168
166
167
166
165
166
164
167
166
167
162
167
146
165
157
124
143
129
126
124
127
129
124
126
124
126
126
126
126
124
125
126
124
126
128
121
122
123
148
226
206
229
230
229
230
229
231
229
228
230
231
230
230
230
240
255
255
255
254
254
253
254
255
254
254
254
254
253
255
255
255
254
251
224
194
103
105
105
105
106
107
105
144
160
159
158
156
155
155
156
156
156
156
158
156
157
154
156
157
156
156
156
157
156
156
158
159
160
158
155
155
157
146
117
140
102
105
106
106
106
102
104
103
136
105
228
249
254
254
254
253
254
254
255
255
254
254
253
253
254
254
254
254
255
255
255
255
254
254
254
254
254
0
0
0
0
0
0
0
0
0
0
0
0
0
0
0
0
0
0
0
0
0
0
0
0
0
0
0
0
0
0
0
0
0
0
0
0
0
0
0
0
0
0
0
0
0
0
0
0
0
0
0
0
0
0
0
0
0
0
0
0
0
0
0
0
0
0
0
0
0
0
0
0
0
0
0
0
0
0
0
0
0
0
0
0
0
0
0
0
0
0
0
0
0
0
0
0
0
0
0
0
0
0
0
0
0
0
0
0
0
0
0
0
0
0
0
0
0
0
0
0
0
0
0
0
0
0
0
0
0
0
0
0
0
0
0
0
0
0
0
0
0
0
0
0
0
0
0
0
0
0
0
0
0
0
0
0
0
0
0
0
0
0
0
0
0
0
0
0
0
0
0
0
0
0
0
0
0
0
0
0
0
0
0
0
0
0
0
0
0
0
0
0
0
0
0
0
0
0
0
0
0
0
0
0
0
0
0
0
0
0
0
0
0
0
0
0
0
0
0
0
0
0
0
0
0
0
0
0
0
0
0
0
0
0
0
0
0
0
0
0
0
0
0
0
0
0
0
0
0
0
0
0
0
0
0
0
0
0
0
0
0
0
0
0
0
0
0
0
0
0
0
0
0
0
0
0
0
0
0
0
0
255
254
254
254
255
255
255
254
254
254
254
255
254
254
254
255
255
254
254
254
255
254
255
254
255
254
255
255
255
254
255
254
254
254
255
255
255
254
254
254
254
255
254
254
254
254
254
254
254
255
252
255
254
254
250
254
243
237
175
121
126
126
126
127
127
126
125
149
153
166
165
164
165
166
166
165
166
165
166
165
166
166
166
166
166
166
166
166
166
166
166
165
166
166
166
166
166
166
166
166
165
164
166
167
165
164
166
165
165
165
164
164
167
166
165
166
167
167
164
167
169
165
169
165
166
166
165
164
166
166
164
165
166
165
164
167
164
163
166
164
166
163
166
163
156
166
153
139
127
146
128
124
124
126
129
126
123
126
128
124
126
126
126
126
128
125
124
127
122
124
119
133
121
183
222
227
226
230
230
230
230
230
230
231
230
231
230
228
230
230
248
255
255
255
254
255
254
255
255
255
254
253
255
254
254
255
253
255
250
242
224
102
104
105
106
105
105
107
131
154
160
154
157
156
155
156
156
156
156
155
158
157
157
155
156
157
157
156
156
157
157
156
158
153
160
154
157
156
157
158
155
140
158
126
106
109
105
106
104
106
101
105
101
160
244
254
253
254
254
254
254
255
255
253
254
253
253
254
254
254
254
255
255
255
255
254
255
255
254
254
0
0
0
0
0
0
0
0
0
0
0
0
0
0
0
0
0
0
0
0
0
0
0
0
0
0
0
0
0
0
0
0
0
0
0
0
0
0
0
0
0
0
0
0
0
0
0
0
0
0
0
0
0
0
0
0
0
0
0
0
0
0
0
0
0
0
0
0
0
0
0
0
0
0
0
0
0
0
0
0
0
0
0
0
0
0
0
0
0
0
0
0
0
0
0
0
0
0
0
0
0
0
0
0
0
0
0
0
0
0
0
0
0
0
0
0
0
0
0
0
0
0
0
0
0
0
0
0
0
0
0
0
0
0
0
0
0
0
0
0
0
0
0
0
0
0
0
0
0
0
0
0
0
0
0
0
0
0
0
0
0
0
0
0
0
0
0
0
0
0
0
0
0
0
0
0
0
0
0
0
0
0
0
0
0
0
0
0
0
0
0
0
0
0
0
0
0
0
0
0
0
0
0
0
0
0
0
0
0
0
0
0
0
0
0
0
0
0
0
0
0
0
0
0
0
0
0
0
0
0
0
0
0
0
0
0
0
0
0
0
0
0
0
0
0
0
0
0
0
0
0
0
0
0
0
0
0
0
0
0
0
0
0
0
0
0
0
0
0
0
0
0
0
0
0
0
0
0
0
0
255
254
254
254
254
255
255
254
254
254
254
254
255
254
254
254
255
255
254
255
255
255
254
254
254
255
254
255
255
255
254
254
254
254
254
254
254
254
254
254
254
254
254
254
254
254
254
254
255
254
255
255
255
254
254
254
252
231
227
157
123
126
126
126
127
127
126
125
156
156
165
165
165
165
166
165
165
165
165
165
165
166
166
166
166
166
166
166
166
166
165
165
165
166
166
166
166
166
166
166
164
165
167
167
166
166
167
165
165
167
167
165
165
165
164
166
162
166
162
162
162
163
166
156
166
167
168
168
167
164
164
164
168
155
167
167
165
165
165
161
126
155
146
137
137
132
122
129
124
124
127
127
128
126
126
128
129
124
125
127
123
123
127
128
123
125
123
119
119
129
175
175
220
229
229
230
230
230
230
230
230
229
230
230
230
230
229
234
234
251
255
255
255
254
255
255
254
255
253
254
253
255
255
255
255
255
253
254
248
248
126
104
104
106
107
105
104
122
157
157
157
157
156
156
156
156
156
156
155
155
156
155
157
156
156
156
156
155
155
157
154
156
156
156
161
156
155
158
156
158
158
153
156
156
144
110
121
106
107
106
106
103
105
104
132
236
251
251
254
255
255
254
255
255
253
253
253
253
254
254
253
254
255
255
255
254
255
255
254
254
254
0
0
0
0
0
0
0
0
0
0
0
0
0
0
0
0
0
0
0
0
0
0
0
0
0
0
0
0
0
0
0
0
0
0
0
0
0
0
0
0
0
0
0
0
0
0
0
0
0
0
0
0
0
0
0
0
0
0
0
0
0
0
0
0
0
0
0
0
0
0
0
0
0
0
0
0
0
0
0
0
0
0
0
0
0
0
0
0
0
0
0
0
0
0
0
0
0
0
0
0
0
0
0
0
0
0
0
0
0
0
0
0
0
0
0
0
0
0
0
0
0
0
0
0
0
0
0
0
0
0
0
0
0
0
0
0
0
0
0
0
0
0
0
0
0
0
0
0
0
0
0
0
0
0
0
0
0
0
0
0
0
0
0
0
0
0
0
0
0
0
0
0
0
0
0
0
0
0
0
0
0
0
0
0
0
0
0
0
0
0
0
0
0
0
0
0
0
0
0
0
0
0
0
0
0
0
0
0
0
0
0
0
0
0
0
0
0
0
0
0
0
0
0
0
0
0
0
0
0
0
0
0
0
0
0
0
0
0
0
0
0
0
0
0
0
0
0
0
0
0
0
0
0
0
0
0
0
0
0
0
0
0
0
0
0
0
0
0
0
0
0
0
0
0
0
0
0
0
0
255
255
255
255
254
254
255
254
254
254
254
254
255
255
255
255
255
255
255
254
255
255
255
254
254
254
255
254
254
255
255
254
254
254
254
254
254
254
254
254
254
254
254
254
254
255
255
255
255
254
254
253
254
254
254
254
254
235
227
228
137
126
127
127
126
127
126
125
125
158
160
165
165
166
165
165
165
165
166
165
165
165
166
166
166
166
165
166
166
166
166
165
165
165
165
165
166
166
166
166
165
163
165
166
163
163
167
165
162
166
162
167
166
164
163
165
162
141
123
146
148
127
128
156
129
132
161
161
133
161
161
132
130
155
127
126
148
141
126
127
126
124
125
125
123
127
123
129
125
128
125
128
126
126
126
125
126
124
125
125
127
126
124
120
123
128
169
126
170
229
219
232
230
228
229
231
229
230
230
230
228
229
229
229
229
229
249
241
254
255
255
255
254
255
255
254
255
254
253
255
254
255
253
252
255
255
252
252
247
166
102
104
106
105
106
105
105
156
159
157
154
156
156
156
156
156
156
156
156
156
156
156
157
157
156
156
155
165
167
157
164
162
154
155
156
155
155
157
156
157
159
158
157
152
158
156
121
129
106
107
106
106
105
104
103
102
227
251
249
254
255
253
254
255
255
252
253
254
254
254
253
253
254
255
254
254
254
255
255
254
254
254
0
0
0
0
0
0
0
0
0
0
0
0
0
0
0
0
0
0
0
0
0
0
0
0
0
0
0
0
0
0
0
0
0
0
0
0
0
0
0
0
0
0
0
0
0
0
0
0
0
0
0
0
0
0
0
0
0
0
0
0
0
0
0
0
0
0
0
0
0
0
0
0
0
0
0
0
0
0
0
0
0
0
0
0
0
0
0
0
0
0
0
0
0
0
0
0
0
0
0
0
0
0
0
0
0
0
0
0
0
0
0
0
0
0
0
0
0
0
0
0
0
0
0
0
0
0
0
0
0
0
0
0
0
0
0
0
0
0
0
0
0
0
0
0
0
0
0
0
0
0
0
0
0
0
0
0
0
0
0
0
0
0
0
0
0
0
0
0
0
0
0
0
0
0
0
0
0
0
0
0
0
0
0
0
0
0
0
0
0
0
0
0
0
0
0
0
0
0
0
0
0
0
0
0
0
0
0
0
0
0
0
0
0
0
0
0
0
0
0
0
0
0
0
0
0
0
0
0
0
0
0
0
0
0
0
0
0
0
0
0
0
0
0
0
0
0
0
0
0
0
0
0
0
0
0
0
0
0
0
0
0
0
0
0
0
0
0
0
0
0
0
0
0
0
0
0
0
0
255
255
255
255
255
254
254
255
254
254
254
254
255
255
255
255
255
254
255
255
254
254
255
255
254
255
255
255
254
255
255
255
254
254
254
254
254
254
254
255
255
255
255
255
254
254
255
255
255
254
254
255
255
254
254
252
255
255
230
227
227
127
126
127
127
126
126
126
125
125
160
161
163
166
166
165
166
166
166
166
165
165
165
166
166
165
166
166
166
166
166
166
166
165
165
165
165
164
164
167
165
165
167
163
167
167
166
165
165
168
166
167
167
164
168
168
147
125
125
125
124
126
126
125
125
125
127
127
133
126
127
121
121
124
124
124
126
128
123
123
126
126
126
124
124
123
123
125
126
126
128
128
126
128
127
126
126
125
128
128
124
119
135
135
180
222
222
231
227
229
230
230
228
228
230
231
231
230
230
228
228
229
230
230
241
251
249
255
255
255
255
254
255
255
255
255
254
254
255
255
255
255
255
255
255
254
254
254
240
102
102
107
106
106
106
103
140
140
152
158
156
156
156
156
156
156
156
156
156
156
156
156
156
157
157
159
175
177
177
179
176
176
172
168
158
158
157
159
159
155
156
158
156
157
157
157
156
141
141
105
107
107
107
105
107
107
103
186
249
247
253
253
253
254
255
255
254
254
254
254
254
254
254
255
254
254
254
254
254
254
254
254
254
0
0
0
0
0
0
0
0
0
0
0
0
0
0
0
0
0
0
0
0
0
0
0
0
0
0
0
0
0
0
0
0
0
0
0
0
0
0
0
0
0
0
0
0
0
0
0
0
0
0
0
0
0
0
0
0
0
0
0
0
0
0
0
0
0
0
0
0
0
0
0
0
0
0
0
0
0
0
0
0
0
0
0
0
0
0
0
0
0
0
0
0
0
0
0
0
0
0
0
0
0
0
0
0
0
0
0
0
0
0
0
0
0
0
0
0
0
0
0
0
0
0
0
0
0
0
0
0
0
0
0
0
0
0
0
0
0
0
0
0
0
0
0
0
0
0
0
0
0
0
0
0
0
0
0
0
0
0
0
0
0
0
0
0
0
0
0
0
0
0
0
0
0
0
0
0
0
0
0
0
0
0
0
0
0
0
0
0
0
0
0
0
0
0
0
0
0
0
0
0
0
0
0
0
0
0
0
0
0
0
0
0
0
0
0
0
0
0
0
0
0
0
0
0
0
0
0
0
0
0
0
0
0
0
0
0
0
0
0
0
0
0
0
0
0
0
0
0
0
0
0
0
0
0
0
0
0
0
0
0
0
0
0
0
0
0
0
0
0
0
0
0
0
0
0
0
0
255
255
255
254
255
255
254
254
255
255
255
254
254
255
255
255
254
254
254
255
255
254
254
255
255
254
255
255
255
254
255
255
255
254
254
254
254
254
255
255
254
254
255
255
254
254
254
255
255
255
255
255
254
255
255
254
255
248
239
229
223
220
121
127
127
127
127
126
125
126
125
162
161
164
166
165
166
165
166
166
165
165
164
165
166
166
165
166
166
166
166
166
166
166
165
166
165
165
166
165
165
166
166
165
169
180
187
172
164
165
164
164
164
165
164
162
133
124
126
127
127
125
125
127
125
125
127
124
123
124
128
124
127
126
125
125
127
128
125
127
126
125
126
130
125
128
128
126
125
126
123
127
125
122
122
126
125
124
120
119
201
224
189
218
232
226
225
227
228
231
230
228
228
231
229
230
228
230
230
230
231
241
234
248
254
253
254
255
255
255
254
255
255
255
255
255
255
255
255
255
254
255
254
254
255
255
254
248
183
125
106
106
107
107
104
109
122
155
156
157
157
156
156
156
156
156
156
156
156
156
156
156
156
156
156
170
186
185
184
186
185
186
179
182
177
170
182
161
156
157
157
155
156
158
155
156
156
156
151
155
117
105
106
105
105
107
108
102
169
246
246
251
255
255
253
255
254
255
255
254
254
254
255
255
254
254
254
254
254
254
254
254
254
254
0
0
0
0
0
0
0
0
0
0
0
0
0
0
0
0
0
0
0
0
0
0
0
0
0
0
0
0
0
0
0
0
0
0
0
0
0
0
0
0
0
0
0
0
0
0
0
0
0
0
0
0
0
0
0
0
0
0
0
0
0
0
0
0
0
0
0
0
0
0
0
0
0
0
0
0
0
0
0
0
0
0
0
0
0
0
0
0
0
0
0
0
0
0
0
0
0
0
0
0
0
0
0
0
0
0
0
0
0
0
0
0
0
0
0
0
0
0
0
0
0
0
0
0
0
0
0
0
0
0
0
0
0
0
0
0
0
0
0
0
0
0
0
0
0
0
0
0
0
0
0
0
0
0
0
0
0
0
0
0
0
0
0
0
0
0
0
0
0
0
0
0
0
0
0
0
0
0
0
0
0
0
0
0
0
0
0
0
0
0
0
0
0
0
0
0
0
0
0
0
0
0
0
0
0
0
0
0
0
0
0
0
0
0
0
0
0
0
0
0
0
0
0
0
0
0
0
0
0
0
0
0
0
0
0
0
0
0
0
0
0
0
0
0
0
0
0
0
0
0
0
0
0
0
0
0
0
0
0
0
0
0
0
0
0
0
0
0
0
0
0
0
0
0
0
0
255
255
255
255
255
255
254
254
254
255
255
255
254
254
255
255
254
254
254
254
255
255
254
255
255
255
255
255
255
254
254
255
255
255
254
254
254
254
254
254
254
254
254
254
254
254
254
254
255
254
255
255
254
254
254
254
254
253
239
235
230
214
214
120
128
127
126
127
125
124
127
127
161
161
164
165
166
166
165
165
164
164
164
165
165
166
166
165
166
166
166
166
166
165
164
166
166
165
166
165
165
165
162
162
173
188
187
187
187
165
168
167
167
165
164
155
133
126
128
127
127
128
124
127
125
126
127
124
125
128
128
125
124
126
125
129
126
126
127
128
126
129
124
126
126
126
123
126
125
123
123
121
116
124
122
146
182
124
219
230
230
230
228
229
232
230
231
227
233
228
232
228
229
230
229
232
230
230
230
236
249
241
254
254
254
255
254
254
255
255
254
255
255
255
255
255
255
255
255
255
255
254
254
252
254
255
251
231
183
101
106
105
107
105
105
109
152
155
157
157
157
156
156
156
156
156
156
156
156
156
156
156
156
156
160
182
182
182
183
186
180
184
185
185
181
184
182
183
180
157
165
155
154
158
159
157
156
155
158
154
154
122
106
105
107
106
108
108
102
150
246
246
251
255
254
255
254
254
255
254
254
254
254
254
254
254
255
254
254
254
254
254
254
254
254
0
0
0
0
0
0
0
0
0
0
0
0
0
0
0
0
0
0
0
0
0
0
0
0
0
0
0
0
0
0
0
0
0
0
0
0
0
0
0
0
0
0
0
0
0
0
0
0
0
0
0
0
0
0
0
0
0
0
0
0
0
0
0
0
0
0
0
0
0
0
0
0
0
0
0
0
0
0
0
0
0
0
0
0
0
0
0
0
0
0
0
0
0
0
0
0
0
0
0
0
0
0
0
0
0
0
0
0
0
0
0
0
0
0
0
0
0
0
0
0
0
0
0
0
0
0
0
0
0
0
0
0
0
0
0
0
0
0
0
0
0
0
0
0
0
0
0
0
0
0
0
0
0
0
0
0
0
0
0
0
0
0
0
0
0
0
0
0
0
0
0
0
0
0
0
0
0
0
0
0
0
0
0
0
0
0
0
0
0
0
0
0
0
0
0
0
0
0
0
0
0
0
0
0
0
0
0
0
0
0
0
0
0
0
0
0
0
0
0
0
0
0
0
0
0
0
0
0
0
0
0
0
0
0
0
0
0
0
0
0
0
0
0
0
0
0
0
0
0
0
0
0
0
0
0
0
0
0
0
0
0
0
0
0
0
0
0
0
0
0
0
0
0
0
0
255
255
255
255
255
254
255
254
254
254
255
255
254
254
254
254
254
254
254
254
254
255
255
254
255
254
254
255
255
255
254
254
255
255
255
254
254
254
254
254
254
254
255
255
254
254
254
254
254
255
255
255
254
255
255
255
254
254
255
231
230
228
205
198
120
128
126
126
127
124
127
125
127
162
162
165
164
165
165
165
164
165
166
165
165
165
166
166
165
166
166
166
166
166
166
165
166
166
165
166
167
165
166
165
164
187
188
189
189
189
173
177
163
164
167
167
135
125
125
127
126
126
127
125
124
124
126
127
126
122
126
126
126
125
126
123
127
125
121
128
124
126
122
123
123
122
123
121
118
118
124
142
226
173
203
225
225
230
225
229
231
230
229
228
230
230
230
229
231
226
232
228
229
229
231
228
243
234
245
255
255
255
254
254
254
255
255
255
254
255
255
255
255
255
255
255
255
255
255
255
254
255
254
255
254
254
246
246
106
106
107
106
108
104
104
132
157
156
156
157
156
156
156
156
156
156
156
156
156
157
156
156
156
156
156
165
183
179
183
184
181
183
182
187
183
183
182
183
183
185
173
180
159
155
158
158
158
156
156
158
155
158
124
104
105
105
106
107
107
102
142
246
246
249
253
253
255
254
254
255
253
254
254
254
254
254
254
255
254
254
254
254
255
254
254
254
0
0
0
0
0
0
0
0
0
0
0
0
0
0
0
0
0
0
0
0
0
0
0
0
0
0
0
0
0
0
0
0
0
0
0
0
0
0
0
0
0
0
0
0
0
0
0
0
0
0
0
0
0
0
0
0
0
0
0
0
0
0
0
0
0
0
0
0
0
0
0
0
0
0
0
0
0
0
0
0
0
0
0
0
0
0
0
0
0
0
0
0
0
0
0
0
0
0
0
0
0
0
0
0
0
0
0
0
0
0
0
0
0
0
0
0
0
0
0
0
0
0
0
0
0
0
0
0
0
0
0
0
0
0
0
0
0
0
0
0
0
0
0
0
0
0
0
0
0
0
0
0
0
0
0
0
0
0
0
0
0
0
0
0
0
0
0
0
0
0
0
0
0
0
0
0
0
0
0
0
0
0
0
0
0
0
0
0
0
0
0
0
0
0
0
0
0
0
0
0
0
0
0
0
0
0
0
0
0
0
0
0
0
0
0
0
0
0
0
0
0
0
0
0
0
0
0
0
0
0
0
0
0
0
0
0
0
0
0
0
0
0
0
0
0
0
0
0
0
0
0
0
0
0
0
0
0
0
0
0
0
0
0
0
0
0
0
0
0
0
0
0
0
0
254
255
255
255
255
254
254
255
255
254
255
255
254
255
254
254
254
254
254
254
254
254
255
255
255
254
254
254
255
255
255
254
254
255
255
254
254
255
254
254
254
254
255
255
255
254
254
254
254
255
254
255
255
255
255
255
254
254
254
249
230
230
227
198
192
121
127
126
127
126
127
127
125
127
162
162
165
165
164
164
164
166
166
165
165
165
165
166
166
165
166
166
166
166
166
166
166
166
166
166
165
165
164
165
164
172
189
188
188
187
187
177
179
165
166
167
165
133
125
124
125
126
126
127
129
128
128
126
126
119
120
121
126
121
123
123
124
122
121
122
121
130
122
143
167
122
190
213
145
174
231
230
226
226
229
230
231
229
229
229
229
227
229
229
229
229
226
230
230
226
232
230
229
228
241
251
243
254
255
255
254
255
255
255
255
254
255
255
255
254
255
255
255
255
254
254
255
255
255
254
254
254
255
255
254
252
250
158
101
104
107
104
105
105
112
153
157
156
156
156
156
156
156
156
155
156
156
156
155
157
156
156
156
154
156
157
161
179
167
176
183
183
185
181
183
183
181
183
184
184
184
180
181
168
156
158
157
157
156
156
156
158
155
134
103
106
105
107
107
106
103
140
246
246
250
253
254
255
254
254
255
254
254
254
255
254
254
254
254
254
254
254
255
255
254
254
254
0
0
0
0
0
0
0
0
0
0
0
0
0
0
0
0
0
0
0
0
0
0
0
0
0
0
0
0
0
0
0
0
0
0
0
0
0
0
0
0
0
0
0
0
0
0
0
0
0
0
0
0
0
0
0
0
0
0
0
0
0
0
0
0
0
0
0
0
0
0
0
0
0
0
0
0
0
0
0
0
0
0
0
0
0
0
0
0
0
0
0
0
0
0
0
0
0
0
0
0
0
0
0
0
0
0
0
0
0
0
0
0
0
0
0
0
0
0
0
0
0
0
0
0
0
0
0
0
0
0
0
0
0
0
0
0
0
0
0
0
0
0
0
0
0
0
0
0
0
0
0
0
0
0
0
0
0
0
0
0
0
0
0
0
0
0
0
0
0
0
0
0
0
0
0
0
0
0
0
0
0
0
0
0
0
0
0
0
0
0
0
0
0
0
0
0
0
0
0
0
0
0
0
0
0
0
0
0
0
0
0
0
0
0
0
0
0
0
0
0
0
0
0
0
0
0
0
0
0
0
0
0
0
0
0
0
0
0
0
0
0
0
0
0
0
0
0
0
0
0
0
0
0
0
0
0
0
0
0
0
0
0
0
0
0
0
0
0
0
0
0
0
0
254
254
255
255
255
255
254
254
255
255
255
255
255
255
255
254
254
254
254
255
255
255
255
255
255
255
254
254
254
255
255
255
254
254
254
254
255
255
255
254
254
254
255
255
254
254
254
254
254
254
254
253
253
255
255
255
255
254
254
254
246
230
230
229
188
188
120
125
127
127
126
127
127
125
127
162
162
165
165
165
165
165
165
165
165
165
165
165
166
166
165
166
166
166
165
165
165
166
166
166
166
165
165
165
166
180
180
188
190
186
186
187
179
179
165
165
164
164
133
123
123
125
126
126
127
124
130
130
138
139
139
133
133
137
137
145
155
155
169
182
231
202
214
226
226
224
228
228
228
227
223
223
229
229
229
228
230
230
230
228
228
228
229
228
228
232
231
230
230
229
230
230
239
252
253
253
253
255
255
255
254
254
255
255
255
255
255
255
255
255
254
255
255
254
254
254
255
255
255
255
254
254
254
255
255
255
244
103
105
105
107
107
107
104
136
157
157
157
157
157
156
156
156
156
156
156
156
156
156
156
157
156
157
157
154
155
155
155
155
157
164
174
184
184
182
187
187
181
184
184
184
184
182
182
173
157
155
155
156
157
157
157
156
156
137
105
105
105
107
105
105
103
150
248
248
251
254
254
255
254
254
255
254
255
255
255
254
254
254
254
254
254
254
255
255
254
254
254
0
0
0
0
0
0
0
0
0
0
0
0
0
0
0
0
0
0
0
0
0
0
0
0
0
0
0
0
0
0
0
0
0
0
0
0
0
0
0
0
0
0
0
0
0
0
0
0
0
0
0
0
0
0
0
0
0
0
0
0
0
0
0
0
0
0
0
0
0
0
0
0
0
0
0
0
0
0
0
0
0
0
0
0
0
0
0
0
0
0
0
0
0
0
0
0
0
0
0
0
0
0
0
0
0
0
0
0
0
0
0
0
0
0
0
0
0
0
0
0
0
0
0
0
0
0
0
0
0
0
0
0
0
0
0
0
0
0
0
0
0
0
0
0
0
0
0
0
0
0
0
0
0
0
0
0
0
0
0
0
0
0
0
0
0
0
0
0
0
0
0
0
0
0
0
0
0
0
0
0
0
0
0
0
0
0
0
0
0
0
0
0
0
0
0
0
0
0
0
0
0
0
0
0
0
0
0
0
0
0
0
0
0
0
0
0
0
0
0
0
0
0
0
0
0
0
0
0
0
0
0
0
0
0
0
0
0
0
0
0
0
0
0
0
0
0
0
0
0
0
0
0
0
0
0
0
0
0
0
0
0
0
0
0
0
0
0
0
0
0
0
0
254
255
254
255
255
255
254
254
254
255
255
254
254
255
254
254
254
254
255
255
255
255
255
254
255
255
255
254
254
254
255
255
255
254
254
255
255
255
254
254
254
254
255
254
254
255
255
254
254
254
254
254
254
254
254
255
254
254
254
254
253
243
230
230
230
183
179
120
127
127
127
126
127
127
125
127
163
163
165
165
166
164
166
165
165
166
165
165
165
166
166
166
166
165
165
165
165
165
166
166
166
165
165
165
165
167
186
187
188
191
188
190
188
181
182
166
166
164
165
133
124
125
128
127
127
125
124
188
208
207
208
227
230
216
219
230
222
225
231
231
231
230
230
226
223
230
230
229
230
228
230
229
230
230
230
230
228
231
229
229
230
231
233
231
230
230
229
231
229
248
241
250
253
254
254
252
255
255
254
254
254
254
254
255
255
255
255
255
255
255
255
254
255
255
255
255
255
254
255
255
255
254
255
255
253
249
202
104
105
106
106
105
106
105
155
157
157
156
156
157
157
156
156
156
157
156
156
156
156
157
156
156
157
158
157
156
154
156
157
157
158
155
162
177
166
181
186
182
181
184
184
184
183
183
184
180
157
156
157
156
156
156
157
157
158
140
106
106
106
108
104
110
101
158
249
249
251
254
254
254
254
254
254
254
255
254
255
255
255
255
254
254
254
254
254
254
254
254
254
0
0
0
0
0
0
0
0
0
0
0
0
0
0
0
0
0
0
0
0
0
0
0
0
0
0
0
0
0
0
0
0
0
0
0
0
0
0
0
0
0
0
0
0
0
0
0
0
0
0
0
0
0
0
0
0
0
0
0
0
0
0
0
0
0
0
0
0
0
0
0
0
0
0
0
0
0
0
0
0
0
0
0
0
0
0
0
0
0
0
0
0
0
0
0
0
0
0
0
0
0
0
0
0
0
0
0
0
0
0
0
0
0
0
0
0
0
0
0
0
0
0
0
0
0
0
0
0
0
0
0
0
0
0
0
0
0
0
0
0
0
0
0
0
0
0
0
0
0
0
0
0
0
0
0
0
0
0
0
0
0
0
0
0
0
0
0
0
0
0
0
0
0
0
0
0
0
0
0
0
0
0
0
0
0
0
0
0
0
0
0
0
0
0
0
0
0
0
0
0
0
0
0
0
0
0
0
0
0
0
0
0
0
0
0
0
0
0
0
0
0
0
0
0
0
0
0
0
0
0
0
0
0
0
0
0
0
0
0
0
0
0
0
0
0
0
0
0
0
0
0
0
0
0
0
0
0
0
0
0
0
0
0
0
0
0
0
0
0
0
0
254
255
255
254
255
255
255
254
254
254
255
255
254
254
255
254
254
254
255
255
255
255
255
254
254
255
255
255
254
254
254
255
255
255
254
254
255
255
254
254
254
255
255
255
254
254
255
255
254
254
254
254
254
254
254
254
254
254
254
254
253
253
237
230
229
228
179
179
121
126
127
127
126
126
126
125
128
163
163
165
166
165
164
166
166
166
166
165
165
165
166
166
166
165
165
165
166
165
165
166
165
165
165
165
165
164
167
188
188
190
187
190
189
190
185
185
166
166
165
166
133
125
126
128
127
127
124
119
208
211
231
229
229
229
230
230
228
232
229
229
229
230
230
231
228
230
230
229
230
230
231
230
230
229
230
230
230
231
231
229
231
229
233
226
235
238
238
250
254
248
252
255
255
255
254
252
255
252
254
254
254
255
254
254
254
255
255
255
255
255
255
255
255
255
255
255
254
254
254
255
255
255
255
255
252
241
106
106
104
107
106
105
106
133
133
153
158
156
156
156
157
156
156
156
156
156
156
156
156
155
156
156
156
156
157
156
156
156
156
156
157
157
159
156
166
159
177
187
187
181
184
184
184
183
183
183
182
161
157
155
157
156
156
155
158
158
140
105
106
106
104
106
106
103
188
249
250
253
255
255
254
254
254
255
255
254
254
254
255
255
255
254
254
255
255
254
254
254
254
254
0
0
0
0
0
0
0
0
0
0
0
0
0
0
0
0
0
0
0
0
0
0
0
0
0
0
0
0
0
0
0
0
0
0
0
0
0
0
0
0
0
0
0
0
0
0
0
0
0
0
0
0
0
0
0
0
0
0
0
0
0
0
0
0
0
0
0
0
0
0
0
0
0
0
0
0
0
0
0
0
0
0
0
0
0
0
0
0
0
0
0
0
0
0
0
0
0
0
0
0
0
0
0
0
0
0
0
0
0
0
0
0
0
0
0
0
0
0
0
0
0
0
0
0
0
0
0
0
0
0
0
0
0
0
0
0
0
0
0
0
0
0
0
0
0
0
0
0
0
0
0
0
0
0
0
0
0
0
0
0
0
0
0
0
0
0
0
0
0
0
0
0
0
0
0
0
0
0
0
0
0
0
0
0
0
0
0
0
0
0
0
0
0
0
0
0
0
0
0
0
0
0
0
0
0
0
0
0
0
0
0
0
0
0
0
0
0
0
0
0
0
0
0
0
0
0
0
0
0
0
0
0
0
0
0
0
0
0
0
0
0
0
0
0
0
0
0
0
0
0
0
0
0
0
0
0
0
0
0
0
0
0
0
0
0
0
0
0
0
0
255
254
255
255
254
255
255
254
254
255
255
255
255
254
254
255
255
255
255
255
254
254
255
254
254
254
255
255
255
254
254
254
255
255
255
254
254
254
254
254
255
255
255
254
254
254
255
255
255
254
254
254
254
255
254
254
254
254
254
255
254
253
253
235
229
230
228
178
175
121
125
127
127
125
126
126
125
128
163
163
164
166
165
165
165
166
165
165
165
165
165
166
166
166
165
165
165
166
165
165
165
165
165
165
165
164
165
169
189
189
191
189
188
188
189
187
188
166
166
164
164
132
127
126
127
126
126
123
120
213
211
230
229
232
229
230
230
232
228
229
231
230
231
228
231
230
230
228
230
229
227
227
232
227
228
231
230
230
231
228
230
230
233
243
254
251
255
253
255
254
255
254
253
252
254
253
254
253
253
254
254
255
255
254
255
254
255
255
255
255
255
255
255
255
255
255
255
254
254
254
255
254
254
251
248
196
130
103
107
106
106
105
107
110
157
157
157
156
156
156
156
156
156
156
157
156
157
156
155
155
156
156
157
156
154
156
156
156
156
156
156
155
155
159
156
154
159
164
184
180
182
184
184
184
183
182
182
184
163
156
156
157
156
156
155
157
155
140
105
107
108
106
105
107
104
208
251
253
254
255
254
254
255
255
255
255
254
254
254
254
254
255
255
255
255
254
254
254
254
254
254
0
0
0
0
0
0
0
0
0
0
0
0
0
0
0
0
0
0
0
0
0
0
0
0
0
0
0
0
0
0
0
0
0
0
0
0
0
0
0
0
0
0
0
0
0
0
0
0
0
0
0
0
0
0
0
0
0
0
0
0
0
0
0
0
0
0
0
0
0
0
0
0
0
0
0
0
0
0
0
0
0
0
0
0
0
0
0
0
0
0
0
0
0
0
0
0
0
0
0
0
0
0
0
0
0
0
0
0
0
0
0
0
0
0
0
0
0
0
0
0
0
0
0
0
0
0
0
0
0
0
0
0
0
0
0
0
0
0
0
0
0
0
0
0
0
0
0
0
0
0
0
0
0
0
0
0
0
0
0
0
0
0
0
0
0
0
0
0
0
0
0
0
0
0
0
0
0
0
0
0
0
0
0
0
0
0
0
0
0
0
0
0
0
0
0
0
0
0
0
0
0
0
0
0
0
0
0
0
0
0
0
0
0
0
0
0
0
0
0
0
0
0
0
0
0
0
0
0
0
0
0
0
0
0
0
0
0
0
0
0
0
0
0
0
0
0
0
0
0
0
0
0
0
0
0
0
0
0
0
0
0
0
0
0
0
0
0
0
0
255
255
254
255
255
254
254
254
255
255
255
255
255
255
254
254
255
255
255
254
254
254
254
254
254
254
254
255
255
254
254
254
254
255
255
255
254
254
254
255
255
255
254
254
254
254
255
255
255
255
254
254
254
254
254
254
255
254
254
254
254
254
254
254
230
230
231
229
175
172
122
127
127
127
125
126
127
125
128
162
162
164
165
166
165
166
165
165
165
165
165
165
166
166
166
165
165
165
166
165
165
165
165
165
165
165
165
166
171
189
188
189
189
188
187
190
188
189
167
165
163
164
132
126
126
126
126
127
123
117
211
212
228
232
230
230
231
232
228
232
231
227
229
228
229
228
230
228
232
232
227
230
229
231
228
231
235
230
242
250
239
247
255
254
254
252
252
253
253
252
255
254
253
254
254
254
253
253
254
254
254
255
255
255
255
255
254
255
255
255
255
255
255
254
255
255
255
255
254
255
254
254
253
253
242
196
103
107
107
105
106
104
107
123
157
157
151
157
154
156
157
156
156
156
156
156
157
156
155
155
156
156
157
158
157
156
156
156
156
156
156
156
155
156
157
155
159
158
157
180
175
184
184
184
183
185
182
183
183
163
156
156
158
156
156
156
155
155
133
105
108
107
106
107
107
102
238
253
254
255
254
254
254
255
255
255
254
254
254
254
254
255
255
255
255
255
254
254
255
254
254
254
0
0
0
0
0
0
0
0
0
0
0
0
0
0
0
0
0
0
0
0
0
0
0
0
0
0
0
0
0
0
0
0
0
0
0
0
0
0
0
0
0
0
0
0
0
0
0
0
0
0
0
0
0
0
0
0
0
0
0
0
0
0
0
0
0
0
0
0
0
0
0
0
0
0
0
0
0
0
0
0
0
0
0
0
0
0
0
0
0
0
0
0
0
0
0
0
0
0
0
0
0
0
0
0
0
0
0
0
0
0
0
0
0
0
0
0
0
0
0
0
0
0
0
0
0
0
0
0
0
0
0
0
0
0
0
0
0
0
0
0
0
0
0
0
0
0
0
0
0
0
0
0
0
0
0
0
0
0
0
0
0
0
0
0
0
0
0
0
0
0
0
0
0
0
0
0
0
0
0
0
0
0
0
0
0
0
0
0
0
0
0
0
0
0
0
0
0
0
0
0
0
0
0
0
0
0
0
0
0
0
0
0
0
0
0
0
0
0
0
0
0
0
0
0
0
0
0
0
0
0
0
0
0
0
0
0
0
0
0
0
0
0
0
0
0
0
0
0
0
0
0
0
0
0
0
0
0
0
0
0
0
0
0
0
0
0
0
0
255
255
255
254
255
255
254
255
255
255
255
255
255
255
255
254
254
255
255
255
254
254
254
254
254
254
254
254
255
254
255
254
254
254
255
255
255
254
254
255
255
255
254
254
254
255
255
255
254
254
254
254
254
254
254
255
255
255
254
253
253
254
253
253
253
231
231
231
228
169
168
122
127
127
127
126
127
127
125
128
162
162
164
165
165
165
164
165
166
166
165
165
165
166
166
166
165
165
165
165
165
165
165
165
165
165
164
166
166
173
188
189
190
189
187
187
189
188
188
168
165
164
164
130
125
125
126
127
127
124
121
209
209
229
229
228
230
231
229
229
228
232
232
228
230
227
232
230
228
228
227
230
247
233
241
246
246
252
254
254
255
254
254
254
254
254
254
254
254
254
255
255
254
254
255
254
254
254
254
254
254
254
255
255
255
255
255
254
255
255
255
255
255
254
254
255
255
255
255
254
254
254
254
251
249
125
102
102
105
105
107
107
111
159
159
160
158
158
159
158
157
157
157
156
156
157
157
156
156
155
155
155
154
156
156
157
156
156
156
156
156
156
156
156
156
156
155
156
156
156
170
166
184
183
182
182
183
184
184
184
165
155
155
157
156
156
157
158
157
130
105
106
106
106
105
105
116
246
255
255
255
254
254
254
255
255
255
254
254
254
254
255
254
255
255
254
254
255
255
255
254
254
254
0
0
0
0
0
0
0
0
0
0
0
0
0
0
0
0
0
0
0
0
0
0
0
0
0
0
0
0
0
0
0
0
0
0
0
0
0
0
0
0
0
0
0
0
0
0
0
0
0
0
0
0
0
0
0
0
0
0
0
0
0
0
0
0
0
0
0
0
0
0
0
0
0
0
0
0
0
0
0
0
0
0
0
0
0
0
0
0
0
0
0
0
0
0
0
0
0
0
0
0
0
0
0
0
0
0
0
0
0
0
0
0
0
0
0
0
0
0
0
0
0
0
0
0
0
0
0
0
0
0
0
0
0
0
0
0
0
0
0
0
0
0
0
0
0
0
0
0
0
0
0
0
0
0
0
0
0
0
0
0
0
0
0
0
0
0
0
0
0
0
0
0
0
0
0
0
0
0
0
0
0
0
0
0
0
0
0
0
0
0
0
0
0
0
0
0
0
0
0
0
0
0
0
0
0
0
0
0
0
0
0
0
0
0
0
0
0
0
0
0
0
0
0
0
0
0
0
0
0
0
0
0
0
0
0
0
0
0
0
0
0
0
0
0
0
0
0
0
0
0
0
0
0
0
0
0
0
0
0
0
0
0
0
0
0
0
0
255
255
255
255
254
255
255
255
255
255
255
255
255
255
255
255
254
254
255
255
255
254
254
255
255
254
254
254
254
254
254
255
254
254
254
255
255
255
254
254
255
254
254
254
255
255
255
254
254
254
254
255
255
254
254
254
255
255
255
254
254
255
255
254
253
252
231
230
229
229
168
167
124
126
127
127
126
127
127
125
128
162
163
165
166
166
165
165
165
166
165
165
165
165
166
166
166
166
166
166
165
165
166
165
165
165
165
164
164
164
174
189
190
189
189
187
187
189
189
187
167
165
164
164
130
125
125
127
127
127
123
119
215
213
227
228
227
231
226
232
232
228
230
232
233
227
240
245
230
235
252
252
247
254
255
253
255
254
254
255
255
254
255
255
255
255
254
255
254
254
254
255
255
255
254
254
255
255
254
254
254
255
254
255
255
255
255
255
254
255
255
255
255
254
254
255
255
254
254
254
251
253
254
251
247
104
107
109
106
106
107
105
119
146
154
156
155
156
159
155
157
157
156
156
157
157
156
156
156
156
156
155
155
156
156
156
156
156
156
156
156
156
156
156
156
156
157
155
155
156
156
166
162
183
183
184
184
183
184
184
183
163
156
155
157
156
158
157
157
156
115
106
107
107
106
105
106
167
247
255
255
255
254
254
254
255
254
255
254
254
254
254
254
254
254
254
255
255
255
255
255
255
254
254
0
0
0
0
0
0
0
0
0
0
0
0
0
0
0
0
0
0
0
0
0
0
0
0
0
0
0
0
0
0
0
0
0
0
0
0
0
0
0
0
0
0
0
0
0
0
0
0
0
0
0
0
0
0
0
0
0
0
0
0
0
0
0
0
0
0
0
0
0
0
0
0
0
0
0
0
0
0
0
0
0
0
0
0
0
0
0
0
0
0
0
0
0
0
0
0
0
0
0
0
0
0
0
0
0
0
0
0
0
0
0
0
0
0
0
0
0
0
0
0
0
0
0
0
0
0
0
0
0
0
0
0
0
0
0
0
0
0
0
0
0
0
0
0
0
0
0
0
0
0
0
0
0
0
0
0
0
0
0
0
0
0
0
0
0
0
0
0
0
0
0
0
0
0
0
0
0
0
0
0
0
0
0
0
0
0
0
0
0
0
0
0
0
0
0
0
0
0
0
0
0
0
0
0
0
0
0
0
0
0
0
0
0
0
0
0
0
0
0
0
0
0
0
0
0
0
0
0
0
0
0
0
0
0
0
0
0
0
0
0
0
0
0
0
0
0
0
0
0
0
0
0
0
0
0
0
0
0
0
0
0
0
0
0
0
0
255
255
255
255
255
255
255
255
255
255
255
255
255
255
255
255
255
254
254
255
255
255
255
255
255
255
254
254
254
254
255
255
255
254
254
254
255
255
255
255
254
254
254
255
255
255
254
254
254
254
254
254
254
254
254
254
254
255
255
255
254
254
254
255
254
252
251
230
229
229
230
167
167
122
126
127
127
126
127
127
125
128
163
163
165
166
166
165
165
165
166
165
165
165
165
166
166
166
166
166
166
166
166
166
165
164
164
165
166
165
165
175
189
189
188
190
187
187
190
190
190
166
165
164
164
129
125
125
127
126
126
123
118
217
217
237
237
237
238
240
232
243
248
250
250
252
254
254
254
253
255
255
254
254
254
255
254
254
255
255
252
252
255
254
255
255
254
254
254
254
254
254
255
254
254
254
254
255
255
254
254
255
255
254
255
255
255
255
255
254
255
255
255
255
255
255
255
254
254
253
254
255
255
247
147
147
103
106
102
102
105
107
107
149
158
156
160
153
157
157
157
157
156
156
157
157
157
156
156
156
156
157
157
157
156
156
156
156
156
156
156
156
156
156
156
156
156
157
156
157
157
156
161
161
182
184
184
184
184
184
184
182
162
155
154
156
157
157
157
156
156
108
107
106
106
106
103
103
201
251
255
255
255
254
254
253
254
254
255
254
254
254
254
254
254
254
255
255
255
255
255
255
255
254
254
0
0
0
0
0
0
0
0
0
0
0
0
0
0
0
0
0
0
0
0
0
0
0
0
0
0
0
0
0
0
0
0
0
0
0
0
0
0
0
0
0
0
0
0
0
0
0
0
0
0
0
0
0
0
0
0
0
0
0
0
0
0
0
0
0
0
0
0
0
0
0
0
0
0
0
0
0
0
0
0
0
0
0
0
0
0
0
0
0
0
0
0
0
0
0
0
0
0
0
0
0
0
0
0
0
0
0
0
0
0
0
0
0
0
0
0
0
0
0
0
0
0
0
0
0
0
0
0
0
0
0
0
0
0
0
0
0
0
0
0
0
0
0
0
0
0
0
0
0
0
0
0
0
0
0
0
0
0
0
0
0
0
0
0
0
0
0
0
0
0
0
0
0
0
0
0
0
0
0
0
0
0
0
0
0
0
0
0
0
0
0
0
0
0
0
0
0
0
0
0
0
0
0
0
0
0
0
0
0
0
0
0
0
0
0
0
0
0
0
0
0
0
0
0
0
0
0
0
0
0
0
0
0
0
0
0
0
0
0
0
0
0
0
0
0
0
0
0
0
0
0
0
0
0
0
0
0
0
0
0
0
0
0
0
0
255
255
255
255
255
255
255
254
255
255
255
255
255
255
255
255
255
254
254
254
255
255
255
255
255
255
254
254
254
255
254
255
255
255
254
254
254
255
255
255
254
254
255
255
255
254
254
254
254
255
255
254
254
254
254
254
255
254
255
255
254
254
254
255
255
254
250
250
230
230
229
231
169
169
123
126
127
127
126
127
127
125
128
163
163
165
166
166
165
165
165
166
166
165
165
165
166
166
166
166
166
166
166
166
166
165
165
165
166
166
165
165
177
189
188
188
190
187
188
189
190
185
165
164
165
165
131
125
126
127
126
127
124
120
228
234
248
250
255
254
254
252
255
255
254
254
254
254
254
254
255
254
254
254
254
254
254
255
251
255
254
255
255
255
254
255
255
255
254
254
254
255
253
255
255
254
254
254
255
255
254
254
255
255
254
255
255
255
255
255
254
255
255
255
255
255
255
255
253
254
255
255
254
249
242
104
104
108
106
105
107
106
109
106
118
122
141
107
153
154
144
157
155
157
157
157
156
156
156
156
157
157
157
157
156
156
156
156
156
156
156
157
156
156
156
156
156
156
157
156
158
158
156
159
159
182
184
184
184
184
184
183
181
161
155
156
156
156
156
156
155
146
105
106
105
106
106
103
109
232
252
255
255
255
254
254
254
255
255
255
254
254
254
254
254
254
255
255
255
255
255
255
255
254
254
254
0
0
0
0
0
0
0
0
0
0
0
0
0
0
0
0
0
0
0
0
0
0
0
0
0
0
0
0
0
0
0
0
0
0
0
0
0
0
0
0
0
0
0
0
0
0
0
0
0
0
0
0
0
0
0
0
0
0
0
0
0
0
0
0
0
0
0
0
0
0
0
0
0
0
0
0
0
0
0
0
0
0
0
0
0
0
0
0
0
0
0
0
0
0
0
0
0
0
0
0
0
0
0
0
0
0
0
0
0
0
0
0
0
0
0
0
0
0
0
0
0
0
0
0
0
0
0
0
0
0
0
0
0
0
0
0
0
0
0
0
0
0
0
0
0
0
0
0
0
0
0
0
0
0
0
0
0
0
0
0
0
0
0
0
0
0
0
0
0
0
0
0
0
0
0
0
0
0
0
0
0
0
0
0
0
0
0
0
0
0
0
0
0
0
0
0
0
0
0
0
0
0
0
0
0
0
0
0
0
0
0
0
0
0
0
0
0
0
0
0
0
0
0
0
0
0
0
0
0
0
0
0
0
0
0
0
0
0
0
0
0
0
0
0
0
0
0
0
0
0
0
0
0
0
0
0
0
0
0
0
0
0
0
0
255
255
255
254
255
255
255
255
255
255
255
255
255
255
255
255
254
255
255
254
254
255
255
255
255
254
254
254
255
255
255
255
255
255
255
254
254
255
254
255
254
255
254
255
255
255
254
255
254
255
255
254
254
254
255
254
255
255
254
254
254
255
255
255
255
255
255
250
249
230
229
230
228
169
167
123
125
127
127
126
127
127
126
128
163
163
165
166
166
165
165
165
165
166
165
165
165
166
166
166
166
166
165
166
166
165
165
165
165
166
165
165
165
177
188
189
190
189
188
188
187
185
185
165
166
165
165
131
126
126
126
126
126
124
124
234
232
251
255
254
254
254
255
253
254
254
254
253
254
254
255
255
254
254
254
254
255
255
255
255
253
255
255
255
254
254
255
255
255
254
254
253
253
254
254
255
254
254
254
255
255
254
254
255
255
255
255
255
255
255
255
255
255
255
255
253
255
255
254
255
255
254
252
249
234
104
106
106
101
105
107
105
107
106
106
106
106
107
105
109
144
118
143
157
157
157
157
156
156
157
157
157
158
156
156
156
156
156
156
156
157
157
157
156
156
156
156
156
156
156
155
158
157
157
159
159
181
184
184
183
184
183
182
179
157
156
157
157
156
156
158
132
132
106
107
106
107
104
109
139
250
254
255
255
254
254
254
254
255
255
255
255
254
254
254
254
255
255
255
255
255
255
255
255
254
254
253
0
0
0
0
0
0
0
0
0
0
0
0
0
0
0
0
0
0
0
0
0
0
0
0
0
0
0
0
0
0
0
0
0
0
0
0
0
0
0
0
0
0
0
0
0
0
0
0
0
0
0
0
0
0
0
0
0
0
0
0
0
0
0
0
0
0
0
0
0
0
0
0
0
0
0
0
0
0
0
0
0
0
0
0
0
0
0
0
0
0
0
0
0
0
0
0
0
0
0
0
0
0
0
0
0
0
0
0
0
0
0
0
0
0
0
0
0
0
0
0
0
0
0
0
0
0
0
0
0
0
0
0
0
0
0
0
0
0
0
0
0
0
0
0
0
0
0
0
0
0
0
0
0
0
0
0
0
0
0
0
0
0
0
0
0
0
0
0
0
0
0
0
0
0
0
0
0
0
0
0
0
0
0
0
0
0
0
0
0
0
0
0
0
0
0
0
0
0
0
0
0
0
0
0
0
0
0
0
0
0
0
0
0
0
0
0
0
0
0
0
0
0
0
0
0
0
0
0
0
0
0
0
0
0
0
0
0
0
0
0
0
0
0
0
0
0
0
0
0
0
0
0
0
0
0
0
0
0
0
0
0
0
0
254
255
255
255
255
255
255
255
255
255
255
255
255
255
255
254
254
255
255
255
254
254
255
255
255
254
254
254
254
255
255
255
254
255
255
255
255
254
254
254
255
255
255
254
255
255
255
254
254
254
255
255
254
254
255
255
254
255
254
254
255
255
255
254
254
254
255
254
248
248
230
231
231
230
166
161
122
125
127
127
126
127
127
126
128
163
163
165
166
165
165
164
165
166
165
165
165
165
166
166
166
166
165
165
165
165
165
165
166
165
165
164
165
165
177
189
190
190
189
191
191
188
180
169
165
166
165
165
129
125
125
126
126
126
124
125
233
233
250
254
255
254
255
255
255
255
254
254
255
255
255
255
255
254
254
254
255
255
250
254
254
254
255
254
254
254
254
255
255
254
252
252
254
254
254
254
255
254
254
254
255
255
254
255
255
255
255
255
255
255
255
255
255
255
255
255
253
255
254
254
254
254
254
251
142
105
101
108
106
106
106
106
106
105
107
107
105
108
103
103
102
101
106
120
149
157
157
156
157
157
156
157
156
158
156
157
157
156
156
156
157
157
157
157
156
156
156
156
157
157
155
155
157
157
156
159
161
182
184
184
184
184
182
184
174
157
157
157
157
156
156
158
121
109
103
107
106
106
105
190
235
252
254
255
255
255
254
254
254
255
255
255
255
254
254
255
255
255
255
255
254
254
255
255
255
254
253
254
0
0
0
0
0
0
0
0
0
0
0
0
0
0
0
0
0
0
0
0
0
0
0
0
0
0
0
0
0
0
0
0
0
0
0
0
0
0
0
0
0
0
0
0
0
0
0
0
0
0
0
0
0
0
0
0
0
0
0
0
0
0
0
0
0
0
0
0
0
0
0
0
0
0
0
0
0
0
0
0
0
0
0
0
0
0
0
0
0
0
0
0
0
0
0
0
0
0
0
0
0
0
0
0
0
0
0
0
0
0
0
0
0
0
0
0
0
0
0
0
0
0
0
0
0
0
0
0
0
0
0
0
0
0
0
0
0
0
0
0
0
0
0
0
0
0
0
0
0
0
0
0
0
0
0
0
0
0
0
0
0
0
0
0
0
0
0
0
0
0
0
0
0
0
0
0
0
0
0
0
0
0
0
0
0
0
0
0
0
0
0
0
0
0
0
0
0
0
0
0
0
0
0
0
0
0
0
0
0
0
0
0
0
0
0
0
0
0
0
0
0
0
0
0
0
0
0
0
0
0
0
0
0
0
0
0
0
0
0
0
0
0
0
0
0
0
0
0
0
0
0
0
0
0
0
0
0
0
0
0
0
0
254
255
255
255
255
255
254
255
255
255
255
254
255
255
254
254
255
255
255
255
254
254
254
255
255
255
254
254
254
254
255
255
254
254
255
255
254
254
254
254
255
255
254
254
254
255
254
255
254
255
254
255
255
255
255
255
254
255
254
254
255
255
255
254
254
254
254
255
255
249
248
230
230
229
229
161
160
122
125
127
127
126
127
127
125
128
163
162
164
165
165
165
165
165
166
166
165
165
165
166
166
166
166
166
166
165
165
165
166
165
166
165
165
165
164
174
190
188
190
190
187
189
185
169
163
165
165
165
164
129
125
125
127
126
126
123
124
234
236
251
255
255
254
255
255
254
255
254
254
255
255
255
255
254
254
254
254
255
255
254
254
254
254
254
254
254
254
254
254
254
254
254
255
254
254
254
254
255
254
254
254
255
255
255
255
255
255
255
255
255
255
255
255
254
254
255
255
254
254
254
255
254
254
251
206
105
103
108
106
106
103
107
108
106
106
107
105
102
106
108
108
107
106
108
105
130
156
144
156
157
157
156
156
156
155
157
157
155
156
156
156
156
157
156
156
156
156
156
156
157
156
157
154
157
157
156
161
162
183
184
184
184
182
184
185
162
156
157
157
156
156
156
154
109
109
106
106
104
106
104
235
247
254
254
255
255
255
254
254
254
255
255
255
255
255
254
255
255
255
255
254
254
254
254
255
255
254
254
254
0
0
0
0
0
0
0
0
0
0
0
0
0
0
0
0
0
0
0
0
0
0
0
0
0
0
0
0
0
0
0
0
0
0
0
0
0
0
0
0
0
0
0
0
0
0
0
0
0
0
0
0
0
0
0
0
0
0
0
0
0
0
0
0
0
0
0
0
0
0
0
0
0
0
0
0
0
0
0
0
0
0
0
0
0
0
0
0
0
0
0
0
0
0
0
0
0
0
0
0
0
0
0
0
0
0
0
0
0
0
0
0
0
0
0
0
0
0
0
0
0
0
0
0
0
0
0
0
0
0
0
0
0
0
0
0
0
0
0
0
0
0
0
0
0
0
0
0
0
0
0
0
0
0
0
0
0
0
0
0
0
0
0
0
0
0
0
0
0
0
0
0
0
0
0
0
0
0
0
0
0
0
0
0
0
0
0
0
0
0
0
0
0
0
0
0
0
0
0
0
0
0
0
0
0
0
0
0
0
0
0
0
0
0
0
0
0
0
0
0
0
0
0
0
0
0
0
0
0
0
0
0
0
0
0
0
0
0
0
0
0
0
0
0
0
0
0
0
0
0
0
0
0
0
0
0
0
0
0
0
0
254
255
255
255
255
254
254
254
255
255
255
254
254
254
255
255
255
255
254
254
255
255
254
254
255
255
255
254
254
254
254
254
254
254
254
255
255
254
254
254
254
254
255
255
255
255
255
255
255
254
254
254
255
255
255
254
255
255
255
255
255
254
254
254
254
254
255
255
255
254
248
248
230
227
227
229
157
157
124
125
127
127
126
127
127
125
128
162
162
164
166
166
164
165
165
166
166
165
165
165
166
166
165
164
165
165
165
165
165
166
166
166
166
164
167
167
169
185
185
189
188
188
188
169
164
164
165
165
163
163
128
125
125
127
126
126
123
130
235
235
250
254
254
253
255
254
254
254
254
254
255
255
255
255
254
254
254
254
255
255
254
254
254
254
254
255
255
254
254
254
255
255
255
255
254
254
254
254
255
254
254
255
255
255
255
255
255
255
255
255
255
255
254
254
254
254
255
255
254
255
255
255
254
246
246
155
103
103
106
107
107
108
106
106
106
108
106
106
107
105
104
104
104
104
104
104
104
130
130
156
157
157
157
157
157
154
156
155
155
156
156
156
156
156
156
156
156
156
156
156
156
156
157
157
157
157
157
165
165
185
185
184
184
181
185
185
159
156
158
158
156
157
157
142
106
106
107
106
107
107
151
249
249
255
254
255
255
255
254
254
254
255
255
255
255
254
254
254
255
255
255
254
254
254
254
255
255
254
254
254
0
0
0
0
0
0
0
0
0
0
0
0
0
0
0
0
0
0
0
0
0
0
0
0
0
0
0
0
0
0
0
0
0
0
0
0
0
0
0
0
0
0
0
0
0
0
0
0
0
0
0
0
0
0
0
0
0
0
0
0
0
0
0
0
0
0
0
0
0
0
0
0
0
0
0
0
0
0
0
0
0
0
0
0
0
0
0
0
0
0
0
0
0
0
0
0
0
0
0
0
0
0
0
0
0
0
0
0
0
0
0
0
0
0
0
0
0
0
0
0
0
0
0
0
0
0
0
0
0
0
0
0
0
0
0
0
0
0
0
0
0
0
0
0
0
0
0
0
0
0
0
0
0
0
0
0
0
0
0
0
0
0
0
0
0
0
0
0
0
0
0
0
0
0
0
0
0
0
0
0
0
0
0
0
0
0
0
0
0
0
0
0
0
0
0
0
0
0
0
0
0
0
0
0
0
0
0
0
0
0
0
0
0
0
0
0
0
0
0
0
0
0
0
0
0
0
0
0
0
0
0
0
0
0
0
0
0
0
0
0
0
0
0
0
0
0
0
0
0
0
0
0
0
0
0
0
0
0
0
0
254
254
254
254
255
255
254
254
254
255
254
254
254
255
255
255
255
254
254
254
255
254
254
254
255
255
254
254
254
254
254
254
254
255
255
254
255
255
255
254
254
254
254
255
255
255
255
255
255
255
254
254
254
255
255
255
255
255
254
255
255
254
254
254
255
255
254
254
254
255
254
248
247
230
227
227
231
158
160
122
125
127
127
126
127
127
125
128
162
160
165
165
165
164
164
164
166
165
165
165
165
166
165
165
164
166
166
166
165
165
166
165
165
165
164
163
166
164
184
178
177
188
166
164
165
166
165
166
165
163
163
128
125
126
127
126
126
124
130
235
238
251
254
255
255
255
254
254
255
254
254
255
255
255
255
254
254
254
255
255
255
255
255
254
254
255
255
255
255
254
255
255
255
255
255
254
254
254
254
255
255
255
254
255
255
255
255
254
254
255
255
255
255
254
254
253
254
255
255
254
255
255
254
254
248
248
136
102
100
108
106
105
104
105
106
105
107
107
106
106
106
108
109
103
106
103
105
106
114
106
155
156
156
157
159
160
156
156
156
157
156
156
156
156
156
156
156
156
156
156
156
155
155
156
157
156
156
157
166
177
183
184
184
184
181
181
175
157
156
158
159
153
157
157
122
104
105
106
103
105
101
207
251
254
254
254
255
255
255
254
254
254
255
254
255
255
254
254
254
255
254
254
254
254
255
255
255
254
254
254
254
0
0
0
0
0
0
0
0
0
0
0
0
0
0
0
0
0
0
0
0
0
0
0
0
0
0
0
0
0
0
0
0
0
0
0
0
0
0
0
0
0
0
0
0
0
0
0
0
0
0
0
0
0
0
0
0
0
0
0
0
0
0
0
0
0
0
0
0
0
0
0
0
0
0
0
0
0
0
0
0
0
0
0
0
0
0
0
0
0
0
0
0
0
0
0
0
0
0
0
0
0
0
0
0
0
0
0
0
0
0
0
0
0
0
0
0
0
0
0
0
0
0
0
0
0
0
0
0
0
0
0
0
0
0
0
0
0
0
0
0
0
0
0
0
0
0
0
0
0
0
0
0
0
0
0
0
0
0
0
0
0
0
0
0
0
0
0
0
0
0
0
0
0
0
0
0
0
0
0
0
0
0
0
0
0
0
0
0
0
0
0
0
0
0
0
0
0
0
0
0
0
0
0
0
0
0
0
0
0
0
0
0
0
0
0
0
0
0
0
0
0
0
0
0
0
0
0
0
0
0
0
0
0
0
0
0
0
0
0
0
0
0
0
0
0
0
0
0
0
0
0
0
0
0
0
0
0
0
0
254
254
254
254
254
255
255
254
254
254
254
255
255
254
254
255
255
254
254
255
254
254
255
255
255
255
255
255
255
254
254
254
254
255
255
254
254
255
255
254
254
254
255
255
255
255
254
255
255
255
255
254
254
254
254
254
255
255
254
254
255
254
254
254
255
255
255
254
254
254
255
254
247
248
230
227
227
228
160
160
122
126
127
127
126
127
127
125
127
160
161
165
165
165
164
164
164
166
166
165
166
166
166
166
165
166
166
166
166
165
165
166
165
165
166
165
166
167
162
166
166
165
165
164
163
166
165
165
166
165
163
163
129
126
125
127
127
127
123
133
238
240
252
254
254
254
254
254
255
255
254
254
255
255
255
255
255
254
254
255
255
255
255
255
254
255
255
255
255
254
254
255
255
255
255
255
254
254
254
254
255
255
254
254
255
255
255
254
254
254
255
255
255
255
255
255
254
254
255
255
254
254
254
254
254
248
240
172
100
113
101
102
102
103
104
105
103
106
108
108
106
102
109
104
106
106
106
104
103
106
105
138
156
157
153
156
156
157
156
157
156
156
156
156
156
156
156
156
156
156
156
156
155
155
156
157
156
156
154
179
179
183
183
184
183
184
167
167
157
156
159
158
157
157
151
105
106
106
106
107
101
129
249
254
254
255
254
255
255
254
254
254
254
254
254
255
255
254
254
254
254
254
254
255
255
255
254
254
254
254
254
254
0
0
0
0
0
0
0
0
0
0
0
0
0
0
0
0
0
0
0
0
0
0
0
0
0
0
0
0
0
0
0
0
0
0
0
0
0
0
0
0
0
0
0
0
0
0
0
0
0
0
0
0
0
0
0
0
0
0
0
0
0
0
0
0
0
0
0
0
0
0
0
0
0
0
0
0
0
0
0
0
0
0
0
0
0
0
0
0
0
0
0
0
0
0
0
0
0
0
0
0
0
0
0
0
0
0
0
0
0
0
0
0
0
0
0
0
0
0
0
0
0
0
0
0
0
0
0
0
0
0
0
0
0
0
0
0
0
0
0
0
0
0
0
0
0
0
0
0
0
0
0
0
0
0
0
0
0
0
0
0
0
0
0
0
0
0
0
0
0
0
0
0
0
0
0
0
0
0
0
0
0
0
0
0
0
0
0
0
0
0
0
0
0
0
0
0
0
0
0
0
0
0
0
0
0
0
0
0
0
0
0
0
0
0
0
0
0
0
0
0
0
0
0
0
0
0
0
0
0
0
0
0
0
0
0
0
0
0
0
0
0
0
0
0
0
0
0
0
0
0
0
0
0
0
0
0
0
0
254
254
254
254
255
254
255
255
254
254
253
255
255
255
255
255
254
255
255
255
254
254
254
255
255
254
254
255
255
255
254
254
254
254
255
254
254
254
255
255
254
255
255
255
255
254
254
254
255
254
254
255
255
254
254
254
254
255
255
254
254
255
254
255
254
255
255
255
254
254
254
255
254
247
247
230
228
228
228
160
160
122
126
127
127
126
127
126
126
127
161
161
165
165
166
164
164
166
166
165
165
165
165
165
166
165
166
166
166
165
165
165
166
165
165
166
165
165
167
163
164
163
166
163
168
164
165
166
164
165
166
163
163
129
125
126
127
126
125
123
135
241
245
252
252
254
254
255
254
254
255
254
254
255
255
255
255
255
254
254
255
255
255
255
254
255
255
255
255
255
254
254
255
255
255
255
255
254
254
254
254
254
254
254
254
255
255
255
254
254
254
255
255
255
255
255
255
254
255
254
254
254
254
255
255
254
231
231
214
162
225
130
113
194
111
110
102
157
100
101
111
101
108
107
107
106
106
107
105
105
105
105
131
159
156
154
155
154
157
155
156
156
156
156
156
156
156
156
156
156
156
156
156
156
156
156
157
154
157
155
182
184
183
183
184
184
183
160
157
157
156
156
156
159
136
117
106
106
108
106
102
198
243
251
254
255
254
254
255
255
254
254
254
254
254
254
255
255
254
254
254
254
255
255
255
254
254
254
254
254
254
254
254
0
0
0
0
0
0
0
0
0
0
0
0
0
0
0
0
0
0
0
0
0
0
0
0
0
0
0
0
0
0
0
0
0
0
0
0
0
0
0
0
0
0
0
0
0
0
0
0
0
0
0
0
0
0
0
0
0
0
0
0
0
0
0
0
0
0
0
0
0
0
0
0
0
0
0
0
0
0
0
0
0
0
0
0
0
0
0
0
0
0
0
0
0
0
0
0
0
0
0
0
0
0
0
0
0
0
0
0
0
0
0
0
0
0
0
0
0
0
0
0
0
0
0
0
0
0
0
0
0
0
0
0
0
0
0
0
0
0
0
0
0
0
0
0
0
0
0
0
0
0
0
0
0
0
0
0
0
0
0
0
0
0
0
0
0
0
0
0
0
0
0
0
0
0
0
0
0
0
0
0
0
0
0
0
0
0
0
0
0
0
0
0
0
0
0
0
0
0
0
0
0
0
0
0
0
0
0
0
0
0
0
0
0
0
0
0
0
0
0
0
0
0
0
0
0
0
0
0
0
0
0
0
0
0
0
0
0
0
0
0
0
0
0
0
0
0
0
0
0
0
0
0
0
0
0
0
0
255
255
254
255
255
254
254
254
254
253
254
254
255
255
255
255
253
255
255
255
255
254
254
254
255
254
254
254
255
255
255
254
254
255
255
255
254
254
254
255
255
255
255
255
255
255
254
254
254
255
255
255
254
254
254
254
254
255
255
255
254
255
255
255
254
254
255
255
255
254
254
254
255
254
247
246
231
228
228
229
160
160
122
126
127
127
126
126
126
125
127
161
161
165
166
166
165
166
165
166
165
165
165
165
166
165
164
165
166
165
166
165
165
165
165
165
166
165
167
164
163
163
167
165
165
164
167
169
164
166
166
166
164
164
130
126
126
126
125
125
123
153
245
247
254
254
254
254
255
253
254
254
254
254
255
255
255
255
255
254
254
255
255
255
255
254
254
254
255
255
255
254
254
255
255
255
255
254
254
254
254
254
254
254
254
254
255
255
255
254
254
254
255
255
255
255
255
255
254
251
254
253
253
255
253
253
245
227
230
227
225
227
228
194
227
226
226
157
224
205
111
160
112
102
107
106
104
107
107
104
106
105
105
126
156
156
156
154
155
158
156
156
156
156
156
156
156
156
156
156
156
156
156
156
156
157
155
157
157
158
170
184
184
182
184
184
184
173
157
156
157
157
155
156
155
117
106
106
108
104
106
127
243
248
254
255
254
255
254
255
255
254
254
254
254
254
254
255
255
254
254
254
255
255
255
255
254
254
254
254
255
254
254
254
0
0
0
0
0
0
0
0
0
0
0
0
0
0
0
0
0
0
0
0
0
0
0
0
0
0
0
0
0
0
0
0
0
0
0
0
0
0
0
0
0
0
0
0
0
0
0
0
0
0
0
0
0
0
0
0
0
0
0
0
0
0
0
0
0
0
0
0
0
0
0
0
0
0
0
0
0
0
0
0
0
0
0
0
0
0
0
0
0
0
0
0
0
0
0
0
0
0
0
0
0
0
0
0
0
0
0
0
0
0
0
0
0
0
0
0
0
0
0
0
0
0
0
0
0
0
0
0
0
0
0
0
0
0
0
0
0
0
0
0
0
0
0
0
0
0
0
0
0
0
0
0
0
0
0
0
0
0
0
0
0
0
0
0
0
0
0
0
0
0
0
0
0
0
0
0
0
0
0
0
0
0
0
0
0
0
0
0
0
0
0
0
0
0
0
0
0
0
0
0
0
0
0
0
0
0
0
0
0
0
0
0
0
0
0
0
0
0
0
0
0
0
0
0
0
0
0
0
0
0
0
0
0
0
0
0
0
0
0
0
0
0
0
0
0
0
0
0
0
0
0
0
0
0
0
0
255
255
255
255
255
255
254
254
255
254
254
254
254
254
254
254
254
255
255
255
255
255
255
254
254
255
255
255
255
255
254
254
254
254
255
255
255
254
254
254
255
255
255
254
255
255
255
254
254
255
255
254
254
254
254
254
254
255
254
255
255
255
255
255
255
255
254
255
255
255
254
254
254
255
254
246
246
230
228
228
229
160
159
122
126
126
126
126
126
126
125
127
160
160
165
166
166
166
164
166
165
165
165
165
166
166
166
164
166
166
166
166
165
165
165
165
165
165
165
167
167
166
165
163
166
175
183
183
179
165
165
165
166
165
165
130
126
126
126
125
126
122
170
250
250
251
253
253
254
255
254
254
253
254
254
255
255
255
255
255
254
254
255
255
255
255
254
254
254
255
255
255
254
254
255
255
255
255
255
254
254
254
254
254
255
255
255
255
255
255
254
254
254
255
255
255
255
254
254
253
254
254
254
254
254
254
244
225
232
232
229
228
228
229
229
230
228
226
232
232
228
217
225
157
108
104
104
106
106
106
104
104
106
106
124
156
156
158
155
156
157
157
156
156
156
156
156
156
156
156
156
156
156
156
156
157
156
156
156
156
156
180
184
185
182
184
182
182
164
156
156
155
157
158
158
135
105
105
108
107
105
106
200
247
247
254
254
254
254
255
255
255
254
254
254
254
254
254
255
255
254
254
254
255
255
255
254
254
254
255
255
255
255
254
254
0
0
0
0
0
0
0
0
0
0
0
0
0
0
0
0
0
0
0
0
0
0
0
0
0
0
0
0
0
0
0
0
0
0
0
0
0
0
0
0
0
0
0
0
0
0
0
0
0
0
0
0
0
0
0
0
0
0
0
0
0
0
0
0
0
0
0
0
0
0
0
0
0
0
0
0
0
0
0
0
0
0
0
0
0
0
0
0
0
0
0
0
0
0
0
0
0
0
0
0
0
0
0
0
0
0
0
0
0
0
0
0
0
0
0
0
0
0
0
0
0
0
0
0
0
0
0
0
0
0
0
0
0
0
0
0
0
0
0
0
0
0
0
0
0
0
0
0
0
0
0
0
0
0
0
0
0
0
0
0
0
0
0
0
0
0
0
0
0
0
0
0
0
0
0
0
0
0
0
0
0
0
0
0
0
0
0
0
0
0
0
0
0
0
0
0
0
0
0
0
0
0
0
0
0
0
0
0
0
0
0
0
0
0
0
0
0
0
0
0
0
0
0
0
0
0
0
0
0
0
0
0
0
0
0
0
0
0
0
0
0
0
0
0
0
0
0
0
0
0
0
0
0
0
0
255
255
255
255
255
255
253
254
254
254
255
254
254
254
254
254
251
255
252
254
255
255
255
255
254
254
255
255
254
254
255
255
255
254
254
255
255
255
254
255
254
255
255
254
254
255
255
255
255
255
254
254
255
255
255
255
255
254
254
254
255
255
255
255
255
255
254
254
255
255
255
254
254
254
254
255
245
245
230
228
228
230
159
159
121
127
126
127
127
126
126
125
126
159
159
164
166
165
166
166
165
165
165
165
164
165
165
166
165
166
165
166
165
166
166
165
165
166
165
164
163
164
162
163
177
188
190
190
191
184
166
165
165
166
165
165
129
125
125
126
126
127
124
193
250
252
251
254
253
255
255
255
253
254
254
254
255
255
255
255
255
254
254
255
254
255
255
254
254
254
255
255
255
254
254
255
255
255
255
255
254
254
254
254
255
255
254
254
255
255
255
254
254
254
255
255
255
255
254
254
254
255
254
255
255
255
251
233
228
230
228
230
228
235
228
230
226
228
229
229
230
229
225
229
225
126
102
100
107
107
108
106
105
106
106
124
157
156
157
156
156
155
157
156
155
156
156
156
156
156
156
156
156
156
156
156
156
156
158
156
155
162
182
185
186
182
183
182
177
157
157
157
157
155
157
154
117
106
108
108
105
108
142
246
252
254
251
251
254
255
255
255
255
254
254
254
254
254
254
255
254
254
254
254
255
255
255
255
255
255
255
255
255
255
254
254
0
0
0
0
0
0
0
0
0
0
0
0
0
0
0
0
0
0
0
0
0
0
0
0
0
0
0
0
0
0
0
0
0
0
0
0
0
0
0
0
0
0
0
0
0
0
0
0
0
0
0
0
0
0
0
0
0
0
0
0
0
0
0
0
0
0
0
0
0
0
0
0
0
0
0
0
0
0
0
0
0
0
0
0
0
0
0
0
0
0
0
0
0
0
0
0
0
0
0
0
0
0
0
0
0
0
0
0
0
0
0
0
0
0
0
0
0
0
0
0
0
0
0
0
0
0
0
0
0
0
0
0
0
0
0
0
0
0
0
0
0
0
0
0
0
0
0
0
0
0
0
0
0
0
0
0
0
0
0
0
0
0
0
0
0
0
0
0
0
0
0
0
0
0
0
0
0
0
0
0
0
0
0
0
0
0
0
0
0
0
0
0
0
0
0
0
0
0
0
0
0
0
0
0
0
0
0
0
0
0
0
0
0
0
0
0
0
0
0
0
0
0
0
0
0
0
0
0
0
0
0
0
0
0
0
0
0
0
0
0
0
0
0
0
0
0
0
0
0
0
0
0
0
0
254
255
255
254
254
255
255
255
255
255
254
254
254
254
255
255
255
254
254
254
254
255
255
255
254
254
254
255
254
254
254
255
255
255
254
254
255
255
255
255
255
254
255
255
254
254
255
255
255
254
254
254
254
255
255
255
254
254
254
254
254
255
255
255
255
255
254
254
254
254
255
254
255
254
254
254
254
245
245
230
228
228
230
160
160
121
125
127
127
127
126
126
125
125
159
159
166
164
164
165
165
165
166
165
164
164
165
165
165
166
166
166
165
166
166
166
165
166
166
166
165
166
166
169
190
190
184
188
191
191
183
163
163
165
167
165
164
128
125
125
125
124
124
122
241
252
254
254
254
254
254
253
253
254
255
254
254
255
255
255
255
255
254
254
254
255
255
255
254
254
254
255
255
255
254
254
255
255
255
255
255
254
254
254
254
254
254
254
254
255
255
255
254
254
254
255
255
255
255
254
254
254
255
255
253
253
245
245
229
230
228
229
230
233
233
230
233
233
232
230
229
229
229
229
229
228
193
100
105
100
107
107
106
107
106
106
133
155
155
156
157
157
155
158
155
154
156
156
156
156
156
156
156
156
156
156
156
156
156
157
158
175
175
179
184
184
183
184
177
164
156
156
156
157
157
154
138
102
106
106
104
102
102
221
254
254
252
253
253
253
254
255
255
255
254
254
254
254
255
255
255
254
254
254
254
255
255
255
255
255
255
254
254
254
255
254
254
0
0
0
0
0
0
0
0
0
0
0
0
0
0
0
0
0
0
0
0
0
0
0
0
0
0
0
0
0
0
0
0
0
0
0
0
0
0
0
0
0
0
0
0
0
0
0
0
0
0
0
0
0
0
0
0
0
0
0
0
0
0
0
0
0
0
0
0
0
0
0
0
0
0
0
0
0
0
0
0
0
0
0
0
0
0
0
0
0
0
0
0
0
0
0
0
0
0
0
0
0
0
0
0
0
0
0
0
0
0
0
0
0
0
0
0
0
0
0
0
0
0
0
0
0
0
0
0
0
0
0
0
0
0
0
0
0
0
0
0
0
0
0
0
0
0
0
0
0
0
0
0
0
0
0
0
0
0
0
0
0
0
0
0
0
0
0
0
0
0
0
0
0
0
0
0
0
0
0
0
0
0
0
0
0
0
0
0
0
0
0
0
0
0
0
0
0
0
0
0
0
0
0
0
0
0
0
0
0
0
0
0
0
0
0
0
0
0
0
0
0
0
0
0
0
0
0
0
0
0
0
0
0
0
0
0
0
0
0
0
0
0
0
0
0
0
0
0
0
0
0
0
0
254
254
254
253
252
254
254
254
254
255
254
254
255
254
252
254
251
252
253
254
252
253
255
255
254
254
255
253
255
254
254
254
255
255
254
254
254
255
255
255
255
255
254
255
255
254
255
255
254
255
254
254
254
254
255
255
255
254
254
254
255
254
255
255
255
255
255
254
254
254
254
255
255
254
254
254
254
254
245
245
230
228
232
229
160
162
122
126
127
127
127
126
127
125
126
158
157
166
165
164
166
164
165
165
165
165
165
166
166
165
165
166
166
166
166
166
164
165
165
165
165
165
162
169
185
188
189
193
187
188
183
172
166
168
165
166
163
162
127
128
126
124
128
126
131
248
254
255
254
254
254
253
255
255
255
255
254
254
255
255
255
255
254
254
255
255
255
255
255
254
254
254
255
255
255
254
254
255
255
255
255
255
254
254
254
255
254
254
254
254
255
255
255
254
255
255
254
255
255
255
254
254
254
255
254
254
254
242
243
230
228
231
230
230
229
230
232
226
229
229
231
231
231
230
229
230
227
213
113
121
103
105
105
106
106
105
104
141
155
157
157
158
157
156
159
155
156
156
156
156
156
156
157
157
156
156
156
156
156
155
156
159
186
182
182
185
183
184
182
157
155
156
156
157
155
155
113
104
105
105
105
108
107
169
248
252
252
253
253
253
255
253
255
255
255
254
254
255
255
255
255
255
254
254
254
254
255
255
255
255
254
254
254
254
255
254
254
254
0
0
0
0
0
0
0
0
0
0
0
0
0
0
0
0
0
0
0
0
0
0
0
0
0
0
0
0
0
0
0
0
0
0
0
0
0
0
0
0
0
0
0
0
0
0
0
0
0
0
0
0
0
0
0
0
0
0
0
0
0
0
0
0
0
0
0
0
0
0
0
0
0
0
0
0
0
0
0
0
0
0
0
0
0
0
0
0
0
0
0
0
0
0
0
0
0
0
0
0
0
0
0
0
0
0
0
0
0
0
0
0
0
0
0
0
0
0
0
0
0
0
0
0
0
0
0
0
0
0
0
0
0
0
0
0
0
0
0
0
0
0
0
0
0
0
0
0
0
0
0
0
0
0
0
0
0
0
0
0
0
0
0
0
0
0
0
0
0
0
0
0
0
0
0
0
0
0
0
0
0
0
0
0
0
0
0
0
0
0
0
0
0
0
0
0
0
0
0
0
0
0
0
0
0
0
0
0
0
0
0
0
0
0
0
0
0
0
0
0
0
0
0
0
0
0
0
0
0
0
0
0
0
0
0
0
0
0
0
0
0
0
0
0
0
0
0
0
0
0
0
0
254
254
254
253
254
254
255
254
254
254
254
254
253
253
252
252
243
252
226
235
249
249
252
254
254
252
254
253
253
255
254
254
253
255
254
254
254
254
255
255
255
255
255
254
255
255
255
254
254
255
255
254
254
254
254
255
255
254
254
255
254
254
254
254
255
255
255
254
254
254
255
255
255
254
254
254
254
255
254
245
245
229
232
230
228
162
166
124
126
127
126
127
127
127
125
126
157
156
166
164
166
166
165
164
165
165
165
165
166
165
166
165
165
166
165
166
164
164
164
165
165
166
165
169
185
185
189
188
189
188
183
168
162
168
164
166
165
162
155
128
126
125
125
126
120
223
253
255
255
255
254
255
255
255
255
255
255
254
254
255
255
255
255
255
255
255
254
255
254
255
254
254
255
255
255
255
254
254
255
255
255
255
254
254
254
254
255
254
254
254
254
255
255
255
254
255
255
254
255
255
255
254
254
254
255
254
254
254
243
247
234
232
230
227
230
230
228
230
230
230
230
227
231
228
229
230
229
230
225
121
126
105
105
106
108
104
104
107
159
157
159
156
157
156
155
157
156
156
156
156
156
156
156
157
157
156
156
156
156
156
156
157
177
182
184
184
183
182
183
158
155
157
158
157
156
158
131
104
109
105
105
106
101
169
239
254
253
253
255
255
255
255
254
255
255
255
255
255
254
255
255
255
255
255
254
254
254
255
255
255
254
254
254
254
255
255
254
254
254
0
0
0
0
0
0
0
0
0
0
0
0
0
0
0
0
0
0
0
0
0
0
0
0
0
0
0
0
0
0
0
0
0
0
0
0
0
0
0
0
0
0
0
0
0
0
0
0
0
0
0
0
0
0
0
0
0
0
0
0
0
0
0
0
0
0
0
0
0
0
0
0
0
0
0
0
0
0
0
0
0
0
0
0
0
0
0
0
0
0
0
0
0
0
0
0
0
0
0
0
0
0
0
0
0
0
0
0
0
0
0
0
0
0
0
0
0
0
0
0
0
0
0
0
0
0
0
0
0
0
0
0
0
0
0
0
0
0
0
0
0
0
0
0
0
0
0
0
0
0
0
0
0
0
0
0
0
0
0
0
0
0
0
0
0
0
0
0
0
0
0
0
0
0
0
0
0
0
0
0
0
0
0
0
0
0
0
0
0
0
0
0
0
0
0
0
0
0
0
0
0
0
0
0
0
0
0
0
0
0
0
0
0
0
0
0
0
0
0
0
0
0
0
0
0
0
0
0
0
0
0
0
0
0
0
0
0
0
0
0
0
0
0
0
0
0
0
0
0
0
0
254
254
254
254
255
255
255
253
253
253
255
253
244
252
225
159
159
119
116
105
131
195
126
250
253
254
254
254
254
254
254
254
254
254
255
254
254
254
254
255
255
255
255
255
254
255
255
254
254
255
255
255
254
254
254
255
254
254
255
255
255
254
254
254
254
254
255
255
254
255
255
255
255
254
254
254
254
255
255
255
247
247
228
229
229
229
167
168
124
126
126
126
125
127
127
125
126
155
155
166
165
165
164
166
165
166
165
165
165
165
165
166
165
165
165
165
166
165
165
165
166
166
166
165
188
188
187
190
188
190
176
163
163
165
165
166
166
166
146
146
123
128
128
124
122
159
247
255
254
254
255
255
255
254
254
255
255
254
254
254
255
255
255
255
255
254
254
254
255
255
255
255
254
254
255
255
255
254
254
255
255
255
254
254
254
254
254
255
254
254
254
254
255
255
254
254
255
255
254
255
255
255
254
254
254
254
254
254
254
251
254
243
240
236
236
231
228
246
228
230
239
231
231
229
229
228
228
231
227
226
125
125
104
106
106
106
106
110
110
155
156
156
157
156
156
156
156
157
157
156
156
156
156
156
157
157
156
156
156
156
157
154
160
182
184
184
183
183
184
175
154
155
155
156
156
156
157
105
106
106
106
104
104
128
248
255
255
254
254
254
254
255
254
254
255
255
255
255
254
254
254
255
255
255
255
254
254
254
255
254
255
254
254
254
254
255
255
254
254
254
0
0
0
0
0
0
0
0
0
0
0
0
0
0
0
0
0
0
0
0
0
0
0
0
0
0
0
0
0
0
0
0
0
0
0
0
0
0
0
0
0
0
0
0
0
0
0
0
0
0
0
0
0
0
0
0
0
0
0
0
0
0
0
0
0
0
0
0
0
0
0
0
0
0
0
0
0
0
0
0
0
0
0
0
0
0
0
0
0
0
0
0
0
0
0
0
0
0
0
0
0
0
0
0
0
0
0
0
0
0
0
0
0
0
0
0
0
0
0
0
0
0
0
0
0
0
0
0
0
0
0
0
0
0
0
0
0
0
0
0
0
0
0
0
0
0
0
0
0
0
0
0
0
0
0
0
0
0
0
0
0
0
0
0
0
0
0
0
0
0
0
0
0
0
0
0
0
0
0
0
0
0
0
0
0
0
0
0
0
0
0
0
0
0
0
0
0
0
0
0
0
0
0
0
0
0
0
0
0
0
0
0
0
0
0
0
0
0
0
0
0
0
0
0
0
0
0
0
0
0
0
0
0
0
0
0
0
0
0
0
0
0
0
0
0
0
0
0
0
0
254
255
254
254
254
255
253
254
254
252
252
202
244
111
105
108
108
106
105
105
104
108
126
108
180
252
254
253
255
254
252
255
255
255
254
255
254
254
254
254
255
255
255
255
255
254
255
255
254
254
255
255
255
254
255
255
255
255
255
255
255
254
254
254
254
254
254
254
255
255
255
255
254
254
254
254
255
255
255
255
254
246
245
228
229
229
230
168
167
122
127
128
126
125
127
127
125
126
154
154
166
166
165
165
165
166
166
165
165
165
165
166
166
166
164
165
165
166
165
165
165
166
165
166
165
188
180
181
188
171
165
166
168
167
163
166
164
167
165
135
126
127
124
122
122
159
229
254
254
254
255
254
255
254
254
254
254
254
254
254
255
255
255
255
255
255
254
254
255
255
255
255
254
254
254
255
255
255
254
254
255
254
255
254
254
254
254
254
255
254
254
254
255
255
255
254
254
255
255
254
255
255
255
254
254
255
254
254
254
254
254
253
254
249
250
254
250
246
254
255
239
253
245
231
229
227
228
231
230
228
227
115
107
103
106
106
103
106
128
144
157
154
155
157
156
156
157
155
158
157
156
156
156
156
156
157
157
156
156
156
155
154
158
180
183
182
182
184
184
177
153
157
159
153
157
156
160
115
105
105
107
109
104
107
245
255
254
254
254
252
254
254
254
254
254
255
255
255
255
254
254
254
255
255
255
255
254
254
254
254
254
254
254
254
254
255
255
255
255
254
254
0
0
0
0
0
0
0
0
0
0
0
0
0
0
0
0
0
0
0
0
0
0
0
0
0
0
0
0
0
0
0
0
0
0
0
0
0
0
0
0
0
0
0
0
0
0
0
0
0
0
0
0
0
0
0
0
0
0
0
0
0
0
0
0
0
0
0
0
0
0
0
0
0
0
0
0
0
0
0
0
0
0
0
0
0
0
0
0
0
0
0
0
0
0
0
0
0
0
0
0
0
0
0
0
0
0
0
0
0
0
0
0
0
0
0
0
0
0
0
0
0
0
0
0
0
0
0
0
0
0
0
0
0
0
0
0
0
0
0
0
0
0
0
0
0
0
0
0
0
0
0
0
0
0
0
0
0
0
0
0
0
0
0
0
0
0
0
0
0
0
0
0
0
0
0
0
0
0
0
0
0
0
0
0
0
0
0
0
0
0
0
0
0
0
0
0
0
0
0
0
0
0
0
0
0
0
0
0
0
0
0
0
0
0
0
0
0
0
0
0
0
0
0
0
0
0
0
0
0
0
0
0
0
0
0
0
0
0
0
0
0
0
0
0
0
0
0
0
0
254
252
253
254
254
254
253
253
254
250
159
159
105
106
106
108
109
110
110
107
108
108
106
104
104
139
250
253
253
255
253
253
255
255
253
253
255
254
254
254
254
255
255
255
254
254
254
255
255
255
254
255
255
255
255
255
255
255
255
255
255
254
254
254
254
254
254
254
255
255
255
255
255
254
254
254
254
255
255
255
255
254
245
246
231
229
229
230
167
167
122
126
127
127
125
126
126
125
126
154
153
167
166
166
166
165
165
165
165
165
165
165
166
166
166
165
165
165
165
164
164
164
165
165
165
165
167
167
169
162
162
166
163
166
166
165
165
165
162
147
126
123
125
126
126
128
247
247
253
255
254
254
254
254
254
254
254
254
254
255
255
255
255
255
255
255
255
255
255
254
255
255
255
254
254
254
255
255
255
254
254
254
254
255
254
254
254
254
254
255
254
255
255
254
255
255
254
254
255
255
254
255
255
254
254
254
254
254
254
254
251
254
254
255
254
254
254
254
251
251
254
254
254
254
244
234
234
230
229
229
228
222
104
104
103
108
108
105
104
144
156
156
157
157
154
156
156
155
157
157
157
156
156
156
156
156
157
157
156
155
155
159
168
168
186
181
183
183
182
166
166
155
156
157
157
154
153
153
106
106
107
106
105
187
187
251
252
252
255
254
254
254
253
255
255
254
255
255
255
255
254
254
254
255
255
255
255
254
254
254
255
255
255
254
254
254
255
255
255
254
254
254
0
0
0
0
0
0
0
0
0
0
0
0
0
0
0
0
0
0
0
0
0
0
0
0
0
0
0
0
0
0
0
0
0
0
0
0
0
0
0
0
0
0
0
0
0
0
0
0
0
0
0
0
0
0
0
0
0
0
0
0
0
0
0
0
0
0
0
0
0
0
0
0
0
0
0
0
0
0
0
0
0
0
0
0
0
0
0
0
0
0
0
0
0
0
0
0
0
0
0
0
0
0
0
0
0
0
0
0
0
0
0
0
0
0
0
0
0
0
0
0
0
0
0
0
0
0
0
0
0
0
0
0
0
0
0
0
0
0
0
0
0
0
0
0
0
0
0
0
0
0
0
0
0
0
0
0
0
0
0
0
0
0
0
0
0
0
0
0
0
0
0
0
0
0
0
0
0
0
0
0
0
0
0
0
0
0
0
0
0
0
0
0
0
0
0
0
0
0
0
0
0
0
0
0
0
0
0
0
0
0
0
0
0
0
0
0
0
0
0
0
0
0
0
0
0
0
0
0
0
0
0
0
0
0
0
0
0
0
0
0
0
0
0
0
0
0
0
0
254
254
253
254
254
253
253
253
180
105
117
103
107
105
108
108
111
106
109
108
107
109
109
109
104
106
111
246
253
253
255
255
255
254
253
254
254
255
254
254
254
254
255
254
254
254
254
254
255
255
255
254
255
255
255
255
255
255
254
255
255
255
254
254
254
254
255
255
254
255
255
255
254
255
254
254
254
254
254
255
255
255
254
246
245
231
229
229
229
169
172
124
126
126
127
125
126
126
126
126
150
150
167
165
166
165
166
165
165
165
165
165
165
166
166
166
165
166
166
165
164
164
164
165
165
166
165
164
165
163
166
166
166
166
166
165
164
166
165
167
128
124
125
125
123
122
205
252
254
254
255
255
255
255
254
254
253
254
255
255
255
254
254
255
255
255
255
255
254
254
254
255
255
254
254
254
254
255
255
254
254
254
255
255
255
254
254
254
254
254
255
255
255
254
254
255
255
254
254
255
255
254
254
255
255
254
254
254
254
254
255
252
254
255
255
254
255
255
254
251
254
253
253
254
254
251
239
246
231
230
231
230
204
104
104
104
108
105
107
116
157
154
157
156
156
156
156
156
156
156
156
156
156
156
156
156
156
157
157
156
157
156
154
180
184
184
184
184
184
180
155
157
156
158
158
154
157
122
101
106
105
105
103
102
240
250
251
255
255
253
254
254
254
254
255
254
254
255
255
255
255
254
254
254
255
255
255
254
254
254
254
255
255
255
254
254
254
255
255
255
254
254
254
0
0
0
0
0
0
0
0
0
0
0
0
0
0
0
0
0
0
0
0
0
0
0
0
0
0
0
0
0
0
0
0
0
0
0
0
0
0
0
0
0
0
0
0
0
0
0
0
0
0
0
0
0
0
0
0
0
0
0
0
0
0
0
0
0
0
0
0
0
0
0
0
0
0
0
0
0
0
0
0
0
0
0
0
0
0
0
0
0
0
0
0
0
0
0
0
0
0
0
0
0
0
0
0
0
0
0
0
0
0
0
0
0
0
0
0
0
0
0
0
0
0
0
0
0
0
0
0
0
0
0
0
0
0
0
0
0
0
0
0
0
0
0
0
0
0
0
0
0
0
0
0
0
0
0
0
0
0
0
0
0
0
0
0
0
0
0
0
0
0
0
0
0
0
0
0
0
0
0
0
0
0
0
0
0
0
0
0
0
0
0
0
0
0
0
0
0
0
0
0
0
0
0
0
0
0
0
0
0
0
0
0
0
0
0
0
0
0
0
0
0
0
0
0
0
0
0
0
0
0
0
0
0
0
0
0
0
0
0
0
0
0
0
0
0
0
0
253
252
253
254
253
253
246
143
104
104
109
109
107
106
111
108
108
108
108
108
108
106
109
108
108
104
104
105
226
253
253
255
253
253
255
253
254
254
255
254
254
254
254
254
254
254
254
254
254
255
255
254
254
255
254
255
255
255
255
254
255
255
254
254
254
254
255
255
255
255
255
255
255
255
255
255
254
254
254
254
255
254
254
254
245
244
231
229
227
229
176
176
123
126
127
126
126
126
126
125
125
150
149
166
166
165
165
166
166
166
166
165
165
165
166
166
166
166
166
165
166
164
165
165
166
166
165
165
165
167
166
166
166
165
166
165
164
166
165
165
127
127
125
129
125
122
195
249
250
250
251
255
255
254
254
254
254
255
254
255
255
255
254
254
255
255
255
255
254
254
254
254
254
254
255
254
254
255
254
254
254
254
254
255
254
255
254
254
254
255
255
255
255
254
254
254
255
255
254
254
255
254
254
255
255
255
254
254
254
255
255
255
251
253
253
253
254
255
253
254
254
254
254
252
252
254
254
246
252
233
230
230
229
141
104
107
107
105
108
106
154
154
154
157
156
156
156
156
156
156
156
156
156
156
156
156
156
157
157
155
158
156
159
182
182
182
182
182
184
180
157
155
155
155
155
154
159
132
101
106
107
105
103
101
231
250
251
255
253
253
254
254
254
254
255
254
254
254
255
255
255
255
254
254
254
255
255
254
254
254
255
255
255
255
254
254
254
254
255
255
255
254
254
254
0
0
0
0
0
0
0
0
0
0
0
0
0
0
0
0
0
0
0
0
0
0
0
0
0
0
0
0
0
0
0
0
0
0
0
0
0
0
0
0
0
0
0
0
0
0
0
0
0
0
0
0
0
0
0
0
0
0
0
0
0
0
0
0
0
0
0
0
0
0
0
0
0
0
0
0
0
0
0
0
0
0
0
0
0
0
0
0
0
0
0
0
0
0
0
0
0
0
0
0
0
0
0
0
0
0
0
0
0
0
0
0
0
0
0
0
0
0
0
0
0
0
0
0
0
0
0
0
0
0
0
0
0
0
0
0
0
0
0
0
0
0
0
0
0
0
0
0
0
0
0
0
0
0
0
0
0
0
0
0
0
0
0
0
0
0
0
0
0
0
0
0
0
0
0
0
0
0
0
0
0
0
0
0
0
0
0
0
0
0
0
0
0
0
0
0
0
0
0
0
0
0
0
0
0
0
0
0
0
0
0
0
0
0
0
0
0
0
0
0
0
0
0
0
0
0
0
0
0
0
0
0
0
0
0
0
0
0
0
0
0
0
0
0
0
0
255
253
253
253
253
232
118
104
103
111
107
108
108
108
107
106
108
109
110
109
105
105
107
108
109
106
104
106
101
218
252
252
255
254
254
255
254
253
253
255
254
254
254
254
254
254
255
254
254
254
255
255
254
254
254
254
255
255
255
254
254
255
255
254
255
255
254
255
255
255
255
255
255
255
255
255
255
254
254
254
254
254
254
254
254
244
244
229
229
229
231
178
179
122
127
127
127
127
127
127
125
125
147
147
166
166
165
166
165
165
166
166
165
165
165
166
166
166
165
165
165
166
165
165
166
165
166
166
165
167
165
164
164
167
167
164
166
166
165
146
124
125
124
125
125
120
250
253
255
254
252
254
254
254
254
255
255
255
254
254
255
255
255
254
255
255
255
255
255
254
254
254
254
254
254
255
255
254
254
254
255
255
254
254
254
254
255
254
255
254
254
254
255
255
254
254
254
255
255
254
254
254
254
254
255
254
254
254
255
254
253
254
252
254
255
254
255
254
255
255
254
254
254
255
253
254
255
254
255
255
236
229
230
224
107
109
109
106
106
108
119
155
157
157
155
156
156
156
156
156
156
156
156
156
156
156
156
157
155
156
156
156
164
181
181
182
186
180
185
164
155
155
154
158
158
156
156
156
107
107
101
108
104
136
136
246
254
255
254
255
255
255
254
254
254
255
254
254
254
255
255
255
255
254
254
254
254
254
254
254
255
255
255
254
254
254
254
254
254
255
255
254
255
254
254
0
0
0
0
0
0
0
0
0
0
0
0
0
0
0
0
0
0
0
0
0
0
0
0
0
0
0
0
0
0
0
0
0
0
0
0
0
0
0
0
0
0
0
0
0
0
0
0
0
0
0
0
0
0
0
0
0
0
0
0
0
0
0
0
0
0
0
0
0
0
0
0
0
0
0
0
0
0
0
0
0
0
0
0
0
0
0
0
0
0
0
0
0
0
0
0
0
0
0
0
0
0
0
0
0
0
0
0
0
0
0
0
0
0
0
0
0
0
0
0
0
0
0
0
0
0
0
0
0
0
0
0
0
0
0
0
0
0
0
0
0
0
0
0
0
0
0
0
0
0
0
0
0
0
0
0
0
0
0
0
0
0
0
0
0
0
0
0
0
0
0
0
0
0
0
0
0
0
0
0
0
0
0
0
0
0
0
0
0
0
0
0
0
0
0
0
0
0
0
0
0
0
0
0
0
0
0
0
0
0
0
0
0
0
0
0
0
0
0
0
0
0
0
0
0
0
0
0
0
0
0
0
0
0
0
0
0
0
0
0
0
0
0
0
0
255
255
253
253
196
105
110
104
109
110
107
108
109
108
107
110
108
109
114
116
104
108
109
105
109
108
110
106
104
101
199
252
252
254
254
254
254
255
254
253
255
254
254
254
254
255
254
255
254
255
254
255
254
254
254
254
254
255
255
255
254
254
254
255
255
255
255
254
255
255
255
255
255
255
255
255
255
254
254
254
254
254
254
254
254
254
246
246
229
229
229
228
179
182
122
127
126
126
125
127
127
126
125
145
144
166
165
166
165
165
165
166
166
165
165
165
166
166
166
165
165
165
166
165
166
165
166
165
165
165
165
167
165
167
166
165
165
165
167
126
124
126
127
127
124
131
242
253
252
255
252
254
253
254
255
255
255
255
255
255
255
255
255
255
255
254
254
255
255
255
254
254
254
254
254
254
254
254
254
254
254
255
255
254
254
254
254
255
255
255
254
254
254
254
255
254
255
255
255
254
255
254
254
254
254
254
255
255
255
253
249
245
252
246
251
254
254
254
251
255
255
254
254
255
253
254
255
254
254
255
254
241
230
225
150
102
102
111
107
108
110
157
158
157
157
156
156
156
156
156
156
156
156
156
156
155
156
157
156
156
157
157
173
181
183
182
186
182
186
163
155
159
157
158
157
154
158
136
105
108
101
109
102
104
221
246
253
255
251
255
255
255
254
254
254
254
254
254
254
254
255
255
255
255
254
254
254
254
255
255
255
255
254
254
254
254
255
254
254
254
254
254
254
254
254
254
0
0
0
0
0
0
0
0
0
0
0
0
0
0
0
0
0
0
0
0
0
0
0
0
0
0
0
0
0
0
0
0
0
0
0
0
0
0
0
0
0
0
0
0
0
0
0
0
0
0
0
0
0
0
0
0
0
0
0
0
0
0
0
0
0
0
0
0
0
0
0
0
0
0
0
0
0
0
0
0
0
0
0
0
0
0
0
0
0
0
0
0
0
0
0
0
0
0
0
0
0
0
0
0
0
0
0
0
0
0
0
0
0
0
0
0
0
0
0
0
0
0
0
0
0
0
0
0
0
0
0
0
0
0
0
0
0
0
0
0
0
0
0
0
0
0
0
0
0
0
0
0
0
0
0
0
0
0
0
0
0
0
0
0
0
0
0
0
0
0
0
0
0
0
0
0
0
0
0
0
0
0
0
0
0
0
0
0
0
0
0
0
0
0
0
0
0
0
0
0
0
0
0
0
0
0
0
0
0
0
0
0
0
0
0
0
0
0
0
0
0
0
0
0
0
0
0
0
0
0
0
0
0
0
0
0
0
0
0
0
0
0
0
0
253
252
252
138
103
108
108
107
108
108
107
109
108
109
109
114
114
152
157
157
130
109
106
106
107
107
107
110
106
106
104
188
252
252
252
254
254
254
254
253
253
254
255
255
254
254
255
255
255
255
255
255
254
254
254
254
254
254
255
255
255
254
254
255
255
255
255
255
254
255
255
255
255
255
255
255
255
255
254
254
254
254
254
254
254
254
255
247
247
229
230
230
228
185
185
122
125
125
125
125
126
126
126
125
143
143
166
165
165
165
165
165
165
166
165
165
165
165
165
166
165
165
165
166
166
166
166
165
165
165
165
162
162
166
165
165
166
169
129
129
127
127
127
125
123
221
221
251
251
251
253
253
253
255
255
255
255
255
254
254
255
255
255
255
254
254
254
255
255
255
255
254
254
254
254
254
254
254
254
254
254
255
255
255
254
254
255
255
255
254
254
254
254
254
255
255
255
255
254
254
254
255
254
254
254
254
255
255
252
245
161
219
181
206
206
244
251
251
255
255
255
255
254
254
254
252
255
255
254
254
254
254
241
225
225
99
104
103
103
106
143
143
155
159
156
156
156
156
156
156
156
156
156
156
157
157
157
158
158
155
158
159
159
182
182
182
183
183
182
177
154
158
158
157
155
155
159
141
107
107
107
105
105
101
212
251
251
255
254
254
255
255
255
254
254
254
254
255
254
254
254
254
255
255
255
254
254
254
255
255
255
254
254
254
254
255
255
255
255
254
254
254
255
255
254
254
254
0
0
0
0
0
0
0
0
0
0
0
0
0
0
0
0
0
0
0
0
0
0
0
0
0
0
0
0
0
0
0
0
0
0
0
0
0
0
0
0
0
0
0
0
0
0
0
0
0
0
0
0
0
0
0
0
0
0
0
0
0
0
0
0
0
0
0
0
0
0
0
0
0
0
0
0
0
0
0
0
0
0
0
0
0
0
0
0
0
0
0
0
0
0
0
0
0
0
0
0
0
0
0
0
0
0
0
0
0
0
0
0
0
0
0
0
0
0
0
0
0
0
0
0
0
0
0
0
0
0
0
0
0
0
0
0
0
0
0
0
0
0
0
0
0
0
0
0
0
0
0
0
0
0
0
0
0
0
0
0
0
0
0
0
0
0
0
0
0
0
0
0
0
0
0
0
0
0
0
0
0
0
0
0
0
0
0
0
0
0
0
0
0
0
0
0
0
0
0
0
0
0
0
0
0
0
0
0
0
0
0
0
0
0
0
0
0
0
0
0
0
0
0
0
0
0
0
0
0
0
0
0
0
0
0
0
0
0
0
0
0
0
0
219
242
115
108
108
108
109
108
106
106
109
108
108
109
155
133
172
180
176
180
177
170
104
109
111
109
107
110
109
106
107
105
181
252
252
254
254
253
255
255
255
255
255
255
255
254
254
255
255
255
255
255
255
255
255
255
254
254
254
255
255
255
254
254
255
255
255
255
255
254
255
255
254
255
255
255
255
255
255
254
254
255
255
254
254
254
254
255
247
249
229
230
230
229
187
191
121
126
126
125
125
126
125
127
124
143
138
167
165
166
165
165
165
165
166
165
165
166
166
165
166
165
166
166
166
165
165
166
165
165
164
164
166
166
165
166
163
137
132
127
125
126
125
125
135
180
229
238
254
254
254
255
254
255
254
254
254
253
255
255
254
254
255
254
255
255
254
254
255
255
255
255
254
254
254
254
254
254
255
254
255
254
254
255
254
255
254
255
254
255
254
254
254
254
254
255
255
254
254
254
254
254
254
254
254
254
254
252
244
129
161
103
104
101
143
117
239
249
248
254
251
255
255
253
254
254
253
255
255
254
255
254
253
238
180
107
106
103
104
109
108
158
156
159
155
156
156
156
156
156
157
156
157
155
156
156
156
157
155
155
157
152
179
183
182
183
181
181
182
173
154
156
156
156
158
158
160
140
105
107
104
108
106
101
215
237
253
250
255
255
254
254
255
255
255
254
254
254
255
254
254
254
254
255
255
255
254
254
254
255
255
255
254
254
254
254
255
255
255
255
254
254
255
255
255
254
254
254
0
0
0
0
0
0
0
0
0
0
0
0
0
0
0
0
0
0
0
0
0
0
0
0
0
0
0
0
0
0
0
0
0
0
0
0
0
0
0
0
0
0
0
0
0
0
0
0
0
0
0
0
0
0
0
0
0
0
0
0
0
0
0
0
0
0
0
0
0
0
0
0
0
0
0
0
0
0
0
0
0
0
0
0
0
0
0
0
0
0
0
0
0
0
0
0
0
0
0
0
0
0
0
0
0
0
0
0
0
0
0
0
0
0
0
0
0
0
0
0
0
0
0
0
0
0
0
0
0
0
0
0
0
0
0
0
0
0
0
0
0
0
0
0
0
0
0
0
0
0
0
0
0
0
0
0
0
0
0
0
0
0
0
0
0
0
0
0
0
0
0
0
0
0
0
0
0
0
0
0
0
0
0
0
0
0
0
0
0
0
0
0
0
0
0
0
0
0
0
0
0
0
0
0
0
0
0
0
0
0
0
0
0
0
0
0
0
0
0
0
0
0
0
0
0
0
0
0
0
0
0
0
0
0
0
0
0
0
0
0
0
0
219
102
106
108
108
109
108
108
106
108
109
109
121
171
171
175
180
180
177
178
179
179
176
118
111
105
108
110
110
109
106
106
104
167
252
252
255
253
253
255
253
255
255
255
255
255
254
254
255
255
255
255
255
255
255
255
255
254
254
254
255
255
255
254
254
255
255
255
254
254
254
254
254
254
255
255
255
255
254
254
254
255
255
255
254
254
254
254
254
249
250
229
230
230
229
192
192
121
126
125
126
126
125
125
127
127
138
137
166
166
166
165
165
165
166
166
165
165
166
166
166
165
166
166
166
165
165
165
165
164
164
166
167
166
165
164
139
139
125
125
125
128
124
122
122
225
232
238
254
255
254
254
254
254
254
254
254
253
253
254
255
255
254
254
255
255
254
254
254
255
255
255
255
255
254
254
254
255
255
254
254
254
254
254
254
254
254
254
254
254
254
254
254
254
255
255
254
255
254
254
254
254
254
255
255
254
251
244
113
113
104
103
103
107
105
117
103
224
246
246
254
254
255
255
254
255
255
254
254
254
255
254
253
251
172
100
100
107
105
109
111
160
157
157
157
157
156
156
156
157
157
157
156
156
156
156
156
156
159
158
158
156
183
183
184
180
185
185
183
157
157
158
155
156
156
157
156
156
107
105
104
109
105
127
127
233
254
250
254
254
254
252
255
255
255
255
254
254
254
254
254
254
254
254
255
255
255
254
254
254
255
255
255
254
254
254
254
255
255
255
254
254
254
255
255
255
254
254
254
0
0
0
0
0
0
0
0
0
0
0
0
0
0
0
0
0
0
0
0
0
0
0
0
0
0
0
0
0
0
0
0
0
0
0
0
0
0
0
0
0
0
0
0
0
0
0
0
0
0
0
0
0
0
0
0
0
0
0
0
0
0
0
0
0
0
0
0
0
0
0
0
0
0
0
0
0
0
0
0
0
0
0
0
0
0
0
0
0
0
0
0
0
0
0
0
0
0
0
0
0
0
0
0
0
0
0
0
0
0
0
0
0
0
0
0
0
0
0
0
0
0
0
0
0
0
0
0
0
0
0
0
0
0
0
0
0
0
0
0
0
0
0
0
0
0
0
0
0
0
0
0
0
0
0
0
0
0
0
0
0
0
0
0
0
0
0
0
0
0
0
0
0
0
0
0
0
0
0
0
0
0
0
0
0
0
0
0
0
0
0
0
0
0
0
0
0
0
0
0
0
0
0
0
0
0
0
0
0
0
0
0
0
0
0
0
0
0
0
0
0
0
0
0
0
0
0
0
0
0
0
0
0
0
0
0
0
0
0
0
0
104
108
109
109
109
110
109
108
109
110
109
140
177
176
179
178
176
177
175
179
178
179
176
175
127
107
110
109
110
110
108
107
108
107
151
251
248
254
254
254
255
252
254
254
255
255
255
254
254
255
255
255
255
255
254
255
255
255
254
255
255
255
255
255
254
254
255
254
255
254
254
254
254
254
254
255
255
255
254
254
254
254
255
254
254
254
254
254
254
255
250
250
228
230
230
229
195
199
121
126
125
126
127
124
126
127
126
136
135
166
166
166
165
165
165
166
166
165
164
165
165
166
165
166
166
166
166
164
165
164
166
164
165
166
166
133
136
126
128
126
128
125
121
121
204
228
230
237
251
251
254
254
255
255
255
255
254
253
254
254
254
255
255
255
255
255
254
254
254
254
255
255
254
254
255
254
255
255
254
254
254
254
254
254
254
255
255
254
254
255
255
255
255
255
254
254
254
255
255
254
254
254
255
255
255
252
244
114
114
104
106
110
107
105
106
101
102
101
222
246
249
254
254
253
254
254
255
254
255
255
254
252
251
239
119
103
105
109
105
105
146
158
154
158
154
155
153
156
157
157
157
157
156
156
157
157
155
157
156
154
154
170
179
183
183
182
186
181
175
164
153
157
157
156
157
156
155
136
105
106
105
105
105
101
219
233
246
254
254
254
255
254
252
255
255
254
254
254
254
254
254
254
254
254
254
255
255
255
254
254
254
255
255
255
254
254
254
254
255
254
254
254
254
254
255
254
254
254
254
254
0
0
0
0
0
0
0
0
0
0
0
0
0
0
0
0
0
0
0
0
0
0
0
0
0
0
0
0
0
0
0
0
0
0
0
0
0
0
0
0
0
0
0
0
0
0
0
0
0
0
0
0
0
0
0
0
0
0
0
0
0
0
0
0
0
0
0
0
0
0
0
0
0
0
0
0
0
0
0
0
0
0
0
0
0
0
0
0
0
0
0
0
0
0
0
0
0
0
0
0
0
0
0
0
0
0
0
0
0
0
0
0
0
0
0
0
0
0
0
0
0
0
0
0
0
0
0
0
0
0
0
0
0
0
0
0
0
0
0
0
0
0
0
0
0
0
0
0
0
0
0
0
0
0
0
0
0
0
0
0
0
0
0
0
0
0
0
0
0
0
0
0
0
0
0
0
0
0
0
0
0
0
0
0
0
0
0
0
0
0
0
0
0
0
0
0
0
0
0
0
0
0
0
0
0
0
0
0
0
0
0
0
0
0
0
0
0
0
0
0
0
0
0
0
0
0
0
0
0
0
0
0
0
0
0
0
0
0
0
0
109
109
109
109
109
110
108
108
123
110
173
176
177
175
178
178
178
180
180
179
178
176
176
178
177
140
110
111
109
110
108
109
108
108
106
118
248
238
254
254
252
255
255
254
254
255
255
254
254
254
255
255
255
255
255
254
255
255
255
254
255
255
255
255
255
254
254
254
254
255
254
254
254
254
254
254
255
255
255
254
254
255
254
254
254
254
255
254
254
254
254
249
249
229
230
229
228
199
204
121
126
126
126
127
126
126
127
125
135
134
165
166
165
165
165
165
166
165
164
165
165
166
166
166
166
166
166
166
165
166
165
164
165
161
127
133
125
127
128
125
128
122
121
156
226
228
231
234
250
254
254
254
255
255
255
255
254
254
254
254
254
254
255
255
255
255
254
255
254
254
254
255
254
255
254
254
255
255
254
254
254
254
253
254
253
254
255
255
254
254
255
255
255
255
254
254
254
254
254
254
254
254
254
255
252
244
118
114
105
102
106
107
104
105
107
105
104
101
100
191
249
250
253
253
254
255
255
254
254
255
254
254
246
154
119
106
106
109
106
105
158
158
156
156
154
158
156
156
157
157
157
157
156
157
157
155
156
156
156
155
161
170
183
182
181
182
184
183
175
159
157
157
157
154
157
156
155
130
105
108
106
106
105
103
222
233
244
254
252
254
255
255
252
255
254
254
255
254
254
254
254
254
254
254
254
254
255
255
255
254
254
254
255
255
255
255
254
254
255
254
254
254
254
254
255
254
254
254
254
254
254
0
0
0
0
0
0
0
0
0
0
0
0
0
0
0
0
0
0
0
0
0
0
0
0
0
0
0
0
0
0
0
0
0
0
0
0
0
0
0
0
0
0
0
0
0
0
0
0
0
0
0
0
0
0
0
0
0
0
0
0
0
0
0
0
0
0
0
0
0
0
0
0
0
0
0
0
0
0
0
0
0
0
0
0
0
0
0
0
0
0
0
0
0
0
0
0
0
0
0
0
0
0
0
0
0
0
0
0
0
0
0
0
0
0
0
0
0
0
0
0
0
0
0
0
0
0
0
0
0
0
0
0
0
0
0
0
0
0
0
0
0
0
0
0
0
0
0
0
0
0
0
0
0
0
0
0
0
0
0
0
0
0
0
0
0
0
0
0
0
0
0
0
0
0
0
0
0
0
0
0
0
0
0
0
0
0
0
0
0
0
0
0
0
0
0
0
0
0
0
0
0
0
0
0
0
0
0
0
0
0
0
0
0
0
0
0
0
0
0
0
0
0
0
0
0
0
0
0
0
0
0
0
0
0
0
0
0
0
0
109
108
108
108
108
107
108
160
143
175
177
177
178
176
176
179
178
176
178
179
177
177
178
178
177
178
148
110
110
108
108
108
108
108
109
107
111
223
223
253
252
253
255
255
253
253
255
254
254
254
255
255
255
255
255
255
254
255
255
255
254
255
255
255
255
255
254
254
255
255
255
254
254
254
254
254
254
255
255
255
255
254
254
254
255
255
255
255
254
254
254
254
249
249
229
229
229
228
208
212
120
126
126
126
127
126
126
126
125
134
134
165
165
165
166
165
164
165
166
165
165
165
166
165
165
165
166
166
166
166
166
167
156
124
126
126
125
125
125
128
122
124
137
227
227
231
229
229
253
254
254
254
254
255
255
255
254
254
254
254
254
254
255
255
254
254
255
255
255
254
255
255
255
254
254
254
255
254
254
255
255
252
255
253
254
254
254
254
254
254
254
255
255
254
254
254
254
254
254
254
254
254
254
251
244
125
125
102
106
106
109
106
106
108
106
106
106
105
104
104
157
249
223
253
252
252
252
254
254
254
249
247
159
171
102
107
107
105
106
120
142
156
156
156
157
155
157
157
157
157
157
156
157
157
155
156
157
157
155
159
159
184
181
184
183
182
185
185
165
157
157
157
157
154
156
157
157
157
102
106
105
103
103
148
148
229
254
254
250
254
255
255
255
254
254
255
255
255
254
254
254
254
255
254
254
254
255
255
255
255
254
254
254
255
255
255
255
255
255
255
254
254
254
255
255
255
254
254
254
254
254
254
0
0
0
0
0
0
0
0
0
0
0
0
0
0
0
0
0
0
0
0
0
0
0
0
0
0
0
0
0
0
0
0
0
0
0
0
0
0
0
0
0
0
0
0
0
0
0
0
0
0
0
0
0
0
0
0
0
0
0
0
0
0
0
0
0
0
0
0
0
0
0
0
0
0
0
0
0
0
0
0
0
0
0
0
0
0
0
0
0
0
0
0
0
0
0
0
0
0
0
0
0
0
0
0
0
0
0
0
0
0
0
0
0
0
0
0
0
0
0
0
0
0
0
0
0
0
0
0
0
0
0
0
0
0
0
0
0
0
0
0
0
0
0
0
0
0
0
0
0
0
0
0
0
0
0
0
0
0
0
0
0
0
0
0
0
0
0
0
0
0
0
0
0
0
0
0
0
0
0
0
0
0
0
0
0
0
0
0
0
0
0
0
0
0
0
0
0
0
0
0
0
0
0
0
0
0
0
0
0
0
0
0
0
0
0
0
0
0
0
0
0
0
0
0
0
0
0
0
0
0
0
0
0
0
0
0
0
0
109
107
108
107
107
121
171
160
178
177
178
178
178
175
179
178
176
176
178
178
178
177
176
176
177
176
180
155
109
108
108
106
106
108
109
108
108
105
208
192
253
253
254
254
254
254
254
255
255
255
255
255
255
255
255
255
254
254
255
255
255
254
255
255
255
255
255
255
254
255
255
255
254
254
254
254
254
254
255
254
254
254
254
254
254
255
255
255
254
254
254
254
254
249
250
229
228
229
230
212
215
121
126
127
127
127
126
126
126
125
135
135
165
166
168
165
164
165
165
165
165
165
164
165
166
166
166
166
165
167
167
132
125
124
126
126
125
126
129
122
122
125
226
228
230
231
230
236
255
254
254
254
254
254
255
254
255
254
253
254
255
255
255
254
254
254
254
254
255
254
254
255
254
254
254
254
255
254
254
254
254
252
255
255
254
254
254
255
254
255
254
255
255
255
254
254
254
254
254
254
254
254
251
244
125
125
105
104
107
106
106
106
106
114
105
106
106
104
105
106
105
103
223
163
229
249
250
245
248
251
220
130
159
104
106
105
104
105
107
120
157
156
155
157
156
156
157
156
156
156
156
157
157
156
157
157
157
155
159
159
183
182
182
184
183
184
183
176
158
157
155
156
158
154
157
154
157
118
105
107
105
106
104
101
227
230
241
252
254
253
252
253
255
255
254
254
255
255
255
255
254
255
255
255
254
255
254
255
255
255
255
254
254
254
255
255
255
255
255
255
255
254
255
255
255
255
255
254
254
255
254
254
254
0
0
0
0
0
0
0
0
0
0
0
0
0
0
0
0
0
0
0
0
0
0
0
0
0
0
0
0
0
0
0
0
0
0
0
0
0
0
0
0
0
0
0
0
0
0
0
0
0
0
0
0
0
0
0
0
0
0
0
0
0
0
0
0
0
0
0
0
0
0
0
0
0
0
0
0
0
0
0
0
0
0
0
0
0
0
0
0
0
0
0
0
0
0
0
0
0
0
0
0
0
0
0
0
0
0
0
0
0
0
0
0
0
0
0
0
0
0
0
0
0
0
0
0
0
0
0
0
0
0
0
0
0
0
0
0
0
0
0
0
0
0
0
0
0
0
0
0
0
0
0
0
0
0
0
0
0
0
0
0
0
0
0
0
0
0
0
0
0
0
0
0
0
0
0
0
0
0
0
0
0
0
0
0
0
0
0
0
0
0
0
0
0
0
0
0
0
0
0
0
0
0
0
0
0
0
0
0
0
0
0
0
0
0
0
0
0
0
0
0
0
0
0
0
0
0
0
0
0
0
0
0
0
0
0
0
0
112
109
109
109
133
176
176
177
177
177
178
178
178
178
176
177
177
179
181
181
180
178
175
175
175
176
176
178
167
108
109
109
107
107
108
108
108
109
102
174
174
251
254
254
254
255
254
255
255
254
254
255
255
255
255
255
254
254
254
255
255
255
254
255
255
255
255
255
255
254
255
255
255
254
254
254
254
254
254
254
254
254
254
254
254
255
255
255
254
255
254
254
254
254
250
250
230
229
229
230
221
221
123
126
126
126
127
126
126
127
125
135
135
165
166
166
165
166
166
165
165
164
164
166
165
165
164
164
165
149
125
126
126
126
127
127
128
126
122
122
124
225
225
228
230
231
229
245
255
255
254
254
254
254
254
254
254
253
255
255
254
254
254
254
254
253
253
254
253
254
252
255
254
254
254
255
255
255
254
254
254
253
251
251
255
254
254
254
254
255
255
254
254
255
255
254
254
254
254
254
254
251
244
125
125
103
106
106
106
107
106
105
136
112
112
106
105
105
106
104
104
104
101
109
109
149
175
245
173
138
102
102
105
104
104
105
105
106
106
152
158
158
157
155
155
155
157
158
158
157
156
157
157
156
157
157
155
157
157
177
180
183
183
185
183
183
185
163
158
158
157
157
157
156
158
158
160
108
107
107
103
104
104
108
226
230
242
252
254
254
255
255
255
255
255
254
254
255
255
255
255
255
255
255
255
255
255
254
255
255
255
255
254
254
254
255
255
255
255
255
255
254
255
255
255
255
255
254
255
255
255
254
254
254
0
0
0
0
0
0
0
0
0
0
0
0
0
0
0
0
0
0
0
0
0
0
0
0
0
0
0
0
0
0
0
0
0
0
0
0
0
0
0
0
0
0
0
0
0
0
0
0
0
0
0
0
0
0
0
0
0
0
0
0
0
0
0
0
0
0
0
0
0
0
0
0
0
0
0
0
0
0
0
0
0
0
0
0
0
0
0
0
0
0
0
0
0
0
0
0
0
0
0
0
0
0
0
0
0
0
0
0
0
0
0
0
0
0
0
0
0
0
0
0
0
0
0
0
0
0
0
0
0
0
0
0
0
0
0
0
0
0
0
0
0
0
0
0
0
0
0
0
0
0
0
0
0
0
0
0
0
0
0
0
0
0
0
0
0
0
0
0
0
0
0
0
0
0
0
0
0
0
0
0
0
0
0
0
0
0
0
0
0
0
0
0
0
0
0
0
0
0
0
0
0
0
0
0
0
0
0
0
0
0
0
0
0
0
0
0
0
0
0
0
0
0
0
0
0
0
0
0
0
0
0
0
0
0
0
0
106
108
108
156
177
177
176
177
178
178
177
177
178
178
178
177
178
176
180
180
179
177
177
177
178
177
176
177
177
172
111
117
107
108
109
108
108
109
109
103
157
147
251
254
254
254
255
255
255
254
254
254
255
255
254
255
255
254
254
254
255
255
255
254
255
255
255
255
255
255
254
255
255
255
254
254
254
254
254
255
255
255
255
255
255
254
254
254
255
255
255
254
254
254
254
250
250
231
229
230
230
222
223
130
125
126
126
126
125
125
126
125
132
130
165
164
167
165
166
166
164
164
165
168
167
165
144
162
138
125
125
126
125
127
127
127
128
122
126
125
226
225
228
231
230
229
233
255
255
255
251
254
254
254
254
254
253
251
254
252
253
252
254
254
255
254
254
253
255
255
253
254
255
253
254
254
255
255
254
255
253
255
255
254
253
255
254
254
254
254
255
255
254
255
255
254
254
254
255
254
251
244
124
125
103
105
105
106
106
107
106
137
154
155
111
114
107
107
107
106
108
106
106
106
103
105
102
105
103
105
102
107
106
102
105
107
104
104
146
155
156
154
160
156
155
158
156
158
157
156
156
157
155
154
156
156
160
157
178
184
184
184
183
182
180
184
179
171
156
157
155
156
155
156
156
155
156
108
106
106
105
106
102
122
197
227
253
254
254
252
255
255
255
255
255
254
254
254
255
255
255
255
255
254
254
254
255
255
254
255
255
255
255
254
255
255
255
255
254
254
254
254
254
255
254
254
255
255
254
255
255
254
254
254
254
0
0
0
0
0
0
0
0
0
0
0
0
0
0
0
0
0
0
0
0
0
0
0
0
0
0
0
0
0
0
0
0
0
0
0
0
0
0
0
0
0
0
0
0
0
0
0
0
0
0
0
0
0
0
0
0
0
0
0
0
0
0
0
0
0
0
0
0
0
0
0
0
0
0
0
0
0
0
0
0
0
0
0
0
0
0
0
0
0
0
0
0
0
0
0
0
0
0
0
0
0
0
0
0
0
0
0
0
0
0
0
0
0
0
0
0
0
0
0
0
0
0
0
0
0
0
0
0
0
0
0
0
0
0
0
0
0
0
0
0
0
0
0
0
0
0
0
0
0
0
0
0
0
0
0
0
0
0
0
0
0
0
0
0
0
0
0
0
0
0
0
0
0
0
0
0
0
0
0
0
0
0
0
0
0
0
0
0
0
0
0
0
0
0
0
0
0
0
0
0
0
0
0
0
0
0
0
0
0
0
0
0
0
0
0
0
0
0
0
0
0
0
0
0
0
0
0
0
0
0
0
0
0
0
0
106
112
164
177
177
177
177
177
177
177
177
177
178
178
178
178
175
176
179
179
179
179
177
177
178
173
177
177
178
177
176
117
121
109
109
109
108
108
108
108
103
147
130
249
254
253
254
255
255
254
254
254
254
254
254
255
255
255
254
254
254
255
255
255
254
255
254
255
255
255
254
254
255
255
255
254
254
254
254
254
255
255
255
254
255
254
254
254
255
255
255
254
254
254
255
254
250
251
230
230
230
230
224
224
134
125
126
126
125
125
125
126
125
130
128
155
167
169
165
165
165
169
163
168
150
129
144
128
126
123
125
128
126
127
127
127
121
121
144
225
226
228
231
231
229
230
251
255
252
252
251
254
255
254
254
255
254
251
252
255
254
254
254
254
255
254
254
253
254
251
254
254
255
255
254
255
255
254
254
253
254
255
252
251
253
253
254
254
254
253
254
255
255
254
253
254
253
255
255
252
244
124
124
103
105
105
106
105
106
106
130
160
154
156
155
114
123
104
105
105
107
105
106
106
104
105
105
108
108
105
108
107
106
107
106
105
105
134
156
155
156
157
156
156
157
156
156
156
157
156
156
157
159
154
159
165
160
182
185
184
184
182
183
182
183
182
179
157
156
155
155
157
156
156
157
157
120
120
104
107
105
104
98
122
220
232
254
254
252
253
255
255
255
255
255
255
254
254
254
255
255
255
255
255
254
254
254
255
255
254
255
255
255
255
255
255
255
254
254
254
255
254
254
254
254
254
254
254
254
254
254
254
254
255
254
254
0
0
0
0
0
0
0
0
0
0
0
0
0
0
0
0
0
0
0
0
0
0
0
0
0
0
0
0
0
0
0
0
0
0
0
0
0
0
0
0
0
0
0
0
0
0
0
0
0
0
0
0
0
0
0
0
0
0
0
0
0
0
0
0
0
0
0
0
0
0
0
0
0
0
0
0
0
0
0
0
0
0
0
0
0
0
0
0
0
0
0
0
0
0
0
0
0
0
0
0
0
0
0
0
0
0
0
0
0
0
0
0
0
0
0
0
0
0
0
0
0
0
0
0
0
0
0
0
0
0
0
0
0
0
0
0
0
0
0
0
0
0
0
0
0
0
0
0
0
0
0
0
0
0
0
0
0
0
0
0
0
0
0
0
0
0
0
0
0
0
0
0
0
0
0
0
0
0
0
0
0
0
0
0
0
0
0
0
0
0
0
0
0
0
0
0
0
0
0
0
0
0
0
0
0
0
0
0
0
0
0
0
0
0
0
0
0
0
0
0
0
0
0
0
0
0
0
0
0
0
0
0
0
0
116
175
178
176
178
178
177
177
177
177
177
177
178
178
178
178
178
179
179
178
180
179
179
177
174
175
175
178
178
178
177
177
126
126
108
108
108
108
109
108
110
107
123
123
249
253
253
254
255
254
254
254
254
254
254
255
255
255
255
254
254
254
255
255
255
254
254
254
255
255
255
254
254
255
255
255
254
254
254
254
254
255
255
254
254
255
254
254
254
254
254
254
255
255
255
255
254
254
254
230
230
229
230
225
226
138
124
126
126
125
127
129
125
126
125
125
145
160
145
166
158
135
152
135
126
126
129
125
128
124
128
126
126
128
126
120
123
157
227
226
231
230
230
229
231
234
242
254
254
254
254
254
253
254
254
254
254
254
252
251
252
252
254
254
254
254
254
253
255
252
254
255
253
253
255
255
254
254
254
252
255
253
252
252
252
255
254
254
253
253
253
255
255
254
254
253
254
254
251
244
124
124
103
106
106
106
105
105
108
127
156
155
157
158
158
157
135
145
105
105
106
107
104
107
107
105
105
104
106
109
105
105
106
106
109
106
135
156
156
157
157
157
156
156
157
157
156
156
156
156
157
154
157
152
169
169
182
184
184
184
182
183
182
183
183
183
160
156
157
156
157
157
157
156
157
155
149
106
107
107
105
105
105
155
226
230
246
255
255
255
255
255
255
255
255
255
255
255
254
254
255
255
255
255
254
254
254
254
255
255
254
255
255
255
255
255
255
255
254
254
255
255
254
254
254
254
254
255
254
255
255
254
254
254
255
254
254
0
0
0
0
0
0
0
0
0
0
0
0
0
0
0
0
0
0
0
0
0
0
0
0
0
0
0
0
0
0
0
0
0
0
0
0
0
0
0
0
0
0
0
0
0
0
0
0
0
0
0
0
0
0
0
0
0
0
0
0
0
0
0
0
0
0
0
0
0
0
0
0
0
0
0
0
0
0
0
0
0
0
0
0
0
0
0
0
0
0
0
0
0
0
0
0
0
0
0
0
0
0
0
0
0
0
0
0
0
0
0
0
0
0
0
0
0
0
0
0
0
0
0
0
0
0
0
0
0
0
0
0
0
0
0
0
0
0
0
0
0
0
0
0
0
0
0
0
0
0
0
0
0
0
0
0
0
0
0
0
0
0
0
0
0
0
0
0
0
0
0
0
0
0
0
0
0
0
0
0
0
0
0
0
0
0
0
0
0
0
0
0
0
0
0
0
0
0
0
0
0
0
0
0
0
0
0
0
0
0
0
0
0
0
0
0
0
0
0
0
0
0
0
0
0
0
0
0
0
0
0
0
0
160
177
178
180
177
178
177
178
178
177
177
177
178
178
178
178
178
178
176
178
177
177
179
182
198
183
177
179
177
178
178
178
177
132
139
107
108
109
109
108
109
109
106
114
107
243
253
253
254
255
254
254
255
254
254
255
255
255
255
255
254
254
254
255
255
255
254
254
254
255
255
255
254
254
255
255
255
254
254
254
254
254
254
254
254
254
254
254
254
254
254
254
255
255
255
255
255
254
253
253
232
229
229
230
226
226
143
124
126
125
126
129
127
126
127
124
126
123
145
128
124
135
124
125
126
128
128
130
128
124
124
127
126
123
119
120
189
229
227
228
230
230
228
229
231
234
255
254
254
254
253
251
253
252
250
253
251
244
246
251
246
248
254
249
247
252
251
249
246
252
248
249
254
251
248
248
254
249
247
252
246
246
249
252
251
254
254
255
254
254
255
254
254
254
254
254
254
251
243
122
124
104
106
106
106
106
105
106
118
156
156
155
157
155
158
155
157
145
155
123
106
104
104
107
105
105
105
104
106
106
105
107
106
111
109
149
156
156
157
157
157
157
157
157
157
155
156
156
157
157
155
154
175
182
181
183
182
183
184
182
184
183
182
184
183
164
156
157
157
155
157
157
156
155
159
155
129
106
107
108
104
107
106
195
230
230
248
255
254
255
255
255
255
255
255
255
255
254
254
254
254
255
255
255
255
254
254
254
254
255
255
254
255
255
255
255
255
255
254
254
255
255
255
254
254
254
254
255
254
254
254
254
254
254
255
254
254
254
0
0
0
0
0
0
0
0
0
0
0
0
0
0
0
0
0
0
0
0
0
0
0
0
0
0
0
0
0
0
0
0
0
0
0
0
0
0
0
0
0
0
0
0
0
0
0
0
0
0
0
0
0
0
0
0
0
0
0
0
0
0
0
0
0
0
0
0
0
0
0
0
0
0
0
0
0
0
0
0
0
0
0
0
0
0
0
0
0
0
0
0
0
0
0
0
0
0
0
0
0
0
0
0
0
0
0
0
0
0
0
0
0
0
0
0
0
0
0
0
0
0
0
0
0
0
0
0
0
0
0
0
0
0
0
0
0
0
0
0
0
0
0
0
0
0
0
0
0
0
0
0
0
0
0
0
0
0
0
0
0
0
0
0
0
0
0
0
0
0
0
0
0
0
0
0
0
0
0
0
0
0
0
0
0
0
0
0
0
0
0
0
0
0
0
0
0
0
0
0
0
0
0
0
0
0
0
0
0
0
0
0
0
0
0
0
0
0
0
0
0
0
0
0
0
0
0
0
0
0
0
0
158
177
180
180
180
178
177
177
178
178
177
177
177
178
178
178
177
178
178
176
176
176
181
206
206
199
193
178
178
177
178
178
178
178
145
145
107
109
109
110
108
108
110
104
103
103
233
253
253
254
254
254
254
255
255
255
255
255
255
255
255
254
254
254
255
255
255
254
254
254
255
255
255
254
254
255
255
254
254
254
254
254
254
254
254
254
254
254
254
254
254
254
255
255
255
254
254
255
254
253
253
233
229
229
230
228
228
149
122
124
124
125
125
125
127
125
128
128
125
126
126
126
126
126
127
127
129
129
125
127
127
123
124
137
137
214
230
230
229
230
230
230
230
230
230
254
253
253
254
254
251
251
246
233
233
223
215
210
210
213
212
212
211
215
215
212
217
218
218
220
220
220
220
220
221
221
219
222
222
226
228
228
226
238
252
252
251
254
254
255
254
254
254
254
255
255
252
239
111
111
104
106
106
106
106
106
105
114
156
156
157
156
156
156
158
154
154
157
159
159
146
119
119
105
105
108
108
105
107
107
110
107
127
127
156
156
156
156
157
156
156
158
156
156
157
156
156
157
156
157
157
178
182
182
184
182
184
184
183
184
184
183
184
184
170
156
156
156
155
158
158
155
156
156
156
152
108
108
109
107
107
103
131
227
227
232
252
252
254
255
255
255
255
255
255
255
254
254
254
254
254
254
255
255
255
255
254
254
254
255
254
254
254
255
255
255
255
255
255
254
255
255
253
254
254
254
254
254
254
254
254
254
254
254
255
255
254
254
254
0
0
0
0
0
0
0
0
0
0
0
0
0
0
0
0
0
0
0
0
0
0
0
0
0
0
0
0
0
0
0
0
0
0
0
0
0
0
0
0
0
0
0
0
0
0
0
0
0
0
0
0
0
0
0
0
0
0
0
0
0
0
0
0
0
0
0
0
0
0
0
0
0
0
0
0
0
0
0
0
0
0
0
0
0
0
0
0
0
0
0
0
0
0
0
0
0
0
0
0
0
0
0
0
0
0
0
0
0
0
0
0
0
0
0
0
0
0
0
0
0
0
0
0
0
0
0
0
0
0
0
0
0
0
0
0
0
0
0
0
0
0
0
0
0
0
0
0
0
0
0
0
0
0
0
0
0
0
0
0
0
0
0
0
0
0
0
0
0
0
0
0
0
0
0
0
0
0
0
0
0
0
0
0
0
0
0
0
0
0
0
0
0
0
0
0
0
0
0
0
0
0
0
0
0
0
0
0
0
0
0
0
0
0
0
0
0
0
0
0
0
0
0
0
0
0
0
0
0
0
0
158
178
183
178
177
179
178
177
177
178
178
177
177
177
178
178
177
177
178
178
178
178
187
199
202
201
201
199
182
190
177
178
177
177
178
150
154
108
107
107
110
107
107
110
105
102
102
221
253
253
255
254
254
254
255
254
255
254
254
254
254
254
255
255
254
255
255
254
254
254
254
254
254
254
254
254
255
255
254
254
254
254
254
254
255
254
254
254
254
254
255
254
254
255
255
254
254
254
254
254
253
254
235
228
228
231
230
230
162
120
125
125
124
126
126
128
125
127
126
129
125
126
128
126
125
125
126
127
125
125
120
124
188
160
227
230
231
229
230
231
230
229
230
230
252
254
253
254
255
250
251
231
104
163
120
106
105
110
109
105
107
112
104
108
109
101
104
113
118
104
113
114
102
101
116
113
103
117
117
101
121
120
102
102
187
249
252
254
254
252
255
254
254
253
253
252
246
112
114
105
105
107
105
107
106
104
108
157
156
156
156
157
156
156
156
159
155
157
156
156
158
152
140
153
152
111
108
139
111
110
153
161
149
158
158
157
156
157
157
156
157
155
158
156
156
156
158
156
156
157
171
185
183
183
186
183
185
184
184
184
184
183
183
171
156
156
156
156
156
159
154
158
155
155
159
126
110
103
105
104
105
103
180
225
228
235
251
254
252
254
254
255
255
255
255
254
254
254
255
255
254
254
255
255
255
255
255
255
254
254
255
254
254
254
255
255
255
255
254
254
254
255
255
254
255
254
254
255
254
254
254
254
254
254
254
254
254
254
254
254
0
0
0
0
0
0
0
0
0
0
0
0
0
0
0
0
0
0
0
0
0
0
0
0
0
0
0
0
0
0
0
0
0
0
0
0
0
0
0
0
0
0
0
0
0
0
0
0
0
0
0
0
0
0
0
0
0
0
0
0
0
0
0
0
0
0
0
0
0
0
0
0
0
0
0
0
0
0
0
0
0
0
0
0
0
0
0
0
0
0
0
0
0
0
0
0
0
0
0
0
0
0
0
0
0
0
0
0
0
0
0
0
0
0
0
0
0
0
0
0
0
0
0
0
0
0
0
0
0
0
0
0
0
0
0
0
0
0
0
0
0
0
0
0
0
0
0
0
0
0
0
0
0
0
0
0
0
0
0
0
0
0
0
0
0
0
0
0
0
0
0
0
0
0
0
0
0
0
0
0
0
0
0
0
0
0
0
0
0
0
0
0
0
0
0
0
0
0
0
0
0
0
0
0
0
0
0
0
0
0
0
0
0
0
0
0
0
0
0
0
0
0
0
0
0
0
0
0
0
0
123
174
174
179
177
179
180
176
178
178
178
177
177
177
177
178
178
177
177
178
178
176
187
192
200
201
201
201
202
190
196
178
177
177
177
179
154
161
108
107
107
110
108
108
109
106
102
104
202
253
253
254
255
254
254
255
254
254
254
254
254
255
255
255
254
254
255
255
254
254
254
254
255
254
254
254
254
255
255
255
254
254
254
254
254
255
254
254
254
255
255
255
255
255
255
255
254
254
254
254
255
254
253
235
228
230
229
230
230
174
118
125
125
127
126
126
126
125
126
128
121
126
124
126
127
127
124
126
125
122
145
214
214
229
229
230
229
229
230
230
229
229
229
250
254
254
255
255
251
251
189
103
104
101
106
103
103
104
105
105
105
105
104
105
105
107
107
105
105
104
104
106
107
107
106
105
103
107
108
101
104
104
105
105
98
228
252
254
254
255
255
254
254
253
251
245
112
112
106
107
105
109
107
107
105
106
157
157
156
156
156
156
156
157
157
156
155
157
157
156
158
158
160
157
157
157
158
139
155
160
155
155
156
154
158
155
157
157
157
157
156
156
157
158
156
155
159
158
158
154
175
185
184
180
180
180
183
185
184
182
182
183
166
156
156
156
156
156
156
156
156
158
158
157
151
126
108
104
105
106
106
119
119
227
229
235
249
253
253
253
254
255
255
254
255
254
254
255
255
255
255
255
255
255
255
255
255
255
254
254
254
255
255
255
254
255
255
255
255
254
252
255
254
254
255
253
254
253
253
254
254
254
254
254
254
254
254
254
254
254
254
0
0
0
0
0
0
0
0
0
0
0
0
0
0
0
0
0
0
0
0
0
0
0
0
0
0
0
0
0
0
0
0
0
0
0
0
0
0
0
0
0
0
0
0
0
0
0
0
0
0
0
0
0
0
0
0
0
0
0
0
0
0
0
0
0
0
0
0
0
0
0
0
0
0
0
0
0
0
0
0
0
0
0
0
0
0
0
0
0
0
0
0
0
0
0
0
0
0
0
0
0
0
0
0
0
0
0
0
0
0
0
0
0
0
0
0
0
0
0
0
0
0
0
0
0
0
0
0
0
0
0
0
0
0
0
0
0
0
0
0
0
0
0
0
0
0
0
0
0
0
0
0
0
0
0
0
0
0
0
0
0
0
0
0
0
0
0
0
0
0
0
0
0
0
0
0
0
0
0
0
0
0
0
0
0
0
0
0
0
0
0
0
0
0
0
0
0
0
0
0
0
0
0
0
0
0
0
0
0
0
0
0
0
0
0
0
0
0
0
0
0
0
0
0
0
0
0
0
0
107
158
176
177
179
177
180
179
176
178
177
177
177
177
177
177
178
178
177
178
178
178
178
193
188
201
201
201
200
202
200
201
184
177
177
178
176
165
165
110
107
107
110
109
110
109
107
106
105
198
252
252
255
255
254
254
255
254
254
254
255
255
255
254
254
255
254
255
255
254
255
254
254
255
255
255
254
254
255
255
255
254
254
254
254
254
255
254
254
254
255
255
254
254
255
254
255
254
254
254
254
255
253
253
236
230
230
230
228
226
185
118
123
122
126
123
126
126
127
128
128
131
125
128
126
122
123
120
127
186
228
227
229
227
229
232
229
229
230
230
230
229
250
253
254
255
253
251
251
209
101
104
105
108
104
108
106
106
105
105
108
108
106
102
107
103
105
105
105
109
109
106
105
102
108
105
105
104
104
107
109
106
107
107
106
108
250
252
255
253
255
252
255
253
246
169
130
104
105
107
102
106
106
106
105
151
155
156
156
155
156
156
157
157
156
156
156
157
157
157
156
155
154
157
157
157
156
158
156
156
152
155
158
156
156
157
157
157
156
156
159
157
155
156
156
158
156
156
157
153
161
180
181
185
182
183
184
182
182
181
181
162
156
156
156
156
156
156
156
156
156
158
156
156
158
106
105
105
106
106
103
104
225
225
232
242
253
255
255
254
255
255
254
255
255
255
255
255
255
255
255
255
255
255
255
255
255
255
255
254
254
254
255
255
255
254
255
255
255
254
255
254
254
254
255
254
254
253
254
254
254
254
255
255
254
254
253
255
254
254
254
254
0
0
0
0
0
0
0
0
0
0
0
0
0
0
0
0
0
0
0
0
0
0
0
0
0
0
0
0
0
0
0
0
0
0
0
0
0
0
0
0
0
0
0
0
0
0
0
0
0
0
0
0
0
0
0
0
0
0
0
0
0
0
0
0
0
0
0
0
0
0
0
0
0
0
0
0
0
0
0
0
0
0
0
0
0
0
0
0
0
0
0
0
0
0
0
0
0
0
0
0
0
0
0
0
0
0
0
0
0
0
0
0
0
0
0
0
0
0
0
0
0
0
0
0
0
0
0
0
0
0
0
0
0
0
0
0
0
0
0
0
0
0
0
0
0
0
0
0
0
0
0
0
0
0
0
0
0
0
0
0
0
0
0
0
0
0
0
0
0
0
0
0
0
0
0
0
0
0
0
0
0
0
0
0
0
0
0
0
0
0
0
0
0
0
0
0
0
0
0
0
0
0
0
0
0
0
0
0
0
0
0
0
0
0
0
0
0
0
0
0
0
0
0
0
0
0
0
0
107
112
177
177
177
177
176
179
178
177
177
176
177
177
177
178
178
178
178
177
178
177
177
176
188
188
200
201
201
200
201
201
201
194
177
178
178
178
168
171
116
107
108
107
110
110
107
106
105
103
184
252
253
255
254
254
254
255
254
255
255
255
254
254
255
255
255
254
255
255
255
255
254
254
255
255
255
255
254
255
255
255
254
254
254
254
254
255
254
254
254
255
254
254
254
255
255
255
254
254
254
254
255
255
255
237
230
230
229
226
227
213
138
122
120
124
126
123
126
124
125
126
122
128
120
140
123
204
229
232
228
230
228
227
232
229
229
230
231
232
230
251
253
253
254
255
254
251
246
113
101
103
108
107
104
106
105
106
108
105
106
106
103
106
107
103
107
105
107
107
106
106
104
102
108
107
105
110
107
102
106
106
108
104
106
119
249
255
255
255
254
252
254
254
233
169
102
108
105
102
103
106
105
107
149
151
155
157
156
156
156
156
157
157
156
156
157
155
157
156
155
157
154
155
157
157
156
157
160
156
157
155
158
157
155
158
157
157
156
156
156
156
155
156
156
157
156
155
159
153
155
172
183
185
183
183
184
177
168
175
159
157
156
156
156
156
156
156
156
156
156
156
158
156
142
106
107
103
107
104
103
126
226
225
224
243
255
255
254
255
255
254
254
254
255
255
255
255
255
255
255
255
255
255
255
255
255
255
255
255
254
254
254
255
255
255
254
255
254
253
254
254
254
254
255
255
253
254
254
254
254
254
254
255
254
254
254
254
254
254
254
254
254
0
0
0
0
0
0
0
0
0
0
0
0
0
0
0
0
0
0
0
0
0
0
0
0
0
0
0
0
0
0
0
0
0
0
0
0
0
0
0
0
0
0
0
0
0
0
0
0
0
0
0
0
0
0
0
0
0
0
0
0
0
0
0
0
0
0
0
0
0
0
0
0
0
0
0
0
0
0
0
0
0
0
0
0
0
0
0
0
0
0
0
0
0
0
0
0
0
0
0
0
0
0
0
0
0
0
0
0
0
0
0
0
0
0
0
0
0
0
0
0
0
0
0
0
0
0
0
0
0
0
0
0
0
0
0
0
0
0
0
0
0
0
0
0
0
0
0
0
0
0
0
0
0
0
0
0
0
0
0
0
0
0
0
0
0
0
0
0
0
0
0
0
0
0
0
0
0
0
0
0
0
0
0
0
0
0
0
0
0
0
0
0
0
0
0
0
0
0
0
0
0
0
0
0
0
0
0
0
0
0
0
0
0
0
0
0
0
0
0
0
0
0
0
0
0
0
0
107
126
126
178
177
178
177
177
178
178
178
177
177
177
178
178
178
178
178
178
177
176
177
177
177
187
187
200
201
201
201
201
201
201
200
181
181
177
178
174
174
119
109
109
106
108
108
108
106
103
103
177
252
252
255
254
254
254
255
254
254
254
254
255
255
255
254
254
254
255
255
255
254
254
254
255
255
255
255
254
255
255
255
254
254
254
254
254
255
254
254
254
255
254
254
254
255
254
254
254
254
254
254
255
254
254
239
230
230
231
229
229
225
174
126
126
122
120
120
123
122
121
121
142
194
194
227
229
226
229
230
229
229
231
230
230
228
232
233
233
251
253
253
254
255
255
255
250
158
158
106
105
108
106
108
106
106
104
105
105
106
110
102
102
109
106
106
104
102
114
105
106
109
109
104
105
105
101
107
106
106
106
106
106
101
234
251
249
252
253
253
253
253
254
250
106
106
106
103
107
107
107
104
145
145
154
157
157
156
156
156
156
156
156
156
156
156
156
156
157
155
155
158
156
156
157
157
157
159
155
155
155
154
156
155
156
154
157
157
158
156
156
158
164
177
165
157
155
155
158
157
157
169
177
173
173
165
160
160
155
156
157
157
156
156
156
156
156
156
156
156
156
156
154
105
105
106
104
106
106
100
223
223
229
237
250
253
254
254
254
254
253
255
254
255
255
255
255
255
255
255
255
255
255
255
254
254
255
255
255
255
254
254
254
255
255
255
254
255
252
252
254
255
255
255
252
254
254
255
254
254
254
254
254
255
254
254
254
254
255
255
254
254
254
0
0
0
0
0
0
0
0
0
0
0
0
0
0
0
0
0
0
0
0
0
0
0
0
0
0
0
0
0
0
0
0
0
0
0
0
0
0
0
0
0
0
0
0
0
0
0
0
0
0
0
0
0
0
0
0
0
0
0
0
0
0
0
0
0
0
0
0
0
0
0
0
0
0
0
0
0
0
0
0
0
0
0
0
0
0
0
0
0
0
0
0
0
0
0
0
0
0
0
0
0
0
0
0
0
0
0
0
0
0
0
0
0
0
0
0
0
0
0
0
0
0
0
0
0
0
0
0
0
0
0
0
0
0
0
0
0
0
0
0
0
0
0
0
0
0
0
0
0
0
0
0
0
0
0
0
0
0
0
0
0
0
0
0
0
0
0
0
0
0
0
0
0
0
0
0
0
0
0
0
0
0
0
0
0
0
0
0
0
0
0
0
0
0
0
0
0
0
0
0
0
0
0
0
0
0
0
0
0
0
0
0
0
0
0
0
0
0
0
0
0
0
0
0
0
0
108
107
146
163
176
178
179
177
179
177
177
177
177
177
178
178
178
178
178
178
178
177
178
178
177
177
186
185
202
201
200
201
201
200
201
200
185
190
177
178
175
177
122
110
107
110
108
109
108
106
103
103
166
252
252
253
255
254
253
255
254
254
255
255
255
254
254
254
254
254
255
255
255
254
254
254
255
255
255
255
254
255
255
255
254
254
254
254
254
255
254
254
254
255
254
254
254
255
255
254
254
254
254
254
254
254
254
241
230
230
229
229
230
230
209
164
220
138
126
213
217
156
194
233
222
226
230
232
226
230
228
228
228
230
230
229
230
238
234
253
254
254
254
255
254
255
254
248
225
102
105
105
108
106
123
113
115
147
110
110
145
148
111
111
148
107
112
149
145
114
150
150
113
113
152
114
114
150
145
104
104
107
107
107
104
247
251
253
254
254
254
253
250
254
249
107
104
107
109
105
105
106
108
112
153
153
158
156
156
156
156
156
157
157
157
156
156
156
156
156
157
155
155
158
156
157
157
157
156
155
157
158
155
157
155
159
156
157
157
155
159
157
182
183
177
183
177
158
155
155
157
157
153
154
159
158
157
156
155
156
156
157
156
156
156
156
156
156
156
156
157
156
158
123
108
107
105
106
108
104
140
192
228
229
238
250
254
254
254
255
255
255
255
254
255
255
255
255
255
255
255
255
255
255
254
254
254
254
255
255
255
255
254
254
254
254
255
254
254
254
253
254
254
254
252
254
254
254
255
254
254
254
254
254
254
255
254
254
254
255
255
255
254
254
254
0
0
0
0
0
0
0
0
0
0
0
0
0
0
0
0
0
0
0
0
0
0
0
0
0
0
0
0
0
0
0
0
0
0
0
0
0
0
0
0
0
0
0
0
0
0
0
0
0
0
0
0
0
0
0
0
0
0
0
0
0
0
0
0
0
0
0
0
0
0
0
0
0
0
0
0
0
0
0
0
0
0
0
0
0
0
0
0
0
0
0
0
0
0
0
0
0
0
0
0
0
0
0
0
0
0
0
0
0
0
0
0
0
0
0
0
0
0
0
0
0
0
0
0
0
0
0
0
0
0
0
0
0
0
0
0
0
0
0
0
0
0
0
0
0
0
0
0
0
0
0
0
0
0
0
0
0
0
0
0
0
0
0
0
0
0
0
0
0
0
0
0
0
0
0
0
0
0
0
0
0
0
0
0
0
0
0
0
0
0
0
0
0
0
0
0
0
0
0
0
0
0
0
0
0
0
0
0
0
0
0
0
0
0
0
0
0
0
0
0
0
0
0
0
0
108
110
109
172
172
176
178
178
176
177
177
177
177
177
177
178
177
178
178
178
178
178
177
177
177
178
176
182
182
203
200
200
200
201
201
201
200
194
194
178
176
177
180
135
108
108
109
109
109
108
107
103
103
163
253
253
254
255
253
253
254
254
254
255
254
254
255
255
254
254
254
255
255
254
254
254
254
255
255
255
255
254
255
255
255
254
254
254
255
255
255
254
254
254
255
254
254
255
255
254
254
254
254
254
254
254
254
253
243
230
230
227
228
228
228
229
220
232
229
229
229
230
226
233
229
231
228
228
230
230
230
232
231
230
228
230
245
245
255
254
254
254
254
254
254
253
251
251
157
105
108
108
107
108
108
159
160
147
160
158
158
158
158
161
148
160
157
160
160
160
157
157
162
158
152
159
154
155
155
110
103
107
106
105
207
207
253
251
251
252
251
253
253
253
217
217
104
106
109
102
105
107
107
106
107
153
146
156
157
157
156
157
157
157
156
156
156
156
156
156
155
157
155
154
157
157
157
156
156
156
154
154
157
157
156
157
157
155
157
155
156
181
184
184
184
186
186
172
158
158
158
156
159
159
157
157
157
158
156
156
156
157
157
156
156
156
156
156
156
157
157
155
136
123
104
106
105
105
103
108
140
227
231
233
233
254
254
254
254
255
254
254
254
254
254
255
255
255
255
255
255
255
255
255
254
255
255
255
255
255
255
255
255
254
254
254
254
253
253
253
252
254
255
254
250
250
253
254
254
252
255
254
254
254
254
254
255
254
254
254
255
255
255
255
254
254
0
0
0
0
0
0
0
0
0
0
0
0
0
0
0
0
0
0
0
0
0
0
0
0
0
0
0
0
0
0
0
0
0
0
0
0
0
0
0
0
0
0
0
0
0
0
0
0
0
0
0
0
0
0
0
0
0
0
0
0
0
0
0
0
0
0
0
0
0
0
0
0
0
0
0
0
0
0
0
0
0
0
0
0
0
0
0
0
0
0
0
0
0
0
0
0
0
0
0
0
0
0
0
0
0
0
0
0
0
0
0
0
0
0
0
0
0
0
0
0
0
0
0
0
0
0
0
0
0
0
0
0
0
0
0
0
0
0
0
0
0
0
0
0
0
0
0
0
0
0
0
0
0
0
0
0
0
0
0
0
0
0
0
0
0
0
0
0
0
0
0
0
0
0
0
0
0
0
0
0
0
0
0
0
0
0
0
0
0
0
0
0
0
0
0
0
0
0
0
0
0
0
0
0
0
0
0
0
0
0
0
0
0
0
0
0
0
0
0
0
0
0
0
0
105
110
108
109
176
177
177
178
178
177
177
177
177
177
177
177
178
178
178
178
178
178
178
177
177
178
178
176
179
177
204
201
201
201
201
201
201
201
198
201
179
177
176
178
138
108
108
109
109
109
109
107
104
105
155
252
252
255
254
254
254
255
254
254
254
254
255
255
255
254
254
254
255
255
254
254
254
254
255
255
255
255
254
255
255
255
254
254
254
255
255
255
254
254
254
255
254
254
255
255
254
255
255
254
253
254
255
253
254
246
230
230
232
225
228
229
227
226
232
225
229
232
228
229
231
230
228
231
227
228
230
227
228
228
235
255
253
255
255
253
254
254
255
255
254
252
255
231
113
104
107
105
105
104
148
160
153
155
155
156
154
156
156
155
155
155
157
156
152
156
154
152
156
154
158
157
153
161
132
105
106
107
103
104
114
238
238
255
254
253
254
252
254
254
252
160
123
102
107
108
106
106
107
107
103
105
141
140
158
157
155
156
156
156
156
156
156
157
156
156
156
155
158
157
157
157
157
157
156
156
156
158
157
156
158
156
156
157
156
156
167
181
180
185
182
181
184
179
155
155
157
156
157
156
156
157
156
156
156
156
156
156
157
156
156
157
156
156
157
157
154
158
150
103
107
106
105
108
103
102
213
231
228
229
248
255
253
254
254
254
253
255
255
254
255
254
255
255
255
255
255
255
255
255
255
255
255
255
255
255
255
255
255
254
253
254
254
254
254
254
252
254
254
244
250
251
245
251
255
252
252
254
254
254
254
254
254
254
254
254
254
255
255
255
255
254
254
0
0
0
0
0
0
0
0
0
0
0
0
0
0
0
0
0
0
0
0
0
0
0
0
0
0
0
0
0
0
0
0
0
0
0
0
0
0
0
0
0
0
0
0
0
0
0
0
0
0
0
0
0
0
0
0
0
0
0
0
0
0
0
0
0
0
0
0
0
0
0
0
0
0
0
0
0
0
0
0
0
0
0
0
0
0
0
0
0
0
0
0
0
0
0
0
0
0
0
0
0
0
0
0
0
0
0
0
0
0
0
0
0
0
0
0
0
0
0
0
0
0
0
0
0
0
0
0
0
0
0
0
0
0
0
0
0
0
0
0
0
0
0
0
0
0
0
0
0
0
0
0
0
0
0
0
0
0
0
0
0
0
0
0
0
0
0
0
0
0
0
0
0
0
0
0
0
0
0
0
0
0
0
0
0
0
0
0
0
0
0
0
0
0
0
0
0
0
0
0
0
0
0
0
0
0
0
0
0
0
0
0
0
0
0
0
0
0
0
0
0
0
0
104
109
108
107
129
177
177
178
178
178
177
177
177
177
177
177
177
178
178
178
178
178
178
178
177
177
178
178
177
177
179
198
201
201
201
201
201
201
201
201
203
185
176
178
178
148
108
108
108
109
109
108
107
105
105
150
252
252
255
254
254
255
255
254
254
254
254
255
255
255
254
254
254
255
255
255
255
254
254
255
255
255
255
254
255
255
255
254
254
254
255
255
255
254
254
254
254
254
254
254
254
255
255
255
253
253
254
255
254
253
247
230
230
228
228
234
230
230
232
230
230
232
230
229
229
230
228
231
227
227
229
227
234
249
255
255
253
255
255
255
255
255
255
253
254
252
252
188
105
105
107
105
105
107
156
160
154
158
158
156
160
155
156
157
157
157
157
156
161
156
159
161
156
157
156
158
153
156
118
105
105
106
105
104
138
225
238
243
254
255
255
252
253
254
254
242
123
117
103
105
106
107
104
107
107
106
107
140
138
155
155
156
156
156
156
156
157
157
157
156
156
157
156
156
157
157
157
157
157
156
157
157
155
153
158
159
155
157
159
154
172
181
186
185
182
180
186
166
166
155
156
156
156
156
156
158
156
156
156
156
156
156
156
156
156
157
157
157
157
157
158
158
108
106
106
106
106
104
103
138
226
229
228
230
254
255
253
255
254
254
254
255
255
254
254
254
254
255
254
255
255
255
255
255
255
255
255
255
255
255
255
255
255
255
253
252
254
252
254
254
251
244
219
244
164
145
245
168
227
246
246
251
254
254
254
254
254
254
254
255
254
255
254
255
254
255
254
254
0
0
0
0
0
0
0
0
0
0
0
0
0
0
0
0
0
0
0
0
0
0
0
0
0
0
0
0
0
0
0
0
0
0
0
0
0
0
0
0
0
0
0
0
0
0
0
0
0
0
0
0
0
0
0
0
0
0
0
0
0
0
0
0
0
0
0
0
0
0
0
0
0
0
0
0
0
0
0
0
0
0
0
0
0
0
0
0
0
0
0
0
0
0
0
0
0
0
0
0
0
0
0
0
0
0
0
0
0
0
0
0
0
0
0
0
0
0
0
0
0
0
0
0
0
0
0
0
0
0
0
0
0
0
0
0
0
0
0
0
0
0
0
0
0
0
0
0
0
0
0
0
0
0
0
0
0
0
0
0
0
0
0
0
0
0
0
0
0
0
0
0
0
0
0
0
0
0
0
0
0
0
0
0
0
0
0
0
0
0
0
0
0
0
0
0
0
0
0
0
0
0
0
0
0
0
0
0
0
0
0
0
0
0
0
0
0
0
0
0
0
0
202
100
109
107
107
137
178
178
178
178
178
177
177
177
177
177
177
177
178
178
178
178
178
178
178
177
177
178
178
178
178
178
198
201
201
201
201
199
199
201
200
200
187
177
178
178
152
108
108
108
109
108
108
108
105
105
146
252
252
255
254
255
255
254
254
254
254
254
255
255
255
254
254
254
255
255
255
255
254
254
255
255
255
255
253
255
255
255
254
254
254
255
255
255
254
254
254
254
254
254
254
254
255
255
254
253
253
254
255
255
255
248
231
231
228
232
227
228
229
230
230
228
229
231
230
230
230
230
231
232
232
239
253
253
252
255
255
255
255
254
254
254
254
253
253
253
242
140
100
105
105
110
106
145
145
155
156
154
157
153
158
158
157
157
157
155
158
156
156
156
155
155
152
158
156
155
155
150
150
103
106
106
107
103
224
224
230
254
254
254
254
254
253
254
252
252
242
116
124
102
107
106
106
104
106
104
105
105
138
138
156
156
156
156
156
157
157
157
156
156
155
156
156
156
157
157
157
157
157
157
157
157
156
158
155
158
158
155
159
157
155
181
181
181
184
184
183
179
157
156
157
156
157
157
157
156
157
156
156
156
156
156
156
156
156
157
157
157
157
155
155
116
106
107
107
106
104
104
108
222
230
231
229
247
247
252
255
254
254
254
254
254
254
254
254
254
254
254
254
255
255
255
255
255
255
255
255
255
255
255
255
255
254
253
254
255
255
255
255
246
222
92
138
97
97
97
94
106
92
171
242
231
250
255
254
254
254
254
254
254
255
255
255
254
254
255
254
254
254
0
0
0
0
0
0
0
0
0
0
0
0
0
0
0
0
0
0
0
0
0
0
0
0
0
0
0
0
0
0
0
0
0
0
0
0
0
0
0
0
0
0
0
0
0
0
0
0
0
0
0
0
0
0
0
0
0
0
0
0
0
0
0
0
0
0
0
0
0
0
0
0
0
0
0
0
0
0
0
0
0
0
0
0
0
0
0
0
0
0
0
0
0
0
0
0
0
0
0
0
0
0
0
0
0
0
0
0
0
0
0
0
0
0
0
0
0
0
0
0
0
0
0
0
0
0
0
0
0
0
0
0
0
0
0
0
0
0
0
0
0
0
0
0
0
0
0
0
0
0
0
0
0
0
0
0
0
0
0
0
0
0
0
0
0
0
0
0
0
0
0
0
0
0
0
0
0
0
0
0
0
0
0
0
0
0
0
0
0
0
0
0
0
0
0
0
0
0
0
0
0
0
0
0
0
0
0
0
0
0
0
0
0
0
0
0
0
0
0
0
0
202
176
105
109
106
111
153
178
178
178
178
178
177
177
177
177
178
177
177
178
178
178
178
178
178
178
177
177
178
178
178
178
177
196
201
200
200
200
199
201
200
200
200
193
177
178
177
160
108
109
109
108
109
108
108
106
105
139
252
252
255
253
255
254
254
254
254
254
254
255
255
255
254
254
254
255
255
255
255
254
254
255
255
255
254
254
255
255
255
254
254
254
255
255
255
254
254
254
254
254
254
254
254
255
255
254
253
254
254
254
255
255
252
234
238
230
227
228
229
231
229
231
230
231
228
230
227
232
244
234
251
252
255
253
254
254
255
255
253
255
254
252
252
253
251
252
224
140
101
105
105
105
106
115
158
153
153
154
161
154
157
153
157
157
157
157
156
155
156
157
153
156
157
158
156
154
154
158
111
107
106
106
106
103
155
228
232
254
254
254
254
254
255
254
254
251
249
225
124
143
101
107
105
106
106
104
105
106
103
138
145
156
156
156
156
157
157
156
156
156
156
156
156
156
156
157
157
157
157
157
157
157
156
156
156
157
156
155
157
157
156
163
184
185
182
184
183
157
155
156
156
156
157
156
157
157
157
157
157
156
156
156
156
156
156
156
157
157
157
156
125
106
106
107
105
106
105
104
192
228
230
229
231
237
253
255
254
254
255
255
254
254
254
254
254
254
254
254
254
255
254
254
254
255
255
255
255
255
255
255
255
254
253
253
254
251
249
253
245
113
93
92
99
99
97
98
103
105
92
97
106
231
229
250
254
254
254
254
254
254
254
255
255
255
255
255
255
254
254
254
0
0
0
0
0
0
0
0
0
0
0
0
0
0
0
0
0
0
0
0
0
0
0
0
0
0
0
0
0
0
0
0
0
0
0
0
0
0
0
0
0
0
0
0
0
0
0
0
0
0
0
0
0
0
0
0
0
0
0
0
0
0
0
0
0
0
0
0
0
0
0
0
0
0
0
0
0
0
0
0
0
0
0
0
0
0
0
0
0
0
0
0
0
0
0
0
0
0
0
0
0
0
0
0
0
0
0
0
0
0
0
0
0
0
0
0
0
0
0
0
0
0
0
0
0
0
0
0
0
0
0
0
0
0
0
0
0
0
0
0
0
0
0
0
0
0
0
0
0
0
0
0
0
0
0
0
0
0
0
0
0
0
0
0
0
0
0
0
0
0
0
0
0
0
0
0
0
0
0
0
0
0
0
0
0
0
0
0
0
0
0
0
0
0
0
0
0
0
0
0
0
0
0
0
0
0
0
0
0
0
0
0
0
0
0
0
0
0
0
0
233
154
154
103
106
110
110
162
178
178
178
178
178
177
177
177
177
178
177
177
178
178
178
178
178
178
178
178
178
178
178
178
176
176
196
200
200
200
201
201
201
200
201
201
196
176
178
178
164
109
109
109
109
109
108
108
106
106
138
252
252
255
254
254
254
254
254
254
254
254
255
255
255
255
255
254
255
255
255
255
254
254
255
255
255
254
254
255
255
255
254
254
254
255
255
254
254
254
254
254
254
254
254
254
254
254
254
254
254
255
254
255
254
253
245
245
232
231
231
228
229
228
228
229
235
235
241
254
244
255
255
254
254
254
255
255
254
255
255
255
255
255
255
254
251
248
248
111
106
106
105
105
105
129
155
158
158
152
158
158
158
157
157
157
157
157
157
156
155
157
156
156
156
156
158
159
159
156
108
104
104
107
103
103
168
228
244
244
253
254
254
255
254
254
253
255
236
236
226
168
168
102
105
106
106
106
108
108
106
106
145
151
156
157
157
157
156
156
156
156
156
156
156
156
156
156
157
157
157
157
157
157
157
156
156
156
156
157
157
157
156
156
162
171
172
172
157
155
155
157
156
156
158
157
157
157
157
157
157
156
156
156
156
156
156
156
157
155
157
132
105
106
106
106
106
106
102
170
227
227
229
229
229
249
255
254
254
254
255
255
254
254
254
254
254
255
255
254
254
254
254
254
254
254
255
255
255
255
255
255
255
254
254
254
249
247
247
184
97
100
100
100
103
103
105
101
102
102
104
99
99
98
226
226
251
255
254
254
254
254
254
255
254
254
254
255
255
255
254
254
254
0
0
0
0
0
0
0
0
0
0
0
0
0
0
0
0
0
0
0
0
0
0
0
0
0
0
0
0
0
0
0
0
0
0
0
0
0
0
0
0
0
0
0
0
0
0
0
0
0
0
0
0
0
0
0
0
0
0
0
0
0
0
0
0
0
0
0
0
0
0
0
0
0
0
0
0
0
0
0
0
0
0
0
0
0
0
0
0
0
0
0
0
0
0
0
0
0
0
0
0
0
0
0
0
0
0
0
0
0
0
0
0
0
0
0
0
0
0
0
0
0
0
0
0
0
0
0
0
0
0
0
0
0
0
0
0
0
0
0
0
0
0
0
0
0
0
0
0
0
0
0
0
0
0
0
0
0
0
0
0
0
0
0
0
0
0
0
0
0
0
0
0
0
0
0
0
0
0
0
0
0
0
0
0
0
0
0
0
0
0
0
0
0
0
0
0
0
0
0
0
0
0
0
0
0
0
0
0
0
0
0
0
0
0
0
0
0
0
0
230
233
141
117
104
108
108
106
170
178
178
178
178
178
178
177
177
177
178
177
177
178
178
178
178
178
178
178
178
178
177
177
178
176
175
195
200
202
201
202
201
201
200
201
201
200
176
179
175
169
110
114
109
110
109
109
109
107
107
138
252
252
254
254
254
254
254
254
254
254
254
254
254
255
254
254
254
255
255
255
255
254
254
255
255
255
254
254
255
255
255
254
254
254
254
254
255
255
255
255
254
254
254
254
254
255
255
254
254
255
255
254
255
255
254
253
254
243
238
247
247
237
237
254
243
253
254
255
255
255
255
255
254
254
255
254
254
255
255
255
253
255
254
252
251
251
188
103
102
106
105
105
107
149
155
157
158
156
159
154
155
156
157
157
156
157
156
156
157
157
155
157
157
157
158
154
158
158
106
107
107
106
106
105
165
226
234
254
254
254
253
254
255
254
254
254
249
230
226
228
192
211
117
104
104
103
107
110
108
104
108
156
157
157
157
156
156
156
156
156
156
156
156
156
156
156
156
156
157
156
156
157
157
157
156
156
157
156
157
156
155
156
156
153
161
159
154
158
157
157
157
156
157
157
157
157
157
157
156
156
156
156
155
156
156
156
156
155
138
105
106
106
106
106
107
104
121
227
226
233
230
230
239
254
254
254
254
254
254
255
254
254
254
254
254
255
254
254
254
254
254
254
254
255
255
255
255
254
254
254
255
253
253
249
220
240
143
93
104
97
101
101
103
100
103
100
103
103
100
99
95
95
101
230
236
252
254
254
254
254
255
255
255
254
254
254
255
255
255
254
254
254
0
0
0
0
0
0
0
0
0
0
0
0
0
0
0
0
0
0
0
0
0
0
0
0
0
0
0
0
0
0
0
0
0
0
0
0
0
0
0
0
0
0
0
0
0
0
0
0
0
0
0
0
0
0
0
0
0
0
0
0
0
0
0
0
0
0
0
0
0
0
0
0
0
0
0
0
0
0
0
0
0
0
0
0
0
0
0
0
0
0
0
0
0
0
0
0
0
0
0
0
0
0
0
0
0
0
0
0
0
0
0
0
0
0
0
0
0
0
0
0
0
0
0
0
0
0
0
0
0
0
0
0
0
0
0
0
0
0
0
0
0
0
0
0
0
0
0
0
0
0
0
0
0
0
0
0
0
0
0
0
0
0
0
0
0
0
0
0
0
0
0
0
0
0
0
0
0
0
0
0
0
0
0
0
0
0
0
0
0
0
0
0
0
0
0
0
0
0
0
0
0
0
0
0
0
0
0
0
0
0
0
0
0
0
0
0
0
0
230
229
236
108
108
104
107
106
109
171
178
178
178
178
178
178
177
177
177
178
177
177
178
177
178
178
178
178
178
177
177
177
178
179
175
175
191
202
202
200
202
201
201
201
200
200
201
179
175
176
174
114
116
107
109
109
110
108
107
109
130
251
251
255
255
254
253
254
254
254
255
254
254
254
255
254
254
254
255
255
255
254
254
254
255
255
255
254
254
255
255
255
254
254
254
254
254
255
255
255
255
254
254
254
254
255
255
255
255
255
255
255
255
255
252
254
254
254
255
253
253
255
255
254
255
254
254
254
254
255
255
255
254
254
254
254
254
254
255
255
253
254
253
253
253
250
148
103
105
106
105
106
115
156
156
154
155
156
158
157
156
156
156
156
156
156
156
156
156
154
152
157
158
157
158
155
155
134
134
104
107
106
107
103
229
229
236
255
254
251
254
254
255
255
251
251
253
230
226
229
227
224
224
127
107
103
107
107
108
106
106
129
157
156
157
156
156
156
156
156
156
156
156
156
156
156
156
156
156
156
156
156
157
157
157
156
156
157
156
156
155
157
156
156
155
157
154
155
155
157
158
157
157
157
157
157
157
157
157
156
156
156
156
156
156
156
156
140
105
105
106
106
106
106
106
110
225
225
230
228
230
229
254
254
254
255
254
254
254
254
254
254
254
254
254
254
254
254
254
254
254
254
255
254
255
255
254
254
254
252
253
253
246
197
220
95
99
103
103
103
103
101
100
101
104
104
102
102
100
102
103
95
95
106
243
243
252
255
254
254
254
254
254
255
254
254
254
254
255
255
254
254
254
0
0
0
0
0
0
0
0
0
0
0
0
0
0
0
0
0
0
0
0
0
0
0
0
0
0
0
0
0
0
0
0
0
0
0
0
0
0
0
0
0
0
0
0
0
0
0
0
0
0
0
0
0
0
0
0
0
0
0
0
0
0
0
0
0
0
0
0
0
0
0
0
0
0
0
0
0
0
0
0
0
0
0
0
0
0
0
0
0
0
0
0
0
0
0
0
0
0
0
0
0
0
0
0
0
0
0
0
0
0
0
0
0
0
0
0
0
0
0
0
0
0
0
0
0
0
0
0
0
0
0
0
0
0
0
0
0
0
0
0
0
0
0
0
0
0
0
0
0
0
0
0
0
0
0
0
0
0
0
0
0
0
0
0
0
0
0
0
0
0
0
0
0
0
0
0
0
0
0
0
0
0
0
0
0
0
0
0
0
0
0
0
0
0
0
0
0
0
0
0
0
0
0
0
0
0
0
0
0
0
0
0
0
0
0
0
0
244
228
231
232
101
102
106
107
114
114
172
178
177
177
178
178
178
177
177
177
178
177
177
178
177
178
178
178
177
177
177
178
178
178
179
177
177
191
202
202
200
201
202
200
201
200
200
202
180
178
178
175
119
123
108
108
108
110
110
107
106
128
251
252
255
254
253
253
254
254
254
255
254
254
254
255
255
254
254
255
255
255
254
254
254
255
255
255
254
254
255
255
255
254
254
254
254
254
255
255
255
255
254
254
254
254
255
255
255
255
255
255
255
254
252
252
255
255
255
254
255
255
254
255
253
253
254
254
254
254
254
255
255
254
254
254
254
253
253
255
254
254
253
254
252
252
234
102
106
106
105
103
133
156
158
157
157
158
156
156
156
156
156
156
156
156
156
156
157
157
157
155
152
152
161
159
155
157
106
105
109
102
104
103
144
228
243
253
254
254
254
254
254
253
253
254
254
248
229
231
231
228
228
226
137
102
105
105
106
105
105
103
147
156
156
156
156
156
156
156
156
156
156
156
156
156
156
156
156
156
156
156
156
157
157
157
156
156
158
156
157
156
156
157
157
159
158
157
157
158
157
157
157
157
157
157
157
157
157
156
157
157
156
157
157
157
138
105
106
106
106
106
106
106
105
207
219
231
230
229
229
244
254
254
255
255
255
254
254
254
254
254
254
254
254
254
254
254
255
255
254
254
254
254
254
255
255
254
251
249
251
243
157
157
95
99
102
104
103
101
103
101
101
103
103
101
101
103
102
101
101
101
95
96
121
246
249
253
255
254
254
254
255
255
255
254
254
254
255
254
255
254
254
254
0
0
0
0
0
0
0
0
0
0
0
0
0
0
0
0
0
0
0
0
0
0
0
0
0
0
0
0
0
0
0
0
0
0
0
0
0
0
0
0
0
0
0
0
0
0
0
0
0
0
0
0
0
0
0
0
0
0
0
0
0
0
0
0
0
0
0
0
0
0
0
0
0
0
0
0
0
0
0
0
0
0
0
0
0
0
0
0
0
0
0
0
0
0
0
0
0
0
0
0
0
0
0
0
0
0
0
0
0
0
0
0
0
0
0
0
0
0
0
0
0
0
0
0
0
0
0
0
0
0
0
0
0
0
0
0
0
0
0
0
0
0
0
0
0
0
0
0
0
0
0
0
0
0
0
0
0
0
0
0
0
0
0
0
0
0
0
0
0
0
0
0
0
0
0
0
0
0
0
0
0
0
0
0
0
0
0
0
0
0
0
0
0
0
0
0
0
0
0
0
0
0
0
0
0
0
0
0
0
0
0
0
0
0
0
0
255
235
231
233
206
102
102
107
109
117
117
175
177
178
177
178
178
178
177
177
177
178
177
177
178
178
178
177
177
177
178
178
178
178
178
177
177
177
190
202
201
201
201
200
201
203
200
200
202
182
178
177
177
123
126
110
108
108
108
108
106
106
128
252
252
255
255
254
253
254
254
254
254
254
254
254
255
254
254
254
255
255
255
254
254
254
255
255
255
254
254
255
255
255
254
254
254
254
254
255
255
255
254
255
254
254
254
255
255
255
255
255
255
255
255
255
255
254
255
254
255
255
254
255
255
254
255
254
254
254
255
255
255
254
254
254
254
250
253
252
254
253
253
253
252
252
204
104
105
107
106
106
133
156
156
157
155
157
157
156
156
156
156
156
156
156
156
156
157
157
156
156
161
155
158
154
155
154
108
105
105
105
107
103
122
230
243
252
254
253
254
253
253
253
253
254
254
253
238
229
231
230
229
226
226
123
106
104
107
107
105
104
127
156
156
157
156
156
156
156
156
156
156
156
156
156
157
156
156
156
156
156
156
157
157
157
157
156
157
156
158
156
155
157
157
154
156
155
159
157
157
157
157
157
157
157
157
157
157
156
157
157
159
157
157
134
105
107
106
107
106
106
106
103
198
207
230
230
230
231
230
254
254
253
254
255
254
254
254
254
254
254
254
254
254
254
254
254
255
255
254
254
254
254
254
254
254
251
244
249
191
98
120
96
100
101
102
101
104
101
102
100
107
103
120
123
101
106
103
102
102
102
102
96
96
174
249
250
254
253
254
254
254
255
255
255
254
254
254
255
255
254
254
254
254
0
0
0
0
0
0
0
0
0
0
0
0
0
0
0
0
0
0
0
0
0
0
0
0
0
0
0
0
0
0
0
0
0
0
0
0
0
0
0
0
0
0
0
0
0
0
0
0
0
0
0
0
0
0
0
0
0
0
0
0
0
0
0
0
0
0
0
0
0
0
0
0
0
0
0
0
0
0
0
0
0
0
0
0
0
0
0
0
0
0
0
0
0
0
0
0
0
0
0
0
0
0
0
0
0
0
0
0
0
0
0
0
0
0
0
0
0
0
0
0
0
0
0
0
0
0
0
0
0
0
0
0
0
0
0
0
0
0
0
0
0
0
0
0
0
0
0
0
0
0
0
0
0
0
0
0
0
0
0
0
0
0
0
0
0
0
0
0
0
0
0
0
0
0
0
0
0
0
0
0
0
0
0
0
0
0
0
0
0
0
0
0
0
0
0
0
0
0
0
0
0
0
0
0
0
0
0
0
0
0
0
0
0
0
0
255
254
231
231
231
195
104
104
106
106
120
120
176
177
177
177
178
178
178
177
177
177
178
177
177
178
178
177
177
178
178
178
178
178
178
178
177
177
177
190
201
201
201
201
200
200
202
201
201
201
184
176
176
178
129
129
108
108
108
109
108
106
106
128
251
251
255
255
253
253
254
254
254
255
254
255
255
255
254
254
254
255
255
255
254
254
254
255
255
255
255
254
255
255
255
254
254
254
254
254
255
254
254
254
254
254
254
254
255
255
255
255
254
254
255
253
253
253
255
253
253
254
253
253
255
255
254
254
254
255
255
255
254
254
254
254
254
254
255
253
255
254
254
251
251
247
105
105
107
107
105
105
143
154
154
154
157
156
157
157
157
157
157
156
156
156
156
157
157
156
156
156
157
156
155
155
158
150
150
107
104
106
104
102
186
186
247
254
254
255
254
255
255
255
255
255
254
253
253
237
228
230
230
235
225
225
107
103
107
107
107
110
110
151
156
157
157
156
156
156
156
156
156
156
156
157
157
156
156
156
156
156
156
156
157
157
157
157
155
156
156
156
157
157
156
155
155
158
156
157
157
157
157
157
157
157
157
157
157
157
157
156
157
157
120
105
107
107
105
107
107
106
104
192
192
229
230
230
229
227
249
253
253
255
255
254
254
254
255
254
254
254
254
254
254
255
254
254
254
254
254
254
254
254
254
255
249
236
236
140
92
92
100
101
102
102
101
101
101
102
101
138
121
133
139
139
135
111
111
103
102
102
102
102
95
95
204
253
249
254
255
254
254
255
255
255
255
254
254
254
254
254
254
254
254
254
0
0
0
0
0
0
0
0
0
0
0
0
0
0
0
0
0
0
0
0
0
0
0
0
0
0
0
0
0
0
0
0
0
0
0
0
0
0
0
0
0
0
0
0
0
0
0
0
0
0
0
0
0
0
0
0
0
0
0
0
0
0
0
0
0
0
0
0
0
0
0
0
0
0
0
0
0
0
0
0
0
0
0
0
0
0
0
0
0
0
0
0
0
0
0
0
0
0
0
0
0
0
0
0
0
0
0
0
0
0
0
0
0
0
0
0
0
0
0
0
0
0
0
0
0
0
0
0
0
0
0
0
0
0
0
0
0
0
0
0
0
0
0
0
0
0
0
0
0
0
0
0
0
0
0
0
0
0
0
0
0
0
0
0
0
0
0
0
0
0
0
0
0
0
0
0
0
0
0
0
0
0
0
0
0
0
0
0
0
0
0
0
0
0
0
0
0
0
0
0
0
0
0
0
0
0
0
0
0
0
0
0
0
0
255
255
251
230
231
233
183
103
102
107
108
120
123
176
178
177
177
178
178
178
177
177
177
178
177
177
178
178
178
178
178
178
178
178
178
177
178
177
175
175
189
201
201
200
202
200
200
201
201
201
201
185
175
175
178
136
136
108
108
108
110
108
106
106
127
251
252
254
255
254
254
254
254
254
255
254
255
254
255
254
254
254
255
255
255
254
254
254
255
255
255
254
254
255
255
255
254
254
254
254
254
254
254
255
255
254
254
254
254
255
255
255
254
254
254
255
255
254
255
255
254
254
254
255
255
255
255
254
254
254
255
255
254
253
255
255
254
254
254
253
255
254
254
254
249
242
172
104
106
105
105
115
152
158
157
156
156
156
156
157
157
157
157
157
156
157
157
156
156
156
156
156
156
156
161
157
158
158
122
107
105
106
106
105
104
227
246
250
252
253
255
253
255
255
254
255
254
255
253
254
243
229
227
225
227
214
161
105
104
105
105
106
116
146
156
155
155
158
156
156
156
156
156
156
156
156
156
156
156
156
156
156
156
156
156
157
158
155
153
156
157
157
156
158
157
155
158
156
158
158
156
158
157
157
156
157
157
157
156
157
156
144
155
116
106
107
107
105
106
106
106
101
183
183
228
230
229
229
231
241
249
254
254
255
254
254
254
253
253
255
254
254
253
254
254
254
255
254
254
254
254
254
252
253
254
242
167
208
103
100
96
102
102
103
103
101
101
101
101
123
137
138
136
138
139
138
137
135
108
104
103
101
103
103
101
95
96
242
249
255
252
255
254
254
255
255
255
255
254
254
254
254
254
255
254
254
254
0
0
0
0
0
0
0
0
0
0
0
0
0
0
0
0
0
0
0
0
0
0
0
0
0
0
0
0
0
0
0
0
0
0
0
0
0
0
0
0
0
0
0
0
0
0
0
0
0
0
0
0
0
0
0
0
0
0
0
0
0
0
0
0
0
0
0
0
0
0
0
0
0
0
0
0
0
0
0
0
0
0
0
0
0
0
0
0
0
0
0
0
0
0
0
0
0
0
0
0
0
0
0
0
0
0
0
0
0
0
0
0
0
0
0
0
0
0
0
0
0
0
0
0
0
0
0
0
0
0
0
0
0
0
0
0
0
0
0
0
0
0
0
0
0
0
0
0
0
0
0
0
0
0
0
0
0
0
0
0
0
0
0
0
0
0
0
0
0
0
0
0
0
0
0
0
0
0
0
0
0
0
0
0
0
0
0
0
0
0
0
0
0
0
0
0
0
0
0
0
0
0
0
0
0
0
0
0
0
0
0
0
0
254
255
255
247
228
233
233
160
106
106
108
107
123
125
177
177
177
177
178
178
177
177
177
177
178
177
177
178
178
178
178
178
178
178
178
178
178
177
178
176
176
189
202
202
201
202
200
200
200
202
202
200
187
175
177
177
136
136
108
108
108
109
108
106
106
126
252
252
255
254
254
255
254
254
254
255
254
254
254
254
254
254
254
255
255
255
254
254
255
255
255
255
254
254
255
255
254
254
254
254
254
254
254
255
255
255
254
254
254
254
255
255
255
254
254
254
255
253
255
254
253
254
255
255
255
255
255
255
254
254
255
255
255
255
255
255
255
255
254
254
254
254
254
254
251
242
147
103
105
105
105
122
152
155
155
156
156
156
156
156
156
156
157
157
157
157
157
156
156
156
156
156
157
157
156
154
158
157
138
106
106
106
104
104
105
181
246
252
253
253
253
255
253
255
254
254
253
253
254
255
255
247
232
225
228
224
108
108
106
108
105
106
112
160
160
156
156
158
155
156
156
156
156
156
156
156
156
156
156
156
156
156
156
157
156
155
157
158
158
158
154
154
157
155
157
157
157
157
157
155
153
158
155
156
156
156
156
156
156
157
131
144
105
106
107
107
105
106
106
106
101
185
185
228
229
230
230
232
235
235
254
255
255
254
254
254
252
253
254
254
255
254
253
254
253
255
255
252
254
254
254
251
252
245
230
116
116
97
98
100
100
102
101
101
103
102
101
112
130
135
135
138
136
136
140
137
137
137
133
103
103
102
103
103
103
101
107
107
246
255
255
254
254
254
254
254
254
254
255
254
254
254
255
255
255
254
254
254
0
0
0
0
0
0
0
0
0
0
0
0
0
0
0
0
0
0
0
0
0
0
0
0
0
0
0
0
0
0
0
0
0
0
0
0
0
0
0
0
0
0
0
0
0
0
0
0
0
0
0
0
0
0
0
0
0
0
0
0
0
0
0
0
0
0
0
0
0
0
0
0
0
0
0
0
0
0
0
0
0
0
0
0
0
0
0
0
0
0
0
0
0
0
0
0
0
0
0
0
0
0
0
0
0
0
0
0
0
0
0
0
0
0
0
0
0
0
0
0
0
0
0
0
0
0
0
0
0
0
0
0
0
0
0
0
0
0
0
0
0
0
0
0
0
0
0
0
0
0
0
0
0
0
0
0
0
0
0
0
0
0
0
0
0
0
0
0
0
0
0
0
0
0
0
0
0
0
0
0
0
0
0
0
0
0
0
0
0
0
0
0
0
0
0
0
0
0
0
0
0
0
0
0
0
0
0
0
0
0
0
0
254
254
254
254
244
228
232
232
148
105
105
108
107
126
124
176
177
177
177
177
177
177
177
177
177
178
177
178
178
177
178
178
178
178
178
178
178
178
177
178
175
176
188
202
202
200
202
200
200
202
201
201
202
189
177
177
177
136
137
108
108
109
108
108
108
108
126
252
252
255
254
255
255
254
254
254
254
254
254
254
254
254
254
254
255
255
255
254
254
254
255
255
255
254
254
255
255
254
255
255
254
254
254
254
255
255
255
254
254
255
255
255
255
255
254
254
254
254
254
252
252
255
255
255
255
255
255
255
255
255
255
255
255
255
255
255
255
255
255
254
254
255
255
252
255
240
104
102
105
108
104
105
154
156
156
156
156
156
156
156
156
156
156
157
157
157
157
157
156
156
156
156
156
157
157
155
157
156
154
117
106
106
109
105
107
103
228
252
255
254
254
254
254
254
255
254
255
253
254
254
254
254
251
235
232
224
190
103
105
105
106
102
116
147
155
158
158
158
156
156
156
156
156
156
156
156
156
156
156
156
156
156
156
156
158
156
159
153
156
153
161
157
157
156
156
156
157
157
154
160
159
157
159
154
156
156
154
159
148
111
120
105
107
106
103
105
106
106
105
102
196
189
227
231
229
230
230
228
231
253
254
254
254
254
254
254
253
254
253
254
255
254
254
254
254
255
253
255
253
254
249
250
244
186
93
92
97
99
99
103
101
102
101
103
113
106
122
136
138
137
136
137
137
135
137
136
137
136
136
127
102
102
101
103
102
101
101
131
164
247
254
255
255
255
254
254
254
255
255
255
254
254
254
255
255
254
254
254
254
0
0
0
0
0
0
0
0
0
0
0
0
0
0
0
0
0
0
0
0
0
0
0
0
0
0
0
0
0
0
0
0
0
0
0
0
0
0
0
0
0
0
0
0
0
0
0
0
0
0
0
0
0
0
0
0
0
0
0
0
0
0
0
0
0
0
0
0
0
0
0
0
0
0
0
0
0
0
0
0
0
0
0
0
0
0
0
0
0
0
0
0
0
0
0
0
0
0
0
0
0
0
0
0
0
0
0
0
0
0
0
0
0
0
0
0
0
0
0
0
0
0
0
0
0
0
0
0
0
0
0
0
0
0
0
0
0
0
0
0
0
0
0
0
0
0
0
0
0
0
0
0
0
0
0
0
0
0
0
0
0
0
0
0
0
0
0
0
0
0
0
0
0
0
0
0
0
0
0
0
0
0
0
0
0
0
0
0
0
0
0
0
0
0
0
0
0
0
0
0
0
0
0
0
0
0
0
0
0
0
0
254
254
254
254
253
238
230
232
231
134
105
105
108
108
124
122
177
177
177
177
177
178
178
177
177
177
178
178
178
178
178
178
178
178
178
178
178
178
177
178
179
176
176
188
202
202
200
202
200
200
202
201
201
202
189
177
177
177
137
137
108
109
109
110
107
108
107
125
252
251
255
254
255
255
254
254
254
254
254
254
255
255
254
254
254
255
255
255
254
254
254
254
255
255
254
254
255
255
255
255
255
254
254
254
255
255
255
255
255
255
255
254
255
255
255
254
254
254
254
254
255
255
255
255
255
255
255
255
255
255
255
255
254
255
255
255
255
255
255
254
254
254
254
252
254
232
104
102
105
105
104
105
158
156
156
156
156
156
156
156
156
156
156
156
157
157
157
157
157
156
156
156
156
157
157
157
156
157
154
144
106
106
105
105
107
106
118
247
255
253
254
254
254
254
255
254
254
254
254
252
251
254
255
253
238
224
162
104
105
106
103
100
116
151
155
158
155
156
155
156
158
156
156
156
156
156
156
156
156
156
156
156
156
158
158
155
159
155
157
153
157
155
157
156
157
157
157
157
153
160
157
155
154
154
157
145
154
118
106
111
106
106
105
106
107
106
106
106
109
205
196
228
232
231
229
230
229
228
252
254
254
254
254
254
254
255
254
254
254
254
255
255
255
252
254
253
254
255
252
246
249
200
99
96
93
100
101
99
103
103
104
102
109
125
113
139
135
137
138
137
136
137
134
136
137
135
137
137
136
137
114
102
101
103
102
101
101
94
164
196
249
255
254
253
254
254
253
253
255
254
254
254
254
254
254
254
254
255
254
254
0
0
0
0
0
0
0
0
0
0
0
0
0
0
0
0
0
0
0
0
0
0
0
0
0
0
0
0
0
0
0
0
0
0
0
0
0
0
0
0
0
0
0
0
0
0
0
0
0
0
0
0
0
0
0
0
0
0
0
0
0
0
0
0
0
0
0
0
0
0
0
0
0
0
0
0
0
0
0
0
0
0
0
0
0
0
0
0
0
0
0
0
0
0
0
0
0
0
0
0
0
0
0
0
0
0
0
0
0
0
0
0
0
0
0
0
0
0
0
0
0
0
0
0
0
0
0
0
0
0
0
0
0
0
0
0
0
0
0
0
0
0
0
0
0
0
0
0
0
0
0
0
0
0
0
0
0
0
0
0
0
0
0
0
0
0
0
0
0
0
0
0
0
0
0
0
0
0
0
0
0
0
0
0
0
0
0
0
0
0
0
0
0
0
0
0
0
0
0
0
0
0
0
0
0
0
0
0
0
0
254
254
254
254
253
255
232
229
231
231
126
107
107
108
109
122
122
177
177
177
177
178
178
178
177
177
177
178
177
177
178
178
178
178
178
178
178
178
178
178
178
178
176
176
188
203
202
200
202
201
201
200
201
201
201
189
177
177
177
137
137
108
108
108
109
109
106
106
127
251
251
255
254
254
254
254
254
254
255
255
255
255
255
254
254
254
255
255
255
254
254
254
255
255
255
255
254
255
255
255
254
254
254
254
254
255
255
255
255
255
254
254
254
255
255
255
254
254
254
254
255
255
255
255
255
255
255
255
255
255
254
255
255
254
255
255
255
255
255
255
255
254
254
254
246
229
122
107
107
107
111
133
158
155
156
156
156
156
156
156
156
156
156
156
156
157
157
157
157
157
156
156
156
156
157
157
157
157
156
124
124
106
106
106
104
105
103
134
246
254
254
252
254
253
254
253
254
254
254
254
254
252
255
255
254
229
104
104
108
105
106
108
128
157
157
156
156
159
158
157
156
156
156
156
156
156
156
156
156
157
156
156
156
154
139
160
154
160
160
152
160
160
157
157
155
157
155
157
157
159
157
139
156
146
122
122
106
105
105
106
106
105
104
107
106
106
103
113
220
214
228
230
230
229
229
229
229
245
253
253
255
254
254
254
255
255
255
254
255
255
254
255
253
252
254
253
253
249
242
242
154
94
100
98
102
103
103
101
102
104
103
116
134
134
140
135
137
136
136
136
136
135
147
147
149
136
140
138
137
139
139
109
99
101
101
103
99
99
94
221
221
248
254
251
255
255
253
253
253
254
254
254
254
254
254
254
254
254
255
254
254
0
0
0
0
0
0
0
0
0
0
0
0
0
0
0
0
0
0
0
0
0
0
0
0
0
0
0
0
0
0
0
0
0
0
0
0
0
0
0
0
0
0
0
0
0
0
0
0
0
0
0
0
0
0
0
0
0
0
0
0
0
0
0
0
0
0
0
0
0
0
0
0
0
0
0
0
0
0
0
0
0
0
0
0
0
0
0
0
0
0
0
0
0
0
0
0
0
0
0
0
0
0
0
0
0
0
0
0
0
0
0
0
0
0
0
0
0
0
0
0
0
0
0
0
0
0
0
0
0
0
0
0
0
0
0
0
0
0
0
0
0
0
0
0
0
0
0
0
0
0
0
0
0
0
0
0
0
0
0
0
0
0
0
0
0
0
0
0
0
0
0
0
0
0
0
0
0
0
0
0
0
0
0
0
0
0
0
0
0
0
0
0
0
0
0
0
0
0
0
0
0
0
0
0
0
0
0
0
0
254
254
254
255
254
255
254
231
228
232
232
111
107
107
107
110
123
123
177
177
177
178
178
178
178
177
178
178
178
177
177
178
178
178
178
178
178
178
178
178
178
178
178
177
177
188
202
202
200
202
202
202
200
201
201
201
188
177
177
177
137
135
108
108
107
108
110
106
106
136
251
252
255
254
254
254
254
254
255
254
254
255
254
255
254
254
254
255
255
254
254
254
254
255
255
255
255
254
255
255
255
254
254
254
254
254
254
254
255
255
255
254
254
254
255
255
255
254
254
254
254
255
255
255
255
255
255
255
255
254
254
255
255
255
254
255
255
255
255
255
254
254
254
251
247
229
120
104
107
105
109
136
158
155
156
156
156
156
156
156
157
156
156
156
156
156
157
157
157
157
156
156
156
156
157
157
157
156
157
156
108
105
105
107
104
104
103
105
130
246
254
251
253
253
254
255
253
254
253
254
253
254
255
255
246
133
110
102
106
105
106
106
149
157
156
158
155
159
155
157
157
156
156
157
156
156
156
156
156
157
157
157
156
124
139
105
105
143
149
126
156
156
139
142
155
142
140
155
155
123
110
139
104
106
105
106
107
106
107
106
107
105
108
104
104
104
150
225
220
232
229
230
229
229
230
229
243
255
255
255
255
254
254
254
254
255
254
254
255
255
253
255
253
254
250
251
247
173
220
115
96
99
100
102
102
102
99
100
113
104
135
137
137
137
138
138
137
138
137
136
137
140
153
160
161
163
140
146
136
137
136
133
104
101
100
100
102
98
98
94
239
243
251
251
254
254
254
253
253
254
254
254
254
254
254
254
254
254
254
255
254
254
0
0
0
0
0
0
0
0
0
0
0
0
0
0
0
0
0
0
0
0
0
0
0
0
0
0
0
0
0
0
0
0
0
0
0
0
0
0
0
0
0
0
0
0
0
0
0
0
0
0
0
0
0
0
0
0
0
0
0
0
0
0
0
0
0
0
0
0
0
0
0
0
0
0
0
0
0
0
0
0
0
0
0
0
0
0
0
0
0
0
0
0
0
0
0
0
0
0
0
0
0
0
0
0
0
0
0
0
0
0
0
0
0
0
0
0
0
0
0
0
0
0
0
0
0
0
0
0
0
0
0
0
0
0
0
0
0
0
0
0
0
0
0
0
0
0
0
0
0
0
0
0
0
0
0
0
0
0
0
0
0
0
0
0
0
0
0
0
0
0
0
0
0
0
0
0
0
0
0
0
0
0
0
0
0
0
0
0
0
0
0
0
0
0
0
0
0
0
0
0
0
0
0
0
0
0
0
0
254
254
254
255
255
254
253
253
230
230
231
231
107
108
108
107
109
123
124
178
177
177
178
178
178
178
177
178
178
178
177
177
178
178
178
178
178
178
178
178
178
178
178
177
177
177
188
202
202
201
200
201
201
200
202
202
201
188
177
176
178
134
134
108
108
108
108
109
107
107
139
251
251
255
255
254
254
255
255
255
254
254
254
254
255
254
254
254
255
255
255
254
255
255
255
255
255
254
254
255
255
254
254
254
254
254
254
254
254
255
255
255
254
254
254
255
255
255
255
255
255
254
255
255
255
255
255
255
255
254
254
254
255
254
254
254
255
255
255
254
254
254
253
251
251
224
103
103
108
107
108
108
156
159
159
158
156
156
156
157
157
157
156
156
156
156
156
157
157
157
156
156
156
157
157
157
156
156
156
158
147
105
105
104
106
106
105
105
105
118
227
249
249
253
253
253
255
254
253
255
254
252
252
248
156
156
106
106
105
105
106
124
124
154
157
156
156
156
157
157
157
157
156
156
157
156
156
156
156
156
155
154
123
123
104
105
105
106
106
126
105
106
107
107
112
111
111
108
105
104
104
105
109
109
108
104
107
108
105
106
106
106
104
104
103
177
226
226
228
229
229
229
230
230
230
241
255
255
254
253
255
254
254
254
254
253
254
254
254
255
254
254
253
248
248
225
126
173
96
100
102
102
101
102
102
103
102
125
125
138
138
138
137
137
137
137
137
137
137
137
134
140
155
160
159
159
162
150
150
135
137
127
127
103
101
101
100
101
98
96
134
245
245
254
254
254
255
255
254
254
254
254
254
254
255
254
254
254
254
254
254
254
254
0
0
0
0
0
0
0
0
0
0
0
0
0
0
0
0
0
0
0
0
0
0
0
0
0
0
0
0
0
0
0
0
0
0
0
0
0
0
0
0
0
0
0
0
0
0
0
0
0
0
0
0
0
0
0
0
0
0
0
0
0
0
0
0
0
0
0
0
0
0
0
0
0
0
0
0
0
0
0
0
0
0
0
0
0
0
0
0
0
0
0
0
0
0
0
0
0
0
0
0
0
0
0
0
0
0
0
0
0
0
0
0
0
0
0
0
0
0
0
0
0
0
0
0
0
0
0
0
0
0
0
0
0
0
0
0
0
0
0
0
0
0
0
0
0
0
0
0
0
0
0
0
0
0
0
0
0
0
0
0
0
0
0
0
0
0
0
0
0
0
0
0
0
0
0
0
0
0
0
0
0
0
0
0
0
0
0
0
0
0
0
0
0
0
0
0
0
0
0
0
0
0
0
0
0
0
0
255
254
255
255
255
255
254
251
249
230
230
228
225
106
110
110
108
108
123
123
176
177
177
177
178
178
177
177
178
178
178
177
177
178
178
178
178
178
178
178
178
178
178
178
177
177
177
188
202
202
200
200
200
200
201
202
202
201
188
177
176
177
132
132
108
109
109
110
107
108
106
141
251
251
255
255
254
254
255
254
254
254
254
254
254
255
255
255
254
255
255
255
254
255
255
255
255
255
254
254
255
254
254
254
254
254
254
254
254
254
255
255
255
254
254
254
255
255
255
255
255
255
254
255
255
255
255
255
254
255
254
254
254
254
254
254
254
255
255
255
255
254
254
252
248
231
120
107
106
103
105
135
157
155
155
154
158
156
156
156
157
157
157
156
156
157
156
156
157
157
157
156
157
156
157
157
156
156
156
156
156
138
103
104
106
105
105
107
105
106
102
194
242
227
250
252
249
251
252
246
245
252
244
129
148
104
107
107
107
106
102
112
158
157
153
157
157
156
156
157
157
157
157
156
156
156
156
156
156
157
156
159
137
107
103
106
106
104
107
106
106
105
106
102
109
105
107
106
108
110
107
105
105
104
107
107
105
104
104
106
104
103
102
116
219
228
227
229
231
229
230
231
230
231
240
253
254
254
254
253
255
254
255
254
253
254
254
255
252
254
254
254
241
244
189
94
100
97
103
100
101
101
102
102
102
123
135
133
137
137
137
136
137
139
138
136
139
138
137
136
138
138
162
163
158
159
159
161
149
146
136
137
122
114
103
101
101
101
102
95
97
168
250
253
253
254
254
255
255
254
254
254
254
254
254
255
254
254
254
255
255
254
254
254
0
0
0
0
0
0
0
0
0
0
0
0
0
0
0
0
0
0
0
0
0
0
0
0
0
0
0
0
0
0
0
0
0
0
0
0
0
0
0
0
0
0
0
0
0
0
0
0
0
0
0
0
0
0
0
0
0
0
0
0
0
0
0
0
0
0
0
0
0
0
0
0
0
0
0
0
0
0
0
0
0
0
0
0
0
0
0
0
0
0
0
0
0
0
0
0
0
0
0
0
0
0
0
0
0
0
0
0
0
0
0
0
0
0
0
0
0
0
0
0
0
0
0
0
0
0
0
0
0
0
0
0
0
0
0
0
0
0
0
0
0
0
0
0
0
0
0
0
0
0
0
0
0
0
0
0
0
0
0
0
0
0
0
0
0
0
0
0
0
0
0
0
0
0
0
0
0
0
0
0
0
0
0
0
0
0
0
0
0
0
0
0
0
0
0
0
0
0
0
0
0
0
0
0
0
0
254
254
255
254
254
255
255
255
247
247
229
228
225
218
105
110
109
108
108
123
123
174
177
177
178
178
178
177
177
178
178
178
177
177
178
178
178
178
178
178
178
178
178
178
178
178
177
176
190
201
201
200
201
200
200
202
202
202
202
186
176
176
177
132
131
108
109
109
110
109
106
105
146
252
252
254
254
254
254
254
254
254
254
254
254
255
255
255
255
254
255
255
255
255
255
255
255
255
255
255
255
254
254
255
254
254
254
254
254
254
254
255
255
255
254
255
255
255
255
255
255
255
254
254
255
255
254
254
254
254
255
255
255
254
255
254
254
252
255
254
254
254
254
254
249
231
125
105
106
106
109
132
157
157
159
154
160
156
156
156
156
157
157
156
157
157
157
156
157
157
157
157
157
157
156
156
156
156
156
156
156
157
129
104
105
106
105
106
107
106
106
101
105
227
154
212
249
230
230
218
245
161
107
129
105
106
104
104
106
103
102
149
154
158
158
157
156
156
156
156
157
157
157
157
156
156
156
156
154
153
156
156
119
105
103
109
103
104
107
106
108
105
106
107
109
106
106
107
107
107
105
105
109
106
107
105
106
103
104
104
110
103
188
226
231
231
228
231
231
229
231
230
230
240
253
253
255
254
254
255
255
254
255
255
255
254
249
253
252
252
247
219
241
109
95
94
100
100
101
100
98
102
102
111
135
136
136
136
138
137
137
138
139
139
136
138
139
138
138
136
136
136
152
163
160
161
159
160
160
139
139
135
136
114
109
101
101
101
101
101
97
95
234
253
253
255
254
254
255
254
254
254
254
254
254
255
254
254
254
254
255
255
254
254
254
0
0
0
0
0
0
0
0
0
0
0
0
0
0
0
0
0
0
0
0
0
0
0
0
0
0
0
0
0
0
0
0
0
0
0
0
0
0
0
0
0
0
0
0
0
0
0
0
0
0
0
0
0
0
0
0
0
0
0
0
0
0
0
0
0
0
0
0
0
0
0
0
0
0
0
0
0
0
0
0
0
0
0
0
0
0
0
0
0
0
0
0
0
0
0
0
0
0
0
0
0
0
0
0
0
0
0
0
0
0
0
0
0
0
0
0
0
0
0
0
0
0
0
0
0
0
0
0
0
0
0
0
0
0
0
0
0
0
0
0
0
0
0
0
0
0
0
0
0
0
0
0
0
0
0
0
0
0
0
0
0
0
0
0
0
0
0
0
0
0
0
0
0
0
0
0
0
0
0
0
0
0
0
0
0
0
0
0
0
0
0
0
0
0
0
0
0
0
0
0
0
0
0
0
0
254
254
254
254
254
254
255
255
254
245
245
229
230
216
216
104
109
109
109
109
121
121
174
177
177
178
178
178
177
177
178
177
178
177
177
178
178
178
178
178
178
178
178
178
178
178
178
177
177
191
202
201
199
202
200
200
202
202
201
201
185
177
177
178
129
128
107
109
108
109
109
105
105
150
252
252
254
254
254
254
254
254
254
254
254
255
255
255
254
254
254
255
255
255
255
255
255
255
255
255
255
255
255
255
255
254
254
254
255
255
254
254
255
255
255
255
255
254
254
255
255
255
254
254
254
254
254
254
254
254
255
255
255
255
254
255
255
255
255
253
254
254
254
254
254
232
102
103
106
107
106
102
157
156
156
155
156
154
156
156
156
156
156
156
156
156
156
156
156
157
157
157
157
156
156
156
156
156
156
156
156
156
156
127
107
107
106
108
108
106
107
104
103
103
105
105
117
132
104
123
109
100
100
103
105
108
105
107
104
106
137
154
157
159
154
157
156
156
156
156
156
157
157
157
157
156
156
156
159
155
158
155
124
107
105
106
106
108
105
110
105
106
106
106
105
111
103
106
107
104
105
104
106
106
105
103
103
102
102
147
147
220
227
229
230
230
230
231
229
231
229
229
241
255
254
255
254
254
255
255
254
254
254
255
255
251
254
249
250
244
130
177
95
100
100
98
102
102
103
102
103
103
121
137
137
137
137
136
138
140
138
137
138
136
138
138
138
138
138
136
140
138
136
161
155
155
162
160
161
163
139
137
135
136
106
106
101
101
101
102
101
94
94
244
252
251
255
253
253
253
254
255
255
254
254
254
255
254
254
254
254
255
254
254
254
254
0
0
0
0
0
0
0
0
0
0
0
0
0
0
0
0
0
0
0
0
0
0
0
0
0
0
0
0
0
0
0
0
0
0
0
0
0
0
0
0
0
0
0
0
0
0
0
0
0
0
0
0
0
0
0
0
0
0
0
0
0
0
0
0
0
0
0
0
0
0
0
0
0
0
0
0
0
0
0
0
0
0
0
0
0
0
0
0
0
0
0
0
0
0
0
0
0
0
0
0
0
0
0
0
0
0
0
0
0
0
0
0
0
0
0
0
0
0
0
0
0
0
0
0
0
0
0
0
0
0
0
0
0
0
0
0
0
0
0
0
0
0
0
0
0
0
0
0
0
0
0
0
0
0
0
0
0
0
0
0
0
0
0
0
0
0
0
0
0
0
0
0
0
0
0
0
0
0
0
0
0
0
0
0
0
0
0
0
0
0
0
0
0
0
0
0
0
0
0
0
0
0
0
0
254
254
254
254
255
255
253
255
255
253
245
241
229
229
212
207
105
109
108
109
107
121
120
174
177
178
178
178
178
177
177
177
177
178
177
177
178
178
178
178
178
178
178
178
178
178
178
178
177
177
194
201
202
199
202
200
200
200
201
201
201
184
177
176
177
128
126
109
108
108
108
108
105
105
159
252
252
254
254
254
254
254
254
255
254
254
255
255
254
254
254
254
255
255
255
255
255
255
255
255
255
254
254
255
255
255
254
254
254
255
255
255
254
254
254
255
255
254
254
254
254
254
254
254
254
255
255
254
254
254
255
255
255
255
254
255
255
254
254
254
254
252
252
254
248
241
104
103
109
105
106
101
156
154
158
155
156
154
157
157
156
156
156
156
156
156
156
156
156
157
157
157
157
157
156
156
156
156
156
156
156
156
156
158
127
107
106
105
108
107
108
104
105
107
106
105
103
106
104
106
108
104
108
108
107
108
105
103
104
126
158
154
157
159
156
157
157
156
156
156
156
156
157
157
157
157
156
156
156
155
156
154
124
106
104
105
104
106
105
110
104
107
106
105
106
107
103
105
106
104
106
106
106
104
100
120
103
179
224
193
227
231
228
229
230
230
230
229
231
229
229
246
255
255
255
253
253
255
255
254
254
255
254
254
255
252
247
249
204
97
130
95
102
100
101
100
102
102
103
114
107
130
136
137
137
137
137
136
137
138
137
137
137
138
138
137
137
137
136
138
137
138
136
144
163
157
161
159
161
159
155
137
135
138
133
103
103
100
101
102
103
102
118
152
247
251
255
254
253
255
254
254
255
255
254
254
254
254
254
254
254
254
254
254
255
254
254
0
0
0
0
0
0
0
0
0
0
0
0
0
0
0
0
0
0
0
0
0
0
0
0
0
0
0
0
0
0
0
0
0
0
0
0
0
0
0
0
0
0
0
0
0
0
0
0
0
0
0
0
0
0
0
0
0
0
0
0
0
0
0
0
0
0
0
0
0
0
0
0
0
0
0
0
0
0
0
0
0
0
0
0
0
0
0
0
0
0
0
0
0
0
0
0
0
0
0
0
0
0
0
0
0
0
0
0
0
0
0
0
0
0
0
0
0
0
0
0
0
0
0
0
0
0
0
0
0
0
0
0
0
0
0
0
0
0
0
0
0
0
0
0
0
0
0
0
0
0
0
0
0
0
0
0
0
0
0
0
0
0
0
0
0
0
0
0
0
0
0
0
0
0
0
0
0
0
0
0
0
0
0
0
0
0
0
0
0
0
0
0
0
0
0
0
0
0
0
0
0
0
0
254
254
254
255
254
255
255
253
255
255
254
240
240
229
230
202
202
104
109
109
109
108
121
121
174
178
178
178
178
178
177
177
178
178
178
177
177
178
178
178
178
178
178
178
178
178
178
178
178
177
177
195
202
202
199
202
199
199
200
202
202
201
180
176
176
177
122
122
109
108
108
107
107
106
106
163
252
252
255
255
255
255
254
255
255
254
255
255
255
255
254
254
254
255
255
255
255
255
255
255
255
255
254
254
254
254
255
255
255
254
255
255
254
254
254
254
255
254
254
254
254
254
254
254
254
254
255
255
254
254
254
255
255
255
255
255
255
254
254
254
255
255
255
255
251
158
158
102
104
104
106
119
119
157
158
157
157
157
157
157
156
157
156
156
156
156
156
156
156
156
157
157
157
157
156
156
156
156
156
156
156
156
157
157
158
139
107
107
105
106
106
107
106
106
105
106
104
104
105
106
106
105
107
104
104
106
105
105
128
156
157
154
158
156
156
156
156
156
156
156
156
156
156
157
157
155
157
157
157
157
156
156
142
107
107
106
105
105
105
103
102
102
107
102
104
104
105
104
104
101
102
102
104
130
176
176
221
230
230
228
231
230
230
231
230
230
230
232
231
229
249
253
253
255
253
253
255
255
254
254
255
254
254
254
253
244
244
159
92
92
99
104
104
101
102
105
105
105
124
124
138
135
139
139
137
137
137
137
138
139
138
137
138
138
137
137
137
137
138
137
137
136
136
136
152
159
158
158
158
160
160
147
135
135
140
119
101
101
100
102
102
101
97
181
181
249
255
255
254
254
254
254
255
255
255
254
254
254
254
254
254
254
254
255
255
255
254
254
0
0
0
0
0
0
0
0
0
0
0
0
0
0
0
0
0
0
0
0
0
0
0
0
0
0
0
0
0
0
0
0
0
0
0
0
0
0
0
0
0
0
0
0
0
0
0
0
0
0
0
0
0
0
0
0
0
0
0
0
0
0
0
0
0
0
0
0
0
0
0
0
0
0
0
0
0
0
0
0
0
0
0
0
0
0
0
0
0
0
0
0
0
0
0
0
0
0
0
0
0
0
0
0
0
0
0
0
0
0
0
0
0
0
0
0
0
0
0
0
0
0
0
0
0
0
0
0
0
0
0
0
0
0
0
0
0
0
0
0
0
0
0
0
0
0
0
0
0
0
0
0
0
0
0
0
0
0
0
0
0
0
0
0
0
0
0
0
0
0
0
0
0
0
0
0
0
0
0
0
0
0
0
0
0
0
0
0
0
0
0
0
0
0
0
0
0
0
0
0
0
0
254
254
254
254
255
254
255
255
253
254
254
254
239
238
229
232
197
193
104
108
111
106
107
121
121
176
178
178
178
178
178
177
177
178
178
178
177
177
178
178
178
178
178
178
178
178
178
178
178
178
177
177
195
202
200
199
202
199
200
200
202
202
200
179
176
176
178
120
118
108
108
107
107
106
106
106
165
251
251
254
254
254
252
255
254
254
254
255
255
255
255
254
254
254
255
255
255
255
255
254
255
255
255
254
254
254
255
255
255
255
255
254
254
255
255
255
255
255
254
255
254
254
255
255
254
254
254
255
255
254
254
254
254
255
255
254
254
255
255
253
254
251
254
253
249
244
106
104
109
105
108
103
149
154
161
154
156
156
156
156
156
157
157
156
156
156
156
156
156
156
156
156
157
157
157
157
156
156
156
156
156
157
157
157
156
157
147
113
120
106
109
106
106
107
103
107
106
106
107
106
107
106
107
105
107
103
106
131
158
156
157
157
157
157
156
157
156
156
156
156
156
156
156
156
157
156
157
156
156
156
155
156
154
107
106
106
110
106
108
108
105
104
133
130
107
102
151
101
106
191
117
149
227
227
225
230
228
228
229
228
229
228
231
230
232
229
230
235
231
253
254
250
254
254
253
254
254
254
254
254
255
254
254
247
197
232
123
99
97
100
102
101
102
103
102
103
113
135
133
137
138
139
140
137
137
137
137
137
137
139
137
137
138
137
137
137
137
137
138
138
137
139
137
134
136
160
162
162
159
163
159
161
140
135
138
138
112
101
101
101
100
99
98
94
215
237
246
254
254
254
255
255
255
255
255
255
254
254
254
255
255
254
254
254
255
255
254
254
254
0
0
0
0
0
0
0
0
0
0
0
0
0
0
0
0
0
0
0
0
0
0
0
0
0
0
0
0
0
0
0
0
0
0
0
0
0
0
0
0
0
0
0
0
0
0
0
0
0
0
0
0
0
0
0
0
0
0
0
0
0
0
0
0
0
0
0
0
0
0
0
0
0
0
0
0
0
0
0
0
0
0
0
0
0
0
0
0
0
0
0
0
0
0
0
0
0
0
0
0
0
0
0
0
0
0
0
0
0
0
0
0
0
0
0
0
0
0
0
0
0
0
0
0
0
0
0
0
0
0
0
0
0
0
0
0
0
0
0
0
0
0
0
0
0
0
0
0
0
0
0
0
0
0
0
0
0
0
0
0
0
0
0
0
0
0
0
0
0
0
0
0
0
0
0
0
0
0
0
0
0
0
0
0
0
0
0
0
0
0
0
0
0
0
0
0
0
0
0
0
0
254
255
254
254
254
254
253
255
254
255
254
254
254
236
236
229
231
193
191
103
110
110
105
108
121
121
177
177
177
178
178
178
177
177
178
178
178
177
177
178
178
178
178
178
178
178
178
178
178
178
178
177
177
198
200
200
200
201
200
201
201
201
201
201
175
176
176
178
116
116
108
107
107
107
107
106
104
164
252
252
254
255
252
254
254
254
254
254
254
255
255
255
254
254
254
255
255
254
254
254
254
255
255
255
254
254
255
255
255
255
254
254
254
254
255
255
255
255
255
255
255
254
255
255
255
254
254
254
255
255
254
255
255
255
255
254
255
255
255
254
254
254
254
254
254
247
107
104
108
106
108
105
137
154
154
156
156
156
156
156
157
157
157
156
156
156
156
156
156
156
156
156
156
156
157
157
157
156
156
156
156
157
156
156
156
156
156
158
120
142
110
106
105
108
106
106
105
104
107
108
105
104
104
103
112
103
152
156
153
153
158
157
157
157
157
157
157
156
156
156
156
156
156
155
156
155
155
158
154
156
156
153
154
113
107
101
101
103
104
108
190
219
219
219
220
219
151
222
228
191
229
226
227
227
228
230
228
229
229
232
232
229
228
230
231
229
240
240
254
254
254
254
254
254
253
254
254
254
254
255
255
248
243
155
155
95
100
99
99
103
102
103
102
106
106
130
136
135
136
137
138
138
138
137
137
137
137
137
137
137
135
135
137
137
137
137
137
137
137
136
136
139
137
138
146
146
162
160
159
156
160
161
147
134
140
140
137
103
101
100
102
101
101
97
97
237
240
254
254
255
253
255
255
255
254
255
255
255
255
255
255
254
254
254
255
255
255
254
253
254
0
0
0
0
0
0
0
0
0
0
0
0
0
0
0
0
0
0
0
0
0
0
0
0
0
0
0
0
0
0
0
0
0
0
0
0
0
0
0
0
0
0
0
0
0
0
0
0
0
0
0
0
0
0
0
0
0
0
0
0
0
0
0
0
0
0
0
0
0
0
0
0
0
0
0
0
0
0
0
0
0
0
0
0
0
0
0
0
0
0
0
0
0
0
0
0
0
0
0
0
0
0
0
0
0
0
0
0
0
0
0
0
0
0
0
0
0
0
0
0
0
0
0
0
0
0
0
0
0
0
0
0
0
0
0
0
0
0
0
0
0
0
0
0
0
0
0
0
0
0
0
0
0
0
0
0
0
0
0
0
0
0
0
0
0
0
0
0
0
0
0
0
0
0
0
0
0
0
0
0
0
0
0
0
0
0
0
0
0
0
0
0
0
0
0
0
0
0
0
0
254
255
255
254
254
254
254
255
254
254
255
254
254
254
235
234
229
230
185
180
103
108
108
107
108
121
121
175
177
177
178
178
178
177
177
178
178
178
177
177
178
178
178
178
178
178
178
178
178
178
178
178
176
176
198
201
201
200
201
201
201
201
202
202
195
176
175
176
177
115
114
108
108
109
107
106
109
105
164
252
251
254
255
254
254
254
255
255
254
254
255
255
255
254
254
254
255
254
255
254
254
254
255
255
255
254
254
255
255
255
254
254
254
255
255
255
255
255
255
255
254
254
254
255
255
255
254
254
254
255
255
255
255
254
254
255
254
255
254
255
254
253
254
254
253
250
220
104
107
107
107
105
120
157
156
157
156
156
156
156
157
157
157
157
156
156
156
156
156
156
156
156
156
156
156
157
157
157
156
156
156
156
156
156
156
156
157
156
153
154
154
134
113
138
105
104
112
108
105
106
123
104
112
153
135
159
158
157
156
159
157
157
157
157
157
158
157
157
156
157
158
156
157
157
157
156
156
156
158
157
156
156
157
104
107
107
109
109
104
107
226
225
228
231
225
234
227
230
230
227
230
229
231
232
229
229
229
231
227
230
228
232
229
230
230
251
245
254
254
254
254
254
255
252
254
254
254
254
254
253
249
226
96
120
95
102
103
101
102
102
102
103
125
115
136
137
137
137
136
137
138
137
137
137
137
137
136
136
137
137
137
137
137
137
137
137
137
137
136
136
136
137
137
137
134
157
159
161
162
162
162
159
138
133
137
138
139
131
102
100
102
102
102
103
97
124
246
246
253
255
255
251
255
254
254
255
255
254
254
255
255
255
254
254
254
255
255
255
254
254
254
0
0
0
0
0
0
0
0
0
0
0
0
0
0
0
0
0
0
0
0
0
0
0
0
0
0
0
0
0
0
0
0
0
0
0
0
0
0
0
0
0
0
0
0
0
0
0
0
0
0
0
0
0
0
0
0
0
0
0
0
0
0
0
0
0
0
0
0
0
0
0
0
0
0
0
0
0
0
0
0
0
0
0
0
0
0
0
0
0
0
0
0
0
0
0
0
0
0
0
0
0
0
0
0
0
0
0
0
0
0
0
0
0
0
0
0
0
0
0
0
0
0
0
0
0
0
0
0
0
0
0
0
0
0
0
0
0
0
0
0
0
0
0
0
0
0
0
0
0
0
0
0
0
0
0
0
0
0
0
0
0
0
0
0
0
0
0
0
0
0
0
0
0
0
0
0
0
0
0
0
0
0
0
0
0
0
0
0
0
0
0
0
0
0
0
0
0
0
0
254
255
255
255
254
254
254
255
255
254
254
254
254
254
254
234
233
232
231
180
173
106
108
106
110
107
121
122
176
177
177
178
178
178
177
177
178
178
178
177
177
178
178
178
178
178
178
178
178
178
178
178
179
176
178
199
201
201
200
199
201
200
201
202
202
184
179
176
177
174
114
113
108
109
107
107
105
105
103
209
251
253
255
253
254
254
255
255
255
254
254
255
255
255
254
254
254
254
255
255
254
254
254
255
255
255
254
254
255
255
255
254
254
254
255
255
255
255
255
255
255
254
254
254
255
255
255
254
254
254
255
255
254
254
255
255
255
254
254
254
255
255
254
254
254
250
243
103
106
107
106
107
120
149
157
157
157
156
156
156
156
157
157
156
157
156
156
156
156
156
156
156
156
156
156
156
157
156
156
156
156
156
156
156
156
157
157
156
158
156
155
157
157
138
155
154
112
148
150
149
123
154
157
153
156
155
157
157
156
156
157
157
157
157
156
157
157
157
156
157
158
156
154
156
157
155
156
156
155
157
157
157
156
106
107
105
106
109
108
101
226
225
232
227
225
233
231
229
230
231
232
229
229
230
229
231
229
228
227
231
231
232
229
243
254
251
254
254
254
254
253
254
255
255
254
254
253
251
254
242
158
93
96
97
102
102
101
101
102
103
110
132
125
136
137
137
137
138
137
137
137
137
137
137
137
136
136
136
137
137
137
136
137
137
137
137
137
136
136
136
137
138
137
137
135
150
159
157
157
161
161
159
142
133
136
139
139
139
113
103
102
102
101
103
103
95
162
249
251
254
255
254
254
254
254
255
254
254
254
255
255
255
254
254
254
255
255
255
254
254
254
254
0
0
0
0
0
0
0
0
0
0
0
0
0
0
0
0
0
0
0
0
0
0
0
0
0
0
0
0
0
0
0
0
0
0
0
0
0
0
0
0
0
0
0
0
0
0
0
0
0
0
0
0
0
0
0
0
0
0
0
0
0
0
0
0
0
0
0
0
0
0
0
0
0
0
0
0
0
0
0
0
0
0
0
0
0
0
0
0
0
0
0
0
0
0
0
0
0
0
0
0
0
0
0
0
0
0
0
0
0
0
0
0
0
0
0
0
0
0
0
0
0
0
0
0
0
0
0
0
0
0
0
0
0
0
0
0
0
0
0
0
0
0
0
0
0
0
0
0
0
0
0
0
0
0
0
0
0
0
0
0
0
0
0
0
0
0
0
0
0
0
0
0
0
0
0
0
0
0
0
0
0
0
0
0
0
0
0
0
0
0
0
0
0
0
0
0
0
0
254
254
255
255
255
254
254
254
255
255
255
255
254
254
254
255
231
230
230
229
167
167
107
107
108
109
106
123
123
177
177
177
178
178
178
177
177
178
178
178
177
177
178
178
178
178
178
178
178
178
178
178
178
178
179
179
199
201
201
200
199
200
200
201
202
201
179
179
178
178
170
112
112
108
110
108
108
105
99
99
241
253
253
255
254
254
254
255
255
255
254
254
255
255
254
254
254
254
255
255
255
254
254
254
255
255
255
255
254
255
255
255
254
254
254
254
254
255
255
254
254
255
254
254
254
255
255
255
254
255
255
255
254
254
254
255
254
254
254
255
255
255
255
252
252
250
168
168
101
106
107
107
107
157
157
157
157
156
156
156
156
156
156
156
156
157
156
156
156
156
156
156
156
156
157
156
156
156
156
156
156
157
156
156
156
156
156
156
156
154
155
154
154
158
153
153
158
153
156
154
157
156
156
157
159
157
156
157
156
156
156
157
157
156
156
156
157
157
156
156
158
157
165
163
157
155
155
155
156
156
155
158
134
134
106
104
104
103
102
104
163
229
232
232
231
228
228
231
224
227
227
229
231
231
231
227
231
233
231
229
229
235
250
253
254
254
255
255
254
254
254
255
255
252
254
252
246
246
221
118
98
98
97
103
103
99
101
101
103
118
137
137
135
137
137
137
137
137
137
137
137
137
137
137
136
136
136
137
137
137
137
137
137
137
136
137
137
136
136
137
137
135
136
135
136
136
165
158
158
162
160
161
161
135
136
136
138
138
137
109
103
103
103
100
101
101
94
238
254
254
254
254
254
254
255
255
255
254
255
255
255
255
255
254
255
255
255
254
254
254
254
254
254
0
0
0
0
0
0
0
0
0
0
0
0
0
0
0
0
0
0
0
0
0
0
0
0
0
0
0
0
0
0
0
0
0
0
0
0
0
0
0
0
0
0
0
0
0
0
0
0
0
0
0
0
0
0
0
0
0
0
0
0
0
0
0
0
0
0
0
0
0
0
0
0
0
0
0
0
0
0
0
0
0
0
0
0
0
0
0
0
0
0
0
0
0
0
0
0
0
0
0
0
0
0
0
0
0
0
0
0
0
0
0
0
0
0
0
0
0
0
0
0
0
0
0
0
0
0
0
0
0
0
0
0
0
0
0
0
0
0
0
0
0
0
0
0
0
0
0
0
0
0
0
0
0
0
0
0
0
0
0
0
0
0
0
0
0
0
0
0
0
0
0
0
0
0
0
0
0
0
0
0
0
0
0
0
0
0
0
0
0
0
0
0
0
0
0
0
0
254
254
254
255
254
255
254
254
254
255
254
255
255
253
254
253
254
230
231
229
230
162
152
105
108
109
108
107
125
128
178
178
177
178
178
178
177
177
177
178
178
177
177
178
178
178
178
178
178
178
178
178
178
178
177
180
183
201
201
201
201
201
199
200
201
201
197
175
177
179
181
167
109
108
109
108
110
107
110
102
157
252
253
254
253
254
254
253
255
255
255
254
254
255
254
254
254
254
254
255
255
255
254
254
254
255
255
255
254
254
255
255
255
254
254
254
254
254
255
255
254
254
255
254
254
254
255
255
255
254
254
254
254
255
254
254
254
255
255
255
255
255
255
255
255
253
249
109
109
106
108
106
102
135
156
156
156
156
156
156
156
156
157
156
156
156
157
156
156
156
156
157
157
157
157
156
156
156
156
157
157
157
156
156
156
157
157
156
156
156
157
158
154
160
157
155
157
157
156
158
157
156
157
156
156
157
156
157
157
156
156
156
157
157
156
156
157
157
157
158
153
161
165
184
182
159
157
157
156
158
157
159
151
103
105
105
105
108
104
104
148
230
226
229
232
230
231
232
230
232
230
231
228
232
229
227
231
230
241
233
245
254
254
253
253
254
254
253
254
254
254
253
254
252
247
224
242
174
96
101
98
100
101
103
101
103
104
105
135
137
137
136
137
137
137
137
137
137
137
137
137
137
137
137
136
137
137
137
137
137
137
137
136
137
136
137
137
137
137
137
136
135
138
133
135
152
162
161
161
159
157
160
143
133
135
140
136
137
137
131
104
102
103
101
103
98
100
163
246
254
255
253
254
253
254
255
255
255
254
255
255
255
255
255
255
255
254
254
254
255
255
254
254
254
0
0
0
0
0
0
0
0
0
0
0
0
0
0
0
0
0
0
0
0
0
0
0
0
0
0
0
0
0
0
0
0
0
0
0
0
0
0
0
0
0
0
0
0
0
0
0
0
0
0
0
0
0
0
0
0
0
0
0
0
0
0
0
0
0
0
0
0
0
0
0
0
0
0
0
0
0
0
0
0
0
0
0
0
0
0
0
0
0
0
0
0
0
0
0
0
0
0
0
0
0
0
0
0
0
0
0
0
0
0
0
0
0
0
0
0
0
0
0
0
0
0
0
0
0
0
0
0
0
0
0
0
0
0
0
0
0
0
0
0
0
0
0
0
0
0
0
0
0
0
0
0
0
0
0
0
0
0
0
0
0
0
0
0
0
0
0
0
0
0
0
0
0
0
0
0
0
0
0
0
0
0
0
0
0
0
0
0
0
0
0
0
0
0
0
0
254
254
254
254
254
255
255
254
254
254
255
254
255
255
255
255
255
254
230
230
228
233
140
140
104
109
109
109
106
128
133
175
177
177
178
178
178
177
177
178
178
178
177
177
178
178
178
178
178
178
178
178
178
178
178
176
184
184
201
200
200
200
200
201
201
201
189
189
176
176
181
177
139
108
108
106
107
107
108
103
235
235
252
254
254
254
254
253
254
255
255
255
254
254
254
254
254
254
254
254
255
255
255
254
254
254
255
255
255
254
254
255
255
254
254
254
254
254
254
254
254
254
254
255
254
254
254
254
255
255
255
254
254
255
254
254
254
255
255
255
255
254
254
255
254
253
250
137
103
103
105
109
102
110
157
157
157
156
156
156
157
157
157
157
156
156
156
157
156
156
156
157
156
156
157
156
156
156
156
157
157
156
156
156
156
157
157
156
156
156
156
156
151
160
154
156
157
157
157
157
157
156
159
154
154
157
157
157
157
157
156
156
156
157
157
157
157
157
155
158
157
157
172
183
183
169
157
157
155
157
153
153
156
107
105
111
105
104
104
103
221
221
229
231
232
227
229
229
229
232
231
231
229
228
232
232
245
252
252
254
254
254
254
254
255
255
254
254
254
255
254
253
253
246
184
184
95
96
102
102
101
101
101
101
103
103
122
137
137
137
136
136
137
137
137
137
137
137
137
137
137
137
137
137
137
137
137
137
137
137
137
137
137
137
138
137
137
137
136
135
135
135
138
138
159
161
162
162
159
162
162
161
140
133
137
139
137
137
137
125
125
104
105
101
105
99
92
92
226
251
255
254
254
254
254
254
255
255
255
254
255
255
254
254
254
254
254
254
254
254
255
255
254
254
254
0
0
0
0
0
0
0
0
0
0
0
0
0
0
0
0
0
0
0
0
0
0
0
0
0
0
0
0
0
0
0
0
0
0
0
0
0
0
0
0
0
0
0
0
0
0
0
0
0
0
0
0
0
0
0
0
0
0
0
0
0
0
0
0
0
0
0
0
0
0
0
0
0
0
0
0
0
0
0
0
0
0
0
0
0
0
0
0
0
0
0
0
0
0
0
0
0
0
0
0
0
0
0
0
0
0
0
0
0
0
0
0
0
0
0
0
0
0
0
0
0
0
0
0
0
0
0
0
0
0
0
0
0
0
0
0
0
0
0
0
0
0
0
0
0
0
0
0
0
0
0
0
0
0
0
0
0
0
0
0
0
0
0
0
0
0
0
0
0
0
0
0
0
0
0
0
0
0
0
0
0
0
0
0
0
0
0
0
0
0
0
0
0
0
0
255
254
254
254
254
255
255
254
254
254
254
255
254
255
253
253
255
252
255
233
234
229
232
132
124
106
104
112
107
108
142
162
177
178
178
178
177
178
177
177
178
178
178
177
176
178
178
178
178
178
178
178
178
178
178
178
177
185
195
202
200
201
202
201
201
202
201
179
173
177
180
177
174
118
107
112
108
106
108
105
113
251
253
253
254
254
254
254
254
254
255
255
255
254
254
254
254
254
254
254
254
255
255
255
254
254
254
255
255
254
254
254
255
254
254
254
254
254
254
254
255
254
255
255
255
254
254
254
255
255
255
254
254
254
255
254
254
254
254
255
255
255
254
254
255
253
243
200
101
107
105
104
107
134
156
156
156
157
156
157
156
156
157
157
157
156
156
157
157
156
156
156
156
156
156
156
156
156
156
156
156
156
156
156
156
157
157
156
156
156
156
157
156
159
156
157
156
156
156
156
156
157
157
155
158
156
157
157
157
157
157
157
157
156
157
157
157
157
156
156
156
159
178
183
182
181
158
157
155
159
155
157
158
139
101
105
105
107
106
103
143
228
234
229
230
229
237
231
226
243
227
234
237
254
245
254
253
251
254
252
252
254
255
254
255
254
254
254
254
249
246
247
232
99
130
94
97
100
102
101
101
101
102
114
107
132
136
138
137
135
138
137
139
139
136
137
137
137
137
137
137
137
137
137
137
137
137
137
137
137
137
137
137
136
137
135
136
134
141
135
140
161
152
162
159
159
162
157
161
158
159
160
155
138
138
136
137
139
133
136
121
112
106
103
102
103
98
104
188
244
255
253
255
255
254
254
254
255
255
255
254
254
253
254
254
254
254
254
254
254
254
255
254
254
254
254
0
0
0
0
0
0
0
0
0
0
0
0
0
0
0
0
0
0
0
0
0
0
0
0
0
0
0
0
0
0
0
0
0
0
0
0
0
0
0
0
0
0
0
0
0
0
0
0
0
0
0
0
0
0
0
0
0
0
0
0
0
0
0
0
0
0
0
0
0
0
0
0
0
0
0
0
0
0
0
0
0
0
0
0
0
0
0
0
0
0
0
0
0
0
0
0
0
0
0
0
0
0
0
0
0
0
0
0
0
0
0
0
0
0
0
0
0
0
0
0
0
0
0
0
0
0
0
0
0
0
0
0
0
0
0
0
0
0
0
0
0
0
0
0
0
0
0
0
0
0
0
0
0
0
0
0
0
0
0
0
0
0
0
0
0
0
0
0
0
0
0
0
0
0
0
0
0
0
0
0
0
0
0
0
0
0
0
0
0
0
0
0
0
0
255
254
254
254
255
255
254
254
254
254
254
254
254
254
253
252
255
252
255
250
228
228
232
237
124
139
109
112
111
110
114
162
175
178
178
178
178
178
178
178
177
178
178
178
176
176
178
178
178
178
178
178
178
178
178
178
177
174
195
196
201
201
201
200
199
202
202
192
173
174
176
172
174
137
104
112
107
108
107
107
104
248
253
253
254
254
253
254
254
254
253
254
255
255
254
254
254
255
255
254
254
254
255
255
254
254
254
254
254
254
254
254
255
254
254
254
254
254
254
254
254
255
255
255
255
254
254
254
254
255
255
254
254
254
254
255
255
254
254
254
255
255
255
254
254
254
248
200
124
103
105
108
106
111
156
158
157
157
156
157
156
156
156
157
157
157
156
157
157
157
156
156
156
156
156
156
156
156
156
156
156
156
156
156
156
157
157
156
156
156
156
157
157
157
157
157
157
156
156
156
157
157
157
157
156
156
157
157
157
157
157
157
157
157
157
157
155
155
157
157
156
164
178
186
183
181
170
157
154
159
157
154
158
139
105
108
105
106
105
103
142
236
234
253
253
253
237
253
255
243
255
255
254
254
252
255
253
254
255
254
254
255
255
254
255
254
254
253
249
234
246
143
93
99
99
99
100
100
102
102
101
102
122
114
136
135
138
138
137
139
138
136
137
137
136
137
137
137
137
137
137
137
137
137
137
137
135
137
137
137
137
137
137
137
137
135
136
149
149
160
160
161
159
160
159
161
160
159
161
160
158
160
143
137
135
136
135
137
133
137
134
112
103
104
101
103
97
92
188
245
254
255
255
255
255
254
254
254
255
255
255
254
253
254
254
254
255
255
254
254
254
254
254
254
255
254
253
0
0
0
0
0
0
0
0
0
0
0
0
0
0
0
0
0
0
0
0
0
0
0
0
0
0
0
0
0
0
0
0
0
0
0
0
0
0
0
0
0
0
0
0
0
0
0
0
0
0
0
0
0
0
0
0
0
0
0
0
0
0
0
0
0
0
0
0
0
0
0
0
0
0
0
0
0
0
0
0
0
0
0
0
0
0
0
0
0
0
0
0
0
0
0
0
0
0
0
0
0
0
0
0
0
0
0
0
0
0
0
0
0
0
0
0
0
0
0
0
0
0
0
0
0
0
0
0
0
0
0
0
0
0
0
0
0
0
0
0
0
0
0
0
0
0
0
0
0
0
0
0
0
0
0
0
0
0
0
0
0
0
0
0
0
0
0
0
0
0
0
0
0
0
0
0
0
0
0
0
0
0
0
0
0
0
0
0
0
0
0
0
0
254
254
254
254
255
254
255
254
255
255
254
252
255
255
254
255
255
255
251
253
252
231
186
235
197
115
115
108
110
110
107
133
178
178
177
178
178
178
178
178
178
177
178
178
178
177
177
178
178
178
178
178
178
178
178
178
177
177
178
200
203
201
200
202
199
200
200
200
179
179
176
181
175
106
106
107
108
105
111
106
103
197
253
254
254
254
253
254
254
254
254
254
254
255
255
254
254
255
255
255
254
254
255
255
255
254
254
254
254
254
254
254
254
254
255
255
255
254
254
254
255
255
255
255
255
255
254
254
254
254
255
254
254
254
254
255
255
255
254
254
254
255
255
254
254
254
254
242
107
107
106
108
106
105
130
156
156
154
156
156
157
156
156
156
157
156
156
156
157
156
156
156
156
156
156
156
156
156
156
156
156
156
156
156
156
157
157
157
156
156
156
157
157
157
156
157
157
157
156
157
157
157
156
156
156
156
157
157
157
157
157
157
157
157
157
156
158
156
156
157
157
156
182
184
184
180
158
155
156
157
156
156
158
109
102
107
105
107
107
101
221
221
251
249
255
254
254
251
251
254
252
255
253
254
255
255
254
255
254
255
255
253
255
255
254
254
251
246
157
207
105
96
96
99
101
102
101
103
102
103
107
129
129
137
139
137
137
137
138
138
136
138
138
137
137
137
137
137
137
137
137
137
137
137
137
136
136
138
136
139
138
137
136
136
133
147
161
161
163
162
158
161
161
161
160
159
161
161
160
162
162
149
138
137
138
137
136
136
136
129
129
109
102
102
101
104
93
93
174
251
254
254
255
255
255
255
254
254
254
255
255
255
255
254
254
254
255
255
255
254
254
254
254
254
255
254
253
254
0
0
0
0
0
0
0
0
0
0
0
0
0
0
0
0
0
0
0
0
0
0
0
0
0
0
0
0
0
0
0
0
0
0
0
0
0
0
0
0
0
0
0
0
0
0
0
0
0
0
0
0
0
0
0
0
0
0
0
0
0
0
0
0
0
0
0
0
0
0
0
0
0
0
0
0
0
0
0
0
0
0
0
0
0
0
0
0
0
0
0
0
0
0
0
0
0
0
0
0
0
0
0
0
0
0
0
0
0
0
0
0
0
0
0
0
0
0
0
0
0
0
0
0
0
0
0
0
0
0
0
0
0
0
0
0
0
0
0
0
0
0
0
0
0
0
0
0
0
0
0
0
0
0
0
0
0
0
0
0
0
0
0
0
0
0
0
0
0
0
0
0
0
0
0
0
0
0
0
0
0
0
0
0
0
0
0
0
0
0
0
0
255
253
254
255
254
254
254
254
255
255
253
252
255
253
253
254
253
251
237
253
179
124
186
102
107
111
110
108
108
110
108
133
171
178
176
179
178
178
178
178
178
178
177
178
178
178
177
177
178
178
178
178
178
178
178
179
177
177
177
199
203
202
201
202
203
202
202
198
186
175
176
178
176
138
109
111
110
105
106
106
103
205
253
253
255
254
254
254
254
255
255
254
254
255
255
254
254
254
255
255
255
254
254
255
255
255
255
254
254
255
255
254
255
255
254
255
255
255
254
254
254
255
255
255
255
254
254
255
254
255
254
254
254
255
255
255
254
255
255
254
254
254
255
255
254
254
251
249
185
102
104
104
106
106
111
149
157
156
158
156
156
157
156
156
156
156
156
156
156
156
156
156
157
157
157
156
156
156
156
156
156
156
156
156
157
157
157
157
157
156
156
157
156
157
156
156
157
157
156
157
157
156
156
156
157
156
156
157
157
157
157
157
157
157
157
157
156
156
157
158
157
158
182
183
184
184
167
155
157
158
158
155
158
104
102
108
105
107
106
104
145
234
245
252
255
255
255
255
255
255
254
255
254
253
255
254
254
254
254
254
254
253
254
250
251
249
222
113
157
97
98
96
101
102
103
102
104
103
102
123
137
136
137
137
137
137
137
138
137
136
138
138
138
137
137
137
137
137
137
137
137
137
137
137
138
136
141
133
140
139
137
135
135
138
161
159
161
160
159
162
159
158
159
159
160
160
161
159
160
159
147
136
136
137
136
138
136
131
103
116
102
103
102
102
105
100
102
94
210
251
254
252
255
255
255
255
255
254
254
254
255
254
255
255
254
254
255
255
255
254
254
255
253
254
255
255
254
254
255
0
0
0
0
0
0
0
0
0
0
0
0
0
0
0
0
0
0
0
0
0
0
0
0
0
0
0
0
0
0
0
0
0
0
0
0
0
0
0
0
0
0
0
0
0
0
0
0
0
0
0
0
0
0
0
0
0
0
0
0
0
0
0
0
0
0
0
0
0
0
0
0
0
0
0
0
0
0
0
0
0
0
0
0
0
0
0
0
0
0
0
0
0
0
0
0
0
0
0
0
0
0
0
0
0
0
0
0
0
0
0
0
0
0
0
0
0
0
0
0
0
0
0
0
0
0
0
0
0
0
0
0
0
0
0
0
0
0
0
0
0
0
0
0
0
0
0
0
0
0
0
0
0
0
0
0
0
0
0
0
0
0
0
0
0
0
0
0
0
0
0
0
0
0
0
0
0
0
0
0
0
0
0
0
0
0
0
0
0
0
0
255
254
254
254
254
253
254
254
254
254
253
253
254
253
253
251
220
159
159
113
102
102
105
111
111
108
106
106
106
106
112
112
175
177
178
178
177
178
178
178
178
178
178
178
178
178
178
177
177
178
178
178
178
178
178
178
179
176
180
180
201
201
201
201
202
202
201
203
175
175
177
175
175
116
105
107
107
107
105
105
110
249
249
254
253
254
254
254
254
254
255
255
254
254
254
254
254
254
254
255
255
255
254
254
255
255
255
255
255
255
255
255
255
255
255
254
255
255
255
254
254
254
254
254
255
254
254
254
255
255
255
254
255
255
255
254
254
254
255
255
254
254
254
255
255
255
252
252
239
101
106
106
105
105
105
118
156
157
157
158
156
156
157
156
156
156
156
156
156
156
156
156
156
157
156
156
156
156
156
156
156
156
156
157
157
157
157
157
157
156
157
156
156
156
156
156
156
156
156
156
157
156
156
157
157
157
156
157
157
157
157
157
157
157
157
156
156
156
157
157
154
178
178
182
181
182
182
154
159
159
154
156
129
129
106
106
106
108
106
104
150
232
254
254
252
252
252
254
255
254
254
254
253
253
254
255
254
254
254
255
255
253
250
250
244
176
97
97
100
99
99
103
102
103
103
104
106
106
131
137
137
138
137
137
137
137
139
139
138
137
137
137
137
137
137
136
136
137
137
137
137
137
137
139
139
136
137
138
138
137
138
138
159
160
159
159
160
160
160
161
160
160
158
161
160
160
161
160
160
144
136
135
135
136
127
127
106
104
103
107
102
103
103
100
101
101
98
144
243
243
255
252
252
253
255
255
255
255
254
254
254
254
254
255
254
254
254
254
254
254
254
253
254
254
254
255
255
255
255
254
0
0
0
0
0
0
0
0
0
0
0
0
0
0
0
0
0
0
0
0
0
0
0
0
0
0
0
0
0
0
0
0
0
0
0
0
0
0
0
0
0
0
0
0
0
0
0
0
0
0
0
0
0
0
0
0
0
0
0
0
0
0
0
0
0
0
0
0
0
0
0
0
0
0
0
0
0
0
0
0
0
0
0
0
0
0
0
0
0
0
0
0
0
0
0
0
0
0
0
0
0
0
0
0
0
0
0
0
0
0
0
0
0
0
0
0
0
0
0
0
0
0
0
0
0
0
0
0
0
0
0
0
0
0
0
0
0
0
0
0
0
0
0
0
0
0
0
0
0
0
0
0
0
0
0
0
0
0
0
0
0
0
0
0
0
0
0
0
0
0
0
0
0
0
0
0
0
0
0
0
0
0
0
0
0
0
0
0
0
0
255
253
252
254
253
254
254
254
253
250
254
251
177
243
195
101
103
109
104
108
108
111
107
109
110
106
108
105
107
109
106
167
178
178
177
178
179
177
178
178
177
178
177
177
178
178
178
178
177
177
178
178
178
179
177
179
178
177
178
193
204
199
201
201
200
200
201
204
189
180
175
178
161
108
107
110
108
109
111
105
140
214
253
252
254
254
254
255
254
254
254
254
255
254
254
254
254
254
254
254
255
255
255
254
254
255
255
255
255
255
255
255
255
255
255
255
254
255
255
255
254
254
254
254
254
254
254
254
254
255
254
254
255
255
254
254
254
255
255
255
255
254
254
254
253
254
254
252
248
134
102
106
105
105
105
105
149
157
157
157
156
157
157
157
156
156
156
156
156
156
156
156
156
157
157
156
156
156
157
157
156
156
156
157
157
157
157
157
157
157
157
156
156
156
156
156
156
156
156
157
156
156
156
156
157
156
157
157
157
157
157
157
156
156
156
157
156
156
156
158
156
168
184
184
179
184
169
157
153
155
155
158
157
104
105
106
102
111
102
106
226
233
250
252
254
254
254
253
255
255
254
253
253
254
254
254
253
254
254
255
253
247
248
229
98
95
97
98
102
101
102
102
102
103
103
121
111
136
137
137
138
137
137
137
137
137
137
138
138
137
137
137
136
136
136
137
137
137
137
137
137
137
136
137
135
137
137
138
137
135
140
161
159
160
159
160
159
160
160
158
159
161
159
159
158
162
144
155
139
137
132
135
132
104
112
103
102
106
103
102
99
102
98
101
99
93
126
225
230
252
255
255
255
255
255
255
255
255
255
254
254
254
254
254
255
254
254
254
254
254
254
254
254
254
254
255
255
255
255
254
254
0
0
0
0
0
0
0
0
0
0
0
0
0
0
0
0
0
0
0
0
0
0
0
0
0
0
0
0
0
0
0
0
0
0
0
0
0
0
0
0
0
0
0
0
0
0
0
0
0
0
0
0
0
0
0
0
0
0
0
0
0
0
0
0
0
0
0
0
0
0
0
0
0
0
0
0
0
0
0
0
0
0
0
0
0
0
0
0
0
0
0
0
0
0
0
0
0
0
0
0
0
0
0
0
0
0
0
0
0
0
0
0
0
0
0
0
0
0
0
0
0
0
0
0
0
0
0
0
0
0
0
0
0
0
0
0
0
0
0
0
0
0
0
0
0
0
0
0
0
0
0
0
0
0
0
0
0
0
0
0
0
0
0
0
0
0
0
0
0
0
0
0
0
0
0
0
0
0
0
0
0
0
0
0
0
0
0
0
0
255
254
252
254
254
254
253
249
220
220
160
107
177
103
106
108
108
110
106
108
108
105
107
108
111
105
105
107
109
109
159
176
179
179
177
179
179
179
179
178
177
177
177
177
177
178
178
178
177
177
177
178
180
179
176
180
178
178
175
195
204
202
202
201
202
204
201
201
188
177
175
175
132
108
108
110
112
109
104
103
140
229
243
253
253
254
254
255
255
254
254
254
255
255
254
254
254
254
255
255
254
255
255
254
254
254
255
255
255
255
255
255
255
255
255
255
255
254
255
255
254
254
254
254
254
254
254
254
254
254
255
255
255
254
254
254
255
255
255
254
254
255
254
254
254
254
255
255
238
238
103
107
105
107
105
111
111
157
157
157
156
156
157
157
157
156
156
156
156
156
156
156
156
156
157
157
156
156
157
157
156
156
156
156
157
157
157
157
157
157
157
156
156
156
156
156
157
157
156
156
156
157
156
156
156
157
157
157
157
157
157
156
157
156
156
157
156
156
156
157
156
175
182
183
183
184
173
157
156
158
158
158
153
105
105
107
106
111
105
108
228
233
247
254
254
254
254
254
254
255
255
253
254
254
255
255
255
254
254
253
244
247
157
96
97
97
101
101
102
99
103
102
102
106
127
121
137
135
137
137
137
137
137
137
137
137
137
137
138
138
138
137
136
136
137
137
137
137
137
137
137
137
136
137
138
137
137
137
134
135
158
160
159
159
160
158
159
158
160
158
160
161
161
161
149
136
144
136
138
124
124
108
103
104
104
103
102
103
102
101
99
100
98
101
89
138
226
226
227
242
255
254
253
255
255
255
255
255
255
255
254
254
254
255
255
255
254
254
254
254
254
254
254
254
254
254
255
255
255
254
254
254
0
0
0
0
0
0
0
0
0
0
0
0
0
0
0
0
0
0
0
0
0
0
0
0
0
0
0
0
0
0
0
0
0
0
0
0
0
0
0
0
0
0
0
0
0
0
0
0
0
0
0
0
0
0
0
0
0
0
0
0
0
0
0
0
0
0
0
0
0
0
0
0
0
0
0
0
0
0
0
0
0
0
0
0
0
0
0
0
0
0
0
0
0
0
0
0
0
0
0
0
0
0
0
0
0
0
0
0
0
0
0
0
0
0
0
0
0
0
0
0
0
0
0
0
0
0
0
0
0
0
0
0
0
0
0
0
0
0
0
0
0
0
0
0
0
0
0
0
0
0
0
0
0
0
0
0
0
0
0
0
0
0
0
0
0
0
0
0
0
0
0
0
0
0
0
0
0
0
0
0
0
0
0
0
0
0
0
0
253
252
252
252
252
246
204
105
144
107
107
106
106
105
107
110
108
109
108
109
107
107
111
107
109
111
109
138
117
164
176
178
179
177
178
179
178
177
177
178
178
178
177
177
177
177
178
178
178
177
177
178
179
177
180
176
176
175
178
184
203
200
200
201
198
204
198
201
187
173
178
169
115
107
108
109
106
110
108
108
179
232
234
254
253
255
254
255
255
254
254
254
254
255
254
254
254
254
255
255
255
254
255
255
254
254
254
255
255
255
255
255
255
255
255
255
255
255
254
255
255
255
254
254
254
254
254
254
255
255
255
254
254
254
254
255
255
255
254
254
255
255
255
252
252
254
254
252
254
209
159
99
107
107
106
106
122
137
159
157
155
155
157
155
157
156
156
156
156
156
157
157
156
156
156
157
156
156
156
156
156
156
156
156
156
157
157
157
157
157
157
156
156
156
156
156
157
157
156
156
157
157
157
156
156
157
157
157
157
156
155
156
157
157
157
157
157
156
157
157
160
184
182
186
182
184
186
158
158
156
154
157
146
114
107
105
105
106
102
115
186
228
254
254
254
254
254
254
255
254
254
255
255
255
254
254
252
253
251
233
233
121
96
100
98
101
101
101
100
103
103
102
111
138
135
137
137
137
137
137
137
137
137
137
137
137
137
137
137
138
138
138
136
137
136
137
136
137
137
137
136
136
136
137
138
139
138
140
136
147
164
157
159
160
159
158
160
160
160
161
161
144
155
139
136
134
138
133
103
112
100
104
105
104
103
103
103
102
95
99
100
93
93
94
172
227
226
231
229
230
252
253
255
255
254
255
253
254
255
255
255
254
254
254
255
255
255
254
254
254
254
254
254
254
254
254
254
254
254
255
254
254
254
0
0
0
0
0
0
0
0
0
0
0
0
0
0
0
0
0
0
0
0
0
0
0
0
0
0
0
0
0
0
0
0
0
0
0
0
0
0
0
0
0
0
0
0
0
0
0
0
0
0
0
0
0
0
0
0
0
0
0
0
0
0
0
0
0
0
0
0
0
0
0
0
0
0
0
0
0
0
0
0
0
0
0
0
0
0
0
0
0
0
0
0
0
0
0
0
0
0
0
0
0
0
0
0
0
0
0
0
0
0
0
0
0
0
0
0
0
0
0
0
0
0
0
0
0
0
0
0
0
0
0
0
0
0
0
0
0
0
0
0
0
0
0
0
0
0
0
0
0
0
0
0
0
0
0
0
0
0
0
0
0
0
0
0
0
0
0
0
0
0
0
0
0
0
0
0
0
0
0
0
0
0
0
0
0
0
0
253
212
154
233
179
104
106
105
103
104
107
110
105
110
107
110
109
109
108
108
108
106
108
110
109
133
167
138
176
176
177
178
177
179
178
178
178
177
178
178
178
178
178
178
177
177
177
178
178
177
178
178
177
179
177
176
178
177
178
193
201
200
200
203
203
204
201
205
187
175
176
148
115
110
109
109
108
106
110
115
220
233
234
252
255
255
254
254
254
254
255
254
254
254
254
254
254
254
255
255
255
254
254
254
254
254
254
255
255
255
255
255
254
255
254
255
255
255
254
254
255
255
255
254
254
254
254
254
255
255
255
255
254
254
255
255
255
254
254
254
255
255
255
254
254
254
251
252
252
240
159
113
105
106
106
105
105
137
150
154
157
156
156
156
157
156
156
156
156
156
157
157
157
156
156
157
157
156
156
156
156
156
156
156
156
156
157
156
157
157
157
156
156
156
156
156
156
156
156
156
156
157
156
157
157
157
157
157
157
156
157
156
157
156
157
157
157
156
156
158
176
181
182
183
181
184
183
158
159
156
157
154
146
106
105
104
104
108
101
115
214
231
249
254
253
255
254
255
253
254
254
255
254
255
255
251
252
246
178
208
101
100
101
100
103
100
101
100
103
105
103
126
137
138
137
136
136
137
137
137
137
137
137
137
137
137
137
137
137
137
138
137
136
136
136
136
138
137
137
139
135
135
138
136
138
138
137
140
135
142
163
157
159
160
159
161
160
160
161
150
135
144
135
133
136
125
108
102
103
101
101
104
103
102
101
102
99
98
95
96
142
97
145
226
227
227
232
231
229
227
249
254
255
255
254
255
255
254
254
255
255
255
254
254
254
255
255
255
254
254
254
254
254
255
255
254
254
254
255
255
255
254
254
254
0
0
0
0
0
0
0
0
0
0
0
0
0
0
0
0
0
0
0
0
0
0
0
0
0
0
0
0
0
0
0
0
0
0
0
0
0
0
0
0
0
0
0
0
0
0
0
0
0
0
0
0
0
0
0
0
0
0
0
0
0
0
0
0
0
0
0
0
0
0
0
0
0
0
0
0
0
0
0
0
0
0
0
0
0
0
0
0
0
0
0
0
0
0
0
0
0
0
0
0
0
0
0
0
0
0
0
0
0
0
0
0
0
0
0
0
0
0
0
0
0
0
0
0
0
0
0
0
0
0
0
0
0
0
0
0
0
0
0
0
0
0
0
0
0
0
0
0
0
0
0
0
0
0
0
0
0
0
0
0
0
0
0
0
0
0
0
0
0
0
0
0
0
0
0
0
0
0
0
0
0
0
0
0
0
0
130
106
106
101
105
110
110
104
110
110
110
107
112
108
104
108
108
108
109
109
106
109
132
132
166
175
175
178
176
178
177
177
180
180
178
179
179
179
178
178
178
178
178
178
178
177
177
177
177
177
177
177
177
177
179
178
178
178
181
202
202
200
201
200
200
203
204
204
181
178
177
174
107
111
111
107
109
109
104
155
227
227
235
255
255
254
255
254
254
255
255
255
254
254
254
255
255
254
254
255
255
255
254
254
254
254
255
255
255
254
255
255
255
254
254
254
255
255
255
254
254
255
255
255
254
254
254
254
254
254
255
255
255
255
255
255
255
254
255
255
255
255
255
255
254
254
254
252
251
251
228
101
102
105
106
105
105
105
157
157
157
154
156
156
156
156
156
156
156
156
156
157
157
157
157
157
157
157
156
156
156
156
156
156
156
157
157
157
156
157
157
156
156
156
156
156
157
157
157
157
157
156
157
157
157
157
156
156
156
156
157
157
156
156
156
157
157
157
156
165
183
183
183
184
184
184
170
155
155
158
157
157
130
108
108
107
106
107
107
139
225
225
247
254
255
255
255
255
255
254
254
254
254
254
249
249
245
158
158
93
101
101
101
103
100
100
101
102
114
107
132
136
136
136
137
137
137
137
137
137
137
137
137
137
137
137
137
137
137
137
137
137
138
137
136
139
139
140
155
155
156
138
137
137
137
137
137
137
136
137
148
160
162
162
158
157
157
154
139
133
133
135
130
130
111
103
102
103
103
99
99
102
103
103
97
93
97
97
150
205
205
225
223
230
230
230
229
229
228
235
249
254
252
253
253
255
255
255
254
255
255
255
255
254
254
254
255
255
255
254
254
254
254
255
255
255
254
254
254
254
254
254
254
254
255
0
0
0
0
0
0
0
0
0
0
0
0
0
0
0
0
0
0
0
0
0
0
0
0
0
0
0
0
0
0
0
0
0
0
0
0
0
0
0
0
0
0
0
0
0
0
0
0
0
0
0
0
0
0
0
0
0
0
0
0
0
0
0
0
0
0
0
0
0
0
0
0
0
0
0
0
0
0
0
0
0
0
0
0
0
0
0
0
0
0
0
0
0
0
0
0
0
0
0
0
0
0
0
0
0
0
0
0
0
0
0
0
0
0
0
0
0
0
0
0
0
0
0
0
0
0
0
0
0
0
0
0
0
0
0
0
0
0
0
0
0
0
0
0
0
0
0
0
0
0
0
0
0
0
0
0
0
0
0
0
0
0
0
0
0
0
0
0
0
0
0
0
0
0
0
0
0
0
0
0
0
0
0
0
0
104
106
108
108
106
109
105
105
109
107
109
108
112
106
107
108
108
105
108
106
155
177
162
175
179
179
178
177
178
178
178
178
180
177
178
179
178
178
178
178
178
178
178
178
178
178
177
177
176
176
177
177
177
177
177
176
177
175
198
201
200
201
199
199
202
201
199
194
176
177
177
160
107
108
103
105
106
109
104
204
232
230
238
250
255
255
255
254
253
254
255
254
254
254
254
254
255
255
254
254
255
255
255
254
254
255
255
255
254
254
254
255
255
255
254
254
254
255
255
255
254
254
255
255
255
254
254
254
254
254
255
255
255
255
255
254
254
255
255
255
255
255
254
254
254
254
253
254
254
248
240
156
102
103
105
106
105
106
113
156
152
155
158
157
157
157
155
155
157
156
156
156
157
157
157
157
157
157
156
156
156
156
156
156
156
156
157
157
157
156
157
157
156
156
156
157
157
157
157
157
156
156
157
157
157
157
156
157
157
157
157
157
157
156
156
156
157
155
155
183
183
184
183
181
183
184
165
155
154
158
158
153
112
101
105
106
106
105
100
175
226
234
248
254
254
252
255
255
254
254
254
254
254
252
253
246
158
155
95
99
101
102
102
102
101
102
103
121
114
135
139
137
136
137
137
137
137
137
137
137
137
137
137
137
137
137
137
137
137
137
137
137
138
138
137
138
141
161
160
164
159
161
141
136
136
137
139
138
137
137
135
141
157
154
137
151
143
136
137
135
135
105
118
105
101
101
102
104
100
99
100
100
101
96
133
205
149
214
228
228
230
230
231
230
227
231
229
229
230
242
249
255
254
254
254
254
255
255
255
254
255
255
255
254
254
254
254
255
255
255
254
254
254
254
255
255
254
254
254
254
254
255
254
255
255
255
0
0
0
0
0
0
0
0
0
0
0
0
0
0
0
0
0
0
0
0
0
0
0
0
0
0
0
0
0
0
0
0
0
0
0
0
0
0
0
0
0
0
0
0
0
0
0
0
0
0
0
0
0
0
0
0
0
0
0
0
0
0
0
0
0
0
0
0
0
0
0
0
0
0
0
0
0
0
0
0
0
0
0
0
0
0
0
0
0
0
0
0
0
0
0
0
0
0
0
0
0
0
0
0
0
0
0
0
0
0
0
0
0
0
0
0
0
0
0
0
0
0
0
0
0
0
0
0
0
0
0
0
0
0
0
0
0
0
0
0
0
0
0
0
0
0
0
0
0
0
0
0
0
0
0
0
0
0
0
0
0
0
0
0
0
0
0
0
0
0
0
0
0
0
0
0
0
0
0
0
0
0
0
0
104
109
110
107
107
110
109
105
108
108
108
108
108
106
106
105
119
105
151
172
181
181
175
176
179
177
177
178
178
178
178
178
178
178
178
177
178
178
178
178
178
178
178
178
178
178
178
177
177
177
177
177
177
177
177
177
178
192
198
200
201
199
199
201
200
201
201
181
177
177
174
110
110
106
108
105
111
107
126
126
230
230
238
251
255
254
254
254
255
255
254
254
254
255
255
254
254
255
255
254
254
254
255
255
255
255
255
255
255
254
254
254
255
255
255
254
254
254
255
255
255
254
254
255
255
254
254
254
254
254
254
255
255
255
254
254
255
255
255
255
255
254
254
254
254
254
255
254
255
253
232
232
121
104
104
105
105
106
106
136
154
154
156
157
157
157
158
156
156
157
156
156
156
157
157
157
157
157
157
157
156
156
156
156
156
156
156
157
157
156
156
157
157
157
157
157
157
157
157
157
156
156
156
157
157
157
157
157
157
157
157
157
157
156
156
156
156
155
179
179
181
184
183
184
184
175
175
155
155
155
157
137
112
108
105
106
106
107
112
175
230
235
254
254
254
255
255
255
254
254
254
254
251
251
251
169
158
93
102
101
101
102
102
102
103
108
131
131
134
136
136
137
137
137
137
137
137
137
137
137
137
137
137
137
137
137
137
137
137
137
137
137
137
137
137
136
160
161
159
159
158
158
158
135
136
136
136
137
137
140
135
135
134
134
137
134
135
131
131
111
103
105
104
102
101
101
100
99
99
96
90
100
117
197
228
228
230
229
228
227
228
229
229
230
231
231
229
231
232
232
252
254
254
254
255
254
254
255
255
255
254
255
255
255
255
254
254
254
255
255
255
254
254
254
254
254
254
254
254
254
254
254
254
254
255
254
254
0
0
0
0
0
0
0
0
0
0
0
0
0
0
0
0
0
0
0
0
0
0
0
0
0
0
0
0
0
0
0
0
0
0
0
0
0
0
0
0
0
0
0
0
0
0
0
0
0
0
0
0
0
0
0
0
0
0
0
0
0
0
0
0
0
0
0
0
0
0
0
0
0
0
0
0
0
0
0
0
0
0
0
0
0
0
0
0
0
0
0
0
0
0
0
0
0
0
0
0
0
0
0
0
0
0
0
0
0
0
0
0
0
0
0
0
0
0
0
0
0
0
0
0
0
0
0
0
0
0
0
0
0
0
0
0
0
0
0
0
0
0
0
0
0
0
0
0
0
0
0
0
0
0
0
0
0
0
0
0
0
0
0
0
0
0
0
0
0
0
0
0
0
0
0
0
0
0
0
0
0
0
0
108
107
110
107
109
107
106
109
106
109
110
108
118
110
118
172
149
174
179
176
176
171
178
178
177
176
177
178
178
178
178
178
178
177
179
178
178
178
178
178
178
178
178
178
178
177
177
177
177
178
178
177
177
177
178
178
177
186
200
200
199
200
201
200
201
202
197
175
177
177
166
132
108
110
110
105
101
106
105
228
230
228
242
255
254
253
254
254
255
254
254
254
255
255
255
255
254
254
255
255
255
255
254
255
255
255
255
255
255
255
254
254
254
255
255
255
254
254
254
255
255
255
254
254
255
255
255
254
254
254
254
255
255
255
254
254
255
255
255
255
255
254
254
254
254
254
254
253
255
253
253
223
207
107
105
107
106
106
105
103
146
156
158
156
156
157
156
158
156
156
157
156
156
156
156
157
156
157
157
157
157
156
156
156
156
156
156
156
156
156
156
156
157
157
157
156
156
156
157
156
156
156
156
157
156
157
157
157
157
157
157
156
156
156
156
157
155
167
173
181
184
184
183
183
184
182
159
159
154
160
158
154
107
104
105
108
106
105
103
213
226
236
250
254
255
253
254
253
254
253
255
254
255
253
235
201
96
101
102
102
101
101
102
104
115
139
137
135
139
137
137
138
136
137
137
137
137
137
137
137
137
137
137
137
137
137
137
137
137
137
137
137
137
137
135
136
147
161
160
162
159
163
159
148
135
138
136
139
137
137
138
138
137
135
135
132
108
119
104
102
104
106
103
101
102
101
97
101
95
156
104
177
225
230
225
227
229
230
229
232
231
230
230
230
231
229
231
230
230
254
254
255
254
254
254
255
254
254
255
255
255
254
255
255
255
255
254
254
254
255
255
255
254
254
254
254
254
254
254
254
254
254
254
254
255
254
254
254
0
0
0
0
0
0
0
0
0
0
0
0
0
0
0
0
0
0
0
0
0
0
0
0
0
0
0
0
0
0
0
0
0
0
0
0
0
0
0
0
0
0
0
0
0
0
0
0
0
0
0
0
0
0
0
0
0
0
0
0
0
0
0
0
0
0
0
0
0
0
0
0
0
0
0
0
0
0
0
0
0
0
0
0
0
0
0
0
0
0
0
0
0
0
0
0
0
0
0
0
0
0
0
0
0
0
0
0
0
0
0
0
0
0
0
0
0
0
0
0
0
0
0
0
0
0
0
0
0
0
0
0
0
0
0
0
0
0
0
0
0
0
0
0
0
0
0
0
0
0
0
0
0
0
0
0
0
0
0
0
0
0
0
0
0
0
0
0
0
0
0
0
0
0
0
0
0
0
0
0
0
0
110
109
110
110
111
107
109
111
108
109
123
157
118
175
177
172
177
177
178
176
179
177
178
177
178
177
177
177
177
178
177
178
178
177
177
178
178
178
178
178
178
178
178
178
178
177
177
177
177
178
178
178
177
177
176
178
177
202
201
200
199
200
200
200
201
203
183
175
176
175
166
109
108
110
108
112
105
106
113
234
230
227
245
255
254
254
254
254
254
253
254
255
255
255
255
255
255
254
254
255
255
255
254
255
255
255
255
255
255
255
255
254
255
254
255
255
255
254
254
254
255
255
255
254
255
255
255
255
254
254
254
255
255
255
254
254
254
255
255
254
254
255
254
254
255
254
255
254
254
253
254
233
207
181
99
107
107
107
105
103
106
152
158
158
155
156
156
156
157
156
157
156
156
157
156
156
156
156
157
157
157
156
156
156
156
156
156
156
156
156
156
156
156
157
156
156
156
156
156
156
156
156
157
157
159
156
156
157
157
157
157
156
156
156
156
155
163
167
183
184
184
185
182
185
184
173
158
159
155
156
158
136
107
104
105
106
104
105
106
224
230
236
252
254
255
255
255
251
254
255
255
254
255
248
235
101
100
104
102
103
102
101
104
128
138
139
137
139
139
136
138
138
137
137
137
137
137
137
137
137
137
137
137
137
137
137
137
137
137
137
137
137
137
137
136
136
150
163
158
162
158
161
159
139
138
137
136
138
137
137
135
135
137
131
115
101
108
100
101
102
101
98
100
101
96
93
97
132
209
156
225
229
229
230
229
231
229
232
228
230
231
229
230
230
229
229
234
230
254
254
254
254
255
254
254
254
255
254
254
255
255
255
254
255
255
255
255
254
254
254
255
255
255
255
254
254
254
254
255
255
254
254
254
254
255
255
254
254
254
0
0
0
0
0
0
0
0
0
0
0
0
0
0
0
0
0
0
0
0
0
0
0
0
0
0
0
0
0
0
0
0
0
0
0
0
0
0
0
0
0
0
0
0
0
0
0
0
0
0
0
0
0
0
0
0
0
0
0
0
0
0
0
0
0
0
0
0
0
0
0
0
0
0
0
0
0
0
0
0
0
0
0
0
0
0
0
0
0
0
0
0
0
0
0
0
0
0
0
0
0
0
0
0
0
0
0
0
0
0
0
0
0
0
0
0
0
0
0
0
0
0
0
0
0
0
0
0
0
0
0
0
0
0
0
0
0
0
0
0
0
0
0
0
0
0
0
0
0
0
0
0
0
0
0
0
0
0
0
0
0
0
0
0
0
0
0
0
0
0
0
0
0
0
0
0
0
0
0
0
0
111
107
108
106
106
108
110
162
128
159
173
173
173
177
177
178
177
178
177
176
176
176
177
178
178
177
177
177
177
177
177
177
177
178
177
177
178
178
178
178
178
178
178
178
180
180
177
177
178
177
178
178
178
176
176
176
199
201
202
201
200
201
201
200
203
198
192
177
177
177
133
105
105
108
107
110
108
104
214
214
226
237
251
255
255
254
254
254
254
254
255
255
255
255
255
255
255
255
255
255
255
255
254
254
255
255
255
255
255
255
255
255
255
255
254
255
255
255
254
254
254
255
255
255
255
255
255
255
254
254
254
254
255
255
255
254
255
255
254
254
254
254
255
255
255
254
254
254
254
254
255
255
227
152
152
101
104
105
109
105
111
111
155
158
157
155
157
156
156
157
156
156
157
157
157
156
156
156
156
157
156
156
156
156
156
156
157
156
156
156
156
157
156
156
156
156
156
157
157
156
156
157
157
156
154
159
156
156
157
157
157
156
156
156
155
164
163
184
184
184
185
184
183
184
181
157
157
156
156
156
154
105
107
107
106
106
106
103
205
228
228
243
254
254
255
254
255
253
255
253
253
255
249
249
164
99
103
101
103
102
102
103
132
135
137
137
137
137
136
137
137
137
137
137
137
137
137
137
137
137
137
137
137
137
137
137
137
137
137
137
137
137
137
137
137
135
155
155
163
160
162
162
149
135
137
137
136
136
136
137
132
132
119
105
104
102
101
101
101
101
99
97
99
92
111
111
187
223
223
227
228
230
227
230
231
231
231
231
232
229
230
231
231
229
231
249
241
255
255
255
255
254
254
255
254
254
254
255
254
254
255
255
255
254
255
255
255
255
254
254
254
255
255
255
255
254
254
255
255
255
254
254
254
254
254
255
255
254
254
254
0
0
0
0
0
0
0
0
0
0
0
0
0
0
0
0
0
0
0
0
0
0
0
0
0
0
0
0
0
0
0
0
0
0
0
0
0
0
0
0
0
0
0
0
0
0
0
0
0
0
0
0
0
0
0
0
0
0
0
0
0
0
0
0
0
0
0
0
0
0
0
0
0
0
0
0
0
0
0
0
0
0
0
0
0
0
0
0
0
0
0
0
0
0
0
0
0
0
0
0
0
0
0
0
0
0
0
0
0
0
0
0
0
0
0
0
0
0
0
0
0
0
0
0
0
0
0
0
0
0
0
0
0
0
0
0
0
0
0
0
0
0
0
0
0
0
0
0
0
0
0
0
0
0
0
0
0
0
0
0
0
0
0
0
0
0
0
0
0
0
0
0
0
0
0
0
0
0
0
0
111
106
117
107
113
166
179
162
175
175
179
179
178
179
178
179
180
178
178
177
178
178
178
177
178
177
177
177
177
177
177
177
178
177
177
178
178
178
178
178
178
178
178
177
177
179
177
177
178
178
177
178
177
176
176
193
201
200
202
199
202
201
199
201
202
198
178
178
179
169
115
109
110
110
107
110
105
104
147
230
231
243
251
254
254
255
253
254
254
255
255
255
255
255
255
255
255
255
254
255
255
255
255
254
254
255
255
255
255
255
255
255
255
255
255
254
255
255
255
254
254
254
255
255
255
255
255
255
255
254
254
254
255
255
254
255
255
255
255
255
254
254
255
255
254
254
253
254
254
254
254
248
238
230
127
112
106
105
105
107
105
116
120
156
157
156
157
157
158
157
156
156
156
157
157
156
156
156
156
157
157
156
156
157
156
157
157
157
156
156
157
157
156
156
156
156
157
157
157
157
156
156
156
159
153
159
155
156
156
157
157
157
156
156
168
164
183
185
184
184
185
183
183
182
167
160
154
159
158
160
125
105
107
106
106
107
105
106
229
228
230
244
252
255
253
255
255
254
254
255
254
255
252
233
113
100
103
102
104
101
102
122
135
135
135
136
137
137
136
137
137
137
137
137
137
137
137
137
137
137
137
137
137
137
137
137
137
137
137
137
137
137
137
137
137
137
136
155
150
153
161
152
135
136
137
135
136
136
135
110
125
107
101
102
104
103
101
102
101
96
92
97
132
216
164
222
226
229
229
228
228
230
229
229
228
226
229
229
232
228
232
228
230
245
254
249
255
255
255
255
255
255
254
254
255
254
254
254
255
254
254
255
255
255
254
255
255
255
255
254
254
254
255
255
255
254
254
254
254
255
254
255
255
254
254
254
255
255
254
254
254
0
0
0
0
0
0
0
0
0
0
0
0
0
0
0
0
0
0
0
0
0
0
0
0
0
0
0
0
0
0
0
0
0
0
0
0
0
0
0
0
0
0
0
0
0
0
0
0
0
0
0
0
0
0
0
0
0
0
0
0
0
0
0
0
0
0
0
0
0
0
0
0
0
0
0
0
0
0
0
0
0
0
0
0
0
0
0
0
0
0
0
0
0
0
0
0
0
0
0
0
0
0
0
0
0
0
0
0
0
0
0
0
0
0
0
0
0
0
0
0
0
0
0
0
0
0
0
0
0
0
0
0
0
0
0
0
0
0
0
0
0
0
0
0
0
0
0
0
0
0
0
0
0
0
0
0
0
0
0
0
0
0
0
0
0
0
0
0
0
0
0
0
0
0
0
0
0
0
0
122
146
146
172
178
178
178
178
177
177
177
176
178
175
178
179
179
176
177
177
177
177
177
177
177
176
176
178
178
177
177
178
177
177
178
178
178
178
178
178
178
178
180
180
177
178
176
176
178
178
178
177
176
176
178
203
199
199
201
202
202
202
199
203
203
183
178
178
178
143
115
106
110
109
109
111
107
107
197
227
233
233
252
254
254
255
253
254
254
255
255
255
255
254
254
255
255
255
255
255
255
255
255
255
254
254
255
255
255
255
254
255
255
255
255
255
254
255
255
255
254
254
254
255
255
255
255
254
255
255
255
254
254
254
254
254
255
255
254
254
255
255
255
255
254
253
253
254
254
254
254
255
238
231
214
102
102
105
105
105
105
107
123
123
156
156
156
155
157
157
157
156
157
157
157
156
156
156
157
157
157
157
157
157
157
156
157
157
157
156
156
157
156
156
156
157
158
158
157
156
156
157
155
155
155
158
157
157
156
156
157
156
157
173
173
183
184
184
183
183
184
184
181
174
174
156
158
159
157
147
106
106
104
106
106
105
101
211
211
228
229
229
254
254
255
255
253
252
252
254
254
255
252
217
94
94
100
98
98
102
112
136
136
134
137
137
137
137
136
137
137
137
137
137
137
137
137
137
137
137
137
137
137
137
137
137
137
137
137
137
137
138
138
137
137
137
137
136
142
142
139
133
136
136
136
133
133
118
103
110
102
100
101
101
102
100
100
101
93
107
107
188
229
229
225
228
226
230
229
228
228
228
229
229
230
231
228
228
233
239
239
248
253
255
255
254
254
254
255
255
255
255
255
254
254
255
254
254
254
254
254
254
255
255
255
254
255
255
255
255
254
254
254
255
255
255
254
254
254
254
255
255
255
254
254
254
254
255
255
254
254
254
0
0
0
0
0
0
0
0
0
0
0
0
0
0
0
0
0
0
0
0
0
0
0
0
0
0
0
0
0
0
0
0
0
0
0
0
0
0
0
0
0
0
0
0
0
0
0
0
0
0
0
0
0
0
0
0
0
0
0
0
0
0
0
0
0
0
0
0
0
0
0
0
0
0
0
0
0
0
0
0
0
0
0
0
0
0
0
0
0
0
0
0
0
0
0
0
0
0
0
0
0
0
0
0
0
0
0
0
0
0
0
0
0
0
0
0
0
0
0
0
0
0
0
0
0
0
0
0
0
0
0
0
0
0
0
0
0
0
0
0
0
0
0
0
0
0
0
0
0
0
0
0
0
0
0
0
0
0
0
0
0
0
0
0
0
0
0
0
0
0
0
0
0
0
0
0
0
0
180
174
178
178
176
175
177
176
178
179
179
177
175
177
178
179
175
177
177
178
177
177
177
177
176
176
176
176
178
178
178
177
177
178
178
178
178
178
177
178
178
177
178
179
178
177
178
175
175
178
178
178
176
177
199
201
200
204
201
201
199
203
201
202
190
178
177
178
179
171
108
107
110
108
108
106
107
129
230
231
228
255
252
254
255
255
253
254
255
255
255
255
255
255
254
254
254
255
255
255
255
255
255
255
255
254
254
255
255
255
255
254
255
255
255
255
255
254
255
255
254
254
254
254
255
255
255
255
254
255
255
255
254
254
254
255
254
254
254
254
254
255
255
254
254
254
253
253
253
254
254
255
254
229
227
204
101
100
105
106
106
105
106
126
129
156
157
157
156
158
156
156
157
156
156
157
156
156
157
157
157
157
157
157
157
157
156
157
156
156
156
156
156
156
156
157
157
157
157
157
156
158
156
158
157
158
156
155
158
156
155
161
181
178
184
182
183
184
183
185
184
182
179
177
158
156
156
159
152
113
103
106
106
107
106
104
121
167
229
229
229
250
255
254
254
254
254
254
254
254
253
255
248
220
105
101
101
100
101
103
109
133
136
136
139
136
137
137
137
137
137
137
137
137
137
137
137
137
137
137
137
137
137
137
137
137
137
137
137
137
138
138
138
137
137
137
137
137
136
134
136
136
136
135
112
124
107
102
102
103
101
100
101
101
99
101
101
114
199
149
220
226
225
229
230
232
228
232
230
229
232
231
229
230
229
234
233
237
255
247
252
254
254
254
255
254
254
255
255
255
255
255
255
255
255
255
255
254
255
255
254
254
254
255
255
255
254
255
255
255
255
254
254
254
255
255
254
254
254
254
254
254
254
255
254
254
254
254
255
255
254
254
254
0
0
0
0
0
0
0
0
0
0
0
0
0
0
0
0
0
0
0
0
0
0
0
0
0
0
0
0
0
0
0
0
0
0
0
0
0
0
0
0
0
0
0
0
0
0
0
0
0
0
0
0
0
0
0
0
0
0
0
0
0
0
0
0
0
0
0
0
0
0
0
0
0
0
0
0
0
0
0
0
0
0
0
0
0
0
0
0
0
0
0
0
0
0
0
0
0
0
0
0
0
0
0
0
0
0
0
0
0
0
0
0
0
0
0
0
0
0
0
0
0
0
0
0
0
0
0
0
0
0
0
0
0
0
0
0
0
0
0
0
0
0
0
0
0
0
0
0
0
0
0
0
0
0
0
0
0
0
0
0
0
0
0
0
0
0
0
0
0
0
0
0
0
0
0
0
0
180
179
176
177
177
177
177
176
177
178
179
177
179
178
178
175
176
177
177
178
177
177
177
176
176
176
176
176
177
178
177
177
177
178
178
178
178
178
178
178
179
177
178
178
177
177
177
179
175
177
178
178
177
187
203
203
198
201
201
199
203
200
200
196
177
178
176
178
179
150
106
105
110
106
108
106
106
176
230
230
229
254
252
255
253
255
254
255
255
255
255
255
255
255
255
254
254
254
255
255
255
254
254
254
255
255
254
254
255
255
255
255
254
255
255
255
255
255
254
255
255
254
254
254
254
255
255
255
254
254
255
255
254
254
254
254
254
254
254
255
254
255
254
254
254
254
255
253
254
254
254
254
255
241
227
224
171
100
102
105
106
106
107
105
129
130
156
157
157
157
158
156
155
158
156
155
156
156
156
157
157
157
156
157
157
157
157
156
156
156
156
156
157
156
156
156
157
157
157
156
157
156
156
158
157
158
155
159
158
165
179
182
181
184
182
182
183
184
184
184
182
182
179
157
156
156
157
155
124
113
106
105
106
106
105
102
102
222
229
229
229
251
253
253
254
254
254
253
255
254
252
254
248
220
120
96
101
99
105
101
101
119
138
136
134
137
137
137
137
137
137
137
137
137
137
137
137
137
137
137
137
137
137
137
137
137
137
137
137
137
138
138
137
137
137
137
137
137
137
136
135
135
122
104
112
103
103
102
100
103
101
100
101
93
99
93
161
226
226
229
230
226
230
229
230
228
229
229
230
229
228
231
231
232
244
244
253
254
255
253
254
253
253
255
253
254
254
255
255
255
255
255
255
255
255
255
255
255
255
255
255
254
254
254
255
255
255
254
255
255
255
255
254
254
254
254
254
254
254
254
254
254
254
254
255
254
254
254
254
255
255
255
254
254
0
0
0
0
0
0
0
0
0
0
0
0
0
0
0
0
0
0
0
0
0
0
0
0
0
0
0
0
0
0
0
0
0
0
0
0
0
0
0
0
0
0
0
0
0
0
0
0
0
0
0
0
0
0
0
0
0
0
0
0
0
0
0
0
0
0
0
0
0
0
0
0
0
0
0
0
0
0
0
0
0
0
0
0
0
0
0
0
0
0
0
0
0
0
0
0
0
0
0
0
0
0
0
0
0
0
0
0
0
0
0
0
0
0
0
0
0
0
0
0
0
0
0
0
0
0
0
0
0
0
0
0
0
0
0
0
0
0
0
0
0
0
0
0
0
0
0
0
0
0
0
0
0
0
0
0
0
0
0
0
0
0
0
0
0
0
0
0
0
0
0
0
0
0
0
0
177
176
176
176
178
176
176
177
178
178
176
175
175
176
176
177
177
177
178
178
178
177
176
176
176
177
177
177
177
178
178
177
178
178
178
178
178
178
178
176
177
178
178
178
178
178
178
177
179
178
178
178
177
198
202
199
201
200
201
202
199
198
198
177
176
177
180
180
172
106
108
105
108
108
108
105
116
223
235
231
233
247
254
254
254
255
254
254
255
255
255
255
254
255
255
255
255
255
254
255
255
255
254
254
254
255
254
254
254
255
255
255
255
254
255
255
255
255
255
255
255
255
254
254
254
254
255
255
255
254
254
255
255
254
254
254
254
254
254
255
255
255
255
254
254
254
254
255
254
254
254
255
254
255
237
224
224
155
104
105
105
106
106
106
106
130
130
156
157
156
157
158
155
155
158
156
157
156
156
156
156
156
156
156
157
157
156
155
156
156
156
157
156
156
156
157
157
157
157
156
156
157
153
166
156
161
169
169
177
182
185
183
182
183
183
182
184
183
183
183
182
182
158
156
156
157
156
144
135
105
105
105
107
107
106
104
201
228
228
228
243
254
255
254
255
255
254
250
250
255
254
255
249
238
92
92
99
102
102
103
106
105
128
135
139
139
137
137
137
137
137
137
137
137
137
137
137
137
137
137
137
137
137
137
137
137
137
137
137
137
138
137
137
137
137
137
137
137
137
136
137
115
106
103
103
102
102
101
103
99
101
99
91
91
120
204
227
228
229
228
230
230
229
229
230
229
229
230
230
227
227
232
240
246
251
248
233
251
251
252
254
251
250
255
255
254
255
255
255
255
255
255
255
255
255
255
254
254
255
255
255
255
254
254
254
255
255
255
254
255
255
255
255
254
254
254
254
254
254
255
254
254
254
254
254
255
254
254
254
254
255
255
255
254
254
0
0
0
0
0
0
0
0
0
0
0
0
0
0
0
0
0
0
0
0
0
0
0
0
0
0
0
0
0
0
0
0
0
0
0
0
0
0
0
0
0
0
0
0
0
0
0
0
0
0
0
0
0
0
0
0
0
0
0
0
0
0
0
0
0
0
0
0
0
0
0
0
0
0
0
0
0
0
0
0
0
0
0
0
0
0
0
0
0
0
0
0
0
0
0
0
0
0
0
0
0
0
0
0
0
0
0
0
0
0
0
0
0
0
0
0
0
0
0
0
0
0
0
0
0
0
0
0
0
0
0
0
0
0
0
0
0
0
0
0
0
0
0
0
0
0
0
0
0
0
0
0
0
0
0
0
0
0
0
0
0
0
0
0
0
0
0
0
0
0
0
0
0
0
0
178
176
176
175
176
176
177
177
179
178
178
178
175
177
179
178
178
178
178
178
178
178
176
177
177
177
177
179
178
178
177
178
178
178
177
177
178
178
176
176
177
180
177
178
177
178
178
178
176
180
179
178
180
198
203
201
201
202
200
201
199
203
178
177
178
178
180
178
156
108
108
109
108
108
108
107
171
223
232
230
233
254
255
252
255
255
255
254
254
255
255
255
255
254
255
255
255
255
255
254
255
255
255
254
254
254
254
254
254
254
255
255
255
255
254
255
255
255
255
255
254
255
255
255
254
254
254
254
255
255
254
254
254
255
255
254
255
254
254
255
254
255
255
255
255
254
254
254
255
255
255
254
254
254
252
232
227
229
134
105
104
106
106
106
106
106
129
128
157
156
156
156
157
156
158
156
157
156
156
156
156
156
156
156
156
156
156
156
157
156
156
156
156
156
156
156
157
158
164
169
156
175
180
166
182
182
179
185
183
183
185
182
186
184
182
185
182
183
183
181
182
159
155
157
157
156
151
144
105
106
106
106
106
106
106
124
229
228
230
231
251
254
254
255
255
254
255
255
255
255
252
255
254
246
180
95
98
103
102
103
103
105
105
137
134
136
137
137
137
137
137
137
137
137
137
137
137
137
137
137
137
137
137
137
137
137
137
137
137
137
137
137
137
137
137
137
137
137
138
136
122
104
106
102
102
102
101
102
96
99
95
110
98
166
227
228
227
230
229
228
229
231
230
229
230
228
229
230
235
231
237
248
228
246
168
127
233
129
193
242
254
252
254
255
255
254
254
255
255
255
255
255
255
255
255
255
255
254
254
255
255
255
255
254
254
254
255
255
255
254
255
255
255
255
254
254
254
254
254
255
255
254
254
254
254
254
255
254
254
254
254
255
255
254
254
254
0
0
0
0
0
0
0
0
0
0
0
0
0
0
0
0
0
0
0
0
0
0
0
0
0
0
0
0
0
0
0
0
0
0
0
0
0
0
0
0
0
0
0
0
0
0
0
0
0
0
0
0
0
0
0
0
0
0
0
0
0
0
0
0
0
0
0
0
0
0
0
0
0
0
0
0
0
0
0
0
0
0
0
0
0
0
0
0
0
0
0
0
0
0
0
0
0
0
0
0
0
0
0
0
0
0
0
0
0
0
0
0
0
0
0
0
0
0
0
0
0
0
0
0
0
0
0
0
0
0
0
0
0
0
0
0
0
0
0
0
0
0
0
0
0
0
0
0
0
0
0
0
0
0
0
0
0
0
0
0
0
0
0
0
0
0
0
0
0
0
0
0
0
0
177
177
175
177
177
177
177
177
178
177
179
179
179
179
179
178
178
178
178
178
178
178
178
178
178
178
178
177
177
177
177
177
178
178
177
177
178
176
176
178
178
175
177
178
176
176
177
178
178
177
179
176
176
189
200
200
202
199
202
202
201
174
174
177
176
176
176
175
108
108
108
109
109
109
108
111
111
231
231
231
244
253
253
255
255
255
255
255
254
254
255
255
255
255
255
255
255
255
255
255
254
255
255
255
254
254
254
254
255
254
254
255
255
255
255
254
255
255
255
255
255
254
255
255
255
254
254
254
255
255
255
254
254
255
255
255
254
254
254
254
254
254
255
255
255
255
254
254
254
255
254
254
254
255
255
248
230
228
228
128
103
103
107
106
106
106
106
124
124
156
157
157
156
158
156
156
158
154
154
156
156
156
156
156
157
157
157
157
157
157
156
156
156
156
156
156
165
178
182
183
182
184
184
183
182
182
183
184
182
182
183
184
184
184
184
183
183
183
180
180
158
156
156
157
156
153
153
106
107
107
105
107
105
105
107
228
228
231
228
234
242
254
254
254
254
254
254
251
252
255
255
253
254
254
238
91
104
104
101
103
103
101
105
105
135
137
137
137
137
137
137
137
137
137
137
137
137
137
137
137
137
137
137
137
137
137
137
137
137
137
137
137
137
137
137
137
137
139
135
132
104
104
103
103
103
102
101
94
94
92
143
143
224
225
228
228
232
230
230
234
232
232
229
229
229
229
232
242
242
253
246
180
180
101
96
96
97
93
96
117
221
247
247
253
253
253
254
255
255
255
255
255
255
255
255
255
255
255
254
254
255
255
255
255
254
254
254
255
255
255
254
255
255
255
255
254
254
254
254
255
255
255
254
254
254
254
254
255
254
254
254
254
254
254
254
254
254
0
0
0
0
0
0
0
0
0
0
0
0
0
0
0
0
0
0
0
0
0
0
0
0
0
0
0
0
0
0
0
0
0
0
0
0
0
0
0
0
0
0
0
0
0
0
0
0
0
0
0
0
0
0
0
0
0
0
0
0
0
0
0
0
0
0
0
0
0
0
0
0
0
0
0
0
0
0
0
0
0
0
0
0
0
0
0
0
0
0
0
0
0
0
0
0
0
0
0
0
0
0
0
0
0
0
0
0
0
0
0
0
0
0
0
0
0
0
0
0
0
0
0
0
0
0
0
0
0
0
0
0
0
0
0
0
0
0
0
0
0
0
0
0
0
0
0
0
0
0
0
0
0
0
0
0
0
0
0
0
0
0
0
0
0
0
0
0
0
0
0
0
0
177
178
178
178
178
178
178
178
178
178
177
179
175
176
178
178
178
178
178
178
178
178
178
178
178
176
178
177
177
178
178
178
176
178
178
178
178
178
177
175
176
175
187
200
186
177
178
176
177
178
178
177
177
179
196
200
202
200
202
199
179
175
178
177
177
180
177
147
124
107
106
109
106
110
104
104
225
231
227
230
253
252
254
255
255
255
255
255
255
254
254
255
255
255
255
255
255
255
255
255
255
254
255
254
255
254
254
254
255
255
254
254
255
255
255
255
255
255
255
255
255
255
254
255
255
255
254
254
254
255
255
255
254
254
255
255
255
254
254
254
254
254
254
255
255
255
255
254
255
255
253
255
254
254
255
255
237
229
226
225
126
103
103
107
106
106
106
105
120
115
156
157
156
156
156
156
157
159
155
157
156
156
156
157
157
157
156
157
157
157
157
156
156
156
155
164
179
187
182
183
182
185
185
184
183
184
182
183
183
184
184
185
181
184
182
183
183
174
177
157
158
158
157
156
157
154
109
106
106
105
105
107
106
103
196
215
230
229
229
234
252
255
254
254
255
254
254
254
254
253
255
255
253
250
249
149
98
104
102
103
100
101
103
113
115
137
138
137
137
137
137
137
137
137
137
137
137
137
137
137
137
137
137
137
137
137
138
137
137
137
137
137
137
137
137
137
136
139
136
128
110
103
103
102
102
101
99
96
98
219
191
231
229
231
231
228
231
230
230
230
232
228
231
235
229
240
252
253
251
202
93
123
92
101
93
98
103
101
96
102
93
194
247
244
250
254
255
254
254
255
255
254
255
255
255
255
255
255
255
254
255
255
255
255
255
254
254
254
255
255
254
254
255
255
255
255
254
254
254
255
255
255
255
254
254
254
254
255
254
254
254
254
254
254
254
254
254
254
0
0
0
0
0
0
0
0
0
0
0
0
0
0
0
0
0
0
0
0
0
0
0
0
0
0
0
0
0
0
0
0
0
0
0
0
0
0
0
0
0
0
0
0
0
0
0
0
0
0
0
0
0
0
0
0
0
0
0
0
0
0
0
0
0
0
0
0
0
0
0
0
0
0
0
0
0
0
0
0
0
0
0
0
0
0
0
0
0
0
0
0
0
0
0
0
0
0
0
0
0
0
0
0
0
0
0
0
0
0
0
0
0
0
0
0
0
0
0
0
0
0
0
0
0
0
0
0
0
0
0
0
0
0
0
0
0
0
0
0
0
0
0
0
0
0
0
0
0
0
0
0
0
0
0
0
0
0
0
0
0
0
0
0
0
0
0
0
0
0
0
0
178
177
177
178
178
178
178
178
178
178
177
178
175
178
178
178
178
178
178
178
178
178
178
178
176
178
178
178
178
178
179
176
174
174
178
178
178
176
178
184
184
197
201
201
202
203
178
178
176
177
177
177
175
179
178
186
198
198
192
176
176
176
177
177
179
179
163
163
108
107
106
111
106
107
107
112
237
231
229
238
253
254
254
255
255
255
255
255
255
254
254
254
255
255
255
255
255
255
255
255
255
255
254
255
255
255
254
254
254
255
255
254
254
255
255
255
255
255
255
255
255
255
255
255
255
255
255
254
254
254
255
255
255
254
254
255
254
255
254
254
254
254
254
254
255
255
255
255
253
253
255
254
254
255
254
254
254
233
231
225
226
124
103
105
105
107
107
105
106
115
112
152
155
155
158
157
157
156
156
157
157
156
156
156
156
156
156
156
156
156
156
157
156
156
155
177
185
185
183
182
182
187
181
184
183
182
182
182
183
182
184
183
183
183
183
182
168
174
156
157
158
155
156
156
156
113
106
106
107
105
106
106
103
173
196
228
230
230
230
243
255
255
254
255
255
254
254
254
254
254
255
255
254
254
247
247
114
98
102
104
101
101
102
101
119
119
136
137
137
137
137
137
137
137
137
137
137
137
137
137
137
137
137
137
137
137
138
137
137
137
137
137
137
137
137
135
135
137
137
137
107
105
103
101
102
100
100
153
224
219
226
228
228
228
231
227
231
231
228
230
229
233
244
244
255
251
252
244
166
95
95
103
99
101
98
102
102
102
100
102
102
98
147
244
243
251
255
255
255
255
255
254
255
255
255
255
255
255
255
255
255
255
255
255
255
255
254
254
254
255
254
254
254
255
255
255
254
254
254
254
255
255
255
255
254
254
255
255
255
254
254
254
254
254
254
254
254
254
254
0
0
0
0
0
0
0
0
0
0
0
0
0
0
0
0
0
0
0
0
0
0
0
0
0
0
0
0
0
0
0
0
0
0
0
0
0
0
0
0
0
0
0
0
0
0
0
0
0
0
0
0
0
0
0
0
0
0
0
0
0
0
0
0
0
0
0
0
0
0
0
0
0
0
0
0
0
0
0
0
0
0
0
0
0
0
0
0
0
0
0
0
0
0
0
0
0
0
0
0
0
0
0
0
0
0
0
0
0
0
0
0
0
0
0
0
0
0
0
0
0
0
0
0
0
0
0
0
0
0
0
0
0
0
0
0
0
0
0
0
0
0
0
0
0
0
0
0
0
0
0
0
0
0
0
0
0
0
0
0
0
0
0
0
0
0
0
0
0
0
0
177
177
178
178
178
178
178
177
177
178
178
177
178
178
178
178
178
178
178
178
178
178
178
178
178
177
178
177
178
176
175
180
179
178
176
177
180
186
202
194
203
203
203
201
201
201
194
176
175
177
177
178
178
176
177
175
178
177
181
174
176
177
177
177
176
176
173
110
107
110
110
106
104
105
103
169
219
227
230
230
254
254
254
254
255
255
255
254
254
254
254
255
255
255
255
255
255
255
255
254
255
255
254
255
255
255
255
254
255
255
255
255
254
254
255
255
255
255
255
255
255
255
255
255
255
255
255
255
254
254
254
255
255
255
254
254
255
255
255
254
254
254
254
254
254
255
255
254
255
254
254
255
254
255
255
254
254
253
230
230
226
226
122
106
105
104
106
106
105
106
107
104
149
154
156
157
159
154
155
157
155
155
156
156
156
156
156
156
156
156
157
157
157
158
161
179
180
181
182
184
181
187
181
185
184
184
183
183
185
183
183
182
183
185
179
159
162
156
157
157
155
157
155
156
112
106
106
106
106
106
106
105
134
151
228
229
230
229
236
253
255
255
255
255
254
253
255
254
254
254
254
255
253
251
253
230
213
98
98
101
101
102
102
103
103
122
126
137
137
138
138
137
137
137
137
137
137
137
137
137
137
137
137
137
137
137
137
137
137
137
137
137
137
137
137
138
139
137
135
136
127
101
101
104
102
100
93
94
195
226
232
231
229
229
232
231
232
230
230
229
238
253
251
254
246
249
238
136
95
96
100
101
98
101
102
102
101
101
100
101
102
102
96
132
244
244
250
255
254
254
254
255
255
255
255
255
255
255
255
255
255
255
254
255
255
255
255
254
254
254
255
254
254
254
255
255
255
255
254
254
254
255
255
255
255
255
254
255
255
254
254
254
254
254
254
254
255
255
254
254
0
0
0
0
0
0
0
0
0
0
0
0
0
0
0
0
0
0
0
0
0
0
0
0
0
0
0
0
0
0
0
0
0
0
0
0
0
0
0
0
0
0
0
0
0
0
0
0
0
0
0
0
0
0
0
0
0
0
0
0
0
0
0
0
0
0
0
0
0
0
0
0
0
0
0
0
0
0
0
0
0
0
0
0
0
0
0
0
0
0
0
0
0
0
0
0
0
0
0
0
0
0
0
0
0
0
0
0
0
0
0
0
0
0
0
0
0
0
0
0
0
0
0
0
0
0
0
0
0
0
0
0
0
0
0
0
0
0
0
0
0
0
0
0
0
0
0
0
0
0
0
0
0
0
0
0
0
0
0
0
0
0
0
0
0
0
0
0
0
0
177
177
177
178
178
178
178
177
176
176
178
177
176
178
178
178
178
178
178
177
177
178
177
176
178
177
176
177
175
178
176
180
174
182
176
197
202
203
202
200
202
203
201
201
201
200
197
177
175
177
178
178
179
179
178
175
179
176
181
178
177
177
182
179
159
176
110
110
107
111
109
109
104
107
120
169
234
230
231
250
254
254
254
255
255
255
254
254
254
254
255
255
255
255
255
255
255
255
255
254
254
255
254
254
254
255
255
255
255
255
255
255
255
254
254
255
255
255
255
255
255
255
255
255
255
254
255
255
255
254
254
254
255
255
255
255
254
255
255
255
254
254
254
254
254
254
254
254
254
255
254
254
255
254
255
255
254
253
249
230
230
227
227
125
105
105
105
106
105
105
106
104
103
129
156
159
155
157
155
158
159
155
156
156
156
156
156
156
156
157
157
157
158
156
157
179
182
186
182
184
184
187
181
181
181
184
181
184
185
183
182
176
183
160
156
159
154
157
158
156
157
151
155
109
107
106
107
106
106
106
104
120
134
228
229
230
230
229
247
253
254
253
255
255
254
254
255
253
254
254
254
254
255
251
255
242
213
203
91
99
102
101
102
103
102
103
126
129
136
136
138
136
137
137
137
137
137
137
137
137
137
137
137
137
137
137
137
137
137
137
137
137
137
137
137
137
137
137
140
138
127
113
102
102
102
102
99
94
102
226
227
231
230
228
232
231
230
232
231
254
254
253
254
248
246
200
93
95
95
101
101
101
102
106
106
102
108
101
100
103
103
102
104
97
116
244
244
249
254
253
254
255
255
255
255
255
255
255
255
255
255
255
254
254
255
255
255
255
254
254
254
255
254
255
254
255
255
255
255
254
255
255
255
255
254
255
254
254
254
254
254
254
254
254
254
254
255
255
254
254
254
0
0
0
0
0
0
0
0
0
0
0
0
0
0
0
0
0
0
0
0
0
0
0
0
0
0
0
0
0
0
0
0
0
0
0
0
0
0
0
0
0
0
0
0
0
0
0
0
0
0
0
0
0
0
0
0
0
0
0
0
0
0
0
0
0
0
0
0
0
0
0
0
0
0
0
0
0
0
0
0
0
0
0
0
0
0
0
0
0
0
0
0
0
0
0
0
0
0
0
0
0
0
0
0
0
0
0
0
0
0
0
0
0
0
0
0
0
0
0
0
0
0
0
0
0
0
0
0
0
0
0
0
0
0
0
0
0
0
0
0
0
0
0
0
0
0
0
0
0
0
0
0
0
0
0
0
0
0
0
0
0
0
0
0
0
0
0
0
0
177
177
177
178
178
178
178
177
176
176
177
177
176
177
178
178
178
178
177
177
177
177
177
177
178
177
177
176
178
177
172
182
193
193
198
201
199
201
200
201
201
200
201
201
203
204
177
180
176
179
179
178
178
176
177
178
177
177
179
180
180
173
158
112
131
109
111
111
107
110
108
109
106
104
104
228
228
228
228
254
254
254
254
255
255
254
254
254
254
255
255
255
255
254
254
255
255
255
255
255
255
255
255
253
253
254
255
255
255
255
255
255
255
255
254
254
255
255
255
255
255
255
255
255
255
255
254
255
255
255
254
254
254
255
255
255
255
254
255
255
255
254
254
254
254
254
254
254
254
254
255
254
254
255
254
255
255
255
248
248
229
229
227
227
135
104
104
105
107
106
106
105
105
105
115
156
143
157
155
152
152
157
156
156
156
157
157
157
157
157
157
157
155
156
157
164
184
184
181
184
184
182
184
182
185
183
184
184
179
176
156
164
157
154
154
156
156
156
157
156
147
147
107
107
107
106
106
107
107
102
114
114
225
227
230
231
228
241
241
255
252
252
255
255
255
255
254
254
254
254
255
254
254
254
255
255
229
180
180
94
101
102
102
102
102
102
103
132
133
136
137
137
137
137
137
137
137
137
137
137
137
137
137
137
137
137
137
137
137
137
137
137
137
137
137
137
137
136
136
136
135
103
102
104
102
103
103
97
128
162
227
231
230
230
228
231
231
245
254
253
253
254
246
246
157
93
99
97
101
103
103
102
102
125
115
135
124
124
104
104
104
102
103
100
95
115
242
242
249
255
254
254
255
255
255
255
255
255
255
255
255
255
255
254
254
255
255
255
255
254
254
254
255
255
255
254
255
255
255
255
255
255
255
254
255
255
255
254
254
254
254
255
255
254
254
254
254
254
254
254
254
254
0
0
0
0
0
0
0
0
0
0
0
0
0
0
0
0
0
0
0
0
0
0
0
0
0
0
0
0
0
0
0
0
0
0
0
0
0
0
0
0
0
0
0
0
0
0
0
0
0
0
0
0
0
0
0
0
0
0
0
0
0
0
0
0
0
0
0
0
0
0
0
0
0
0
0
0
0
0
0
0
0
0
0
0
0
0
0
0
0
0
0
0
0
0
0
0
0
0
0
0
0
0
0
0
0
0
0
0
0
0
0
0
0
0
0
0
0
0
0
0
0
0
0
0
0
0
0
0
0
0
0
0
0
0
0
0
0
0
0
0
0
0
0
0
0
0
0
0
0
0
0
0
0
0
0
0
0
0
0
0
0
0
0
0
0
0
0
0
178
178
177
177
178
178
177
178
177
177
178
175
176
177
178
178
178
178
178
177
176
177
177
177
178
177
177
176
189
177
202
201
200
200
201
201
199
200
203
201
200
201
201
203
188
177
177
179
178
178
177
177
179
176
178
177
175
176
149
171
150
108
107
112
109
107
108
108
110
111
108
108
104
105
200
233
231
229
235
253
252
253
254
255
254
254
254
254
254
254
255
255
255
255
254
254
255
255
255
254
254
255
255
254
253
254
254
255
255
255
255
255
255
255
254
254
254
255
255
254
254
255
254
254
255
254
254
253
255
255
255
254
254
255
255
255
255
254
254
255
255
255
254
254
254
254
254
254
254
254
254
254
254
254
254
254
255
255
254
246
244
229
229
227
227
145
104
102
105
106
105
108
104
106
105
104
143
132
156
158
156
157
155
157
157
157
157
157
156
157
157
155
157
156
158
156
163
182
161
180
184
168
167
182
165
160
179
174
154
157
156
157
157
157
157
156
157
157
156
135
140
106
107
106
106
107
106
107
103
101
111
223
228
231
230
230
231
235
254
254
254
255
255
254
255
254
254
254
255
255
254
254
254
254
252
250
241
228
164
151
96
102
102
102
102
102
103
103
133
133
136
137
137
137
137
137
137
137
137
137
137
137
137
137
137
137
137
137
137
137
137
137
137
137
137
137
137
137
137
132
138
124
102
100
101
104
100
100
95
162
195
231
230
233
248
238
254
253
251
251
249
208
232
123
97
99
99
103
101
101
103
104
132
125
137
136
135
132
135
107
103
102
101
100
99
97
115
240
238
250
254
255
255
255
255
255
255
255
255
255
255
255
255
255
254
254
255
255
255
255
254
254
254
255
255
255
254
255
255
255
255
255
254
254
255
255
255
254
254
254
254
255
255
255
255
254
254
254
254
255
255
254
254
0
0
0
0
0
0
0
0
0
0
0
0
0
0
0
0
0
0
0
0
0
0
0
0
0
0
0
0
0
0
0
0
0
0
0
0
0
0
0
0
0
0
0
0
0
0
0
0
0
0
0
0
0
0
0
0
0
0
0
0
0
0
0
0
0
0
0
0
0
0
0
0
0
0
0
0
0
0
0
0
0
0
0
0
0
0
0
0
0
0
0
0
0
0
0
0
0
0
0
0
0
0
0
0
0
0
0
0
0
0
0
0
0
0
0
0
0
0
0
0
0
0
0
0
0
0
0
0
0
0
0
0
0
0
0
0
0
0
0
0
0
0
0
0
0
0
0
0
0
0
0
0
0
0
0
0
0
0
0
0
0
0
0
0
0
0
0
178
178
178
177
177
177
178
178
177
179
175
175
178
178
178
178
178
178
178
175
180
180
176
177
178
180
190
202
202
203
199
199
202
201
202
202
202
204
204
201
201
201
197
183
177
177
179
176
176
177
177
178
178
180
171
171
146
118
149
108
109
108
108
110
106
106
106
110
111
111
106
103
103
139
232
233
229
228
254
254
254
254
254
254
254
254
254
254
254
254
254
255
255
255
255
254
254
254
254
254
255
254
255
255
254
254
254
254
255
255
255
255
254
254
255
254
254
254
255
254
254
254
254
254
254
255
254
254
254
255
255
255
255
255
255
255
255
255
255
254
255
255
255
255
255
254
254
254
254
254
254
254
253
253
253
254
254
255
254
253
242
242
229
230
227
228
170
102
102
105
106
106
106
105
105
105
105
116
116
149
156
157
157
156
157
157
157
156
156
156
155
156
156
157
158
158
158
156
161
153
158
156
156
156
154
154
158
156
160
160
156
156
156
156
154
156
157
153
120
120
104
106
107
105
108
106
106
104
103
103
224
229
230
230
230
229
229
252
255
254
255
255
254
254
254
255
255
255
255
254
254
254
255
255
251
251
241
233
226
135
135
97
100
102
101
103
102
102
105
134
134
137
137
137
137
137
137
137
137
137
137
137
137
137
137
137
137
137
137
137
137
137
137
137
137
137
137
137
137
135
137
137
116
100
100
101
102
103
103
91
221
221
237
252
248
254
255
250
250
241
172
208
93
99
101
101
102
101
101
104
107
136
136
133
138
138
136
136
135
136
108
102
102
101
102
102
96
107
233
233
250
255
255
255
254
255
255
254
255
255
255
255
255
255
255
254
254
255
255
255
254
254
254
254
255
255
255
254
255
255
255
255
254
254
254
254
254
254
254
254
254
254
255
255
255
254
254
254
254
255
255
254
254
0
0
0
0
0
0
0
0
0
0
0
0
0
0
0
0
0
0
0
0
0
0
0
0
0
0
0
0
0
0
0
0
0
0
0
0
0
0
0
0
0
0
0
0
0
0
0
0
0
0
0
0
0
0
0
0
0
0
0
0
0
0
0
0
0
0
0
0
0
0
0
0
0
0
0
0
0
0
0
0
0
0
0
0
0
0
0
0
0
0
0
0
0
0
0
0
0
0
0
0
0
0
0
0
0
0
0
0
0
0
0
0
0
0
0
0
0
0
0
0
0
0
0
0
0
0
0
0
0
0
0
0
0
0
0
0
0
0
0
0
0
0
0
0
0
0
0
0
0
0
0
0
0
0
0
0
0
0
0
0
0
0
0
0
0
0
0
178
178
177
178
176
176
177
177
177
178
178
177
179
178
178
177
173
177
176
179
181
175
188
178
189
198
201
203
201
200
199
202
201
200
200
201
199
201
199
196
202
191
179
176
176
179
180
180
178
179
169
178
166
114
141
110
110
105
105
108
109
108
108
109
105
109
108
108
108
108
103
107
127
231
233
229
230
234
248
252
254
254
253
254
254
254
254
254
254
254
254
255
255
255
255
254
254
253
254
254
255
255
254
254
254
255
254
254
254
255
255
255
255
254
254
255
255
254
254
254
254
254
254
254
255
254
254
254
254
254
255
255
255
255
255
254
255
255
255
255
255
255
255
255
255
255
254
254
254
254
254
254
254
253
254
254
254
254
254
254
253
241
240
230
230
227
228
184
103
108
104
107
107
104
106
106
106
105
107
102
134
154
159
159
156
156
155
156
155
155
157
155
158
158
155
156
156
158
158
156
157
155
157
157
157
157
157
153
158
156
155
154
156
158
156
156
144
104
112
105
107
107
108
107
105
105
104
112
108
224
227
230
228
230
230
229
247
255
255
255
255
255
255
254
254
254
255
255
255
254
254
255
255
255
254
255
254
231
230
227
121
112
101
99
102
103
103
103
102
105
135
135
136
137
138
138
137
137
137
137
137
137
137
137
137
137
137
137
137
138
137
137
137
137
137
137
137
137
137
138
137
136
134
108
102
102
101
101
101
98
108
236
247
252
254
254
246
248
234
103
135
94
101
101
100
102
102
102
103
121
138
137
137
137
136
137
136
137
137
137
136
107
102
102
102
103
102
96
104
228
224
250
254
254
255
254
254
255
255
255
255
255
255
255
255
255
254
254
255
255
255
255
254
254
254
255
255
255
254
255
255
255
255
254
254
254
254
254
255
254
254
255
255
255
255
255
254
254
254
255
255
255
254
0
0
0
0
0
0
0
0
0
0
0
0
0
0
0
0
0
0
0
0
0
0
0
0
0
0
0
0
0
0
0
0
0
0
0
0
0
0
0
0
0
0
0
0
0
0
0
0
0
0
0
0
0
0
0
0
0
0
0
0
0
0
0
0
0
0
0
0
0
0
0
0
0
0
0
0
0
0
0
0
0
0
0
0
0
0
0
0
0
0
0
0
0
0
0
0
0
0
0
0
0
0
0
0
0
0
0
0
0
0
0
0
0
0
0
0
0
0
0
0
0
0
0
0
0
0
0
0
0
0
0
0
0
0
0
0
0
0
0
0
0
0
0
0
0
0
0
0
0
0
0
0
0
0
0
0
0
0
0
0
0
0
0
0
0
0
0
178
177
177
177
177
176
177
176
178
178
176
178
179
176
180
177
176
175
177
179
188
198
188
204
200
202
201
202
202
200
201
202
200
200
200
198
199
202
188
196
176
176
178
176
178
177
180
175
168
136
136
114
108
114
111
109
110
109
110
109
109
108
108
109
105
106
106
106
108
103
103
121
229
231
232
230
228
234
254
253
254
255
254
253
254
254
255
254
254
254
255
255
255
255
255
255
255
253
254
255
255
255
255
254
254
255
254
254
254
254
255
255
255
254
254
254
255
255
254
252
254
254
254
254
254
254
254
255
254
255
254
255
255
255
254
254
254
255
255
255
255
254
255
255
255
255
255
254
254
254
254
254
254
254
253
254
254
254
254
254
255
254
240
240
230
229
228
228
218
108
121
103
106
106
105
107
106
106
106
102
106
106
124
159
146
158
155
157
156
156
156
155
155
158
157
157
156
156
157
157
157
153
156
157
157
155
157
157
158
156
155
159
155
158
144
115
103
104
106
106
107
106
103
106
105
103
120
112
225
227
229
229
228
231
230
235
255
255
254
255
255
255
255
254
254
254
254
255
255
255
255
255
255
254
254
255
255
240
230
230
226
112
107
101
101
103
102
102
102
103
106
135
135
136
137
138
138
137
137
137
137
137
137
137
137
137
137
137
137
137
138
137
137
137
137
137
137
137
138
138
137
139
134
131
102
101
101
101
103
98
96
187
247
249
255
248
246
179
94
103
97
103
102
101
103
102
102
105
128
137
137
137
137
137
137
137
136
136
137
138
136
135
106
102
102
101
101
101
95
96
224
218
250
254
253
255
255
255
255
255
255
255
255
255
255
255
255
254
254
255
255
255
255
254
254
254
255
255
255
254
254
255
255
255
254
254
254
254
254
255
255
255
255
255
255
255
254
254
254
255
255
255
0
0
0
0
0
0
0
0
0
0
0
0
0
0
0
0
0
0
0
0
0
0
0
0
0
0
0
0
0
0
0
0
0
0
0
0
0
0
0
0
0
0
0
0
0
0
0
0
0
0
0
0
0
0
0
0
0
0
0
0
0
0
0
0
0
0
0
0
0
0
0
0
0
0
0
0
0
0
0
0
0
0
0
0
0
0
0
0
0
0
0
0
0
0
0
0
0
0
0
0
0
0
0
0
0
0
0
0
0
0
0
0
0
0
0
0
0
0
0
0
0
0
0
0
0
0
0
0
0
0
0
0
0
0
0
0
0
0
0
0
0
0
0
0
0
0
0
0
0
0
0
0
0
0
0
0
0
0
0
0
0
0
0
0
0
0
0
0
178
177
177
177
177
176
176
178
177
178
176
178
176
178
178
175
180
196
190
202
203
203
203
201
201
201
201
199
199
198
201
201
202
202
199
200
196
178
178
176
179
177
177
178
180
180
169
142
106
110
107
108
108
108
104
104
108
108
110
107
110
110
110
108
110
108
103
111
98
107
132
231
231
231
227
230
230
246
252
252
255
253
255
254
254
254
254
254
254
254
254
255
255
255
255
255
255
253
254
254
254
254
254
254
254
254
253
255
253
254
254
255
255
255
254
254
254
255
255
255
255
255
254
255
254
254
255
255
255
255
255
254
255
255
255
254
254
254
255
255
255
254
254
255
255
255
255
255
254
254
254
254
254
254
254
253
255
254
255
254
255
255
254
240
240
229
229
228
228
225
145
178
104
107
106
104
105
105
105
106
107
104
105
109
129
129
151
155
150
159
157
158
156
156
157
157
158
157
155
157
157
158
158
160
157
156
158
157
159
154
158
150
150
124
106
107
105
107
105
105
107
107
106
107
102
135
135
227
229
229
229
229
230
229
230
255
255
255
254
255
255
254
255
255
254
254
254
254
254
254
254
255
254
254
255
254
255
255
235
230
230
222
101
99
100
101
102
102
102
102
103
107
136
136
135
137
137
137
137
137
137
137
137
137
137
137
137
137
137
137
137
137
138
137
137
137
137
137
137
138
137
137
138
127
116
102
101
104
103
103
89
89
222
249
228
244
146
95
95
98
103
101
102
103
102
102
109
134
135
135
137
137
138
137
136
136
137
137
137
138
138
135
135
107
103
103
101
101
101
97
93
213
213
250
253
254
253
253
255
255
255
255
255
255
255
255
255
255
254
254
255
255
255
255
254
254
254
255
255
255
254
254
255
255
255
254
254
254
255
255
255
254
254
254
254
254
255
255
255
255
255
0
0
0
0
0
0
0
0
0
0
0
0
0
0
0
0
0
0
0
0
0
0
0
0
0
0
0
0
0
0
0
0
0
0
0
0
0
0
0
0
0
0
0
0
0
0
0
0
0
0
0
0
0
0
0
0
0
0
0
0
0
0
0
0
0
0
0
0
0
0
0
0
0
0
0
0
0
0
0
0
0
0
0
0
0
0
0
0
0
0
0
0
0
0
0
0
0
0
0
0
0
0
0
0
0
0
0
0
0
0
0
0
0
0
0
0
0
0
0
0
0
0
0
0
0
0
0
0
0
0
0
0
0
0
0
0
0
0
0
0
0
0
0
0
0
0
0
0
0
0
0
0
0
0
0
0
0
0
0
0
0
0
0
0
0
0
0
0
0
178
178
178
177
178
178
177
178
177
175
176
177
176
174
179
197
203
196
201
203
203
201
202
199
201
199
203
201
202
201
202
201
200
190
199
178
176
176
177
178
178
177
173
145
171
143
104
108
106
110
108
108
110
110
108
109
108
111
110
107
108
107
105
109
106
108
104
111
98
190
230
231
231
230
230
230
230
254
254
255
254
255
255
255
252
253
253
254
254
254
254
254
255
255
254
252
255
253
254
254
254
255
255
254
254
255
253
254
255
254
255
255
255
255
255
254
254
254
254
254
255
253
255
255
255
254
254
255
254
254
255
255
254
255
255
255
254
254
255
255
255
255
254
254
255
255
255
255
255
254
254
254
254
254
254
254
255
254
254
255
254
255
255
254
240
241
229
230
230
229
227
178
201
111
106
104
105
105
105
106
106
104
103
107
102
105
108
107
150
123
137
158
151
152
158
154
160
155
155
157
153
156
159
153
160
156
151
141
159
123
110
126
106
107
107
107
104
105
105
107
106
105
106
101
169
153
227
227
230
229
230
230
230
230
252
255
255
254
255
255
254
254
255
255
255
254
254
254
254
254
254
254
255
254
254
254
255
255
254
234
229
228
218
99
95
101
102
101
101
102
103
102
109
136
137
136
137
136
136
137
137
137
137
137
137
137
137
137
137
137
137
137
137
137
137
137
138
137
138
137
137
137
137
138
116
106
100
104
103
103
100
98
132
196
228
99
101
97
99
101
102
101
101
103
101
114
137
136
135
139
137
137
137
137
137
137
137
137
137
137
138
137
135
135
107
103
103
102
101
101
98
91
210
209
249
254
255
253
255
255
255
255
255
255
255
255
255
255
254
254
254
255
255
255
254
254
254
254
255
255
255
254
254
255
255
255
254
254
255
255
254
254
254
254
254
254
255
255
255
255
0
0
0
0
0
0
0
0
0
0
0
0
0
0
0
0
0
0
0
0
0
0
0
0
0
0
0
0
0
0
0
0
0
0
0
0
0
0
0
0
0
0
0
0
0
0
0
0
0
0
0
0
0
0
0
0
0
0
0
0
0
0
0
0
0
0
0
0
0
0
0
0
0
0
0
0
0
0
0
0
0
0
0
0
0
0
0
0
0
0
0
0
0
0
0
0
0
0
0
0
0
0
0
0
0
0
0
0
0
0
0
0
0
0
0
0
0
0
0
0
0
0
0
0
0
0
0
0
0
0
0
0
0
0
0
0
0
0
0
0
0
0
0
0
0
0
0
0
0
0
0
0
0
0
0
0
0
0
0
0
0
0
0
0
0
0
0
0
0
0
178
178
178
178
177
176
176
177
177
177
178
187
187
197
202
204
204
202
204
204
201
201
199
199
201
200
200
199
201
201
201
199
182
182
177
178
178
179
178
173
173
148
116
116
109
106
109
109
107
110
110
109
108
108
110
110
108
108
108
110
110
102
106
104
104
103
154
154
222
232
232
231
230
231
231
229
249
249
255
255
253
253
255
255
255
255
253
254
254
254
254
254
254
255
255
254
255
254
254
254
254
254
254
253
254
254
251
252
252
251
253
253
254
255
255
255
254
251
251
254
254
254
254
255
255
255
254
254
254
254
254
255
255
254
255
255
255
255
254
254
255
255
255
254
254
255
255
255
255
255
254
254
254
254
254
254
254
255
254
254
255
255
254
254
254
243
243
229
230
229
229
228
222
222
141
100
100
102
107
106
106
106
106
106
102
105
106
106
104
103
103
113
128
128
138
145
149
149
154
152
152
156
151
142
142
127
115
115
107
104
104
105
107
106
106
105
105
105
106
105
105
105
107
194
194
228
229
229
229
230
229
229
230
251
251
255
253
255
255
255
254
254
254
255
255
255
254
254
254
254
254
254
255
254
254
254
255
255
255
251
231
229
229
211
94
94
103
102
101
101
102
103
103
109
136
136
136
137
137
137
137
137
137
137
137
137
137
137
137
137
137
137
137
137
137
137
137
138
137
137
137
137
138
138
137
101
101
100
101
101
105
97
121
121
95
102
102
101
101
102
102
102
105
105
128
134
137
137
139
137
137
137
137
137
137
137
137
137
137
137
137
137
136
135
135
108
103
103
101
101
101
99
92
209
209
247
255
255
254
255
255
255
255
255
255
255
255
255
255
254
254
254
255
255
255
254
254
254
254
255
255
255
254
255
255
255
255
255
255
254
254
254
255
255
254
254
254
255
255
0
0
0
0
0
0
0
0
0
0
0
0
0
0
0
0
0
0
0
0
0
0
0
0
0
0
0
0
0
0
0
0
0
0
0
0
0
0
0
0
0
0
0
0
0
0
0
0
0
0
0
0
0
0
0
0
0
0
0
0
0
0
0
0
0
0
0
0
0
0
0
0
0
0
0
0
0
0
0
0
0
0
0
0
0
0
0
0
0
0
0
0
0
0
0
0
0
0
0
0
0
0
0
0
0
0
0
0
0
0
0
0
0
0
0
0
0
0
0
0
0
0
0
0
0
0
0
0
0
0
0
0
0
0
0
0
0
0
0
0
0
0
0
0
0
0
0
0
0
0
0
0
0
0
0
0
0
0
0
0
0
0
0
0
0
0
0
0
0
0
0
178
178
177
178
176
177
177
184
178
186
204
196
202
200
199
200
200
200
203
201
201
198
201
201
201
199
198
204
198
202
189
177
176
177
177
178
180
158
129
155
120
108
112
110
109
108
108
107
107
110
107
109
108
108
110
109
106
109
105
106
104
110
151
107
145
231
211
232
227
230
230
229
230
231
228
235
242
255
254
255
254
254
254
255
254
253
255
253
253
254
254
254
253
254
250
252
251
251
253
250
253
253
250
251
253
253
253
255
254
252
255
251
254
254
255
252
252
254
252
255
254
254
255
254
255
255
254
255
254
254
254
254
255
255
254
255
255
255
254
254
254
255
255
255
254
254
255
255
255
254
254
254
254
254
255
254
254
254
255
253
254
255
255
254
255
254
245
247
230
230
229
227
232
230
226
183
105
133
98
106
106
106
107
107
104
105
105
108
107
107
106
106
104
106
107
106
110
114
105
114
112
109
105
104
105
104
107
104
107
107
110
104
106
105
107
106
105
106
104
101
104
124
225
212
230
231
229
229
229
229
229
229
250
250
254
255
255
255
255
255
255
254
254
254
255
255
255
254
255
254
254
255
255
255
254
254
255
255
255
254
249
230
229
228
205
93
92
103
102
101
101
102
102
103
109
136
136
136
137
137
137
137
137
137
137
137
137
137
137
137
137
137
137
137
137
137
138
138
138
137
137
137
138
137
136
129
104
101
105
103
103
102
98
100
101
102
100
101
101
101
102
114
109
133
137
137
137
138
137
137
137
137
137
137
137
137
137
137
137
137
137
137
137
136
136
136
108
102
102
102
102
102
101
90
213
226
248
254
254
252
255
255
254
255
255
255
255
255
255
255
254
254
254
255
255
255
255
254
254
254
255
255
255
254
254
254
255
255
254
254
254
255
255
254
254
254
254
254
0
0
0
0
0
0
0
0
0
0
0
0
0
0
0
0
0
0
0
0
0
0
0
0
0
0
0
0
0
0
0
0
0
0
0
0
0
0
0
0
0
0
0
0
0
0
0
0
0
0
0
0
0
0
0
0
0
0
0
0
0
0
0
0
0
0
0
0
0
0
0
0
0
0
0
0
0
0
0
0
0
0
0
0
0
0
0
0
0
0
0
0
0
0
0
0
0
0
0
0
0
0
0
0
0
0
0
0
0
0
0
0
0
0
0
0
0
0
0
0
0
0
0
0
0
0
0
0
0
0
0
0
0
0
0
0
0
0
0
0
0
0
0
0
0
0
0
0
0
0
0
0
0
0
0
0
0
0
0
0
0
0
0
0
0
0
0
0
0
0
0
0
178
178
177
176
176
184
194
184
202
202
204
199
202
200
200
203
200
200
200
200
201
201
201
200
201
203
200
187
187
178
177
177
175
177
177
168
133
111
111
105
107
108
107
108
109
109
107
107
107
109
108
109
109
109
109
109
105
104
105
119
160
212
212
232
230
231
232
229
227
229
229
230
230
232
230
235
253
254
255
255
255
253
254
254
253
254
254
254
252
254
251
250
253
249
233
215
215
197
185
250
185
188
197
197
221
236
253
248
251
252
252
253
253
253
254
255
252
255
254
254
254
254
253
254
254
254
254
254
255
254
254
254
255
255
254
253
255
255
255
254
254
254
255
255
255
254
254
255
255
255
254
254
254
254
254
255
255
254
255
255
254
254
254
254
255
254
255
249
249
230
232
227
229
230
226
223
227
182
182
111
103
106
102
107
108
108
108
105
107
105
106
106
106
106
106
106
105
105
105
103
104
105
105
108
105
104
109
105
107
105
106
105
105
106
106
106
106
103
110
110
189
228
225
229
232
229
229
229
229
229
230
250
250
253
255
255
255
255
254
255
255
255
254
254
254
255
255
255
254
254
254
254
255
255
255
255
255
255
254
254
254
245
229
228
226
190
93
93
102
101
101
102
102
103
102
109
136
136
136
138
137
137
137
137
137
137
137
137
137
137
137
137
137
137
137
137
138
138
138
138
138
138
138
137
136
136
114
101
101
104
103
103
103
103
101
104
101
102
102
102
121
114
137
137
137
137
137
137
137
137
137
137
137
137
137
137
137
137
137
137
138
137
137
136
136
136
136
107
102
102
102
103
103
97
90
226
235
250
254
254
253
254
254
254
255
255
255
255
255
255
255
255
254
254
255
255
255
255
254
254
254
255
255
255
254
255
255
254
254
254
254
255
254
254
254
255
254
0
0
0
0
0
0
0
0
0
0
0
0
0
0
0
0
0
0
0
0
0
0
0
0
0
0
0
0
0
0
0
0
0
0
0
0
0
0
0
0
0
0
0
0
0
0
0
0
0
0
0
0
0
0
0
0
0
0
0
0
0
0
0
0
0
0
0
0
0
0
0
0
0
0
0
0
0
0
0
0
0
0
0
0
0
0
0
0
0
0
0
0
0
0
0
0
0
0
0
0
0
0
0
0
0
0
0
0
0
0
0
0
0
0
0
0
0
0
0
0
0
0
0
0
0
0
0
0
0
0
0
0
0
0
0
0
0
0
0
0
0
0
0
0
0
0
0
0
0
0
0
0
0
0
0
0
0
0
0
0
0
0
0
0
0
0
0
0
0
0
0
0
0
176
174
194
184
195
202
201
203
200
200
200
200
203
203
202
200
201
200
201
203
204
203
203
202
203
191
177
179
173
177
176
178
172
172
139
112
111
108
108
106
106
107
108
109
109
108
110
109
112
108
108
110
107
104
100
101
192
126
178
222
229
233
229
231
229
230
228
228
231
230
231
230
231
229
229
253
255
254
255
255
255
255
253
253
251
251
252
250
252
251
238
238
196
155
120
133
123
127
123
121
124
125
122
123
126
129
144
180
180
220
246
190
251
253
250
250
254
254
253
251
254
254
254
255
253
254
254
254
254
254
254
254
254
255
254
254
254
255
255
255
254
254
254
255
255
255
254
254
255
255
255
254
254
254
254
255
255
255
255
255
255
254
254
254
254
254
254
255
250
253
231
229
230
230
232
230
231
228
218
226
151
101
104
103
103
101
105
107
105
107
107
108
105
105
107
106
105
108
104
106
105
105
105
108
107
106
103
103
108
103
107
104
109
105
104
106
102
188
147
216
229
227
230
230
229
230
229
230
230
230
251
251
254
255
255
255
255
255
255
254
255
255
255
254
254
254
255
255
255
255
254
254
254
255
255
255
255
254
254
254
254
254
243
229
226
228
183
93
94
103
102
102
102
102
103
102
109
137
136
136
138
137
137
137
137
137
137
137
137
137
137
137
137
137
137
137
137
138
138
138
138
138
137
137
137
137
137
106
102
103
101
104
103
107
103
101
104
103
105
135
130
137
136
136
137
137
137
137
137
137
137
137
137
137
137
137
138
137
137
137
138
138
137
136
137
137
135
135
106
102
102
101
101
102
103
100
243
248
251
254
255
254
254
254
255
255
255
255
255
255
255
255
255
255
255
255
255
255
255
254
254
254
255
255
255
254
255
254
254
254
254
254
254
254
255
255
0
0
0
0
0
0
0
0
0
0
0
0
0
0
0
0
0
0
0
0
0
0
0
0
0
0
0
0
0
0
0
0
0
0
0
0
0
0
0
0
0
0
0
0
0
0
0
0
0
0
0
0
0
0
0
0
0
0
0
0
0
0
0
0
0
0
0
0
0
0
0
0
0
0
0
0
0
0
0
0
0
0
0
0
0
0
0
0
0
0
0
0
0
0
0
0
0
0
0
0
0
0
0
0
0
0
0
0
0
0
0
0
0
0
0
0
0
0
0
0
0
0
0
0
0
0
0
0
0
0
0
0
0
0
0
0
0
0
0
0
0
0
0
0
0
0
0
0
0
0
0
0
0
0
0
0
0
0
0
0
0
0
0
0
0
0
0
0
0
0
0
0
0
0
190
199
194
202
200
202
201
202
201
201
201
202
203
199
198
200
201
201
202
203
198
202
203
189
177
177
177
179
179
177
158
118
146
111
107
108
111
107
108
106
107
107
109
109
108
105
110
109
105
108
105
108
151
104
205
232
192
232
230
230
229
229
227
231
232
229
228
230
231
229
231
228
231
229
251
255
255
254
254
255
255
251
254
254
251
252
233
250
161
121
169
127
124
126
120
128
127
127
130
132
130
125
128
125
126
128
127
125
124
125
122
190
130
166
250
230
250
251
253
253
255
254
254
255
254
254
254
252
254
254
255
254
254
254
255
254
254
254
255
255
255
254
254
254
255
255
255
255
254
255
255
255
254
254
254
255
255
254
254
255
254
255
254
255
254
254
254
254
254
253
254
239
229
230
230
227
231
226
228
226
228
221
188
103
128
102
105
105
108
106
105
107
106
105
106
105
105
104
103
105
105
101
106
108
104
106
108
102
111
105
107
105
101
105
111
168
223
188
226
231
229
227
229
229
229
230
230
230
230
251
251
254
255
255
255
255
255
255
255
254
254
255
255
255
254
254
254
255
255
255
255
254
254
255
255
255
255
254
254
254
254
254
254
238
231
228
227
170
94
95
102
102
102
102
102
102
103
109
136
136
135
137
137
137
137
137
137
137
137
137
137
137
137
137
137
137
137
138
138
138
138
137
137
137
137
137
135
132
102
103
98
100
103
103
104
103
104
115
136
135
134
137
137
136
137
136
137
137
137
137
137
137
137
137
137
138
138
137
138
137
138
137
136
136
136
137
137
135
135
107
102
101
103
102
102
96
168
248
251
253
255
253
254
254
255
255
255
255
255
255
255
255
255
254
255
255
255
255
255
255
254
254
254
255
255
255
254
254
255
255
254
254
254
255
255
0
0
0
0
0
0
0
0
0
0
0
0
0
0
0
0
0
0
0
0
0
0
0
0
0
0
0
0
0
0
0
0
0
0
0
0
0
0
0
0
0
0
0
0
0
0
0
0
0
0
0
0
0
0
0
0
0
0
0
0
0
0
0
0
0
0
0
0
0
0
0
0
0
0
0
0
0
0
0
0
0
0
0
0
0
0
0
0
0
0
0
0
0
0
0
0
0
0
0
0
0
0
0
0
0
0
0
0
0
0
0
0
0
0
0
0
0
0
0
0
0
0
0
0
0
0
0
0
0
0
0
0
0
0
0
0
0
0
0
0
0
0
0
0
0
0
0
0
0
0
0
0
0
0
0
0
0
0
0
0
0
0
0
0
0
0
0
0
0
0
0
0
0
0
0
202
201
200
201
201
200
200
200
201
202
201
201
200
200
200
202
201
201
201
200
196
196
178
177
178
176
174
164
164
129
110
110
108
109
111
111
112
109
109
108
107
108
108
109
107
107
107
104
104
110
155
210
210
233
230
230
231
229
230
229
231
230
230
227
228
228
228
232
230
230
231
232
232
251
254
255
255
255
254
254
252
254
251
253
244
184
184
126
124
124
126
127
127
127
130
131
131
126
125
130
132
129
127
127
130
128
128
123
125
125
125
124
123
123
125
159
123
207
248
252
252
254
254
250
255
254
254
254
254
254
254
255
254
255
255
254
254
254
254
255
255
255
254
254
254
255
255
255
255
254
255
255
255
255
255
254
255
255
254
254
255
255
255
255
255
253
254
253
253
255
254
254
244
229
230
230
230
231
231
231
229
230
229
222
186
186
133
104
104
103
103
100
100
106
105
105
104
103
104
108
107
105
105
106
108
108
106
107
102
102
97
109
109
158
214
226
223
229
230
230
228
232
230
230
230
229
229
231
254
254
254
255
255
255
255
255
255
255
254
254
254
254
255
255
255
254
254
255
255
255
255
255
254
254
255
254
254
255
254
254
254
254
254
254
237
231
227
227
169
95
95
102
102
102
102
103
102
102
108
135
136
136
137
137
137
137
137
137
137
137
137
137
137
137
137
137
137
137
137
137
137
137
137
137
137
138
138
131
131
101
101
101
103
102
107
102
123
138
138
138
138
139
138
137
136
136
137
137
137
137
137
137
137
137
138
138
137
137
135
136
132
135
135
136
136
136
137
137
134
134
107
103
103
102
100
101
90
227
254
254
255
255
252
255
254
255
255
255
255
255
255
255
255
255
254
255
255
255
254
254
255
254
254
254
255
255
255
254
255
254
254
254
255
255
0
0
0
0
0
0
0
0
0
0
0
0
0
0
0
0
0
0
0
0
0
0
0
0
0
0
0
0
0
0
0
0
0
0
0
0
0
0
0
0
0
0
0
0
0
0
0
0
0
0
0
0
0
0
0
0
0
0
0
0
0
0
0
0
0
0
0
0
0
0
0
0
0
0
0
0
0
0
0
0
0
0
0
0
0
0
0
0
0
0
0
0
0
0
0
0
0
0
0
0
0
0
0
0
0
0
0
0
0
0
0
0
0
0
0
0
0
0
0
0
0
0
0
0
0
0
0
0
0
0
0
0
0
0
0
0
0
0
0
0
0
0
0
0
0
0
0
0
0
0
0
0
0
0
0
0
0
0
0
0
0
0
0
0
0
0
0
0
0
0
0
0
0
0
0
0
202
201
202
204
199
201
200
200
201
200
201
201
203
201
201
202
201
201
191
177
185
174
177
176
178
151
115
137
110
109
110
107
108
108
108
108
110
108
109
110
108
108
106
102
108
103
161
111
161
228
227
234
230
231
230
230
230
229
230
232
230
227
230
233
230
230
229
227
228
230
242
235
253
255
254
255
254
255
254
254
252
249
251
176
123
141
124
127
128
128
128
127
130
129
129
130
128
129
130
130
131
129
129
127
131
129
128
127
127
128
130
123
129
125
128
130
123
127
120
205
250
212
249
250
251
254
255
253
254
254
255
255
254
254
254
255
254
254
254
254
255
255
255
254
255
255
255
255
255
255
254
255
255
255
255
254
254
255
255
254
254
255
255
255
255
255
252
255
253
254
255
254
255
253
231
231
230
228
226
229
228
230
229
229
228
224
229
198
152
220
192
106
102
128
104
103
102
104
104
104
106
101
103
106
102
104
126
155
102
122
223
166
215
226
229
226
231
228
229
231
227
230
230
230
229
229
234
255
254
253
254
255
255
255
255
255
255
254
254
254
254
255
254
255
255
255
255
255
255
255
255
255
255
254
254
255
254
255
255
254
254
254
254
254
254
233
230
227
229
158
95
95
102
102
102
102
103
103
102
107
136
135
136
137
137
137
137
137
137
137
137
137
137
137
137
137
137
137
137
136
136
137
137
137
137
138
139
137
130
131
103
103
110
119
107
133
138
137
137
136
136
139
136
139
138
137
135
136
137
137
137
137
137
138
138
137
138
133
135
148
148
135
136
141
136
136
136
137
136
135
133
109
101
103
102
101
100
184
245
254
252
253
252
255
252
254
255
255
255
255
254
255
255
255
255
254
255
255
255
254
254
255
254
254
254
255
255
255
254
254
254
255
255
0
0
0
0
0
0
0
0
0
0
0
0
0
0
0
0
0
0
0
0
0
0
0
0
0
0
0
0
0
0
0
0
0
0
0
0
0
0
0
0
0
0
0
0
0
0
0
0
0
0
0
0
0
0
0
0
0
0
0
0
0
0
0
0
0
0
0
0
0
0
0
0
0
0
0
0
0
0
0
0
0
0
0
0
0
0
0
0
0
0
0
0
0
0
0
0
0
0
0
0
0
0
0
0
0
0
0
0
0
0
0
0
0
0
0
0
0
0
0
0
0
0
0
0
0
0
0
0
0
0
0
0
0
0
0
0
0
0
0
0
0
0
0
0
0
0
0
0
0
0
0
0
0
0
0
0
0
0
0
0
0
0
0
0
0
0
0
0
0
0
0
0
0
0
0
0
0
201
201
201
201
198
201
201
201
202
202
199
203
203
201
202
197
197
182
176
176
177
179
160
160
126
107
107
109
110
109
108
107
108
108
112
115
110
112
110
105
105
103
106
106
154
213
161
235
233
232
232
231
227
231
228
228
229
229
231
228
228
228
227
233
229
229
230
230
236
250
242
254
255
255
255
254
255
255
254
251
242
242
145
126
126
129
130
127
129
130
127
127
129
129
129
130
132
131
131
131
130
130
131
129
131
129
129
130
130
127
132
123
124
128
127
127
131
123
123
124
122
159
159
233
251
251
253
253
254
255
255
255
255
254
254
255
255
255
254
254
254
255
255
255
255
255
255
255
255
255
255
254
255
255
255
254
254
254
255
255
254
254
255
255
254
254
254
253
255
254
254
255
255
255
254
243
230
229
231
228
228
231
229
229
229
231
229
230
225
224
224
223
214
128
202
190
173
173
163
159
159
162
173
106
186
207
215
215
227
226
223
224
228
229
229
229
228
228
230
228
230
230
230
229
229
243
254
255
255
254
255
255
255
254
255
255
254
254
254
254
255
255
254
254
255
255
255
255
255
255
254
255
255
255
255
255
255
255
255
255
254
254
254
254
254
254
232
229
229
229
157
95
95
103
102
102
102
102
103
103
106
135
135
136
137
137
137
137
137
137
137
137
137
137
137
137
137
137
137
137
137
137
137
137
137
137
137
138
136
131
136
133
131
131
136
137
137
137
137
136
136
138
139
139
137
136
135
137
137
137
137
137
137
138
137
136
135
135
155
159
159
140
136
141
136
137
137
137
137
136
133
112
102
104
104
103
96
96
243
253
255
255
254
255
255
252
255
255
255
255
254
254
255
255
255
255
254
255
255
255
255
255
255
254
254
254
255
255
255
254
255
255
0
0
0
0
0
0
0
0
0
0
0
0
0
0
0
0
0
0
0
0
0
0
0
0
0
0
0
0
0
0
0
0
0
0
0
0
0
0
0
0
0
0
0
0
0
0
0
0
0
0
0
0
0
0
0
0
0
0
0
0
0
0
0
0
0
0
0
0
0
0
0
0
0
0
0
0
0
0
0
0
0
0
0
0
0
0
0
0
0
0
0
0
0
0
0
0
0
0
0
0
0
0
0
0
0
0
0
0
0
0
0
0
0
0
0
0
0
0
0
0
0
0
0
0
0
0
0
0
0
0
0
0
0
0
0
0
0
0
0
0
0
0
0
0
0
0
0
0
0
0
0
0
0
0
0
0
0
0
0
0
0
0
0
0
0
0
0
0
0
0
0
0
0
0
0
0
0
0
199
199
201
204
200
204
199
200
202
201
203
202
202
200
178
187
177
178
177
178
146
112
134
109
109
105
109
107
109
107
108
109
107
108
107
111
109
103
106
103
105
212
148
218
232
231
231
227
228
233
228
230
230
229
232
230
230
229
232
229
229
229
228
228
232
246
236
246
254
254
254
255
255
254
254
254
255
254
251
192
219
121
127
127
129
130
130
131
130
130
130
127
131
129
128
133
150
131
134
151
138
137
155
137
136
133
146
130
131
130
128
131
132
131
127
132
131
124
127
126
127
123
121
122
176
247
214
251
253
253
254
255
254
255
254
254
255
255
255
254
255
255
255
255
255
254
254
254
255
255
255
255
254
255
255
255
254
254
254
255
255
254
254
255
254
255
255
255
254
255
254
255
255
254
254
254
251
232
242
230
229
232
228
231
231
228
230
231
231
229
229
230
234
229
227
228
228
225
229
225
222
229
225
230
230
231
229
229
231
229
229
230
231
230
228
229
229
229
229
230
229
230
232
231
248
254
254
255
254
255
255
254
255
254
255
254
254
254
254
255
255
254
254
254
255
255
255
255
255
255
254
254
255
255
255
254
254
255
255
255
255
254
254
254
254
254
253
231
229
228
228
157
96
96
102
102
102
102
102
102
103
106
134
133
136
137
137
137
137
137
137
137
137
137
137
137
137
137
137
137
137
138
137
137
137
137
137
137
136
137
138
137
138
137
136
137
137
138
138
137
138
137
137
138
137
137
138
136
135
136
137
137
137
136
135
147
140
159
159
161
149
138
136
137
135
138
138
137
133
135
110
104
103
105
104
96
96
203
248
251
255
254
250
254
254
254
254
255
255
255
255
254
254
255
255
255
255
254
255
254
255
255
255
255
254
254
254
255
255
255
254
0
0
0
0
0
0
0
0
0
0
0
0
0
0
0
0
0
0
0
0
0
0
0
0
0
0
0
0
0
0
0
0
0
0
0
0
0
0
0
0
0
0
0
0
0
0
0
0
0
0
0
0
0
0
0
0
0
0
0
0
0
0
0
0
0
0
0
0
0
0
0
0
0
0
0
0
0
0
0
0
0
0
0
0
0
0
0
0
0
0
0
0
0
0
0
0
0
0
0
0
0
0
0
0
0
0
0
0
0
0
0
0
0
0
0
0
0
0
0
0
0
0
0
0
0
0
0
0
0
0
0
0
0
0
0
0
0
0
0
0
0
0
0
0
0
0
0
0
0
0
0
0
0
0
0
0
0
0
0
0
0
0
0
0
0
0
0
0
0
0
0
0
0
0
0
0
0
0
0
199
200
200
204
201
201
198
200
202
201
203
195
182
175
178
177
175
178
160
119
106
106
109
110
109
109
108
107
107
110
105
109
108
110
107
109
106
136
106
200
233
212
227
229
232
228
232
229
228
230
229
230
229
226
229
230
229
230
232
227
232
229
238
248
254
246
255
253
254
254
254
255
255
254
255
254
254
251
173
173
126
125
127
129
130
130
129
131
128
130
129
137
131
150
156
158
150
157
160
151
162
162
155
164
162
159
146
158
156
130
149
142
136
131
130
130
131
129
128
126
126
130
130
122
130
121
214
163
246
251
254
255
255
255
255
254
254
255
254
255
255
255
254
255
255
255
254
254
255
255
255
255
254
254
255
255
255
254
254
254
255
255
255
255
254
254
255
255
254
254
255
255
255
255
254
255
255
255
242
249
235
232
231
230
231
228
232
229
231
228
228
230
228
225
228
228
228
229
229
229
229
229
230
232
228
231
227
231
231
232
230
229
231
232
229
229
232
230
229
229
231
245
232
255
254
254
255
254
255
255
255
255
255
254
254
254
254
255
255
255
255
254
254
255
255
255
255
255
255
255
255
254
254
255
255
255
254
254
254
255
255
254
254
254
254
254
253
252
231
228
228
228
157
96
96
102
103
102
101
102
103
102
104
133
131
136
138
137
137
137
137
137
137
137
137
137
137
137
137
137
137
137
137
137
137
137
137
137
137
137
137
137
137
137
136
136
137
139
139
137
137
137
138
136
137
138
136
136
135
136
137
137
135
139
156
147
160
161
159
142
136
138
138
137
137
138
136
133
133
106
103
99
103
103
100
96
98
239
254
254
252
254
250
254
254
254
255
255
255
255
255
255
254
254
255
255
255
255
255
254
254
255
255
255
255
254
254
254
255
255
0
0
0
0
0
0
0
0
0
0
0
0
0
0
0
0
0
0
0
0
0
0
0
0
0
0
0
0
0
0
0
0
0
0
0
0
0
0
0
0
0
0
0
0
0
0
0
0
0
0
0
0
0
0
0
0
0
0
0
0
0
0
0
0
0
0
0
0
0
0
0
0
0
0
0
0
0
0
0
0
0
0
0
0
0
0
0
0
0
0
0
0
0
0
0
0
0
0
0
0
0
0
0
0
0
0
0
0
0
0
0
0
0
0
0
0
0
0
0
0
0
0
0
0
0
0
0
0
0
0
0
0
0
0
0
0
0
0
0
0
0
0
0
0
0
0
0
0
0
0
0
0
0
0
0
0
0
0
0
0
0
0
0
0
0
0
0
0
0
0
0
0
0
0
0
0
0
0
0
0
202
198
198
200
200
203
202
202
198
198
186
176
179
177
179
171
171
136
110
108
108
111
105
106
107
107
107
108
106
109
108
103
106
106
104
127
229
194
232
232
232
230
230
230
227
228
227
229
231
228
228
230
231
229
230
228
228
228
234
240
240
248
252
255
255
255
253
253
254
255
254
254
255
254
254
254
250
145
157
123
129
126
130
128
128
128
129
133
129
138
148
148
157
160
163
161
163
162
162
163
161
161
165
165
165
163
163
163
163
164
162
160
155
146
140
140
130
130
131
130
128
129
130
130
127
127
124
128
124
215
251
254
254
254
255
255
254
253
255
255
255
255
255
255
255
255
255
254
255
255
255
255
255
254
254
255
255
255
254
254
254
255
255
255
254
254
254
254
254
254
255
254
255
255
254
255
254
255
254
251
251
242
232
232
230
228
229
228
229
226
226
232
232
229
232
232
228
228
232
230
230
230
231
230
227
236
231
231
230
227
230
228
227
230
230
229
231
231
227
235
252
248
252
254
254
255
254
255
255
255
255
255
255
254
254
254
255
255
255
255
254
254
255
254
254
255
255
255
255
255
255
255
254
255
255
255
255
254
254
254
254
254
254
254
254
254
254
251
251
231
228
228
228
157
96
95
102
101
102
102
102
103
103
103
132
130
136
135
137
137
137
137
137
137
137
137
137
137
137
137
137
137
137
137
137
137
137
138
137
137
137
137
136
136
137
137
138
139
137
137
137
137
137
137
140
136
137
136
135
136
136
134
147
160
159
160
162
162
139
136
136
137
137
137
136
136
127
127
105
104
103
101
101
98
98
91
214
230
251
254
254
254
254
255
255
255
255
254
255
255
255
255
255
254
254
255
255
255
255
255
254
254
255
255
255
255
254
254
254
0
0
0
0
0
0
0
0
0
0
0
0
0
0
0
0
0
0
0
0
0
0
0
0
0
0
0
0
0
0
0
0
0
0
0
0
0
0
0
0
0
0
0
0
0
0
0
0
0
0
0
0
0
0
0
0
0
0
0
0
0
0
0
0
0
0
0
0
0
0
0
0
0
0
0
0
0
0
0
0
0
0
0
0
0
0
0
0
0
0
0
0
0
0
0
0
0
0
0
0
0
0
0
0
0
0
0
0
0
0
0
0
0
0
0
0
0
0
0
0
0
0
0
0
0
0
0
0
0
0
0
0
0
0
0
0
0
0
0
0
0
0
0
0
0
0
0
0
0
0
0
0
0
0
0
0
0
0
0
0
0
0
0
0
0
0
0
0
0
0
0
0
0
0
0
0
0
0
0
0
0
204
201
203
201
195
203
184
179
186
177
176
176
179
159
122
151
113
108
109
108
109
109
105
108
107
106
110
106
110
109
104
111
104
118
225
232
229
228
229
228
229
228
231
231
231
230
227
231
229
228
231
228
230
229
237
248
235
245
254
251
253
254
254
255
254
253
255
255
255
253
254
255
253
253
253
250
139
145
128
129
129
130
128
128
128
131
137
133
156
158
158
159
165
165
163
163
163
164
163
166
163
161
165
166
165
164
165
163
163
164
163
160
165
160
156
149
156
146
131
136
133
129
130
129
128
125
129
124
124
124
141
250
253
253
253
255
255
253
254
254
254
255
255
255
254
255
255
255
255
255
254
255
255
255
254
254
255
255
255
254
254
254
255
254
254
254
254
255
255
254
254
254
253
254
254
254
254
254
255
255
254
255
251
240
249
239
229
233
229
229
229
229
230
229
231
230
231
229
231
229
230
227
231
230
229
230
227
229
231
232
230
230
229
230
227
232
239
231
250
254
252
255
255
254
255
254
255
255
254
254
254
255
255
254
254
254
255
255
255
254
254
255
255
254
254
254
255
255
255
255
255
255
255
255
255
255
255
255
254
254
254
254
254
255
254
254
254
253
251
251
230
228
228
229
156
95
95
102
102
101
101
102
102
103
103
130
129
137
136
136
136
137
137
137
137
137
137
137
137
137
137
137
137
137
137
137
138
138
137
137
137
137
137
137
138
138
138
137
137
137
138
139
138
138
137
135
137
135
137
135
138
158
161
160
160
156
157
134
137
138
137
138
137
137
136
119
123
103
104
103
103
101
95
99
93
201
227
230
233
255
254
252
254
255
253
255
254
254
254
255
255
254
254
255
254
254
255
255
255
255
255
254
254
255
255
255
255
254
0
0
0
0
0
0
0
0
0
0
0
0
0
0
0
0
0
0
0
0
0
0
0
0
0
0
0
0
0
0
0
0
0
0
0
0
0
0
0
0
0
0
0
0
0
0
0
0
0
0
0
0
0
0
0
0
0
0
0
0
0
0
0
0
0
0
0
0
0
0
0
0
0
0
0
0
0
0
0
0
0
0
0
0
0
0
0
0
0
0
0
0
0
0
0
0
0
0
0
0
0
0
0
0
0
0
0
0
0
0
0
0
0
0
0
0
0
0
0
0
0
0
0
0
0
0
0
0
0
0
0
0
0
0
0
0
0
0
0
0
0
0
0
0
0
0
0
0
0
0
0
0
0
0
0
0
0
0
0
0
0
0
0
0
0
0
0
0
0
0
0
0
0
0
0
0
0
0
0
0
0
0
204
195
189
181
181
175
179
179
176
178
171
171
134
107
107
106
110
108
108
109
108
108
108
107
107
108
107
105
105
107
156
156
225
231
229
229
232
232
232
231
230
228
231
229
228
228
229
230
230
228
229
237
237
247
255
255
253
253
254
254
254
253
253
254
254
254
253
255
253
253
255
253
253
254
250
135
135
130
126
126
130
128
128
129
133
144
144
158
159
159
164
165
164
164
164
162
162
163
166
166
166
164
163
163
166
165
165
165
164
166
166
164
167
167
165
163
160
160
154
143
143
133
131
131
130
127
130
130
125
124
124
125
213
251
251
253
255
255
254
253
254
254
254
255
255
254
255
255
255
254
254
254
255
255
255
254
254
255
255
255
255
255
254
254
254
255
255
255
255
254
254
254
254
254
254
254
254
254
254
254
252
255
254
255
253
253
247
240
240
234
228
230
230
229
227
227
231
230
231
231
232
229
229
230
231
231
229
231
229
229
228
228
228
233
238
249
249
255
255
255
255
255
255
255
255
255
255
254
255
255
254
254
255
255
254
254
254
255
254
254
254
254
254
254
254
255
255
255
255
255
255
255
255
255
255
255
255
255
254
254
254
254
255
255
254
254
254
254
254
251
251
230
228
229
229
158
94
94
102
101
101
101
102
102
102
104
128
128
137
139
137
137
137
137
137
137
137
137
137
137
137
137
137
137
137
137
137
137
137
137
137
137
137
138
138
138
138
138
138
138
138
138
137
137
137
137
136
137
137
153
160
162
162
159
152
152
135
136
137
137
137
137
137
136
114
114
103
103
105
105
102
96
96
98
202
229
229
228
241
241
254
255
255
255
255
255
255
254
254
254
254
254
255
255
255
255
255
255
255
255
255
255
254
254
255
255
255
0
0
0
0
0
0
0
0
0
0
0
0
0
0
0
0
0
0
0
0
0
0
0
0
0
0
0
0
0
0
0
0
0
0
0
0
0
0
0
0
0
0
0
0
0
0
0
0
0
0
0
0
0
0
0
0
0
0
0
0
0
0
0
0
0
0
0
0
0
0
0
0
0
0
0
0
0
0
0
0
0
0
0
0
0
0
0
0
0
0
0
0
0
0
0
0
0
0
0
0
0
0
0
0
0
0
0
0
0
0
0
0
0
0
0
0
0
0
0
0
0
0
0
0
0
0
0
0
0
0
0
0
0
0
0
0
0
0
0
0
0
0
0
0
0
0
0
0
0
0
0
0
0
0
0
0
0
0
0
0
0
0
0
0
0
0
0
0
0
0
0
0
0
0
0
0
0
0
0
0
0
0
0
181
178
176
174
177
176
179
174
168
126
151
113
107
107
108
108
110
107
108
106
106
106
108
106
110
107
126
103
139
234
211
233
227
231
229
230
227
229
229
229
231
231
230
230
227
231
230
230
229
248
255
249
254
253
254
251
255
255
254
254
254
253
254
255
255
253
255
255
255
255
254
253
254
251
134
130
128
128
129
128
128
128
130
137
153
149
161
164
162
164
163
164
163
164
163
162
163
162
165
165
164
163
165
164
162
163
164
164
163
166
164
161
163
165
166
163
163
165
166
160
151
157
136
129
129
132
128
128
128
125
126
129
120
186
250
249
253
254
254
254
254
254
254
254
255
255
254
255
255
255
254
254
254
255
255
255
254
254
255
255
255
254
254
254
254
255
255
255
255
254
254
254
254
254
254
254
254
254
254
254
254
255
252
253
255
254
254
253
249
254
250
237
229
243
232
229
234
227
230
228
230
229
232
229
229
229
234
233
228
229
244
232
241
255
254
253
255
255
255
254
255
255
255
255
255
254
254
254
255
255
255
254
254
254
255
254
254
254
254
254
254
254
254
254
254
255
255
254
254
255
255
255
255
255
255
255
255
255
255
254
254
254
254
255
254
254
254
255
255
254
250
249
230
228
228
226
162
94
94
102
100
101
102
102
102
101
102
130
135
136
137
137
137
137
137
137
137
137
137
137
137
137
137
137
137
137
137
137
137
138
138
137
137
138
138
138
137
137
137
137
137
137
137
136
137
135
150
144
159
160
160
161
160
148
151
135
137
136
136
135
135
137
135
106
109
103
104
103
104
100
97
96
101
218
230
227
231
229
232
251
254
254
253
255
254
254
255
255
254
254
254
255
255
255
255
254
255
255
255
255
255
255
255
254
254
255
0
0
0
0
0
0
0
0
0
0
0
0
0
0
0
0
0
0
0
0
0
0
0
0
0
0
0
0
0
0
0
0
0
0
0
0
0
0
0
0
0
0
0
0
0
0
0
0
0
0
0
0
0
0
0
0
0
0
0
0
0
0
0
0
0
0
0
0
0
0
0
0
0
0
0
0
0
0
0
0
0
0
0
0
0
0
0
0
0
0
0
0
0
0
0
0
0
0
0
0
0
0
0
0
0
0
0
0
0
0
0
0
0
0
0
0
0
0
0
0
0
0
0
0
0
0
0
0
0
0
0
0
0
0
0
0
0
0
0
0
0
0
0
0
0
0
0
0
0
0
0
0
0
0
0
0
0
0
0
0
0
0
0
0
0
0
0
0
0
0
0
0
0
0
0
0
0
0
0
0
0
0
0
0
177
175
176
176
175
176
174
142
108
108
107
109
107
107
111
107
107
106
108
106
109
104
108
105
116
179
179
231
232
234
228
231
230
230
231
231
227
229
229
229
228
230
229
230
229
238
230
248
254
255
255
253
254
253
255
255
255
254
255
254
254
254
254
255
254
255
255
255
253
254
254
253
251
143
143
128
128
128
129
129
128
130
141
157
157
162
165
164
163
162
163
163
165
165
163
162
162
162
163
164
162
163
167
167
162
169
169
168
168
168
166
161
164
163
165
165
166
163
166
163
163
157
159
145
135
135
131
129
128
130
127
128
128
122
143
249
246
252
254
254
254
254
254
254
254
255
255
255
255
255
255
254
254
254
255
255
255
254
254
255
255
254
254
254
255
255
255
255
254
254
255
255
254
254
254
254
254
254
253
254
254
254
254
253
254
253
254
253
254
255
255
255
254
243
252
248
234
244
244
241
230
242
240
229
245
245
245
245
251
254
244
254
255
254
254
255
255
255
254
255
255
255
254
255
255
255
254
254
254
255
255
255
254
254
255
255
255
254
254
254
255
254
254
253
254
255
255
254
254
255
255
255
255
255
255
255
254
254
255
255
254
254
254
255
255
255
254
254
255
255
253
249
249
229
228
226
227
174
94
94
101
101
102
103
101
101
102
106
138
138
136
137
137
138
139
137
137
137
137
137
137
137
137
137
137
137
137
137
138
138
138
138
138
138
138
137
137
138
137
137
138
136
134
134
141
158
150
161
161
160
160
161
146
148
137
136
137
136
136
137
135
131
104
106
103
103
103
103
101
94
97
123
225
228
228
231
230
229
229
247
254
254
254
254
254
254
255
255
254
254
254
254
255
254
255
255
254
255
255
255
255
255
255
255
254
0
0
0
0
0
0
0
0
0
0
0
0
0
0
0
0
0
0
0
0
0
0
0
0
0
0
0
0
0
0
0
0
0
0
0
0
0
0
0
0
0
0
0
0
0
0
0
0
0
0
0
0
0
0
0
0
0
0
0
0
0
0
0
0
0
0
0
0
0
0
0
0
0
0
0
0
0
0
0
0
0
0
0
0
0
0
0
0
0
0
0
0
0
0
0
0
0
0
0
0
0
0
0
0
0
0
0
0
0
0
0
0
0
0
0
0
0
0
0
0
0
0
0
0
0
0
0
0
0
0
0
0
0
0
0
0
0
0
0
0
0
0
0
0
0
0
0
0
0
0
0
0
0
0
0
0
0
0
0
0
0
0
0
0
0
0
0
0
0
0
0
0
0
0
0
0
0
0
0
0
0
0
0
0
0
176
177
178
176
176
157
115
109
108
108
108
108
108
108
111
107
109
106
109
105
105
105
107
162
229
225
232
229
229
231
231
229
229
230
229
226
226
232
232
230
230
235
228
235
246
246
250
255
254
255
254
253
254
255
255
255
254
254
254
254
254
255
255
254
254
254
255
252
255
255
255
251
171
155
127
128
128
128
129
129
131
143
160
158
162
164
165
162
163
164
163
164
165
166
164
161
161
161
166
168
166
171
176
176
173
177
181
176
177
183
175
173
171
176
167
165
168
166
163
161
161
163
160
160
154
139
144
131
127
130
127
129
127
127
126
128
239
239
252
254
254
254
254
254
254
254
255
255
255
255
255
255
254
254
254
255
255
255
255
254
255
255
255
255
255
255
254
254
254
255
255
255
255
254
254
254
254
254
254
253
254
254
254
254
254
254
253
254
255
254
255
255
255
254
255
255
254
254
255
254
254
253
253
251
251
254
255
254
254
254
253
252
255
254
255
255
254
255
255
255
255
253
255
255
254
255
255
254
254
255
255
255
255
254
254
255
255
254
254
254
255
255
254
254
254
255
255
254
255
255
254
255
255
255
255
254
254
254
254
255
255
254
255
255
255
254
255
254
254
255
254
254
249
249
230
228
226
226
180
94
95
102
103
104
104
102
102
100
111
138
136
137
138
135
135
137
137
137
137
137
137
137
137
137
137
137
137
137
138
138
137
137
137
137
137
137
137
137
137
138
136
139
136
150
161
162
160
160
159
160
162
143
143
137
137
137
137
136
135
136
123
103
103
103
103
102
103
103
95
94
133
225
229
225
230
226
228
229
238
238
254
254
254
254
254
254
254
254
254
255
254
254
254
255
255
255
255
254
255
255
255
255
255
255
0
0
0
0
0
0
0
0
0
0
0
0
0
0
0
0
0
0
0
0
0
0
0
0
0
0
0
0
0
0
0
0
0
0
0
0
0
0
0
0
0
0
0
0
0
0
0
0
0
0
0
0
0
0
0
0
0
0
0
0
0
0
0
0
0
0
0
0
0
0
0
0
0
0
0
0
0
0
0
0
0
0
0
0
0
0
0
0
0
0
0
0
0
0
0
0
0
0
0
0
0
0
0
0
0
0
0
0
0
0
0
0
0
0
0
0
0
0
0
0
0
0
0
0
0
0
0
0
0
0
0
0
0
0
0
0
0
0
0
0
0
0
0
0
0
0
0
0
0
0
0
0
0
0
0
0
0
0
0
0
0
0
0
0
0
0
0
0
0
0
0
0
0
0
0
0
0
0
0
0
0
0
0
0
0
0
176
177
147
169
129
112
105
109
106
109
108
109
108
108
111
105
105
106
96
119
106
136
236
231
229
230
231
229
228
230
229
229
229
231
229
231
230
232
230
233
247
235
254
255
254
253
254
253
254
254
254
253
255
253
253
254
255
255
254
254
254
255
254
254
254
254
255
255
255
254
251
183
171
124
128
128
127
128
129
131
144
161
160
163
164
164
164
165
164
164
164
165
165
165
162
162
162
163
166
168
182
180
180
180
180
182
181
182
183
183
183
180
181
176
182
181
168
174
168
164
160
161
162
160
162
160
144
149
131
132
127
128
128
127
128
127
125
227
218
251
254
254
254
254
254
255
255
255
255
254
255
255
255
254
254
254
255
255
255
254
254
255
255
255
255
254
254
254
254
254
255
255
255
255
254
254
254
254
254
254
254
254
254
254
254
254
254
255
255
255
255
255
255
254
254
254
253
253
255
254
254
254
254
254
254
254
254
254
254
253
255
255
255
254
255
255
255
254
255
255
254
255
255
255
254
255
255
255
254
255
255
255
255
255
254
254
254
255
254
254
254
255
255
254
254
255
255
254
255
255
254
254
255
255
255
254
254
254
254
254
255
255
255
255
254
254
255
254
254
254
254
254
254
249
249
230
229
227
226
189
95
93
103
102
102
101
104
100
102
130
136
135
137
137
136
138
137
137
137
137
137
137
137
137
137
137
137
137
137
137
137
137
137
137
137
138
138
137
136
137
143
139
160
160
161
160
160
159
159
161
141
143
136
136
137
137
136
136
135
115
104
105
103
101
103
102
102
95
95
160
228
230
229
227
231
226
229
231
233
254
254
254
254
255
254
254
254
254
255
255
255
254
254
254
255
255
255
255
254
255
255
255
255
0
0
0
0
0
0
0
0
0
0
0
0
0
0
0
0
0
0
0
0
0
0
0
0
0
0
0
0
0
0
0
0
0
0
0
0
0
0
0
0
0
0
0
0
0
0
0
0
0
0
0
0
0
0
0
0
0
0
0
0
0
0
0
0
0
0
0
0
0
0
0
0
0
0
0
0
0
0
0
0
0
0
0
0
0
0
0
0
0
0
0
0
0
0
0
0
0
0
0
0
0
0
0
0
0
0
0
0
0
0
0
0
0
0
0
0
0
0
0
0
0
0
0
0
0
0
0
0
0
0
0
0
0
0
0
0
0
0
0
0
0
0
0
0
0
0
0
0
0
0
0
0
0
0
0
0
0
0
0
0
0
0
0
0
0
0
0
0
0
0
0
0
0
0
0
0
0
0
0
0
0
0
0
0
0
0
0
165
125
125
107
106
105
105
110
107
107
108
108
108
110
110
106
106
111
174
174
230
231
231
231
229
229
229
232
231
230
230
231
230
230
230
230
230
232
243
254
254
253
253
253
255
254
254
254
253
254
254
255
254
254
254
255
255
255
255
254
254
254
254
253
253
254
255
255
254
252
233
209
123
128
128
127
128
128
131
143
161
161
161
163
163
164
165
163
164
164
164
164
165
164
164
162
164
164
164
169
176
176
176
180
180
180
184
183
183
183
183
184
183
185
186
186
184
179
179
172
165
164
164
162
162
162
161
153
157
132
130
131
131
130
129
129
126
121
210
210
251
254
254
254
254
255
255
255
254
254
254
255
255
255
254
255
255
255
254
254
254
254
255
255
254
254
254
254
254
254
255
255
255
255
255
254
254
254
254
254
254
254
254
254
254
254
253
253
255
255
255
255
254
254
254
254
254
254
254
254
254
254
255
255
255
254
254
254
255
255
254
255
254
254
254
255
255
255
255
254
255
255
255
254
254
254
255
255
255
254
255
255
255
255
255
254
255
255
255
254
254
254
254
255
255
255
254
255
255
255
254
254
254
255
255
255
254
254
254
254
255
255
255
255
254
254
255
254
254
254
254
254
254
254
249
249
229
230
228
228
198
96
96
99
104
102
102
102
109
109
140
135
135
137
137
138
138
137
137
137
137
137
137
137
137
137
137
137
137
137
137
137
137
137
138
137
137
137
135
147
147
160
160
160
160
160
161
160
160
139
139
136
137
137
137
136
135
135
111
104
104
103
102
104
104
102
95
95
172
228
228
229
227
230
230
232
230
230
245
254
254
254
254
255
255
254
254
254
254
255
255
255
254
254
254
255
254
255
255
254
255
255
0
0
0
0
0
0
0
0
0
0
0
0
0
0
0
0
0
0
0
0
0
0
0
0
0
0
0
0
0
0
0
0
0
0
0
0
0
0
0
0
0
0
0
0
0
0
0
0
0
0
0
0
0
0
0
0
0
0
0
0
0
0
0
0
0
0
0
0
0
0
0
0
0
0
0
0
0
0
0
0
0
0
0
0
0
0
0
0
0
0
0
0
0
0
0
0
0
0
0
0
0
0
0
0
0
0
0
0
0
0
0
0
0
0
0
0
0
0
0
0
0
0
0
0
0
0
0
0
0
0
0
0
0
0
0
0
0
0
0
0
0
0
0
0
0
0
0
0
0
0
0
0
0
0
0
0
0
0
0
0
0
0
0
0
0
0
0
0
0
0
0
0
0
0
0
0
0
0
0
0
0
0
0
0
0
0
0
0
106
108
107
107
108
111
112
108
106
109
109
108
108
104
126
105
150
231
223
230
229
230
233
227
232
231
230
231
228
230
230
227
228
230
238
231
241
254
255
255
252
254
253
255
254
254
254
254
255
255
253
255
255
254
254
254
255
255
254
254
254
254
253
253
254
251
252
252
252
247
233
124
126
129
127
128
128
130
139
159
160
161
161
162
165
164
162
163
163
163
163
164
164
165
164
163
161
163
163
164
167
168
164
166
173
178
172
182
183
181
184
184
184
182
185
185
182
184
183
184
182
168
165
166
163
161
162
163
157
159
140
128
130
129
130
129
129
126
122
205
199
251
254
254
254
254
255
255
255
254
254
254
255
255
255
255
254
254
254
255
255
255
254
255
254
254
254
254
254
254
254
255
255
255
255
255
254
254
254
255
255
255
254
254
254
254
255
252
255
255
255
255
255
254
254
254
254
254
254
255
254
254
254
254
254
255
255
254
254
254
254
254
255
255
255
255
255
255
255
254
255
254
254
254
254
254
254
255
255
255
254
255
254
255
254
254
255
255
255
255
254
254
254
255
255
254
254
254
255
255
254
254
255
255
255
255
254
254
254
253
254
255
255
255
255
254
255
255
254
254
254
254
254
254
255
249
249
229
230
230
229
202
95
95
100
100
105
102
103
117
134
138
136
137
136
136
137
137
137
137
137
137
137
137
137
137
137
137
137
137
137
137
137
137
137
136
137
136
152
149
162
157
162
160
160
161
161
158
135
136
136
139
140
140
137
130
134
107
102
104
103
102
100
102
102
97
96
186
228
228
228
228
230
231
230
229
228
245
254
255
254
254
254
254
254
254
254
254
254
254
255
255
255
254
254
254
255
254
255
255
254
0
0
0
0
0
0
0
0
0
0
0
0
0
0
0
0
0
0
0
0
0
0
0
0
0
0
0
0
0
0
0
0
0
0
0
0
0
0
0
0
0
0
0
0
0
0
0
0
0
0
0
0
0
0
0
0
0
0
0
0
0
0
0
0
0
0
0
0
0
0
0
0
0
0
0
0
0
0
0
0
0
0
0
0
0
0
0
0
0
0
0
0
0
0
0
0
0
0
0
0
0
0
0
0
0
0
0
0
0
0
0
0
0
0
0
0
0
0
0
0
0
0
0
0
0
0
0
0
0
0
0
0
0
0
0
0
0
0
0
0
0
0
0
0
0
0
0
0
0
0
0
0
0
0
0
0
0
0
0
0
0
0
0
0
0
0
0
0
0
0
0
0
0
0
0
0
0
0
0
0
0
0
0
0
0
0
0
0
0
106
109
108
109
109
108
109
108
107
106
106
106
110
178
178
227
231
231
231
228
227
227
232
229
232
230
231
230
230
230
229
229
237
248
238
254
255
255
255
254
255
254
255
255
253
253
255
255
255
254
253
255
255
255
255
255
254
254
254
254
255
254
254
253
254
251
255
253
250
250
133
125
125
127
128
128
128
137
158
158
162
162
161
163
164
162
162
162
163
163
163
163
164
164
163
162
162
161
163
164
165
165
164
164
164
165
172
166
172
176
176
181
182
182
182
182
182
181
184
184
184
184
174
166
168
162
163
163
163
160
160
142
131
129
129
128
129
129
125
123
199
195
252
254
254
254
255
255
255
255
254
254
254
255
255
255
254
254
254
255
255
255
254
254
254
255
255
254
254
254
254
254
255
255
255
255
255
254
254
254
255
255
255
254
254
254
254
254
255
254
254
255
254
254
254
254
255
255
254
255
254
254
254
254
255
255
255
255
254
254
255
254
254
255
255
255
254
254
255
255
254
255
254
254
254
254
254
254
255
255
255
254
254
254
254
255
255
255
255
255
255
254
254
254
255
254
254
255
255
254
254
254
255
255
254
254
254
255
254
253
253
254
255
255
255
254
255
255
255
254
254
254
254
254
254
255
249
249
231
228
229
228
124
100
100
101
104
102
103
116
134
137
136
137
137
137
138
137
138
137
137
137
137
137
137
137
137
137
137
137
137
137
138
137
137
138
135
151
151
161
160
157
161
159
160
160
155
135
135
135
137
139
137
138
126
126
104
103
102
103
102
100
100
101
98
97
204
228
229
229
230
231
231
229
229
229
246
254
254
254
255
254
254
254
254
254
254
254
255
255
254
255
255
255
254
254
254
255
255
255
0
0
0
0
0
0
0
0
0
0
0
0
0
0
0
0
0
0
0
0
0
0
0
0
0
0
0
0
0
0
0
0
0
0
0
0
0
0
0
0
0
0
0
0
0
0
0
0
0
0
0
0
0
0
0
0
0
0
0
0
0
0
0
0
0
0
0
0
0
0
0
0
0
0
0
0
0
0
0
0
0
0
0
0
0
0
0
0
0
0
0
0
0
0
0
0
0
0
0
0
0
0
0
0
0
0
0
0
0
0
0
0
0
0
0
0
0
0
0
0
0
0
0
0
0
0
0
0
0
0
0
0
0
0
0
0
0
0
0
0
0
0
0
0
0
0
0
0
0
0
0
0
0
0
0
0
0
0
0
0
0
0
0
0
0
0
0
0
0
0
0
0
0
0
0
0
0
0
0
0
0
0
0
0
0
0
0
0
0
0
108
110
106
110
108
110
108
108
104
130
103
148
233
225
233
230
229
229
230
230
228
231
231
229
230
228
234
228
227
247
234
246
255
255
254
255
254
254
255
255
254
255
254
254
254
255
255
254
253
254
254
254
254
254
255
255
255
254
254
255
255
255
255
253
254
255
254
253
252
162
125
124
130
128
127
126
134
153
155
162
164
163
164
165
164
163
162
164
164
163
162
163
164
164
163
163
162
162
163
163
165
164
165
165
165
163
164
166
165
168
171
167
177
181
178
183
181
181
182
183
186
185
186
177
170
173
164
165
165
163
161
161
144
131
130
130
128
130
130
125
123
204
206
252
254
254
254
255
255
255
255
254
254
254
255
255
254
254
255
255
255
255
254
254
255
255
255
255
254
254
254
254
254
254
255
255
255
255
254
254
254
255
255
255
254
254
255
255
254
254
254
254
254
254
254
254
255
255
254
255
254
254
255
255
254
255
254
254
255
255
255
255
254
254
254
254
254
254
254
255
255
255
255
254
254
254
254
254
254
255
255
255
255
255
255
255
255
255
255
255
255
254
254
254
254
254
254
255
254
254
254
255
255
255
255
253
254
255
254
254
253
253
254
254
255
255
254
255
255
255
255
254
254
254
254
254
255
250
249
229
228
176
97
94
102
102
105
104
102
102
132
136
134
135
137
136
137
139
137
137
137
137
137
137
137
137
137
137
137
137
137
137
136
137
137
134
138
144
161
158
161
159
160
159
159
151
135
135
137
136
136
138
137
116
121
102
105
104
102
102
99
100
99
108
101
216
229
228
229
231
231
231
229
231
230
247
254
254
254
254
255
255
254
254
254
254
254
255
255
254
254
254
255
255
255
254
254
254
255
0
0
0
0
0
0
0
0
0
0
0
0
0
0
0
0
0
0
0
0
0
0
0
0
0
0
0
0
0
0
0
0
0
0
0
0
0
0
0
0
0
0
0
0
0
0
0
0
0
0
0
0
0
0
0
0
0
0
0
0
0
0
0
0
0
0
0
0
0
0
0
0
0
0
0
0
0
0
0
0
0
0
0
0
0
0
0
0
0
0
0
0
0
0
0
0
0
0
0
0
0
0
0
0
0
0
0
0
0
0
0
0
0
0
0
0
0
0
0
0
0
0
0
0
0
0
0
0
0
0
0
0
0
0
0
0
0
0
0
0
0
0
0
0
0
0
0
0
0
0
0
0
0
0
0
0
0
0
0
0
0
0
0
0
0
0
0
0
0
0
0
0
0
0
0
0
0
0
0
0
0
0
0
0
0
0
0
0
0
0
0
109
106
106
110
108
110
103
106
181
130
232
229
233
232
229
230
230
230
231
230
228
229
231
230
234
231
234
242
250
247
254
255
255
253
255
255
254
253
255
255
255
255
254
254
255
255
255
254
255
255
254
253
254
254
255
255
255
255
254
255
255
254
254
253
253
255
254
253
241
121
125
126
129
128
128
128
152
153
161
165
164
165
165
164
164
163
164
164
164
163
162
163
164
164
163
162
162
162
164
165
165
164
163
162
165
164
165
165
165
165
163
167
163
168
178
173
178
182
182
183
183
185
184
184
181
173
174
168
165
164
165
161
161
149
133
130
130
127
130
130
126
122
206
213
252
254
254
254
255
255
255
255
254
254
255
255
255
255
255
255
254
254
254
255
255
254
255
255
255
254
254
254
254
254
255
255
255
254
255
254
254
255
255
255
255
254
255
254
254
254
254
254
254
254
254
254
255
255
255
255
254
254
254
255
254
254
254
254
255
255
255
255
254
254
254
254
255
254
255
255
255
255
254
255
254
254
254
254
254
254
255
255
255
255
255
255
255
255
255
255
255
254
254
254
254
254
255
255
254
254
254
255
255
253
255
253
254
254
254
254
254
253
253
253
254
255
255
255
255
255
255
254
255
254
255
254
255
252
249
247
185
94
97
102
105
102
102
101
101
123
138
137
134
137
137
136
135
137
137
137
137
137
137
137
137
137
137
137
137
137
135
137
136
137
138
134
138
159
159
158
159
160
158
159
146
136
135
137
137
136
138
136
114
116
101
101
105
101
103
99
99
97
119
108
226
229
229
228
229
230
231
228
232
231
251
255
254
254
254
254
255
255
255
254
254
254
254
255
255
254
254
254
254
255
255
255
254
254
0
0
0
0
0
0
0
0
0
0
0
0
0
0
0
0
0
0
0
0
0
0
0
0
0
0
0
0
0
0
0
0
0
0
0
0
0
0
0
0
0
0
0
0
0
0
0
0
0
0
0
0
0
0
0
0
0
0
0
0
0
0
0
0
0
0
0
0
0
0
0
0
0
0
0
0
0
0
0
0
0
0
0
0
0
0
0
0
0
0
0
0
0
0
0
0
0
0
0
0
0
0
0
0
0
0
0
0
0
0
0
0
0
0
0
0
0
0
0
0
0
0
0
0
0
0
0
0
0
0
0
0
0
0
0
0
0
0
0
0
0
0
0
0
0
0
0
0
0
0
0
0
0
0
0
0
0
0
0
0
0
0
0
0
0
0
0
0
0
0
0
0
0
0
0
0
0
0
0
0
0
0
0
0
0
0
0
0
0
0
0
0
110
109
107
104
104
103
154
232
226
227
230
230
231
229
229
230
229
230
231
228
227
227
230
231
249
233
249
253
253
255
253
253
254
254
254
255
255
254
254
255
255
255
254
254
255
255
254
254
254
254
254
254
254
254
255
255
255
255
255
254
254
254
254
255
254
254
254
251
127
127
128
130
130
126
129
140
144
161
165
165
165
165
165
165
164
164
164
164
163
163
163
164
165
164
163
163
163
164
165
165
165
164
162
162
163
164
164
165
165
164
164
164
163
163
166
167
165
173
182
182
182
183
182
183
184
182
176
176
165
165
165
164
162
161
150
132
130
130
126
130
127
126
122
222
222
252
254
254
254
255
255
255
255
255
255
254
255
255
255
254
254
254
255
255
254
254
254
255
255
255
254
254
254
255
255
255
254
254
254
255
254
254
255
255
255
255
254
254
254
254
254
254
254
254
254
254
254
255
254
255
254
254
254
254
254
254
254
254
255
255
255
254
254
255
254
254
254
255
254
254
255
255
255
254
255
254
254
254
254
254
254
255
255
255
254
255
255
255
254
254
254
254
254
254
254
255
255
255
255
254
254
254
255
255
255
252
252
253
254
254
254
254
253
254
253
254
255
255
255
255
255
255
254
255
255
255
253
253
249
192
94
96
105
102
102
101
103
103
101
133
139
139
137
138
138
135
138
137
137
137
137
137
137
137
137
137
137
137
137
137
136
136
137
136
135
134
148
162
162
161
157
159
162
145
135
135
137
137
137
138
136
110
111
101
104
104
104
103
98
99
96
131
131
228
230
229
230
230
230
230
229
233
233
253
255
254
254
254
254
254
254
255
254
255
254
254
254
254
254
254
254
255
255
254
255
255
255
0
0
0
0
0
0
0
0
0
0
0
0
0
0
0
0
0
0
0
0
0
0
0
0
0
0
0
0
0
0
0
0
0
0
0
0
0
0
0
0
0
0
0
0
0
0
0
0
0
0
0
0
0
0
0
0
0
0
0
0
0
0
0
0
0
0
0
0
0
0
0
0
0
0
0
0
0
0
0
0
0
0
0
0
0
0
0
0
0
0
0
0
0
0
0
0
0
0
0
0
0
0
0
0
0
0
0
0
0
0
0
0
0
0
0
0
0
0
0
0
0
0
0
0
0
0
0
0
0
0
0
0
0
0
0
0
0
0
0
0
0
0
0
0
0
0
0
0
0
0
0
0
0
0
0
0
0
0
0
0
0
0
0
0
0
0
0
0
0
0
0
0
0
0
0
0
0
0
0
0
0
0
0
0
0
0
0
0
0
0
0
0
0
110
105
110
101
129
228
232
232
231
232
230
226
231
230
229
231
230
230
231
229
229
231
245
254
249
255
255
254
255
255
255
254
254
253
254
255
255
254
254
255
255
255
255
254
254
254
254
254
254
254
254
254
254
254
254
255
255
255
255
253
253
252
254
254
253
254
253
218
168
126
126
127
126
129
136
140
157
165
166
166
164
165
165
165
163
163
164
163
163
163
164
165
165
164
164
163
165
165
165
165
165
164
164
164
163
164
164
164
164
164
163
163
164
165
166
164
165
164
169
179
183
182
182
183
183
182
183
179
180
166
165
165
164
161
161
151
132
130
127
130
127
126
127
120
232
242
253
254
254
254
254
255
255
255
255
255
255
255
255
254
254
255
254
254
254
255
255
254
255
255
255
254
254
254
255
254
254
254
254
254
254
254
254
255
255
254
254
254
254
254
255
255
255
255
255
254
254
254
254
254
254
254
254
254
255
254
255
255
255
255
255
255
254
254
255
254
254
254
254
254
254
255
255
255
254
255
254
254
254
254
254
254
255
255
255
254
255
255
254
254
255
255
254
254
255
255
255
254
255
254
254
254
254
253
253
254
252
254
255
254
255
255
255
254
254
254
254
255
254
254
254
254
255
255
254
254
252
248
167
94
94
102
104
100
106
100
101
99
122
139
138
137
138
137
136
137
137
137
137
137
137
137
137
137
137
137
137
137
137
137
138
136
136
136
135
134
160
162
160
159
160
159
158
140
134
138
137
137
136
136
115
110
107
101
102
102
101
98
98
94
156
144
226
229
228
229
230
229
227
231
236
234
253
254
254
254
254
255
254
254
254
254
254
254
255
254
254
253
254
255
255
255
255
254
254
255
0
0
0
0
0
0
0
0
0
0
0
0
0
0
0
0
0
0
0
0
0
0
0
0
0
0
0
0
0
0
0
0
0
0
0
0
0
0
0
0
0
0
0
0
0
0
0
0
0
0
0
0
0
0
0
0
0
0
0
0
0
0
0
0
0
0
0
0
0
0
0
0
0
0
0
0
0
0
0
0
0
0
0
0
0
0
0
0
0
0
0
0
0
0
0
0
0
0
0
0
0
0
0
0
0
0
0
0
0
0
0
0
0
0
0
0
0
0
0
0
0
0
0
0
0
0
0
0
0
0
0
0
0
0
0
0
0
0
0
0
0
0
0
0
0
0
0
0
0
0
0
0
0
0
0
0
0
0
0
0
0
0
0
0
0
0
0
0
0
0
0
0
0
0
0
0
0
0
0
0
0
0
0
0
0
0
0
0
0
0
0
0
0
0
106
150
150
216
234
228
228
232
229
229
229
229
231
230
231
230
230
229
230
230
240
251
254
254
254
255
255
254
254
255
255
255
254
254
254
255
255
255
255
254
254
255
254
254
254
254
254
255
255
254
254
254
255
254
254
254
255
255
254
254
254
254
254
254
254
253
249
249
124
126
126
129
130
132
132
154
164
164
164
164
165
165
165
163
163
163
163
163
164
164
165
165
164
164
164
165
165
165
165
165
164
164
162
163
163
163
164
164
164
164
163
163
162
163
162
162
163
163
163
166
174
182
182
183
183
183
183
182
180
179
167
164
164
164
161
161
151
134
128
128
130
127
127
125
125
248
248
253
255
255
254
254
255
254
254
255
255
254
255
255
255
254
254
254
254
255
255
255
254
255
255
255
254
254
254
254
254
254
254
255
255
254
255
255
254
255
254
255
254
255
255
255
255
255
254
254
255
255
254
254
254
255
254
254
254
255
255
255
255
255
255
255
255
254
254
254
255
255
254
254
254
254
255
255
255
254
255
254
254
254
254
254
254
255
255
255
254
254
254
255
255
255
255
255
255
255
255
254
254
254
255
254
254
254
252
252
252
254
254
255
254
255
255
255
254
254
254
255
254
254
254
254
254
255
253
253
246
157
96
96
102
102
102
103
100
100
103
114
138
138
138
137
138
135
137
137
137
137
137
137
137
137
137
137
137
137
137
140
136
137
138
136
137
137
135
143
143
158
160
156
156
160
149
149
134
138
137
134
136
121
121
101
101
101
103
105
102
102
95
162
162
228
230
229
229
230
230
230
230
240
236
254
255
254
254
254
255
255
254
254
254
254
254
255
255
254
254
253
254
255
255
255
254
254
254
0
0
0
0
0
0
0
0
0
0
0
0
0
0
0
0
0
0
0
0
0
0
0
0
0
0
0
0
0
0
0
0
0
0
0
0
0
0
0
0
0
0
0
0
0
0
0
0
0
0
0
0
0
0
0
0
0
0
0
0
0
0
0
0
0
0
0
0
0
0
0
0
0
0
0
0
0
0
0
0
0
0
0
0
0
0
0
0
0
0
0
0
0
0
0
0
0
0
0
0
0
0
0
0
0
0
0
0
0
0
0
0
0
0
0
0
0
0
0
0
0
0
0
0
0
0
0
0
0
0
0
0
0
0
0
0
0
0
0
0
0
0
0
0
0
0
0
0
0
0
0
0
0
0
0
0
0
0
0
0
0
0
0
0
0
0
0
0
0
0
0
0
0
0
0
0
0
0
0
0
0
0
0
0
0
0
0
0
0
0
0
0
0
0
0
228
196
231
231
229
227
233
229
228
229
229
229
231
229
230
230
228
245
236
247
255
254
254
253
254
254
254
255
255
255
254
254
255
255
254
254
255
255
255
254
254
254
254
255
255
254
254
255
255
255
254
254
255
255
254
254
254
255
253
254
254
251
253
254
254
253
252
145
124
127
129
130
130
130
145
158
161
164
164
165
165
165
163
163
162
162
163
164
164
165
165
164
164
164
165
165
165
165
165
163
164
163
162
163
163
164
164
164
164
164
163
163
163
165
166
163
163
162
162
163
165
171
181
181
184
183
183
183
183
181
181
167
164
163
163
161
161
146
132
130
132
129
129
128
126
134
250
251
253
254
254
254
254
254
254
254
254
254
254
255
255
254
254
254
255
255
255
255
254
253
255
255
255
254
254
254
254
254
255
255
255
255
255
254
254
254
255
255
255
255
255
255
255
255
255
255
255
255
255
254
255
255
254
254
255
255
255
255
255
255
255
255
255
255
254
255
254
255
255
255
254
254
254
255
255
255
254
254
254
255
255
254
254
254
255
255
255
254
255
255
255
255
254
255
255
255
255
254
254
250
254
248
251
246
254
254
253
254
252
254
254
254
255
255
255
254
255
255
255
254
254
254
255
251
251
246
148
97
96
102
105
103
102
101
102
101
110
135
136
138
137
138
136
138
137
137
137
136
136
137
137
137
137
137
137
137
136
137
137
135
138
137
136
138
136
136
154
159
160
160
157
160
161
140
136
135
137
136
137
134
102
102
103
105
102
104
96
95
169
161
228
230
231
230
230
230
230
230
243
241
254
254
255
255
254
254
254
254
254
254
254
254
255
254
254
254
254
254
254
254
255
255
254
254
0
0
0
0
0
0
0
0
0
0
0
0
0
0
0
0
0
0
0
0
0
0
0
0
0
0
0
0
0
0
0
0
0
0
0
0
0
0
0
0
0
0
0
0
0
0
0
0
0
0
0
0
0
0
0
0
0
0
0
0
0
0
0
0
0
0
0
0
0
0
0
0
0
0
0
0
0
0
0
0
0
0
0
0
0
0
0
0
0
0
0
0
0
0
0
0
0
0
0
0
0
0
0
0
0
0
0
0
0
0
0
0
0
0
0
0
0
0
0
0
0
0
0
0
0
0
0
0
0
0
0
0
0
0
0
0
0
0
0
0
0
0
0
0
0
0
0
0
0
0
0
0
0
0
0
0
0
0
0
0
0
0
0
0
0
0
0
0
0
0
0
0
0
0
0
0
0
0
0
0
0
0
0
0
0
0
0
0
0
0
0
0
0
0
0
0
228
230
230
229
229
229
230
229
230
230
229
231
229
231
230
241
252
245
255
254
253
253
255
254
254
254
255
255
255
253
254
254
255
255
254
254
255
255
255
255
254
254
254
255
255
255
254
254
255
255
254
254
254
255
255
254
255
254
253
254
254
254
254
255
252
253
249
117
124
127
129
130
130
133
156
158
162
164
165
165
165
163
163
162
162
162
163
165
165
165
164
164
164
164
165
165
165
164
163
163
162
164
164
164
164
164
164
165
165
164
164
162
166
165
165
165
163
164
163
164
164
165
167
181
179
183
183
183
183
183
181
181
166
163
163
161
160
160
144
130
132
130
128
128
128
128
168
251
253
254
254
254
255
254
254
254
254
254
254
254
254
254
254
254
255
255
255
255
254
255
254
255
255
255
254
254
254
255
255
255
255
255
255
254
254
254
255
255
255
255
254
255
254
254
255
255
255
255
255
255
255
255
255
254
255
255
255
255
255
255
255
255
255
255
255
255
255
255
255
255
255
254
254
255
255
255
255
255
254
255
255
255
254
254
254
255
255
255
254
255
255
254
254
254
255
255
255
254
251
250
244
208
208
246
235
249
253
251
255
252
252
255
254
255
255
255
255
255
254
255
254
255
251
251
244
141
97
97
103
104
105
101
101
101
101
115
136
135
136
136
137
137
138
137
137
137
137
136
137
137
137
137
137
137
137
137
137
137
138
137
138
137
137
137
136
135
152
161
161
159
160
160
160
156
136
136
137
138
137
124
103
102
100
101
100
100
99
175
169
225
230
230
230
230
231
230
229
245
243
254
254
254
255
255
255
254
254
254
255
255
255
255
255
254
254
254
254
255
254
254
254
254
254
0
0
0
0
0
0
0
0
0
0
0
0
0
0
0
0
0
0
0
0
0
0
0
0
0
0
0
0
0
0
0
0
0
0
0
0
0
0
0
0
0
0
0
0
0
0
0
0
0
0
0
0
0
0
0
0
0
0
0
0
0
0
0
0
0
0
0
0
0
0
0
0
0
0
0
0
0
0
0
0
0
0
0
0
0
0
0
0
0
0
0
0
0
0
0
0
0
0
0
0
0
0
0
0
0
0
0
0
0
0
0
0
0
0
0
0
0
0
0
0
0
0
0
0
0
0
0
0
0
0
0
0
0
0
0
0
0
0
0
0
0
0
0
0
0
0
0
0
0
0
0
0
0
0
0
0
0
0
0
0
0
0
0
0
0
0
0
0
0
0
0
0
0
0
0
0
0
0
0
0
0
0
0
0
0
0
0
0
0
0
0
0
0
0
0
0
0
229
227
230
229
229
230
230
230
230
230
230
229
245
237
250
254
254
255
253
254
254
254
254
255
254
255
255
254
254
255
255
254
255
255
255
254
254
254
255
254
254
254
254
254
255
255
254
254
254
254
254
254
254
254
255
255
255
255
254
254
253
254
253
255
254
251
151
151
130
130
130
130
130
150
150
161
162
164
165
165
163
163
162
162
162
163
165
165
165
164
163
163
163
164
164
164
164
162
162
162
164
163
162
166
162
164
165
165
165
165
163
162
163
164
164
164
164
164
165
164
165
165
164
165
178
178
183
183
183
183
183
180
180
166
163
163
161
160
160
144
130
129
129
130
127
132
125
192
253
253
254
254
255
254
253
254
254
253
254
254
254
255
255
255
255
254
254
254
255
255
255
254
255
255
255
254
254
254
255
254
255
255
255
255
254
254
254
255
255
254
254
254
254
254
254
254
255
255
255
255
254
255
254
254
254
255
255
255
255
255
254
255
255
254
254
255
255
254
255
255
255
255
254
255
255
255
255
255
255
254
255
255
255
254
254
255
255
255
255
254
254
254
254
254
255
255
253
250
250
216
119
97
96
105
172
172
241
250
249
255
253
255
253
254
255
255
255
255
255
255
254
251
251
243
137
97
96
103
100
101
102
101
101
102
116
136
136
136
137
137
137
137
137
137
137
137
137
137
137
136
136
137
137
137
137
137
137
137
138
137
137
138
137
137
136
133
141
156
162
160
159
159
160
160
153
135
136
138
135
108
108
100
104
102
101
104
98
95
200
229
229
230
228
230
230
229
247
247
254
254
254
254
254
255
255
255
254
254
254
255
255
255
255
254
254
254
255
255
255
254
253
253
0
0
0
0
0
0
0
0
0
0
0
0
0
0
0
0
0
0
0
0
0
0
0
0
0
0
0
0
0
0
0
0
0
0
0
0
0
0
0
0
0
0
0
0
0
0
0
0
0
0
0
0
0
0
0
0
0
0
0
0
0
0
0
0
0
0
0
0
0
0
0
0
0
0
0
0
0
0
0
0
0
0
0
0
0
0
0
0
0
0
0
0
0
0
0
0
0
0
0
0
0
0
0
0
0
0
0
0
0
0
0
0
0
0
0
0
0
0
0
0
0
0
0
0
0
0
0
0
0
0
0
0
0
0
0
0
0
0
0
0
0
0
0
0
0
0
0
0
0
0
0
0
0
0
0
0
0
0
0
0
0
0
0
0
0
0
0
0
0
0
0
0
0
0
0
0
0
0
0
0
0
0
0
0
0
0
0
0
0
0
0
0
0
0
0
0
0
0
231
230
230
230
230
230
230
229
229
228
239
253
245
254
254
254
255
254
255
254
255
254
254
254
255
254
254
254
255
255
255
254
254
255
255
255
254
254
254
254
255
255
254
254
254
255
254
254
254
254
254
254
254
254
254
255
255
254
254
254
253
254
254
255
254
250
221
121
125
129
130
127
131
140
160
164
163
164
164
163
163
162
162
162
162
165
165
165
164
163
163
163
163
165
164
163
162
162
162
162
165
163
163
166
162
165
165
165
165
165
164
162
164
164
162
163
164
163
165
164
162
165
164
164
166
178
178
183
183
183
183
183
180
182
164
163
163
163
160
161
137
128
129
130
131
132
130
125
221
253
254
255
255
255
253
254
253
254
254
254
254
254
255
255
255
254
254
255
255
255
255
254
254
255
255
255
254
254
254
254
254
255
255
255
255
254
254
254
254
254
255
255
254
254
254
255
254
255
255
254
254
254
254
254
254
255
255
255
255
255
254
254
254
254
255
255
254
254
253
254
255
255
255
254
254
254
255
255
255
254
254
255
255
255
254
254
254
255
255
255
254
254
254
254
255
252
248
247
182
89
100
97
100
100
91
117
96
201
249
246
253
255
254
255
254
255
255
255
255
254
251
251
242
121
97
97
103
101
100
102
101
101
101
116
136
136
138
137
138
137
137
137
137
137
137
137
137
137
137
136
137
137
137
137
137
137
137
137
137
137
137
137
137
137
135
137
141
151
161
160
158
160
158
160
160
147
136
136
135
129
100
100
101
102
100
100
98
101
90
200
229
226
231
230
230
252
250
255
254
254
254
255
254
254
255
255
255
254
254
255
255
255
255
254
255
254
254
255
254
254
253
0
0
0
0
0
0
0
0
0
0
0
0
0
0
0
0
0
0
0
0
0
0
0
0
0
0
0
0
0
0
0
0
0
0
0
0
0
0
0
0
0
0
0
0
0
0
0
0
0
0
0
0
0
0
0
0
0
0
0
0
0
0
0
0
0
0
0
0
0
0
0
0
0
0
0
0
0
0
0
0
0
0
0
0
0
0
0
0
0
0
0
0
0
0
0
0
0
0
0
0
0
0
0
0
0
0
0
0
0
0
0
0
0
0
0
0
0
0
0
0
0
0
0
0
0
0
0
0
0
0
0
0
0
0
0
0
0
0
0
0
0
0
0
0
0
0
0
0
0
0
0
0
0
0
0
0
0
0
0
0
0
0
0
0
0
0
0
0
0
0
0
0
0
0
0
0
0
0
0
0
0
0
0
0
0
0
0
0
0
0
0
0
0
0
0
0
0
0
0
231
231
230
229
229
230
230
230
235
250
255
255
254
254
254
255
255
254
254
255
255
255
254
254
254
255
254
255
255
254
254
254
255
254
255
255
255
254
254
254
255
255
255
254
254
254
255
255
255
254
253
255
255
254
254
254
255
254
254
254
254
255
255
254
252
252
169
126
128
128
129
131
131
151
164
163
163
164
164
164
163
162
162
163
165
165
165
164
163
163
163
163
165
165
165
162
162
162
162
163
165
165
167
167
165
166
166
164
164
164
164
165
165
165
165
165
164
164
164
164
164
164
163
163
164
164
178
178
184
183
183
183
185
180
180
165
164
164
164
160
157
133
128
127
127
130
126
126
132
251
254
254
255
255
255
254
254
255
255
254
254
254
254
255
255
254
254
254
254
255
255
255
254
254
255
255
255
254
254
254
254
254
255
255
255
255
255
254
254
254
255
255
255
254
254
254
255
255
254
254
255
254
254
254
255
255
255
254
255
255
254
254
254
254
255
255
255
254
253
253
254
254
254
255
254
254
254
255
255
255
254
254
255
255
255
254
254
254
255
255
255
254
254
254
251
248
248
151
96
101
101
103
102
102
102
96
94
94
181
247
247
254
254
254
255
254
255
255
254
251
251
239
113
97
97
103
101
101
101
101
101
102
117
136
136
138
137
137
136
139
137
137
137
137
137
137
137
137
137
137
137
137
137
137
137
137
137
137
137
137
137
137
137
137
136
136
136
159
159
161
159
159
159
162
161
161
146
136
136
134
107
102
102
103
104
104
103
97
99
94
185
229
229
229
254
254
254
254
255
255
255
255
255
255
255
255
255
255
255
255
254
255
255
255
255
254
254
254
254
254
0
0
0
0
0
0
0
0
0
0
0
0
0
0
0
0
0
0
0
0
0
0
0
0
0
0
0
0
0
0
0
0
0
0
0
0
0
0
0
0
0
0
0
0
0
0
0
0
0
0
0
0
0
0
0
0
0
0
0
0
0
0
0
0
0
0
0
0
0
0
0
0
0
0
0
0
0
0
0
0
0
0
0
0
0
0
0
0
0
0
0
0
0
0
0
0
0
0
0
0
0
0
0
0
0
0
0
0
0
0
0
0
0
0
0
0
0
0
0
0
0
0
0
0
0
0
0
0
0
0
0
0
0
0
0
0
0
0
0
0
0
0
0
0
0
0
0
0
0
0
0
0
0
0
0
0
0
0
0
0
0
0
0
0
0
0
0
0
0
0
0
0
0
0
0
0
0
0
0
0
0
0
0
0
0
0
0
0
0
0
0
0
0
0
0
0
0
0
0
0
231
230
228
229
229
242
231
245
254
252
254
254
254
254
255
254
254
253
254
254
255
255
255
254
254
254
255
254
253
254
254
255
255
255
254
255
255
255
253
253
254
254
254
255
254
254
253
254
254
254
255
253
255
255
255
254
254
254
255
254
254
254
254
255
254
241
133
128
130
131
128
131
135
154
162
162
163
164
164
163
163
163
163
164
165
165
164
164
164
164
164
164
165
165
165
164
162
163
162
163
165
161
163
163
161
162
160
163
162
162
163
164
163
163
163
164
162
163
164
166
163
163
164
162
162
164
165
179
178
183
183
182
183
184
178
175
165
164
164
163
157
156
130
131
128
128
129
125
124
184
252
253
253
255
255
255
254
254
255
255
254
254
254
254
255
255
255
254
254
254
255
255
255
254
254
255
255
255
254
254
254
254
254
255
255
255
255
254
254
254
254
255
255
255
254
254
254
255
254
255
255
254
254
254
254
255
255
254
254
255
255
255
254
254
255
255
255
254
254
254
255
254
255
255
255
254
254
254
255
255
255
254
254
255
255
255
254
254
254
255
255
254
254
251
244
245
148
95
102
103
102
103
104
100
101
103
99
93
94
164
247
244
254
253
253
254
254
254
250
251
234
103
96
95
102
100
100
101
100
100
103
118
136
136
138
137
137
137
137
137
137
137
137
137
137
138
138
138
137
137
137
137
137
137
137
137
137
137
137
137
137
137
138
137
136
136
136
136
161
162
160
160
160
159
160
160
160
141
137
136
132
101
103
102
102
101
102
102
99
96
94
169
231
247
255
253
255
255
255
254
254
255
255
254
254
254
254
255
255
254
254
254
255
255
254
254
254
254
253
0
0
0
0
0
0
0
0
0
0
0
0
0
0
0
0
0
0
0
0
0
0
0
0
0
0
0
0
0
0
0
0
0
0
0
0
0
0
0
0
0
0
0
0
0
0
0
0
0
0
0
0
0
0
0
0
0
0
0
0
0
0
0
0
0
0
0
0
0
0
0
0
0
0
0
0
0
0
0
0
0
0
0
0
0
0
0
0
0
0
0
0
0
0
0
0
0
0
0
0
0
0
0
0
0
0
0
0
0
0
0
0
0
0
0
0
0
0
0
0
0
0
0
0
0
0
0
0
0
0
0
0
0
0
0
0
0
0
0
0
0
0
0
0
0
0
0
0
0
0
0
0
0
0
0
0
0
0
0
0
0
0
0
0
0
0
0
0
0
0
0
0
0
0
0
0
0
0
0
0
0
0
0
0
0
0
0
0
0
0
0
0
0
0
0
0
0
0
0
0
0
230
228
228
237
247
242
254
253
254
254
255
254
254
255
254
254
254
254
255
254
254
255
255
255
254
254
254
255
255
254
254
254
255
255
255
254
255
255
255
253
254
254
255
255
255
253
253
253
254
255
255
254
254
255
254
255
254
254
254
255
254
254
254
255
253
206
125
125
129
132
128
132
144
161
161
162
164
164
165
164
163
164
164
164
164
164
164
164
164
165
164
164
164
164
165
165
162
163
163
164
163
163
161
161
161
163
160
160
160
160
160
164
162
162
165
165
164
163
164
165
164
163
163
164
162
162
164
165
178
180
184
181
181
183
182
175
172
165
164
164
162
149
149
131
129
128
128
128
124
124
224
253
253
253
254
255
255
254
253
255
254
254
254
254
254
255
255
255
254
254
254
255
255
255
254
254
255
255
255
254
254
254
254
254
255
255
255
254
254
254
254
255
255
255
255
254
254
254
254
255
255
254
254
254
254
255
255
255
254
254
255
255
254
254
254
255
255
254
255
255
255
254
254
255
255
255
254
254
254
255
255
255
254
254
255
255
255
254
254
254
254
254
251
244
244
138
97
102
102
104
102
103
101
103
103
103
103
101
94
95
146
244
245
254
253
253
253
249
250
221
99
98
98
99
101
100
101
100
100
102
117
136
136
137
137
137
138
137
137
137
137
137
137
137
137
138
138
137
137
137
137
137
137
137
137
137
137
137
137
137
137
137
137
137
137
138
136
135
144
162
161
160
159
159
159
161
160
162
135
136
136
133
106
102
103
103
100
100
101
97
97
98
133
247
245
253
254
254
254
254
254
254
254
254
254
254
255
255
254
254
254
255
255
254
254
254
254
254
0
0
0
0
0
0
0
0
0
0
0
0
0
0
0
0
0
0
0
0
0
0
0
0
0
0
0
0
0
0
0
0
0
0
0
0
0
0
0
0
0
0
0
0
0
0
0
0
0
0
0
0
0
0
0
0
0
0
0
0
0
0
0
0
0
0
0
0
0
0
0
0
0
0
0
0
0
0
0
0
0
0
0
0
0
0
0
0
0
0
0
0
0
0
0
0
0
0
0
0
0
0
0
0
0
0
0
0
0
0
0
0
0
0
0
0
0
0
0
0
0
0
0
0
0
0
0
0
0
0
0
0
0
0
0
0
0
0
0
0
0
0
0
0
0
0
0
0
0
0
0
0
0
0
0
0
0
0
0
0
0
0
0
0
0
0
0
0
0
0
0
0
0
0
0
0
0
0
0
0
0
0
0
0
0
0
0
0
0
0
0
0
0
0
0
0
0
0
0
0
0
0
238
231
245
255
253
255
254
254
254
255
255
255
255
254
253
253
254
254
254
255
254
254
255
255
255
254
254
255
255
255
254
255
254
255
255
255
254
255
255
254
254
255
254
255
254
254
253
253
254
255
255
255
254
254
255
254
255
254
254
255
255
254
254
252
249
166
123
125
131
127
128
133
149
159
162
164
163
165
165
165
164
163
164
164
164
164
164
164
164
164
163
163
163
164
164
164
162
164
163
162
164
162
151
158
155
151
131
153
150
132
151
152
154
142
157
162
157
164
165
165
165
164
163
162
164
162
164
164
166
181
181
183
182
183
182
182
169
165
165
163
164
161
145
139
131
128
130
128
125
127
131
247
254
254
255
255
255
255
254
253
254
254
254
254
254
254
255
255
255
254
254
254
255
255
255
254
254
255
255
255
254
254
254
254
254
255
254
254
255
255
254
254
255
255
255
255
254
254
254
254
255
254
254
254
255
255
255
254
254
255
254
254
254
254
255
255
255
255
255
255
255
254
254
254
255
255
255
254
254
254
255
255
255
254
254
255
255
255
254
254
254
250
242
242
137
95
100
103
102
103
101
104
101
103
103
103
102
102
101
93
93
146
246
245
255
254
247
249
216
96
97
98
102
103
102
101
101
101
101
119
137
137
137
136
137
138
137
137
137
137
137
137
137
137
137
137
137
137
137
137
137
137
137
137
137
137
137
137
137
137
137
137
137
137
137
137
138
135
135
149
159
160
160
159
159
159
160
161
154
133
137
136
134
106
103
103
101
101
101
102
99
99
101
114
242
232
254
254
254
254
254
254
254
254
254
255
255
254
254
254
255
255
254
254
254
255
255
0
0
0
0
0
0
0
0
0
0
0
0
0
0
0
0
0
0
0
0
0
0
0
0
0
0
0
0
0
0
0
0
0
0
0
0
0
0
0
0
0
0
0
0
0
0
0
0
0
0
0
0
0
0
0
0
0
0
0
0
0
0
0
0
0
0
0
0
0
0
0
0
0
0
0
0
0
0
0
0
0
0
0
0
0
0
0
0
0
0
0
0
0
0
0
0
0
0
0
0
0
0
0
0
0
0
0
0
0
0
0
0
0
0
0
0
0
0
0
0
0
0
0
0
0
0
0
0
0
0
0
0
0
0
0
0
0
0
0
0
0
0
0
0
0
0
0
0
0
0
0
0
0
0
0
0
0
0
0
0
0
0
0
0
0
0
0
0
0
0
0
0
0
0
0
0
0
0
0
0
0
0
0
0
0
0
0
0
0
0
0
0
0
0
0
0
0
0
0
0
0
0
0
238
255
254
255
255
255
254
254
254
254
255
254
254
254
253
254
254
254
254
255
255
254
254
255
255
255
255
255
254
254
254
255
255
254
255
255
254
254
255
255
255
255
255
254
254
254
254
253
254
253
255
255
254
254
254
254
254
255
254
254
255
251
255
254
243
166
123
128
131
128
130
137
149
161
161
164
164
165
165
164
163
163
164
164
164
164
164
164
164
164
163
163
163
163
165
161
162
161
157
162
148
142
151
133
132
128
131
132
130
132
133
127
129
142
133
140
157
152
161
164
164
162
162
162
162
164
164
164
163
169
181
182
183
183
182
182
178
165
163
164
164
163
160
139
135
130
130
128
128
128
131
175
252
252
255
253
255
255
255
254
254
254
254
255
254
254
254
255
255
254
254
254
254
255
255
255
254
254
255
255
255
254
254
254
254
254
254
254
255
255
255
254
254
255
255
255
255
254
254
254
254
254
254
254
255
255
255
254
254
254
255
254
254
254
255
255
255
254
255
255
255
255
254
254
254
255
254
255
254
254
255
255
255
255
254
254
255
255
254
254
250
241
242
113
97
102
100
105
104
103
103
114
110
103
103
103
102
101
102
100
94
97
134
245
247
249
247
194
94
97
97
102
103
103
101
102
103
101
122
138
137
137
136
136
137
137
137
137
137
138
137
137
137
137
137
137
137
137
137
137
136
137
137
137
137
137
137
137
137
137
137
137
137
137
137
138
137
137
135
135
159
160
160
161
159
159
160
159
154
144
136
136
135
136
109
103
103
101
101
101
101
99
100
100
92
232
220
253
254
254
255
254
254
254
255
255
255
254
254
255
255
254
254
254
255
255
0
0
0
0
0
0
0
0
0
0
0
0
0
0
0
0
0
0
0
0
0
0
0
0
0
0
0
0
0
0
0
0
0
0
0
0
0
0
0
0
0
0
0
0
0
0
0
0
0
0
0
0
0
0
0
0
0
0
0
0
0
0
0
0
0
0
0
0
0
0
0
0
0
0
0
0
0
0
0
0
0
0
0
0
0
0
0
0
0
0
0
0
0
0
0
0
0
0
0
0
0
0
0
0
0
0
0
0
0
0
0
0
0
0
0
0
0
0
0
0
0
0
0
0
0
0
0
0
0
0
0
0
0
0
0
0
0
0
0
0
0
0
0
0
0
0
0
0
0
0
0
0
0
0
0
0
0
0
0
0
0
0
0
0
0
0
0
0
0
0
0
0
0
0
0
0
0
0
0
0
0
0
0
0
0
0
0
0
0
0
0
0
0
0
0
0
0
0
0
0
0
0
0
0
255
253
253
255
255
255
255
254
254
254
254
254
254
254
254
254
254
254
255
255
255
254
254
254
255
255
255
254
254
254
254
255
255
255
254
255
255
255
255
254
254
255
255
255
254
254
254
254
253
254
254
254
254
255
254
254
254
254
255
253
253
254
254
252
252
138
122
122
127
128
129
128
154
162
162
162
162
162
165
163
162
162
164
164
164
164
164
164
164
163
163
163
163
164
161
160
160
148
148
137
134
134
130
130
128
131
126
128
128
126
130
125
128
128
131
131
132
145
145
156
163
162
162
162
162
162
165
165
165
165
171
183
183
183
184
184
182
176
162
162
163
160
160
156
132
131
130
128
130
130
120
223
249
253
255
254
254
255
255
255
255
254
255
255
255
254
254
254
255
255
254
254
254
254
255
255
255
254
254
255
255
255
254
254
254
254
254
254
255
255
255
255
255
255
255
255
255
255
254
254
254
255
254
254
254
255
255
255
254
254
255
255
254
255
255
255
254
254
255
254
255
255
255
255
255
254
254
254
255
255
255
255
255
255
255
254
254
254
254
250
237
237
101
97
102
102
103
103
103
104
125
137
135
110
102
102
103
101
101
101
100
98
98
130
240
240
166
95
95
97
101
102
102
102
100
100
104
124
138
138
137
137
137
137
137
137
137
137
138
138
137
137
137
137
137
137
137
137
137
137
137
137
137
137
137
137
137
137
137
137
137
137
137
137
138
137
137
137
137
136
136
159
160
160
161
159
160
161
160
136
136
136
136
138
136
111
103
103
101
101
101
103
103
103
103
93
219
219
254
254
255
254
254
255
255
255
254
254
254
255
254
254
254
255
255
0
0
0
0
0
0
0
0
0
0
0
0
0
0
0
0
0
0
0
0
0
0
0
0
0
0
0
0
0
0
0
0
0
0
0
0
0
0
0
0
0
0
0
0
0
0
0
0
0
0
0
0
0
0
0
0
0
0
0
0
0
0
0
0
0
0
0
0
0
0
0
0
0
0
0
0
0
0
0
0
0
0
0
0
0
0
0
0
0
0
0
0
0
0
0
0
0
0
0
0
0
0
0
0
0
0
0
0
0
0
0
0
0
0
0
0
0
0
0
0
0
0
0
0
0
0
0
0
0
0
0
0
0
0
0
0
0
0
0
0
0
0
0
0
0
0
0
0
0
0
0
0
0
0
0
0
0
0
0
0
0
0
0
0
0
0
0
0
0
0
0
0
0
0
0
0
0
0
0
0
0
0
0
0
0
0
0
0
0
0
0
0
0
0
0
0
0
0
0
0
0
0
0
0
0
255
254
254
254
254
255
254
255
254
254
254
254
254
255
254
254
254
254
254
255
255
255
254
254
255
255
255
254
254
254
255
255
255
255
255
254
255
255
254
254
254
255
255
254
254
254
254
255
255
254
254
253
255
255
254
254
254
254
254
254
253
253
254
248
225
126
124
133
127
131
129
131
156
163
162
167
166
164
165
163
163
163
164
164
164
164
163
164
163
163
163
163
164
162
161
151
135
140
132
129
131
132
126
125
128
121
122
126
125
125
124
125
122
123
129
131
129
129
138
134
145
161
162
164
162
162
164
164
165
165
166
175
183
183
184
184
185
183
170
163
164
163
161
161
140
131
130
129
128
132
129
138
249
251
254
255
255
251
255
255
255
254
254
255
255
255
254
254
254
255
255
255
254
254
254
255
255
255
254
254
255
255
255
254
254
254
254
254
254
255
255
254
255
255
255
254
255
254
254
254
254
254
255
254
255
254
254
255
255
254
255
255
255
254
255
255
255
254
254
255
254
255
254
255
254
254
254
254
254
254
255
255
254
254
255
255
254
254
249
220
230
92
98
102
102
103
102
101
106
135
136
137
137
136
109
102
102
103
101
101
101
101
99
101
120
150
97
97
95
99
100
101
103
103
101
101
126
137
138
137
137
137
138
137
137
137
137
138
138
137
137
137
137
137
137
137
138
137
137
137
137
138
138
137
137
137
137
137
137
137
137
137
137
137
137
138
137
137
137
137
140
148
160
159
159
161
160
160
161
160
136
135
137
138
138
136
114
102
101
103
103
103
103
103
103
100
95
230
242
254
255
254
255
255
254
254
254
255
255
255
255
254
255
255
0
0
0
0
0
0
0
0
0
0
0
0
0
0
0
0
0
0
0
0
0
0
0
0
0
0
0
0
0
0
0
0
0
0
0
0
0
0
0
0
0
0
0
0
0
0
0
0
0
0
0
0
0
0
0
0
0
0
0
0
0
0
0
0
0
0
0
0
0
0
0
0
0
0
0
0
0
0
0
0
0
0
0
0
0
0
0
0
0
0
0
0
0
0
0
0
0
0
0
0
0
0
0
0
0
0
0
0
0
0
0
0
0
0
0
0
0
0
0
0
0
0
0
0
0
0
0
0
0
0
0
0
0
0
0
0
0
0
0
0
0
0
0
0
0
0
0
0
0
0
0
0
0
0
0
0
0
0
0
0
0
0
0
0
0
0
0
0
0
0
0
0
0
0
0
0
0
0
0
0
0
0
0
0
0
0
0
0
0
0
0
0
0
0
0
0
0
0
0
0
0
0
0
0
0
0
255
255
255
254
254
254
254
254
255
254
254
254
255
254
254
254
254
254
255
255
255
255
254
255
255
254
254
254
254
255
255
255
255
254
255
255
255
255
255
254
255
255
255
254
254
254
254
255
255
254
253
254
254
255
255
255
254
254
254
251
252
255
255
254
201
126
123
128
128
128
129
143
143
163
163
167
165
163
164
164
163
164
164
163
164
164
164
163
163
163
163
164
162
162
145
133
133
130
129
129
129
128
123
123
132
151
151
180
195
201
201
193
165
165
126
126
129
127
130
132
132
139
159
164
163
163
164
164
164
162
162
166
179
182
182
184
184
184
180
163
164
164
161
159
159
134
129
129
130
131
127
127
191
252
252
254
253
251
255
254
254
254
254
254
255
255
255
254
254
254
255
255
255
254
254
254
255
255
255
254
254
255
255
255
255
255
255
254
254
254
254
254
254
255
254
254
254
254
254
254
254
255
255
255
255
254
254
254
255
255
254
255
255
255
255
255
255
254
254
254
255
254
254
254
255
254
254
255
254
254
255
255
254
254
254
255
255
249
212
220
90
98
102
102
103
102
102
110
137
137
137
136
137
137
136
110
102
102
103
101
101
101
104
101
105
100
103
103
100
98
98
102
104
103
104
129
136
136
137
138
137
137
137
137
137
137
138
138
137
137
137
137
137
137
137
138
138
137
137
137
137
137
138
137
137
137
137
137
137
137
137
137
137
137
137
137
138
137
137
137
135
148
155
161
159
159
161
160
160
161
139
136
136
137
138
138
137
121
101
103
102
104
104
103
102
102
100
97
245
245
254
255
255
255
254
254
254
255
255
255
254
254
255
0
0
0
0
0
0
0
0
0
0
0
0
0
0
0
0
0
0
0
0
0
0
0
0
0
0
0
0
0
0
0
0
0
0
0
0
0
0
0
0
0
0
0
0
0
0
0
0
0
0
0
0
0
0
0
0
0
0
0
0
0
0
0
0
0
0
0
0
0
0
0
0
0
0
0
0
0
0
0
0
0
0
0
0
0
0
0
0
0
0
0
0
0
0
0
0
0
0
0
0
0
0
0
0
0
0
0
0
0
0
0
0
0
0
0
0
0
0
0
0
0
0
0
0
0
0
0
0
0
0
0
0
0
0
0
0
0
0
0
0
0
0
0
0
0
0
0
0
0
0
0
0
0
0
0
0
0
0
0
0
0
0
0
0
0
0
0
0
0
0
0
0
0
0
0
0
0
0
0
0
0
0
0
0
0
0
0
0
0
0
0
0
0
0
0
0
0
0
0
0
0
0
0
0
0
0
0
255
255
255
255
254
254
254
255
255
255
255
254
254
254
254
255
254
255
255
254
255
254
255
255
254
254
254
254
255
255
255
254
254
254
254
255
254
254
253
254
254
254
254
254
254
254
254
254
254
254
254
254
253
253
254
254
254
254
254
254
254
254
248
252
251
123
130
129
126
131
127
131
157
163
162
164
161
163
164
164
164
164
163
163
164
164
163
163
163
163
164
158
161
141
131
132
130
128
129
128
123
178
135
175
233
213
225
237
233
233
231
231
232
215
227
146
123
125
126
131
129
129
136
160
164
165
164
165
164
163
161
161
172
182
183
182
185
183
182
177
163
164
164
161
156
151
131
128
128
131
126
123
127
241
253
254
255
255
255
254
254
254
254
254
254
254
254
254
254
255
254
255
255
255
254
254
254
255
255
255
254
254
255
255
255
255
255
255
254
254
254
254
255
255
255
254
254
254
254
254
255
254
255
253
255
255
254
254
254
255
255
254
255
255
255
255
255
255
254
254
255
255
254
254
254
254
254
254
255
254
254
255
255
254
254
254
250
211
211
91
98
103
103
103
100
102
112
136
138
137
137
137
136
137
137
136
110
102
102
103
101
101
100
101
103
104
99
101
99
104
104
102
103
105
131
137
136
137
137
137
137
137
137
137
137
138
138
137
137
136
136
137
138
137
137
139
138
137
137
137
137
138
138
138
137
138
135
137
137
137
137
137
137
137
137
137
138
138
137
137
136
136
161
161
161
159
159
161
161
162
138
135
137
138
136
139
139
137
124
102
102
104
103
102
103
101
100
97
141
247
250
255
255
254
254
254
255
255
255
255
254
254
0
0
0
0
0
0
0
0
0
0
0
0
0
0
0
0
0
0
0
0
0
0
0
0
0
0
0
0
0
0
0
0
0
0
0
0
0
0
0
0
0
0
0
0
0
0
0
0
0
0
0
0
0
0
0
0
0
0
0
0
0
0
0
0
0
0
0
0
0
0
0
0
0
0
0
0
0
0
0
0
0
0
0
0
0
0
0
0
0
0
0
0
0
0
0
0
0
0
0
0
0
0
0
0
0
0
0
0
0
0
0
0
0
0
0
0
0
0
0
0
0
0
0
0
0
0
0
0
0
0
0
0
0
0
0
0
0
0
0
0
0
0
0
0
0
0
0
0
0
0
0
0
0
0
0
0
0
0
0
0
0
0
0
0
0
0
0
0
0
0
0
0
0
0
0
0
0
0
0
0
0
0
0
0
0
0
0
0
0
0
0
0
0
0
0
0
0
0
0
0
0
0
0
0
0
0
0
0
254
255
255
255
254
254
254
254
255
255
255
255
254
254
255
255
255
255
254
254
254
255
255
255
255
254
254
255
255
255
255
254
254
254
255
254
254
254
254
254
254
254
253
254
255
255
254
254
254
255
255
255
253
253
253
255
254
255
254
254
254
253
253
252
250
123
127
129
125
130
127
132
157
163
163
164
161
163
162
163
164
162
163
164
164
164
164
163
163
163
160
160
140
130
131
131
126
128
122
149
220
178
232
231
233
230
228
229
229
233
229
231
232
231
227
232
191
120
126
126
129
129
132
138
161
165
164
164
164
163
162
164
164
175
184
182
183
184
182
182
165
167
164
163
163
151
138
129
130
130
131
129
127
172
252
254
252
255
253
254
254
254
254
254
254
254
254
255
255
255
255
254
255
255
255
254
254
254
255
255
254
254
254
255
255
255
255
255
254
254
254
255
255
255
255
255
254
254
254
255
255
255
253
253
254
255
255
254
254
254
255
255
255
255
255
255
254
255
255
254
255
255
255
254
254
255
255
254
254
255
254
254
255
255
254
249
220
211
95
100
102
103
102
100
100
117
137
137
137
137
136
137
137
137
137
137
136
110
102
102
102
101
102
104
101
104
103
101
99
102
103
102
106
134
136
137
138
137
137
136
137
137
137
137
137
138
137
136
136
136
137
137
138
139
138
139
135
135
136
137
137
138
138
138
137
138
135
137
137
137
137
136
137
137
137
138
138
138
137
137
138
136
150
161
160
160
159
160
163
152
152
135
138
138
137
137
139
138
137
128
102
102
103
102
103
102
98
98
93
242
250
253
254
254
254
255
255
255
254
254
254
0
0
0
0
0
0
0
0
0
0
0
0
0
0
0
0
0
0
0
0
0
0
0
0
0
0
0
0
0
0
0
0
0
0
0
0
0
0
0
0
0
0
0
0
0
0
0
0
0
0
0
0
0
0
0
0
0
0
0
0
0
0
0
0
0
0
0
0
0
0
0
0
0
0
0
0
0
0
0
0
0
0
0
0
0
0
0
0
0
0
0
0
0
0
0
0
0
0
0
0
0
0
0
0
0
0
0
0
0
0
0
0
0
0
0
0
0
0
0
0
0
0
0
0
0
0
0
0
0
0
0
0
0
0
0
0
0
0
0
0
0
0
0
0
0
0
0
0
0
0
0
0
0
0
0
0
0
0
0
0
0
0
0
0
0
0
0
0
0
0
0
0
0
0
0
0
0
0
0
0
0
0
0
0
0
0
0
0
0
0
0
0
0
0
0
0
0
0
0
0
0
0
0
0
0
0
0
0
0
255
254
254
255
255
255
254
254
255
254
254
255
255
254
254
255
255
255
255
254
254
254
255
255
255
255
255
255
255
255
254
254
253
254
254
255
254
254
254
254
253
254
254
254
255
255
253
254
255
254
254
254
254
253
254
254
254
253
253
254
254
252
252
253
159
119
131
129
134
134
129
149
149
163
164
162
161
162
162
162
162
162
163
164
165
164
164
164
163
163
163
140
131
130
130
125
125
120
183
231
233
234
229
229
232
227
229
229
225
229
231
229
232
232
230
230
230
204
121
127
127
128
131
132
139
161
164
164
164
162
162
162
165
166
179
184
184
184
183
179
174
162
166
162
162
160
137
133
128
130
129
128
120
230
230
252
254
254
254
254
254
254
254
255
255
254
254
255
255
255
255
255
254
255
255
255
254
254
254
254
254
255
254
254
255
255
255
254
254
254
255
255
255
255
255
255
255
254
255
254
255
255
255
254
254
254
255
255
254
254
254
255
255
255
255
255
254
254
254
254
254
255
255
255
255
255
255
255
254
254
255
254
254
255
251
235
235
90
92
101
103
102
102
102
121
137
136
136
137
136
136
136
138
138
137
137
137
136
112
102
102
101
102
102
101
101
97
97
103
104
104
108
134
136
136
138
139
139
137
136
137
137
137
137
137
137
137
136
136
137
137
137
139
135
135
137
135
136
135
136
137
137
138
140
137
138
137
135
135
137
137
137
136
136
136
137
138
137
137
137
137
137
137
158
159
159
159
158
161
160
135
136
135
136
137
137
137
138
136
137
129
102
102
104
103
102
102
98
94
131
248
254
254
253
255
255
255
254
254
254
0
0
0
0
0
0
0
0
0
0
0
0
0
0
0
0
0
0
0
0
0
0
0
0
0
0
0
0
0
0
0
0
0
0
0
0
0
0
0
0
0
0
0
0
0
0
0
0
0
0
0
0
0
0
0
0
0
0
0
0
0
0
0
0
0
0
0
0
0
0
0
0
0
0
0
0
0
0
0
0
0
0
0
0
0
0
0
0
0
0
0
0
0
0
0
0
0
0
0
0
0
0
0
0
0
0
0
0
0
0
0
0
0
0
0
0
0
0
0
0
0
0
0
0
0
0
0
0
0
0
0
0
0
0
0
0
0
0
0
0
0
0
0
0
0
0
0
0
0
0
0
0
0
0
0
0
0
0
0
0
0
0
0
0
0
0
0
0
0
0
0
0
0
0
0
0
0
0
0
0
0
0
0
0
0
0
0
0
0
0
0
0
0
0
0
0
0
0
0
0
0
0
0
0
0
0
0
0
0
0
255
255
254
254
255
255
255
254
255
254
254
254
255
254
254
254
255
255
254
255
255
254
254
254
255
255
254
255
255
254
254
254
254
254
254
254
255
254
254
254
254
254
254
253
254
254
252
253
255
255
254
254
254
255
254
254
255
250
253
255
254
254
255
252
151
119
131
130
126
127
129
135
159
161
165
162
162
162
162
162
163
163
163
164
164
165
164
165
161
163
144
131
131
129
127
126
122
225
231
231
228
228
228
229
229
229
229
231
229
229
232
230
230
229
229
231
230
231
208
123
126
127
127
132
132
148
161
164
164
164
162
162
161
166
170
182
185
184
184
183
174
168
165
164
162
163
139
133
130
129
129
127
127
128
251
253
253
254
253
254
254
255
254
255
255
255
255
255
255
255
255
255
255
254
255
255
255
254
254
254
255
255
255
254
254
255
255
255
254
254
255
255
255
255
255
255
255
255
255
255
254
255
255
255
254
254
255
255
255
254
254
254
255
255
255
255
254
254
254
255
255
255
255
255
255
255
255
255
255
254
255
254
254
254
245
242
91
96
101
101
102
102
103
127
136
138
136
137
136
136
136
138
137
138
137
137
137
136
137
111
104
103
103
102
102
103
104
103
102
102
108
138
136
136
137
139
138
138
137
137
137
137
137
137
137
137
137
136
137
137
137
138
138
136
138
139
134
136
134
137
137
138
140
138
137
137
138
136
138
135
137
137
137
136
136
136
137
137
137
137
137
137
137
139
162
161
162
162
161
148
134
136
136
136
136
137
135
138
136
135
130
123
102
103
103
102
102
98
94
120
249
253
254
255
255
255
254
254
254
0
0
0
0
0
0
0
0
0
0
0
0
0
0
0
0
0
0
0
0
0
0
0
0
0
0
0
0
0
0
0
0
0
0
0
0
0
0
0
0
0
0
0
0
0
0
0
0
0
0
0
0
0
0
0
0
0
0
0
0
0
0
0
0
0
0
0
0
0
0
0
0
0
0
0
0
0
0
0
0
0
0
0
0
0
0
0
0
0
0
0
0
0
0
0
0
0
0
0
0
0
0
0
0
0
0
0
0
0
0
0
0
0
0
0
0
0
0
0
0
0
0
0
0
0
0
0
0
0
0
0
0
0
0
0
0
0
0
0
0
0
0
0
0
0
0
0
0
0
0
0
0
0
0
0
0
0
0
0
0
0
0
0
0
0
0
0
0
0
0
0
0
0
0
0
0
0
0
0
0
0
0
0
0
0
0
0
0
0
0
0
0
0
0
0
0
0
0
0
0
0
0
0
0
0
0
0
0
0
0
0
255
255
255
254
254
255
255
255
255
255
254
254
254
254
254
255
255
254
254
254
255
255
254
254
254
255
255
254
254
254
254
255
255
255
254
254
254
255
255
254
254
252
253
253
254
254
254
254
255
251
251
254
253
253
253
253
255
255
254
251
251
255
253
243
243
122
129
129
126
132
129
137
159
165
165
163
162
162
164
163
162
162
163
163
163
164
164
161
161
151
132
132
131
126
126
126
228
232
232
229
229
229
230
230
230
230
228
230
230
229
228
228
229
230
231
231
231
230
230
202
123
126
126
128
130
130
156
162
162
162
164
165
165
164
175
175
182
182
185
185
181
164
164
164
162
162
162
133
128
128
128
127
127
123
233
254
254
253
254
254
254
254
254
254
255
255
255
255
255
255
255
255
255
255
254
255
255
255
254
254
254
255
255
255
255
254
255
255
255
254
254
255
255
255
255
255
255
255
255
254
254
254
255
255
255
254
255
255
255
255
254
254
255
255
255
254
254
254
254
254
255
255
255
255
255
255
255
255
255
255
255
255
254
251
251
159
99
103
103
102
106
106
136
136
138
138
137
136
136
137
138
138
137
137
137
137
137
137
137
137
121
101
101
104
103
103
104
102
102
112
137
137
137
137
137
137
136
137
137
137
137
137
137
137
137
138
138
137
137
137
137
139
139
134
146
155
155
134
136
136
137
136
136
136
142
137
137
136
137
135
136
137
137
137
136
137
137
137
137
137
137
137
136
136
136
160
159
159
150
136
136
135
135
135
138
138
136
136
136
124
124
101
101
103
103
104
104
104
95
233
233
252
252
252
252
254
254
254
0
0
0
0
0
0
0
0
0
0
0
0
0
0
0
0
0
0
0
0
0
0
0
0
0
0
0
0
0
0
0
0
0
0
0
0
0
0
0
0
0
0
0
0
0
0
0
0
0
0
0
0
0
0
0
0
0
0
0
0
0
0
0
0
0
0
0
0
0
0
0
0
0
0
0
0
0
0
0
0
0
0
0
0
0
0
0
0
0
0
0
0
0
0
0
0
0
0
0
0
0
0
0
0
0
0
0
0
0
0
0
0
0
0
0
0
0
0
0
0
0
0
0
0
0
0
0
0
0
0
0
0
0
0
0
0
0
0
0
0
0
0
0
0
0
0
0
0
0
0
0
0
0
0
0
0
0
0
0
0
0
0
0
0
0
0
0
0
0
0
0
0
0
0
0
0
0
0
0
0
0
0
0
0
0
0
0
0
0
0
0
0
0
0
0
0
0
0
0
0
0
0
0
0
0
0
0
0
0
0
0
0
254
255
255
255
254
254
254
254
255
255
255
254
255
255
254
254
255
254
255
254
254
255
255
254
254
254
255
255
254
254
254
254
255
255
254
254
254
254
255
255
255
254
254
253
255
255
254
252
252
255
255
253
255
254
253
253
252
252
252
254
254
251
249
250
136
125
125
130
131
129
127
146
160
164
164
164
163
164
165
163
162
163
163
163
164
166
161
162
158
135
132
131
128
127
122
227
228
231
228
230
229
232
229
230
231
230
229
231
229
231
227
228
234
232
229
230
228
230
233
231
165
124
126
128
128
132
139
162
162
161
163
164
165
165
167
179
183
181
182
183
181
177
163
164
162
164
155
143
131
127
128
127
127
128
182
249
253
251
253
253
254
254
254
254
254
255
255
255
254
254
255
255
255
255
255
254
255
255
255
254
254
254
255
255
255
255
254
255
255
255
254
254
255
255
255
255
255
255
255
255
254
254
254
255
255
255
254
255
255
255
254
255
255
255
255
255
254
254
254
254
254
255
255
255
255
255
255
255
255
255
255
255
253
254
225
100
101
104
101
104
106
139
138
136
137
137
137
137
137
137
137
137
137
137
137
137
137
137
137
136
135
129
104
118
105
104
115
104
121
136
135
136
137
136
136
137
137
137
137
137
137
137
137
137
137
138
137
137
137
138
136
137
132
160
159
160
158
148
138
135
136
131
135
125
105
125
133
127
136
138
138
137
137
137
137
137
137
137
137
136
137
137
137
137
136
136
150
141
135
138
135
140
137
138
137
135
137
133
108
117
101
102
101
102
103
103
105
96
93
153
251
254
255
251
254
251
254
0
0
0
0
0
0
0
0
0
0
0
0
0
0
0
0
0
0
0
0
0
0
0
0
0
0
0
0
0
0
0
0
0
0
0
0
0
0
0
0
0
0
0
0
0
0
0
0
0
0
0
0
0
0
0
0
0
0
0
0
0
0
0
0
0
0
0
0
0
0
0
0
0
0
0
0
0
0
0
0
0
0
0
0
0
0
0
0
0
0
0
0
0
0
0
0
0
0
0
0
0
0
0
0
0
0
0
0
0
0
0
0
0
0
0
0
0
0
0
0
0
0
0
0
0
0
0
0
0
0
0
0
0
0
0
0
0
0
0
0
0
0
0
0
0
0
0
0
0
0
0
0
0
0
0
0
0
0
0
0
0
0
0
0
0
0
0
0
0
0
0
0
0
0
0
0
0
0
0
0
0
0
0
0
0
0
0
0
0
0
0
0
0
0
0
0
0
0
0
0
0
0
0
0
0
0
0
0
0
0
0
0
0
254
254
255
255
255
254
254
254
255
255
255
254
255
255
255
254
255
254
254
255
254
254
254
255
254
254
254
255
255
255
254
254
253
254
254
254
253
254
254
254
252
254
255
253
253
253
254
254
252
253
252
253
251
250
249
249
247
244
252
230
222
217
217
211
134
125
128
124
131
127
134
150
160
164
165
164
164
164
163
163
162
163
163
164
166
162
162
163
141
135
129
127
128
121
215
235
235
231
231
230
228
228
231
231
229
231
229
238
244
231
244
245
243
243
240
235
228
229
232
230
230
140
129
128
131
130
150
150
161
161
163
163
165
165
166
177
183
183
181
183
181
179
164
166
166
162
162
143
133
129
128
128
130
123
123
239
254
251
253
254
254
254
253
255
254
254
255
255
255
254
255
255
255
255
255
254
255
255
255
255
254
254
254
255
255
255
255
254
255
255
255
254
254
255
255
255
255
254
255
255
255
254
254
254
255
255
254
254
255
254
254
255
255
255
255
255
254
254
254
254
255
255
255
255
255
255
255
255
255
255
255
255
253
251
174
98
98
104
100
104
131
136
137
137
136
137
137
137
138
137
137
137
137
137
137
137
137
137
137
136
136
135
136
118
134
129
115
133
136
137
135
137
137
136
138
136
137
137
137
137
137
137
137
137
137
137
137
137
137
138
136
139
160
164
164
160
157
148
132
134
126
126
99
103
105
99
101
127
121
137
136
137
138
137
137
137
137
137
137
136
136
137
138
137
137
137
135
135
135
139
137
140
139
137
137
137
130
105
108
103
100
101
101
101
103
103
99
93
93
214
251
251
251
253
254
251
0
0
0
0
0
0
0
0
0
0
0
0
0
0
0
0
0
0
0
0
0
0
0
0
0
0
0
0
0
0
0
0
0
0
0
0
0
0
0
0
0
0
0
0
0
0
0
0
0
0
0
0
0
0
0
0
0
0
0
0
0
0
0
0
0
0
0
0
0
0
0
0
0
0
0
0
0
0
0
0
0
0
0
0
0
0
0
0
0
0
0
0
0
0
0
0
0
0
0
0
0
0
0
0
0
0
0
0
0
0
0
0
0
0
0
0
0
0
0
0
0
0
0
0
0
0
0
0
0
0
0
0
0
0
0
0
0
0
0
0
0
0
0
0
0
0
0
0
0
0
0
0
0
0
0
0
0
0
0
0
0
0
0
0
0
0
0
0
0
0
0
0
0
0
0
0
0
0
0
0
0
0
0
0
0
0
0
0
0
0
0
0
0
0
0
0
0
0
0
0
0
0
0
0
0
0
0
0
0
0
0
0
0
0
254
254
254
255
255
255
254
255
255
255
255
254
254
255
255
254
255
255
254
254
255
254
254
254
254
254
254
255
254
254
254
254
254
254
254
254
254
253
254
252
253
254
253
250
253
251
235
250
251
247
247
232
216
126
188
162
127
146
133
133
124
126
124
126
130
129
128
128
133
126
131
131
158
163
163
163
164
165
164
162
162
162
163
163
163
162
165
158
148
130
127
127
124
186
228
230
222
228
230
230
228
231
231
231
250
239
249
249
249
254
254
254
252
253
254
250
240
228
233
227
228
209
126
127
131
129
135
160
163
164
164
165
165
165
168
171
179
183
182
182
184
172
168
164
166
165
162
155
129
129
127
129
125
129
138
204
251
251
254
255
254
255
254
255
255
254
254
255
255
255
254
255
255
255
255
254
254
255
255
255
255
254
254
254
255
255
255
255
254
255
255
255
254
254
255
255
254
254
255
255
255
254
254
254
254
255
254
254
254
254
254
254
255
255
255
255
254
254
254
255
255
255
255
255
255
255
255
255
255
255
255
255
255
245
160
94
99
105
100
116
138
136
134
135
136
137
137
138
138
138
136
137
137
137
137
137
137
138
138
137
138
138
136
138
137
137
137
138
135
137
137
137
137
136
137
137
137
137
138
138
137
137
137
137
137
137
137
136
137
137
144
159
162
160
162
158
157
136
140
124
121
103
101
102
101
100
100
102
114
113
138
137
138
138
137
137
137
137
137
137
136
137
137
139
138
135
136
140
137
142
142
136
137
134
136
119
105
103
104
101
100
99
99
102
103
99
94
94
180
231
238
254
255
255
254
0
0
0
0
0
0
0
0
0
0
0
0
0
0
0
0
0
0
0
0
0
0
0
0
0
0
0
0
0
0
0
0
0
0
0
0
0
0
0
0
0
0
0
0
0
0
0
0
0
0
0
0
0
0
0
0
0
0
0
0
0
0
0
0
0
0
0
0
0
0
0
0
0
0
0
0
0
0
0
0
0
0
0
0
0
0
0
0
0
0
0
0
0
0
0
0
0
0
0
0
0
0
0
0
0
0
0
0
0
0
0
0
0
0
0
0
0
0
0
0
0
0
0
0
0
0
0
0
0
0
0
0
0
0
0
0
0
0
0
0
0
0
0
0
0
0
0
0
0
0
0
0
0
0
0
0
0
0
0
0
0
0
0
0
0
0
0
0
0
0
0
0
0
0
0
0
0
0
0
0
0
0
0
0
0
0
0
0
0
0
0
0
0
0
0
0
0
0
0
0
0
0
0
0
0
0
0
0
0
0
0
0
0
0
0
255
255
254
254
255
255
255
254
255
255
255
254
254
254
254
254
254
255
255
254
254
255
254
254
254
254
254
253
255
254
255
255
255
254
253
253
254
253
251
252
250
249
227
250
189
157
235
131
125
173
146
124
126
126
124
128
127
129
131
125
124
123
126
126
126
128
129
127
130
127
131
134
157
161
162
165
165
165
164
162
162
162
162
165
163
162
161
158
135
129
126
126
126
233
228
235
229
228
233
231
231
231
247
255
250
254
255
254
255
254
253
254
252
254
254
254
254
249
233
231
230
209
159
125
129
129
131
148
163
163
163
166
165
165
167
171
178
184
182
184
185
178
168
165
165
165
164
157
141
129
130
127
125
129
123
204
249
253
255
255
254
254
254
254
255
255
254
254
255
255
255
255
255
255
255
255
254
254
255
255
255
255
254
254
254
255
255
255
254
254
255
255
255
254
254
255
254
254
254
255
255
255
254
254
254
255
254
254
254
254
254
254
254
255
255
255
254
254
255
254
255
255
255
254
255
255
255
255
255
255
255
255
254
246
160
94
101
105
104
114
135
136
136
138
136
137
138
138
138
137
137
137
137
137
137
137
137
137
138
137
137
138
136
136
137
138
136
134
135
137
136
137
136
139
137
137
137
137
138
137
137
137
137
137
137
137
136
135
135
148
160
162
162
160
158
158
133
139
124
124
104
101
101
102
101
102
102
102
102
113
113
137
137
138
137
137
137
137
137
137
137
136
139
139
136
139
136
137
137
137
137
136
130
134
107
104
105
100
103
102
100
103
101
102
99
95
93
162
229
232
238
255
254
255
0
0
0
0
0
0
0
0
0
0
0
0
0
0
0
0
0
0
0
0
0
0
0
0
0
0
0
0
0
0
0
0
0
0
0
0
0
0
0
0
0
0
0
0
0
0
0
0
0
0
0
0
0
0
0
0
0
0
0
0
0
0
0
0
0
0
0
0
0
0
0
0
0
0
0
0
0
0
0
0
0
0
0
0
0
0
0
0
0
0
0
0
0
0
0
0
0
0
0
0
0
0
0
0
0
0
0
0
0
0
0
0
0
0
0
0
0
0
0
0
0
0
0
0
0
0
0
0
0
0
0
0
0
0
0
0
0
0
0
0
0
0
0
0
0
0
0
0
0
0
0
0
0
0
0
0
0
0
0
0
0
0
0
0
0
0
0
0
0
0
0
0
0
0
0
0
0
0
0
0
0
0
0
0
0
0
0
0
0
0
0
0
0
0
0
0
0
0
0
0
0
0
0
0
0
0
0
0
0
0
0
0
0
0
0
0
255
255
254
254
254
255
255
255
254
255
255
255
254
255
255
254
255
255
255
254
254
254
255
254
254
252
253
254
254
255
251
251
253
254
253
253
251
248
248
236
188
127
148
127
123
123
124
122
122
124
129
127
127
129
130
130
130
126
129
128
134
127
127
129
131
131
126
129
129
129
129
147
147
164
165
166
166
166
163
163
162
166
163
165
163
162
162
147
127
127
130
120
211
211
228
229
229
232
226
246
239
255
255
255
254
254
254
255
253
254
254
255
253
253
252
255
252
254
252
229
229
231
123
129
127
131
136
136
158
163
163
165
164
166
166
170
182
182
184
183
183
184
173
165
165
163
162
162
152
129
128
128
129
125
125
152
252
254
254
254
255
255
254
254
254
255
255
254
254
255
255
255
254
254
255
255
255
254
254
255
255
255
255
255
254
254
255
255
255
254
254
255
255
255
255
255
255
254
255
255
255
255
255
254
255
255
254
254
254
254
254
254
254
255
255
254
254
255
255
255
254
255
255
255
254
255
255
254
254
254
254
249
250
250
187
99
99
100
103
105
130
136
136
136
139
138
138
137
136
137
137
137
137
137
137
137
137
137
137
137
137
136
138
138
137
136
135
135
138
138
138
138
137
137
137
137
137
137
137
137
137
137
137
136
136
136
136
136
158
161
161
161
161
158
158
136
137
127
127
103
101
101
102
97
97
99
102
101
101
102
111
111
136
138
137
137
137
137
137
137
136
137
138
137
139
139
138
138
138
139
136
125
125
102
102
102
101
101
99
103
102
101
101
98
97
97
158
226
225
225
225
251
251
0
0
0
0
0
0
0
0
0
0
0
0
0
0
0
0
0
0
0
0
0
0
0
0
0
0
0
0
0
0
0
0
0
0
0
0
0
0
0
0
0
0
0
0
0
0
0
0
0
0
0
0
0
0
0
0
0
0
0
0
0
0
0
0
0
0
0
0
0
0
0
0
0
0
0
0
0
0
0
0
0
0
0
0
0
0
0
0
0
0
0
0
0
0
0
0
0
0
0
0
0
0
0
0
0
0
0
0
0
0
0
0
0
0
0
0
0
0
0
0
0
0
0
0
0
0
0
0
0
0
0
0
0
0
0
0
0
0
0
0
0
0
0
0
0
0
0
0
0
0
0
0
0
0
0
0
0
0
0
0
0
0
0
0
0
0
0
0
0
0
0
0
0
0
0
0
0
0
0
0
0
0
0
0
0
0
0
0
0
0
0
0
0
0
0
0
0
0
0
0
0
0
0
0
0
0
0
0
0
0
0
0
0
0
0
0
0
255
255
255
254
254
254
255
255
255
254
254
255
254
255
255
254
254
255
255
254
254
254
255
255
253
255
254
255
255
255
254
254
250
236
252
246
135
206
157
123
122
127
126
127
127
126
130
126
131
129
130
127
126
126
126
130
129
130
129
128
126
129
129
127
127
126
129
129
130
130
130
136
159
162
163
165
165
164
165
163
164
163
163
165
163
162
158
142
133
130
126
120
159
235
229
227
227
234
247
246
253
253
254
254
255
255
254
254
255
254
255
255
255
253
252
255
252
254
252
254
230
233
142
129
125
129
131
142
153
166
164
164
164
164
166
165
175
181
184
183
183
183
174
166
163
163
161
159
153
130
130
131
130
128
128
130
251
254
254
254
255
255
255
254
254
254
255
255
254
254
255
255
255
254
254
255
255
255
254
254
255
255
255
255
255
254
254
255
255
255
254
254
255
254
255
255
255
255
255
255
255
255
255
255
254
254
254
255
254
254
254
254
255
255
255
255
254
254
255
255
255
254
255
254
255
254
254
254
254
255
255
252
254
246
231
107
99
105
101
105
115
138
137
136
136
138
138
138
136
136
138
138
137
137
137
137
137
137
137
137
138
138
138
138
137
138
137
137
138
138
137
138
137
137
137
137
137
137
137
136
137
137
136
136
136
143
140
160
161
159
159
160
155
155
134
138
132
127
99
101
100
105
96
98
98
137
96
101
100
100
101
111
112
137
138
136
136
137
137
136
135
137
136
137
137
137
138
137
138
134
106
116
100
102
101
102
102
100
99
101
103
102
97
90
94
165
229
233
232
232
229
247
0
0
0
0
0
0
0
0
0
0
0
0
0
0
0
0
0
0
0
0
0
0
0
0
0
0
0
0
0
0
0
0
0
0
0
0
0
0
0
0
0
0
0
0
0
0
0
0
0
0
0
0
0
0
0
0
0
0
0
0
0
0
0
0
0
0
0
0
0
0
0
0
0
0
0
0
0
0
0
0
0
0
0
0
0
0
0
0
0
0
0
0
0
0
0
0
0
0
0
0
0
0
0
0
0
0
0
0
0
0
0
0
0
0
0
0
0
0
0
0
0
0
0
0
0
0
0
0
0
0
0
0
0
0
0
0
0
0
0
0
0
0
0
0
0
0
0
0
0
0
0
0
0
0
0
0
0
0
0
0
0
0
0
0
0
0
0
0
0
0
0
0
0
0
0
0
0
0
0
0
0
0
0
0
0
0
0
0
0
0
0
0
0
0
0
0
0
0
0
0
0
0
0
0
0
0
0
0
0
0
0
0
0
0
0
0
0
0
255
255
255
255
254
254
254
255
255
255
254
254
254
254
255
254
254
254
255
255
254
254
255
254
255
253
253
253
252
255
251
236
174
174
125
125
135
126
132
129
129
130
125
125
129
129
130
132
131
126
126
124
126
126
130
129
131
131
130
132
132
131
128
127
132
129
129
129
129
128
130
139
160
163
163
166
165
164
166
163
165
165
164
167
167
162
154
142
129
130
127
127
198
229
229
231
231
246
246
255
255
255
254
254
255
254
254
255
255
255
255
255
254
255
255
255
250
253
253
252
254
228
228
125
128
128
130
132
153
160
161
163
163
162
163
165
172
183
185
185
182
183
183
168
162
163
164
162
144
144
128
128
130
128
125
206
206
253
252
252
254
255
255
255
254
254
254
255
255
254
254
255
255
255
254
254
255
255
255
254
254
255
255
255
255
255
254
254
255
255
255
254
254
254
254
255
255
255
255
255
255
255
255
255
254
254
255
255
255
255
254
255
255
255
255
254
255
254
254
254
254
254
254
254
254
255
254
254
254
254
255
255
252
250
231
168
98
102
102
101
128
128
138
138
136
138
136
138
138
136
137
138
138
137
137
137
137
137
137
137
137
138
139
137
137
137
137
137
138
137
137
137
137
137
137
137
137
136
137
137
137
136
136
135
147
143
159
160
160
160
160
154
155
133
135
131
131
106
101
101
102
97
96
121
216
147
147
94
100
100
100
103
111
111
135
137
136
138
136
137
137
136
137
137
137
138
138
137
123
100
100
102
102
102
102
102
102
102
100
100
100
95
97
90
202
229
228
228
230
229
229
0
0
0
0
0
0
0
0
0
0
0
0
0
0
0
0
0
0
0
0
0
0
0
0
0
0
0
0
0
0
0
0
0
0
0
0
0
0
0
0
0
0
0
0
0
0
0
0
0
0
0
0
0
0
0
0
0
0
0
0
0
0
0
0
0
0
0
0
0
0
0
0
0
0
0
0
0
0
0
0
0
0
0
0
0
0
0
0
0
0
0
0
0
0
0
0
0
0
0
0
0
0
0
0
0
0
0
0
0
0
0
0
0
0
0
0
0
0
0
0
0
0
0
0
0
0
0
0
0
0
0
0
0
0
0
0
0
0
0
0
0
0
0
0
0
0
0
0
0
0
0
0
0
0
0
0
0
0
0
0
0
0
0
0
0
0
0
0
0
0
0
0
0
0
0
0
0
0
0
0
0
0
0
0
0
0
0
0
0
0
0
0
0
0
0
0
0
0
0
0
0
0
0
0
0
0
0
0
0
0
0
0
0
0
0
0
0
0
0
254
255
255
255
255
254
254
254
255
255
255
254
254
255
255
255
254
254
255
255
255
254
255
253
254
254
253
248
251
245
182
122
127
124
128
129
124
127
128
128
128
129
130
129
131
128
127
128
133
128
132
127
131
128
128
130
132
130
128
130
130
127
128
130
127
131
130
129
130
129
135
154
163
165
165
164
167
164
162
162
163
165
164
167
163
162
161
137
129
130
129
130
216
227
232
228
247
250
255
253
255
254
254
254
254
254
255
255
254
254
254
255
255
255
255
255
252
255
254
252
253
248
171
124
126
130
126
128
145
163
163
163
162
162
164
166
178
184
184
184
182
184
179
170
165
164
162
163
159
132
129
132
126
125
125
121
249
253
254
254
252
254
255
255
255
254
254
254
255
255
254
254
255
255
255
254
254
255
255
255
254
254
254
255
255
255
255
254
254
255
255
255
255
254
255
255
255
255
255
255
255
255
255
254
255
255
255
255
255
255
255
255
255
255
254
254
254
255
254
254
254
254
254
254
254
255
255
254
254
255
255
255
254
254
245
103
94
97
101
102
103
136
138
136
138
139
140
135
137
137
137
137
138
137
137
137
137
137
137
137
137
137
139
139
136
137
139
137
137
137
137
137
138
139
137
137
136
137
137
137
136
136
134
152
151
159
160
159
159
162
154
153
134
134
132
132
106
102
101
102
99
96
107
223
225
224
136
116
94
100
101
102
102
110
109
134
136
137
139
137
137
137
137
138
137
138
135
114
99
101
103
101
102
102
101
104
104
101
101
102
96
135
109
217
227
230
227
230
230
229
0
0
0
0
0
0
0
0
0
0
0
0
0
0
0
0
0
0
0
0
0
0
0
0
0
0
0
0
0
0
0
0
0
0
0
0
0
0
0
0
0
0
0
0
0
0
0
0
0
0
0
0
0
0
0
0
0
0
0
0
0
0
0
0
0
0
0
0
0
0
0
0
0
0
0
0
0
0
0
0
0
0
0
0
0
0
0
0
0
0
0
0
0
0
0
0
0
0
0
0
0
0
0
0
0
0
0
0
0
0
0
0
0
0
0
0
0
0
0
0
0
0
0
0
0
0
0
0
0
0
0
0
0
0
0
0
0
0
0
0
0
0
0
0
0
0
0
0
0
0
0
0
0
0
0
0
0
0
0
0
0
0
0
0
0
0
0
0
0
0
0
0
0
0
0
0
0
0
0
0
0
0
0
0
0
0
0
0
0
0
0
0
0
0
0
0
0
0
0
0
0
0
0
0
0
0
0
0
0
0
0
0
0
0
0
0
0
0
0
0
254
254
254
255
255
255
254
254
254
255
255
255
254
254
255
255
254
254
254
255
255
253
254
253
254
251
228
248
137
120
127
122
125
127
128
126
125
130
128
133
131
129
130
130
131
131
130
133
133
134
130
127
131
131
131
130
134
132
128
134
131
127
131
134
134
131
136
136
130
139
149
161
163
162
161
164
161
162
162
162
163
164
164
161
162
162
159
135
128
130
126
130
216
227
227
241
247
254
253
253
255
255
254
254
254
255
255
255
253
254
254
255
255
255
255
254
252
255
255
254
254
253
207
124
130
131
126
129
143
163
163
163
162
162
163
165
178
184
184
183
182
182
177
170
164
163
163
163
160
135
129
132
129
128
125
122
243
253
254
254
252
255
254
255
255
255
254
254
254
255
255
254
254
255
255
255
254
254
255
255
255
254
254
254
255
255
255
255
254
254
255
255
255
254
254
255
255
255
255
254
254
255
254
255
255
255
254
255
255
255
254
255
255
255
254
254
254
254
255
254
254
254
254
254
254
255
255
255
254
255
254
254
254
255
251
183
94
98
103
102
104
115
138
138
137
135
140
137
137
137
137
137
137
137
137
137
137
137
137
137
137
137
137
139
139
139
139
139
136
137
137
137
139
139
138
137
137
137
137
136
136
134
156
152
160
160
158
159
162
153
154
135
135
132
132
105
103
102
102
98
99
93
215
227
225
228
224
116
102
97
102
102
102
102
109
103
128
138
139
138
137
137
137
136
137
122
100
100
99
101
102
101
102
102
103
104
102
100
101
93
158
135
225
228
232
230
229
230
230
0
0
0
0
0
0
0
0
0
0
0
0
0
0
0
0
0
0
0
0
0
0
0
0
0
0
0
0
0
0
0
0
0
0
0
0
0
0
0
0
0
0
0
0
0
0
0
0
0
0
0
0
0
0
0
0
0
0
0
0
0
0
0
0
0
0
0
0
0
0
0
0
0
0
0
0
0
0
0
0
0
0
0
0
0
0
0
0
0
0
0
0
0
0
0
0
0
0
0
0
0
0
0
0
0
0
0
0
0
0
0
0
0
0
0
0
0
0
0
0
0
0
0
0
0
0
0
0
0
0
0
0
0
0
0
0
0
0
0
0
0
0
0
0
0
0
0
0
0
0
0
0
0
0
0
0
0
0
0
0
0
0
0
0
0
0
0
0
0
0
0
0
0
0
0
0
0
0
0
0
0
0
0
0
0
0
0
0
0
0
0
0
0
0
0
0
0
0
0
0
0
0
0
0
0
0
0
0
0
0
0
0
0
0
0
0
0
0
0
0
0
254
254
254
254
255
255
255
254
254
254
255
255
255
254
254
255
255
255
255
255
255
254
252
253
248
178
178
123
128
129
129
127
129
129
129
126
130
129
126
130
130
129
132
132
132
133
146
137
139
135
135
141
141
158
143
145
143
143
145
146
146
144
150
162
147
148
148
148
148
154
163
161
164
163
163
163
163
163
162
162
164
164
163
162
162
163
148
134
130
127
124
124
214
232
232
238
254
255
255
253
255
255
255
254
254
254
255
254
254
254
255
255
255
255
253
253
255
255
254
254
254
254
252
134
125
125
130
131
136
157
165
163
163
164
164
165
171
183
183
183
185
182
182
172
163
164
162
164
152
152
130
127
132
128
127
144
144
252
254
254
254
255
253
254
255
255
255
254
254
254
255
255
254
254
255
255
255
254
254
255
255
255
254
254
254
255
255
255
255
254
254
255
255
254
254
254
255
255
255
254
254
254
255
255
255
255
254
254
255
254
254
254
255
255
255
254
254
254
254
255
254
254
254
254
254
254
255
255
255
254
255
255
254
253
254
249
130
102
102
103
103
103
124
136
136
139
138
137
137
137
137
137
137
137
137
137
137
137
137
137
137
137
137
137
137
137
139
135
136
136
137
138
138
137
137
137
136
137
136
136
137
159
159
161
160
159
159
161
152
152
135
135
133
133
104
103
103
102
100
100
93
205
226
228
230
228
228
221
97
92
99
101
102
102
104
103
103
123
137
136
136
135
132
132
115
100
102
101
101
103
103
101
103
100
102
100
99
99
95
187
187
228
227
230
228
229
229
229
0
0
0
0
0
0
0
0
0
0
0
0
0
0
0
0
0
0
0
0
0
0
0
0
0
0
0
0
0
0
0
0
0
0
0
0
0
0
0
0
0
0
0
0
0
0
0
0
0
0
0
0
0
0
0
0
0
0
0
0
0
0
0
0
0
0
0
0
0
0
0
0
0
0
0
0
0
0
0
0
0
0
0
0
0
0
0
0
0
0
0
0
0
0
0
0
0
0
0
0
0
0
0
0
0
0
0
0
0
0
0
0
0
0
0
0
0
0
0
0
0
0
0
0
0
0
0
0
0
0
0
0
0
0
0
0
0
0
0
0
0
0
0
0
0
0
0
0
0
0
0
0
0
0
0
0
0
0
0
0
0
0
0
0
0
0
0
0
0
0
0
0
0
0
0
0
0
0
0
0
0
0
0
0
0
0
0
0
0
0
0
0
0
0
0
0
0
0
0
0
0
0
0
0
0
0
0
0
0
0
0
0
0
0
0
0
0
0
0
0
0
0
255
254
254
255
254
255
255
254
254
254
254
255
255
255
255
254
255
255
255
255
253
251
252
200
121
146
125
127
128
129
129
129
130
128
132
129
130
131
132
136
131
146
135
140
154
157
146
160
160
154
156
161
163
158
163
165
157
156
164
158
158
163
162
162
165
162
158
157
161
163
163
162
164
165
167
164
163
163
162
163
163
164
164
163
164
164
145
134
135
130
125
128
194
229
232
248
253
255
254
253
253
255
255
255
254
254
254
255
254
254
254
255
255
254
254
253
254
254
254
254
254
254
252
140
122
129
128
130
136
154
163
166
162
164
163
165
171
183
183
183
184
184
181
172
162
164
164
162
162
137
127
130
132
127
126
125
227
249
253
254
254
255
253
254
254
255
255
255
254
254
254
255
255
254
254
255
255
255
254
254
255
255
255
254
254
254
255
255
254
254
254
254
254
254
254
254
254
255
255
255
254
254
255
255
254
254
254
255
255
254
254
255
255
255
255
255
254
254
254
255
255
254
254
254
255
255
254
255
255
255
254
255
253
255
254
254
214
96
103
105
100
101
102
133
136
137
137
138
137
138
138
137
137
136
137
137
137
137
137
137
137
137
137
137
137
137
139
136
136
136
138
138
137
136
137
137
137
136
136
140
161
161
161
161
158
159
160
154
150
135
137
134
133
104
104
104
102
100
99
91
176
229
226
228
229
231
227
227
206
92
92
98
102
102
103
103
103
102
107
130
131
114
130
107
102
102
102
101
104
103
103
103
101
100
97
92
96
111
225
211
230
227
229
230
231
232
229
0
0
0
0
0
0
0
0
0
0
0
0
0
0
0
0
0
0
0
0
0
0
0
0
0
0
0
0
0
0
0
0
0
0
0
0
0
0
0
0
0
0
0
0
0
0
0
0
0
0
0
0
0
0
0
0
0
0
0
0
0
0
0
0
0
0
0
0
0
0
0
0
0
0
0
0
0
0
0
0
0
0
0
0
0
0
0
0
0
0
0
0
0
0
0
0
0
0
0
0
0
0
0
0
0
0
0
0
0
0
0
0
0
0
0
0
0
0
0
0
0
0
0
0
0
0
0
0
0
0
0
0
0
0
0
0
0
0
0
0
0
0
0
0
0
0
0
0
0
0
0
0
0
0
0
0
0
0
0
0
0
0
0
0
0
0
0
0
0
0
0
0
0
0
0
0
0
0
0
0
0
0
0
0
0
0
0
0
0
0
0
0
0
0
0
0
0
0
0
0
0
0
0
0
0
0
0
0
0
0
0
0
0
0
0
0
0
0
0
0
0
0
0
255
255
255
255
255
254
254
254
254
254
255
255
255
255
255
255
254
255
253
253
249
249
166
120
120
126
128
128
128
128
129
129
131
132
131
131
136
146
146
154
159
146
158
161
161
161
162
162
162
161
161
161
161
163
164
164
164
163
164
164
164
163
163
164
164
164
164
162
162
162
162
162
162
165
164
163
163
163
163
163
165
164
164
163
163
163
163
133
128
128
123
121
232
232
245
254
254
255
255
253
254
254
255
255
255
254
254
254
254
254
254
254
255
255
254
254
254
254
254
255
255
254
239
239
128
124
131
131
133
162
162
166
164
164
164
165
179
179
184
184
184
184
181
166
166
163
164
164
162
137
126
126
126
128
128
121
212
249
254
254
255
255
255
255
255
254
255
255
255
254
254
254
255
255
254
254
255
255
255
254
254
255
255
255
254
254
255
255
255
254
254
254
254
254
255
255
255
255
255
254
254
255
255
254
254
254
255
255
254
254
255
255
255
254
255
255
255
254
254
254
255
254
254
254
254
255
255
254
255
255
255
254
254
254
252
251
251
170
98
105
102
103
104
104
136
137
137
137
138
138
138
138
137
137
136
137
137
137
137
137
137
137
137
137
137
137
136
136
136
137
137
138
138
137
137
137
136
136
146
161
161
160
160
158
158
161
152
152
134
136
134
134
105
104
104
103
101
100
96
155
227
227
229
230
230
229
227
229
229
196
92
92
99
102
102
102
102
101
101
101
105
114
101
100
102
102
101
104
104
104
103
102
102
96
92
92
175
227
225
229
228
230
230
231
230
230
0
0
0
0
0
0
0
0
0
0
0
0
0
0
0
0
0
0
0
0
0
0
0
0
0
0
0
0
0
0
0
0
0
0
0
0
0
0
0
0
0
0
0
0
0
0
0
0
0
0
0
0
0
0
0
0
0
0
0
0
0
0
0
0
0
0
0
0
0
0
0
0
0
0
0
0
0
0
0
0
0
0
0
0
0
0
0
0
0
0
0
0
0
0
0
0
0
0
0
0
0
0
0
0
0
0
0
0
0
0
0
0
0
0
0
0
0
0
0
0
0
0
0
0
0
0
0
0
0
0
0
0
0
0
0
0
0
0
0
0
0
0
0
0
0
0
0
0
0
0
0
0
0
0
0
0
0
0
0
0
0
0
0
0
0
0
0
0
0
0
0
0
0
0
0
0
0
0
0
0
0
0
0
0
0
0
0
0
0
0
0
0
0
0
0
0
0
0
0
0
0
0
0
0
0
0
0
0
0
0
0
0
0
0
0
0
0
0
0
0
0
0
0
0
254
255
255
255
255
254
254
254
254
254
254
255
255
255
255
255
255
255
252
241
246
146
123
123
130
125
129
130
128
130
131
132
139
153
140
146
162
159
159
162
161
160
163
162
161
161
162
162
161
166
165
165
163
164
163
164
163
162
164
163
164
165
164
164
165
164
165
164
161
164
164
163
167
164
164
163
163
163
163
164
164
164
162
163
164
163
151
135
129
130
127
126
161
229
250
254
255
254
255
255
254
254
254
255
255
255
254
254
254
254
255
255
254
254
254
254
254
254
254
254
253
254
252
145
122
126
127
133
135
155
164
164
162
164
164
166
172
185
184
184
186
185
183
174
162
162
165
165
162
140
130
131
126
128
127
125
134
246
254
254
250
253
254
252
254
254
254
255
255
255
254
254
254
255
255
254
254
255
255
255
254
254
255
255
255
254
254
254
255
255
255
254
254
254
255
255
255
255
255
255
255
255
254
254
254
255
254
254
254
254
254
255
254
254
254
255
255
255
254
254
254
255
254
254
254
254
255
255
254
255
255
255
254
254
254
253
238
225
131
99
102
105
98
109
115
136
137
137
138
138
138
137
137
136
138
137
137
137
137
137
137
137
137
137
137
137
136
136
137
137
137
137
138
137
137
135
135
148
158
159
160
159
159
159
161
149
150
134
136
136
133
106
102
103
102
102
102
96
139
227
227
228
231
231
232
233
244
231
227
228
188
94
93
95
99
102
103
103
101
103
100
100
102
99
101
103
102
103
104
102
98
101
95
137
107
202
228
226
228
229
228
229
231
230
229
0
0
0
0
0
0
0
0
0
0
0
0
0
0
0
0
0
0
0
0
0
0
0
0
0
0
0
0
0
0
0
0
0
0
0
0
0
0
0
0
0
0
0
0
0
0
0
0
0
0
0
0
0
0
0
0
0
0
0
0
0
0
0
0
0
0
0
0
0
0
0
0
0
0
0
0
0
0
0
0
0
0
0
0
0
0
0
0
0
0
0
0
0
0
0
0
0
0
0
0
0
0
0
0
0
0
0
0
0
0
0
0
0
0
0
0
0
0
0
0
0
0
0
0
0
0
0
0
0
0
0
0
0
0
0
0
0
0
0
0
0
0
0
0
0
0
0
0
0
0
0
0
0
0
0
0
0
0
0
0
0
0
0
0
0
0
0
0
0
0
0
0
0
0
0
0
0
0
0
0
0
0
0
0
0
0
0
0
0
0
0
0
0
0
0
0
0
0
0
0
0
0
0
0
0
0
0
0
0
0
0
0
0
0
0
0
0
0
0
0
0
0
0
0
0
255
254
255
255
255
254
254
255
254
254
254
254
255
255
255
255
255
252
231
241
120
124
123
127
126
129
129
130
130
130
138
150
159
159
163
161
162
164
164
162
163
162
165
162
165
165
162
166
163
164
164
165
163
164
164
165
163
165
165
163
164
162
163
164
165
164
165
165
163
165
164
162
163
164
164
164
163
163
163
164
164
162
162
162
164
165
154
135
134
129
127
127
127
242
250
255
255
254
253
255
255
254
254
254
255
255
254
254
254
254
255
255
254
253
254
254
254
250
254
255
255
254
251
141
128
128
130
130
135
151
163
163
163
165
165
166
173
183
184
181
184
185
183
175
162
162
164
163
152
152
128
129
126
132
130
125
131
237
251
254
255
254
254
254
255
255
255
254
255
255
255
254
254
254
255
255
254
254
254
255
255
254
254
255
255
254
254
254
254
255
255
255
254
254
255
255
255
255
254
255
255
255
255
254
255
254
254
254
254
254
254
254
255
254
254
254
255
255
255
254
254
254
255
255
254
254
255
255
255
254
255
255
255
254
254
254
250
225
220
92
98
105
103
101
115
121
137
137
137
138
137
137
137
138
138
137
137
137
137
137
137
137
137
137
137
137
137
137
137
138
137
137
137
138
136
135
154
159
158
161
159
160
159
160
148
149
135
136
136
136
108
102
102
102
102
102
100
103
225
227
229
231
231
231
230
251
251
246
227
228
227
175
93
93
96
101
103
102
104
103
103
100
101
99
103
103
102
101
99
96
96
98
179
137
225
229
228
230
229
229
228
229
231
230
0
0
0
0
0
0
0
0
0
0
0
0
0
0
0
0
0
0
0
0
0
0
0
0
0
0
0
0
0
0
0
0
0
0
0
0
0
0
0
0
0
0
0
0
0
0
0
0
0
0
0
0
0
0
0
0
0
0
0
0
0
0
0
0
0
0
0
0
0
0
0
0
0
0
0
0
0
0
0
0
0
0
0
0
0
0
0
0
0
0
0
0
0
0
0
0
0
0
0
0
0
0
0
0
0
0
0
0
0
0
0
0
0
0
0
0
0
0
0
0
0
0
0
0
0
0
0
0
0
0
0
0
0
0
0
0
0
0
0
0
0
0
0
0
0
0
0
0
0
0
0
0
0
0
0
0
0
0
0
0
0
0
0
0
0
0
0
0
0
0
0
0
0
0
0
0
0
0
0
0
0
0
0
0
0
0
0
0
0
0
0
0
0
0
0
0
0
0
0
0
0
0
0
0
0
0
0
0
0
0
0
0
0
0
0
0
0
0
0
0
0
0
0
0
0
0
255
255
254
255
255
255
254
254
255
255
255
254
255
255
255
255
252
222
227
121
126
126
127
128
130
130
130
137
132
148
161
160
160
163
163
162
164
164
164
164
162
162
163
164
166
166
163
162
163
164
164
164
163
163
165
165
164
164
163
163
163
162
162
164
165
164
164
163
161
162
161
163
163
163
164
164
164
163
164
164
163
162
163
164
163
162
162
144
129
128
130
127
125
169
250
255
255
254
254
254
255
255
254
254
254
254
254
254
255
254
254
253
254
254
253
254
254
255
255
252
252
253
228
124
126
130
127
131
137
160
162
163
163
163
165
167
180
180
182
182
182
184
180
165
165
163
163
163
160
140
131
127
125
128
128
125
210
231
254
251
253
253
254
254
255
255
255
255
254
255
255
255
254
254
254
255
255
254
254
254
255
255
254
254
255
255
255
254
254
255
255
255
255
254
255
255
255
255
255
254
254
255
255
255
254
254
254
254
254
254
254
254
254
255
254
254
254
255
255
255
254
254
254
255
255
254
254
255
255
255
255
255
254
255
254
253
253
237
204
174
94
100
103
103
101
125
130
137
137
138
138
137
138
138
137
137
137
137
137
137
137
137
137
137
137
137
137
137
138
138
138
137
137
136
136
154
159
159
161
159
159
161
159
148
148
135
136
135
135
108
101
101
101
102
102
101
96
212
221
229
230
230
231
228
251
253
253
253
247
228
229
230
177
93
90
98
100
101
101
101
103
103
106
101
104
104
101
97
94
93
118
224
210
227
228
228
229
229
229
229
229
229
229
0
0
0
0
0
0
0
0
0
0
0
0
0
0
0
0
0
0
0
0
0
0
0
0
0
0
0
0
0
0
0
0
0
0
0
0
0
0
0
0
0
0
0
0
0
0
0
0
0
0
0
0
0
0
0
0
0
0
0
0
0
0
0
0
0
0
0
0
0
0
0
0
0
0
0
0
0
0
0
0
0
0
0
0
0
0
0
0
0
0
0
0
0
0
0
0
0
0
0
0
0
0
0
0
0
0
0
0
0
0
0
0
0
0
0
0
0
0
0
0
0
0
0
0
0
0
0
0
0
0
0
0
0
0
0
0
0
0
0
0
0
0
0
0
0
0
0
0
0
0
0
0
0
0
0
0
0
0
0
0
0
0
0
0
0
0
0
0
0
0
0
0
0
0
0
0
0
0
0
0
0
0
0
0
0
0
0
0
0
0
0
0
0
0
0
0
0
0
0
0
0
0
0
0
0
0
0
0
0
0
0
0
0
0
0
0
0
0
0
0
0
0
0
0
0
0
0
255
255
255
254
255
255
255
254
254
255
255
255
255
255
254
252
222
222
120
125
125
129
127
129
130
133
146
137
162
161
162
160
164
163
163
163
164
164
164
163
162
162
163
165
165
164
165
163
163
164
164
164
163
162
163
164
162
163
163
162
162
162
163
164
164
164
164
164
161
162
162
163
163
164
164
164
164
164
164
165
164
160
163
164
164
164
157
150
129
128
133
125
125
119
247
253
253
252
254
254
255
255
255
254
254
254
254
255
254
254
254
254
254
254
254
251
254
253
254
254
254
253
197
124
128
130
127
130
138
162
162
164
167
163
164
168
175
185
183
181
182
184
178
171
161
163
165
163
163
137
131
126
131
127
129
124
211
231
248
254
255
255
254
255
255
255
255
255
254
254
255
255
255
254
254
254
255
255
254
254
255
255
255
254
254
255
255
255
254
255
255
255
255
255
254
254
254
255
255
255
254
254
255
255
254
254
254
254
254
254
254
254
254
254
255
254
254
255
255
255
255
254
254
254
255
255
254
254
254
255
255
255
254
254
255
254
255
253
227
174
148
100
100
102
102
102
130
133
137
138
138
138
137
137
136
137
137
137
137
137
137
138
138
137
137
137
137
137
138
138
138
138
136
136
155
160
158
160
160
159
159
163
151
150
135
135
136
135
108
101
101
101
101
102
102
95
197
212
231
231
231
231
230
247
251
253
254
253
253
240
229
230
229
200
90
92
99
103
101
100
103
103
98
102
100
101
94
97
94
188
228
224
231
227
228
231
229
229
229
230
230
229
0
0
0
0
0
0
0
0
0
0
0
0
0
0
0
0
0
0
0
0
0
0
0
0
0
0
0
0
0
0
0
0
0
0
0
0
0
0
0
0
0
0
0
0
0
0
0
0
0
0
0
0
0
0
0
0
0
0
0
0
0
0
0
0
0
0
0
0
0
0
0
0
0
0
0
0
0
0
0
0
0
0
0
0
0
0
0
0
0
0
0
0
0
0
0
0
0
0
0
0
0
0
0
0
0
0
0
0
0
0
0
0
0
0
0
0
0
0
0
0
0
0
0
0
0
0
0
0
0
0
0
0
0
0
0
0
0
0
0
0
0
0
0
0
0
0
0
0
0
0
0
0
0
0
0
0
0
0
0
0
0
0
0
0
0
0
0
0
0
0
0
0
0
0
0
0
0
0
0
0
0
0
0
0
0
0
0
0
0
0
0
0
0
0
0
0
0
0
0
0
0
0
0
0
0
0
0
0
0
0
0
0
0
0
0
0
0
0
0
0
0
0
0
0
0
0
0
0
255
255
255
255
254
255
255
255
254
254
255
255
255
253
253
229
229
120
126
126
130
130
130
130
136
152
152
160
161
165
165
165
165
165
162
163
163
164
163
162
162
163
164
164
165
163
163
163
163
164
164
164
163
163
162
163
162
162
163
163
163
164
164
164
164
164
163
163
162
163
163
163
164
164
164
165
164
164
164
165
164
164
161
165
165
163
163
142
142
129
128
128
122
153
153
251
253
254
254
255
255
255
255
254
254
254
254
254
254
254
254
254
254
254
255
255
255
252
252
255
254
247
247
122
125
125
129
129
142
155
163
167
167
164
165
165
177
183
182
182
183
183
183
172
164
165
165
163
153
153
129
127
127
128
130
135
135
229
253
253
255
255
254
254
255
255
255
255
254
254
254
255
255
255
254
254
254
255
255
254
254
255
255
255
255
254
255
255
255
255
255
255
255
255
255
255
254
254
255
255
255
254
254
255
255
255
254
254
254
254
254
254
254
254
254
255
255
255
255
255
254
254
254
254
254
255
255
254
254
254
255
255
255
254
254
254
254
244
244
228
127
127
101
102
102
102
104
135
135
137
137
137
137
136
136
136
138
137
137
138
138
138
138
138
137
137
137
137
137
138
137
136
136
154
160
160
161
159
159
159
161
148
148
136
135
137
137
109
101
101
101
101
101
103
96
182
182
231
230
230
229
230
244
244
254
253
253
254
253
254
236
228
228
228
209
109
109
95
103
101
101
102
103
103
100
93
133
133
217
228
228
231
228
228
230
229
230
230
229
229
229
0
0
0
0
0
0
0
0
0
0
0
0
0
0
0
0
0
0
0
0
0
0
0
0
0
0
0
0
0
0
0
0
0
0
0
0
0
0
0
0
0
0
0
0
0
0
0
0
0
0
0
0
0
0
0
0
0
0
0
0
0
0
0
0
0
0
0
0
0
0
0
0
0
0
0
0
0
0
0
0
0
0
0
0
0
0
0
0
0
0
0
0
0
0
0
0
0
0
0
0
0
0
0
0
0
0
0
0
0
0
0
0
0
0
0
0
0
0
0
0
0
0
0
0
0
0
0
0
0
0
0
0
0
0
0
0
0
0
0
0
0
0
0
0
0
0
0
0
0
0
0
0
0
0
0
0
0
0
0
0
0
0
0
0
0
0
0
0
0
0
0
0
0
0
0
0
0
0
0
0
0
0
0
0
0
0
0
0
0
0
0
0
0
0
0
0
0
0
0
0
0
0
0
0
0
0
0
0
0
0
0
0
0
0
0
0
0
0
0
0
0
0
0
0
0
0
0
0
0
255
255
255
255
254
254
255
255
255
254
254
254
253
253
245
237
117
127
129
130
128
132
130
138
159
157
159
163
163
165
165
163
163
162
163
163
163
164
164
163
163
163
164
165
165
164
164
163
164
164
165
165
164
163
164
164
164
164
165
164
165
165
165
164
164
163
163
163
163
164
163
165
165
164
165
165
165
164
164
163
163
164
164
165
166
165
164
158
134
129
131
131
127
124
191
221
253
255
254
252
255
253
255
255
254
254
254
254
254
254
254
254
254
253
254
254
254
253
255
252
252
250
139
127
127
124
130
133
142
158
161
163
165
161
162
168
178
183
183
183
185
185
178
170
163
164
164
164
162
138
133
126
129
129
129
121
215
231
243
254
254
254
254
254
254
255
255
255
254
254
255
254
255
255
255
254
254
254
255
255
254
254
255
255
255
255
255
255
255
255
255
255
255
255
255
255
255
254
254
255
255
255
254
254
255
255
255
254
254
254
254
254
254
254
254
255
255
254
254
254
255
254
255
254
254
254
255
255
254
254
254
255
255
255
254
254
254
254
234
232
226
103
92
100
103
103
103
106
136
136
137
137
137
136
136
138
138
138
138
138
138
138
138
137
137
137
137
137
137
137
135
136
153
157
159
162
159
161
160
160
148
148
135
135
137
137
110
102
102
101
101
101
103
97
159
171
229
228
228
228
231
237
240
254
254
254
254
255
254
254
254
233
229
227
227
217
130
182
113
92
95
93
95
93
163
224
182
226
228
229
229
230
230
229
230
230
230
230
235
231
0
0
0
0
0
0
0
0
0
0
0
0
0
0
0
0
0
0
0
0
0
0
0
0
0
0
0
0
0
0
0
0
0
0
0
0
0
0
0
0
0
0
0
0
0
0
0
0
0
0
0
0
0
0
0
0
0
0
0
0
0
0
0
0
0
0
0
0
0
0
0
0
0
0
0
0
0
0
0
0
0
0
0
0
0
0
0
0
0
0
0
0
0
0
0
0
0
0
0
0
0
0
0
0
0
0
0
0
0
0
0
0
0
0
0
0
0
0
0
0
0
0
0
0
0
0
0
0
0
0
0
0
0
0
0
0
0
0
0
0
0
0
0
0
0
0
0
0
0
0
0
0
0
0
0
0
0
0
0
0
0
0
0
0
0
0
0
0
0
0
0
0
0
0
0
0
0
0
0
0
0
0
0
0
0
0
0
0
0
0
0
0
0
0
0
0
0
0
0
0
0
0
0
0
0
0
0
0
0
0
0
0
0
0
0
0
0
0
0
0
0
0
0
0
0
0
0
0
0
0
255
254
255
255
255
254
254
255
255
255
254
254
253
249
249
127
125
127
128
129
132
132
145
160
159
163
163
163
163
164
163
163
164
164
163
164
164
165
165
163
163
163
164
165
164
164
163
163
164
164
165
165
165
164
164
164
165
164
165
165
165
165
165
164
163
163
163
164
165
165
165
165
165
165
165
165
164
164
163
163
163
164
164
164
165
165
165
162
147
129
130
129
127
127
122
241
241
252
255
252
254
255
253
253
254
255
254
254
254
253
253
254
254
254
253
255
254
255
255
253
253
241
120
127
126
128
130
130
148
163
163
164
162
161
164
173
185
185
184
183
185
184
176
165
165
164
165
164
159
133
133
128
127
127
127
124
225
231
241
255
253
253
254
255
254
255
255
255
255
255
255
255
254
255
255
255
254
254
254
255
255
254
254
255
255
255
255
255
255
255
255
255
254
254
255
255
255
255
254
254
255
255
255
254
254
255
255
255
254
254
254
254
254
254
254
255
255
255
254
254
254
255
255
255
254
254
254
254
255
254
254
254
255
255
255
254
254
254
251
232
230
218
92
92
99
103
103
103
109
136
136
137
137
137
136
136
138
138
138
137
137
137
137
137
136
136
137
137
137
136
136
138
159
157
160
159
160
160
162
151
148
136
136
138
138
112
103
102
101
101
101
103
97
145
145
231
227
228
229
231
234
234
254
254
254
254
254
255
255
254
253
253
233
230
227
228
225
216
216
193
176
93
195
220
228
228
227
229
228
229
230
230
229
230
231
231
230
240
235
0
0
0
0
0
0
0
0
0
0
0
0
0
0
0
0
0
0
0
0
0
0
0
0
0
0
0
0
0
0
0
0
0
0
0
0
0
0
0
0
0
0
0
0
0
0
0
0
0
0
0
0
0
0
0
0
0
0
0
0
0
0
0
0
0
0
0
0
0
0
0
0
0
0
0
0
0
0
0
0
0
0
0
0
0
0
0
0
0
0
0
0
0
0
0
0
0
0
0
0
0
0
0
0
0
0
0
0
0
0
0
0
0
0
0
0
0
0
0
0
0
0
0
0
0
0
0
0
0
0
0
0
0
0
0
0
0
0
0
0
0
0
0
0
0
0
0
0
0
0
0
0
0
0
0
0
0
0
0
0
0
0
0
0
0
0
0
0
0
0
0
0
0
0
0
0
0
0
0
0
0
0
0
0
0
0
0
0
0
0
0
0
0
0
0
0
0
0
0
0
0
0
0
0
0
0
0
0
0
0
0
0
0
0
0
0
0
0
0
0
0
0
0
0
0
0
0
0
0
0
0
255
254
254
255
255
255
254
254
255
255
255
251
251
250
134
127
125
127
131
130
130
146
161
160
162
163
165
164
164
165
164
164
164
164
164
164
164
165
164
164
164
164
165
164
164
163
162
162
164
165
165
165
164
164
164
165
165
164
164
165
165
165
165
163
163
163
164
165
165
165
165
165
165
164
164
164
164
163
163
163
164
164
164
164
163
164
162
160
158
138
130
130
128
127
128
125
249
249
251
255
254
253
255
253
254
255
255
255
255
255
253
255
252
254
253
255
255
254
253
250
248
141
122
126
129
128
129
137
156
162
163
164
164
162
169
176
182
182
182
183
184
181
171
166
163
163
163
164
153
153
128
129
127
130
125
122
152
232
251
255
253
253
254
255
255
254
254
255
254
255
255
254
254
254
255
255
255
254
254
254
255
255
254
254
255
255
255
255
254
255
255
255
254
254
254
255
255
255
254
254
254
255
254
254
254
254
255
255
255
254
254
254
254
255
255
254
255
255
255
254
254
254
255
255
255
254
254
253
254
255
254
254
254
255
255
255
253
254
255
245
230
229
203
95
95
100
102
104
104
111
137
137
137
137
137
136
137
138
137
137
137
137
137
136
136
136
136
137
137
137
133
151
161
161
160
160
159
161
156
154
136
137
132
137
115
105
104
102
101
101
102
97
125
138
227
227
227
230
230
230
232
255
253
254
255
254
254
254
254
253
254
251
252
231
230
232
229
233
229
228
226
225
227
228
229
231
231
231
229
229
229
232
229
229
230
230
252
247
0
0
0
0
0
0
0
0
0
0
0
0
0
0
0
0
0
0
0
0
0
0
0
0
0
0
0
0
0
0
0
0
0
0
0
0
0
0
0
0
0
0
0
0
0
0
0
0
0
0
0
0
0
0
0
0
0
0
0
0
0
0
0
0
0
0
0
0
0
0
0
0
0
0
0
0
0
0
0
0
0
0
0
0
0
0
0
0
0
0
0
0
0
0
0
0
0
0
0
0
0
0
0
0
0
0
0
0
0
0
0
0
0
0
0
0
0
0
0
0
0
0
0
0
0
0
0
0
0
0
0
0
0
0
0
0
0
0
0
0
0
0
0
0
0
0
0
0
0
0
0
0
0
0
0
0
0
0
0
0
0
0
0
0
0
0
0
0
0
0
0
0
0
0
0
0
0
0
0
0
0
0
0
0
0
0
0
0
0
0
0
0
0
0
0
0
0
0
0
0
0
0
0
0
0
0
0
0
0
0
0
0
0
0
0
0
0
0
0
0
0
0
0
0
0
0
0
0
0
0
0
0
255
254
254
254
254
255
254
254
254
254
254
253
251
184
124
127
131
131
131
130
145
160
161
161
165
164
165
164
165
165
163
163
164
164
164
164
164
164
164
164
163
163
163
164
163
162
162
162
162
164
165
164
164
164
165
165
165
164
162
162
165
164
163
163
162
163
165
165
165
165
165
165
164
164
162
163
163
163
163
164
164
164
164
165
163
162
163
160
161
153
134
130
131
128
128
128
135
249
247
255
254
253
253
254
254
250
255
254
255
255
254
255
255
255
253
255
254
252
253
250
164
141
125
129
127
128
131
146
156
164
164
164
163
163
172
176
184
182
182
184
185
177
171
164
163
163
163
160
156
134
129
126
127
127
126
122
176
225
250
255
253
255
254
254
255
254
254
254
254
255
255
255
254
254
254
255
255
255
254
254
254
255
255
254
254
255
255
255
254
254
255
255
255
254
254
254
255
255
255
254
254
255
255
254
255
254
254
255
255
255
254
254
254
255
255
255
254
255
255
255
254
254
255
255
255
255
254
253
254
255
255
254
254
254
255
255
254
254
255
254
234
229
228
164
95
93
103
101
103
102
117
137
136
138
137
137
137
137
137
137
137
137
137
137
137
136
137
137
137
136
140
151
163
160
160
160
159
159
156
135
135
139
132
130
104
105
103
102
101
103
97
116
125
225
229
227
230
230
229
230
251
254
253
255
254
255
254
254
254
253
254
254
252
254
232
229
229
228
228
228
231
228
228
228
231
230
231
230
230
230
231
228
230
229
241
254
252
0
0
0
0
0
0
0
0
0
0
0
0
0
0
0
0
0
0
0
0
0
0
0
0
0
0
0
0
0
0
0
0
0
0
0
0
0
0
0
0
0
0
0
0
0
0
0
0
0
0
0
0
0
0
0
0
0
0
0
0
0
0
0
0
0
0
0
0
0
0
0
0
0
0
0
0
0
0
0
0
0
0
0
0
0
0
0
0
0
0
0
0
0
0
0
0
0
0
0
0
0
0
0
0
0
0
0
0
0
0
0
0
0
0
0
0
0
0
0
0
0
0
0
0
0
0
0
0
0
0
0
0
0
0
0
0
0
0
0
0
0
0
0
0
0
0
0
0
0
0
0
0
0
0
0
0
0
0
0
0
0
0
0
0
0
0
0
0
0
0
0
0
0
0
0
0
0
0
0
0
0
0
0
0
0
0
0
0
0
0
0
0
0
0
0
0
0
0
0
0
0
0
0
0
0
0
0
0
0
0
0
0
0
0
0
0
0
0
0
0
0
0
0
0
0
0
0
0
0
0
0
0
0
255
255
254
254
254
254
254
254
254
254
253
253
220
121
121
127
129
131
131
143
159
159
162
165
164
164
165
164
164
164
163
163
163
164
164
164
164
164
164
163
163
163
163
163
162
162
162
162
162
163
164
164
164
164
165
165
164
163
162
162
162
163
163
162
162
162
163
165
165
165
165
163
163
162
162
163
163
163
164
164
164
164
164
164
164
162
162
164
160
160
146
129
130
130
127
128
128
136
242
231
254
252
253
253
255
255
255
254
254
253
253
254
255
255
251
255
253
252
251
175
175
123
129
128
128
129
141
141
163
162
162
165
163
166
169
184
183
183
184
181
182
182
170
164
164
163
164
164
156
131
130
130
130
127
127
121
234
226
245
254
254
254
254
254
254
255
254
254
254
254
255
255
255
254
254
254
255
255
255
254
254
254
255
255
254
254
255
255
255
254
254
255
255
255
254
254
254
255
255
255
255
254
254
255
255
255
254
254
255
255
255
255
255
254
255
255
254
254
255
255
255
255
255
254
255
255
255
255
254
254
255
255
254
254
254
255
255
253
255
255
253
230
227
227
155
96
96
102
102
101
101
121
137
137
138
137
137
137
137
137
137
137
137
137
137
137
138
138
137
135
135
159
158
160
159
158
163
163
141
137
135
138
136
105
105
104
102
102
102
97
105
105
224
225
225
232
229
228
230
250
255
255
255
254
254
254
255
254
254
254
254
254
252
251
249
229
233
230
230
232
230
229
231
229
230
230
229
230
230
230
229
231
231
248
254
254
0
0
0
0
0
0
0
0
0
0
0
0
0
0
0
0
0
0
0
0
0
0
0
0
0
0
0
0
0
0
0
0
0
0
0
0
0
0
0
0
0
0
0
0
0
0
0
0
0
0
0
0
0
0
0
0
0
0
0
0
0
0
0
0
0
0
0
0
0
0
0
0
0
0
0
0
0
0
0
0
0
0
0
0
0
0
0
0
0
0
0
0
0
0
0
0
0
0
0
0
0
0
0
0
0
0
0
0
0
0
0
0
0
0
0
0
0
0
0
0
0
0
0
0
0
0
0
0
0
0
0
0
0
0
0
0
0
0
0
0
0
0
0
0
0
0
0
0
0
0
0
0
0
0
0
0
0
0
0
0
0
0
0
0
0
0
0
0
0
0
0
0
0
0
0
0
0
0
0
0
0
0
0
0
0
0
0
0
0
0
0
0
0
0
0
0
0
0
0
0
0
0
0
0
0
0
0
0
0
0
0
0
0
0
0
0
0
0
0
0
0
0
0
0
0
0
0
0
0
0
0
0
0
0
255
255
255
254
254
254
254
255
254
254
254
244
133
123
132
126
131
131
137
157
159
161
164
164
164
164
163
163
165
163
163
163
163
163
164
164
164
164
164
164
163
163
164
164
162
162
162
162
163
164
164
164
163
163
164
165
165
163
162
162
162
162
162
162
162
162
164
165
165
165
163
163
162
162
162
163
163
164
164
164
164
164
164
164
163
162
162
163
164
160
160
139
128
130
128
126
127
128
121
231
202
250
251
254
255
254
255
254
254
255
253
254
252
254
255
253
253
249
170
176
123
128
128
128
128
135
138
160
162
163
167
165
165
166
177
183
184
183
184
183
182
183
165
165
165
163
165
159
150
130
130
130
129
127
127
138
229
226
240
252
253
253
254
253
254
254
255
255
255
255
255
255
255
255
254
254
254
255
255
255
254
254
254
255
255
254
254
255
255
255
254
254
255
255
255
254
254
254
255
255
255
255
254
254
255
255
255
254
254
255
255
255
255
254
254
255
254
254
254
255
255
255
255
254
254
255
255
255
254
254
254
254
255
255
255
254
255
255
253
255
255
247
228
227
226
136
96
96
101
102
101
101
123
137
138
137
137
137
137
137
137
137
137
137
138
138
138
138
136
135
149
162
160
160
161
156
163
148
135
141
135
134
130
114
102
100
101
102
100
90
96
219
229
228
229
228
230
228
242
254
255
254
254
255
254
254
254
255
254
254
254
254
254
254
249
253
234
229
231
229
229
229
228
230
230
229
229
229
229
231
244
236
255
253
254
0
0
0
0
0
0
0
0
0
0
0
0
0
0
0
0
0
0
0
0
0
0
0
0
0
0
0
0
0
0
0
0
0
0
0
0
0
0
0
0
0
0
0
0
0
0
0
0
0
0
0
0
0
0
0
0
0
0
0
0
0
0
0
0
0
0
0
0
0
0
0
0
0
0
0
0
0
0
0
0
0
0
0
0
0
0
0
0
0
0
0
0
0
0
0
0
0
0
0
0
0
0
0
0
0
0
0
0
0
0
0
0
0
0
0
0
0
0
0
0
0
0
0
0
0
0
0
0
0
0
0
0
0
0
0
0
0
0
0
0
0
0
0
0
0
0
0
0
0
0
0
0
0
0
0
0
0
0
0
0
0
0
0
0
0
0
0
0
0
0
0
0
0
0
0
0
0
0
0
0
0
0
0
0
0
0
0
0
0
0
0
0
0
0
0
0
0
0
0
0
0
0
0
0
0
0
0
0
0
0
0
0
0
0
0
0
0
0
0
0
0
0
0
0
0
0
0
0
0
0
0
0
0
0
0
254
255
255
255
254
254
254
255
254
254
252
163
133
124
129
130
130
135
157
157
162
164
164
164
164
162
162
165
163
163
163
163
163
163
163
164
164
164
164
164
164
164
165
165
164
162
162
162
164
164
164
162
162
163
164
165
164
164
163
163
163
163
163
162
162
163
165
165
165
163
163
162
162
162
162
163
164
164
164
164
164
164
164
164
164
163
163
163
163
166
161
161
138
130
128
128
127
129
129
122
173
173
247
251
253
253
253
254
254
254
254
254
254
254
252
252
247
153
153
125
128
128
128
127
132
132
151
161
162
163
163
165
165
171
183
183
183
186
183
183
183
168
168
164
163
163
162
159
134
134
131
129
129
129
124
230
230
230
255
255
254
254
253
253
254
254
254
255
255
255
255
254
254
254
255
254
254
254
254
255
255
254
254
254
255
254
254
254
255
255
255
254
254
255
255
255
254
254
254
255
255
255
254
254
254
255
254
254
254
254
255
255
255
254
254
254
254
254
254
254
255
255
254
254
254
255
255
255
254
254
254
254
255
254
255
254
254
255
255
254
254
254
245
229
226
225
113
97
97
101
103
101
102
127
137
137
137
137
137
137
137
137
137
137
138
138
137
141
136
134
150
158
158
159
158
158
161
145
135
135
138
137
137
109
104
100
101
100
99
99
204
230
229
230
230
231
231
239
253
253
254
254
254
254
255
255
255
254
255
254
254
254
254
254
254
254
254
236
231
226
226
231
229
229
230
230
229
231
235
250
250
255
253
253
0
0
0
0
0
0
0
0
0
0
0
0
0
0
0
0
0
0
0
0
0
0
0
0
0
0
0
0
0
0
0
0
0
0
0
0
0
0
0
0
0
0
0
0
0
0
0
0
0
0
0
0
0
0
0
0
0
0
0
0
0
0
0
0
0
0
0
0
0
0
0
0
0
0
0
0
0
0
0
0
0
0
0
0
0
0
0
0
0
0
0
0
0
0
0
0
0
0
0
0
0
0
0
0
0
0
0
0
0
0
0
0
0
0
0
0
0
0
0
0
0
0
0
0
0
0
0
0
0
0
0
0
0
0
0
0
0
0
0
0
0
0
0
0
0
0
0
0
0
0
0
0
0
0
0
0
0
0
0
0
0
0
0
0
0
0
0
0
0
0
0
0
0
0
0
0
0
0
0
0
0
0
0
0
0
0
0
0
0
0
0
0
0
0
0
0
0
0
0
0
0
0
0
0
0
0
0
0
0
0
0
0
0
0
0
0
0
0
0
0
0
0
0
0
0
0
0
0
0
0
0
0
0
0
0
0
255
254
255
255
255
251
253
252
254
253
248
215
126
129
128
129
133
150
156
163
164
163
163
164
161
162
165
163
163
163
163
163
163
163
163
163
164
164
164
164
164
164
165
165
165
164
163
164
164
164
162
162
162
164
165
165
165
164
164
163
163
164
165
164
163
164
164
165
165
164
162
162
162
162
163
164
164
164
164
164
164
164
164
164
164
164
164
166
164
165
166
161
161
138
130
129
130
128
130
128
125
134
120
156
250
252
247
253
253
250
253
253
252
235
250
220
122
126
124
130
125
129
128
129
130
146
161
161
163
162
165
165
168
180
182
184
184
181
182
184
181
175
165
163
166
165
161
154
143
130
129
128
126
125
124
166
230
227
242
255
252
253
255
255
255
255
254
254
255
255
255
254
254
254
255
255
254
254
254
254
255
255
254
254
254
255
254
254
254
255
255
255
254
254
255
255
255
254
254
254
255
255
255
254
254
254
255
254
255
254
254
255
255
255
254
254
254
254
254
255
255
255
255
254
254
255
255
254
255
255
255
254
254
255
254
253
254
255
255
255
254
253
255
238
228
224
222
102
98
99
102
102
103
103
127
137
137
137
137
137
137
137
138
138
138
138
136
136
135
136
154
161
161
158
161
159
163
152
139
133
137
137
125
109
101
101
100
102
101
106
108
220
230
227
230
232
236
254
255
254
255
254
254
254
254
255
255
255
254
255
254
254
254
253
253
254
254
253
248
232
230
234
228
228
235
231
234
241
255
254
254
254
254
0
0
0
0
0
0
0
0
0
0
0
0
0
0
0
0
0
0
0
0
0
0
0
0
0
0
0
0
0
0
0
0
0
0
0
0
0
0
0
0
0
0
0
0
0
0
0
0
0
0
0
0
0
0
0
0
0
0
0
0
0
0
0
0
0
0
0
0
0
0
0
0
0
0
0
0
0
0
0
0
0
0
0
0
0
0
0
0
0
0
0
0
0
0
0
0
0
0
0
0
0
0
0
0
0
0
0
0
0
0
0
0
0
0
0
0
0
0
0
0
0
0
0
0
0
0
0
0
0
0
0
0
0
0
0
0
0
0
0
0
0
0
0
0
0
0
0
0
0
0
0
0
0
0
0
0
0
0
0
0
0
0
0
0
0
0
0
0
0
0
0
0
0
0
0
0
0
0
0
0
0
0
0
0
0
0
0
0
0
0
0
0
0
0
0
0
0
0
0
0
0
0
0
0
0
0
0
0
0
0
0
0
0
0
0
0
0
0
0
0
0
0
0
0
0
0
0
0
0
0
0
0
0
0
0
0
0
255
254
254
255
254
254
253
252
255
251
248
135
127
128
128
128
142
150
162
166
163
163
165
162
161
164
163
163
163
163
163
163
163
163
163
163
163
164
164
164
164
164
165
165
165
165
164
164
164
163
162
162
163
165
165
165
165
164
164
164
164
164
164
165
164
164
164
165
165
164
162
162
162
163
164
164
164
164
164
164
164
164
164
164
164
164
164
165
166
165
165
164
161
160
137
131
130
129
127
128
130
127
125
125
128
146
247
185
208
250
216
191
153
235
122
125
122
126
129
127
127
126
128
129
139
161
161
164
163
165
165
164
175
180
184
183
182
182
183
182
181
167
164
163
165
163
160
154
132
129
129
128
130
124
124
209
231
227
244
254
254
254
255
255
255
255
255
254
254
255
255
254
254
255
255
255
255
255
255
254
255
255
255
255
254
254
255
255
254
254
255
255
255
254
254
255
255
255
254
254
255
255
255
255
255
254
255
255
255
255
254
254
255
255
255
254
254
253
255
255
255
255
255
255
255
255
254
254
255
255
255
254
254
254
255
255
254
254
255
255
255
254
255
254
234
227
222
218
93
99
99
102
103
103
103
132
137
137
137
137
137
137
137
138
137
137
136
135
137
134
154
157
158
158
160
155
162
162
142
135
137
137
132
109
103
102
100
102
100
102
108
101
216
228
230
233
252
254
255
254
255
255
254
254
254
254
255
255
255
254
255
254
254
254
253
255
252
253
253
252
247
234
244
245
235
249
255
255
255
254
254
254
0
0
0
0
0
0
0
0
0
0
0
0
0
0
0
0
0
0
0
0
0
0
0
0
0
0
0
0
0
0
0
0
0
0
0
0
0
0
0
0
0
0
0
0
0
0
0
0
0
0
0
0
0
0
0
0
0
0
0
0
0
0
0
0
0
0
0
0
0
0
0
0
0
0
0
0
0
0
0
0
0
0
0
0
0
0
0
0
0
0
0
0
0
0
0
0
0
0
0
0
0
0
0
0
0
0
0
0
0
0
0
0
0
0
0
0
0
0
0
0
0
0
0
0
0
0
0
0
0
0
0
0
0
0
0
0
0
0
0
0
0
0
0
0
0
0
0
0
0
0
0
0
0
0
0
0
0
0
0
0
0
0
0
0
0
0
0
0
0
0
0
0
0
0
0
0
0
0
0
0
0
0
0
0
0
0
0
0
0
0
0
0
0
0
0
0
0
0
0
0
0
0
0
0
0
0
0
0
0
0
0
0
0
0
0
0
0
0
0
0
0
0
0
0
0
0
0
0
0
0
0
0
0
0
0
0
0
0
255
254
254
254
255
253
254
255
251
251
188
126
129
129
129
135
135
160
164
163
163
165
163
162
164
164
164
163
163
163
163
163
163
163
163
163
163
163
164
164
164
164
164
164
165
164
164
164
163
163
163
163
164
165
165
165
164
164
164
163
164
164
165
165
165
164
165
165
165
163
163
163
163
164
164
164
164
164
164
164
164
164
164
164
164
164
164
164
165
165
164
164
163
161
161
138
131
128
128
128
126
130
127
126
127
127
122
127
127
120
124
123
124
127
128
128
128
128
129
128
127
130
132
138
161
161
163
162
165
165
164
174
174
183
182
185
184
183
183
182
170
163
163
163
162
160
159
144
130
130
131
126
129
125
151
228
228
231
255
254
255
254
254
255
255
255
255
255
254
254
255
255
255
255
255
255
255
255
255
255
254
255
255
255
254
254
254
255
255
254
254
255
255
255
254
255
255
255
255
255
255
255
255
255
255
255
254
254
255
255
255
254
254
255
255
255
254
255
255
255
255
255
255
255
255
255
254
255
255
255
255
255
254
254
254
255
255
255
255
254
254
254
254
253
251
232
228
210
210
91
99
100
101
103
103
103
134
136
136
137
137
137
136
136
137
137
137
137
137
135
147
162
162
161
162
162
159
160
155
136
136
138
138
125
103
102
101
101
99
99
100
94
93
208
231
252
252
254
254
255
254
255
255
253
254
254
254
255
255
255
255
255
254
254
255
254
254
255
254
255
255
252
254
254
254
255
255
255
254
255
255
0
0
0
0
0
0
0
0
0
0
0
0
0
0
0
0
0
0
0
0
0
0
0
0
0
0
0
0
0
0
0
0
0
0
0
0
0
0
0
0
0
0
0
0
0
0
0
0
0
0
0
0
0
0
0
0
0
0
0
0
0
0
0
0
0
0
0
0
0
0
0
0
0
0
0
0
0
0
0
0
0
0
0
0
0
0
0
0
0
0
0
0
0
0
0
0
0
0
0
0
0
0
0
0
0
0
0
0
0
0
0
0
0
0
0
0
0
0
0
0
0
0
0
0
0
0
0
0
0
0
0
0
0
0
0
0
0
0
0
0
0
0
0
0
0
0
0
0
0
0
0
0
0
0
0
0
0
0
0
0
0
0
0
0
0
0
0
0
0
0
0
0
0
0
0
0
0
0
0
0
0
0
0
0
0
0
0
0
0
0
0
0
0
0
0
0
0
0
0
0
0
0
0
0
0
0
0
0
0
0
0
0
0
0
0
0
0
0
0
0
0
0
0
0
0
0
0
0
0
0
0
0
0
0
0
0
0
0
0
254
254
254
254
253
253
255
254
254
243
129
128
129
130
131
132
156
163
162
163
163
164
163
163
164
164
164
164
163
163
163
163
163
163
163
163
163
163
163
164
164
164
164
164
164
164
164
164
164
163
163
164
164
165
164
164
164
164
163
163
164
164
165
165
164
164
164
164
164
163
163
163
164
164
164
164
164
164
164
164
164
164
164
164
164
164
164
164
164
163
162
164
165
163
161
160
144
131
128
129
129
130
130
131
127
129
130
124
123
128
130
123
127
131
128
128
127
128
129
129
130
130
141
161
162
163
163
163
165
163
172
173
182
183
181
185
183
185
183
181
164
164
161
162
164
160
160
135
132
130
129
130
129
124
194
233
230
235
253
254
254
254
254
254
255
255
255
255
255
254
255
255
255
255
255
255
255
255
255
255
255
255
255
255
255
254
254
254
255
255
254
254
255
255
255
254
255
255
255
255
255
255
254
255
255
255
254
254
254
255
255
255
254
254
255
255
255
255
255
255
255
255
255
255
255
255
255
255
254
254
255
255
255
254
254
254
255
255
255
254
255
254
255
255
251
250
229
228
197
187
94
100
100
102
103
103
104
136
136
137
137
137
137
136
136
137
137
139
137
135
141
160
161
162
159
162
160
163
155
150
134
137
135
138
113
102
102
101
101
99
101
103
93
94
209
249
251
251
253
255
254
254
255
254
255
254
255
255
255
255
255
255
255
255
255
254
254
251
255
255
255
254
255
255
254
253
255
254
255
255
0
0
0
0
0
0
0
0
0
0
0
0
0
0
0
0
0
0
0
0
0
0
0
0
0
0
0
0
0
0
0
0
0
0
0
0
0
0
0
0
0
0
0
0
0
0
0
0
0
0
0
0
0
0
0
0
0
0
0
0
0
0
0
0
0
0
0
0
0
0
0
0
0
0
0
0
0
0
0
0
0
0
0
0
0
0
0
0
0
0
0
0
0
0
0
0
0
0
0
0
0
0
0
0
0
0
0
0
0
0
0
0
0
0
0
0
0
0
0
0
0
0
0
0
0
0
0
0
0
0
0
0
0
0
0
0
0
0
0
0
0
0
0
0
0
0
0
0
0
0
0
0
0
0
0
0
0
0
0
0
0
0
0
0
0
0
0
0
0
0
0
0
0
0
0
0
0
0
0
0
0
0
0
0
0
0
0
0
0
0
0
0
0
0
0
0
0
0
0
0
0
0
0
0
0
0
0
0
0
0
0
0
0
0
0
0
0
0
0
0
0
0
0
0
0
0
0
0
0
0
0
0
0
0
0
0
0
0
0
0
254
253
254
254
254
255
252
252
253
188
127
127
128
130
130
141
162
162
162
163
164
164
164
164
164
164
164
164
164
163
163
163
163
163
163
163
163
163
163
163
164
164
164
164
164
164
165
165
165
165
165
164
164
164
163
163
163
163
163
163
164
164
164
164
164
164
163
163
163
163
163
164
164
164
164
164
164
164
164
164
164
164
164
164
164
164
164
164
163
163
163
164
165
165
162
160
160
147
135
132
132
129
127
127
129
131
131
130
132
129
129
128
130
130
130
128
127
127
129
131
131
146
161
161
165
163
163
163
164
172
172
181
183
181
181
184
185
185
182
166
166
162
163
164
164
163
148
148
130
130
127
127
125
138
138
232
231
251
251
254
254
254
254
254
254
255
255
255
255
255
254
254
255
255
255
255
255
255
255
255
255
255
254
255
255
255
254
254
254
255
254
254
254
255
255
255
254
255
255
255
255
254
254
254
254
254
255
254
254
254
255
255
255
254
254
255
255
255
255
255
255
255
255
255
255
255
255
254
254
254
254
255
255
255
254
254
254
255
254
254
255
255
255
255
255
248
248
228
229
172
172
94
99
99
102
103
106
106
136
137
137
138
135
135
136
135
137
137
138
136
136
150
158
162
162
159
158
158
161
144
144
136
138
138
138
113
101
101
102
100
102
102
103
93
93
199
248
252
252
252
254
254
253
254
254
255
254
255
255
255
255
255
255
255
255
255
254
254
254
254
255
255
254
254
253
253
253
255
255
0
0
0
0
0
0
0
0
0
0
0
0
0
0
0
0
0
0
0
0
0
0
0
0
0
0
0
0
0
0
0
0
0
0
0
0
0
0
0
0
0
0
0
0
0
0
0
0
0
0
0
0
0
0
0
0
0
0
0
0
0
0
0
0
0
0
0
0
0
0
0
0
0
0
0
0
0
0
0
0
0
0
0
0
0
0
0
0
0
0
0
0
0
0
0
0
0
0
0
0
0
0
0
0
0
0
0
0
0
0
0
0
0
0
0
0
0
0
0
0
0
0
0
0
0
0
0
0
0
0
0
0
0
0
0
0
0
0
0
0
0
0
0
0
0
0
0
0
0
0
0
0
0
0
0
0
0
0
0
0
0
0
0
0
0
0
0
0
0
0
0
0
0
0
0
0
0
0
0
0
0
0
0
0
0
0
0
0
0
0
0
0
0
0
0
0
0
0
0
0
0
0
0
0
0
0
0
0
0
0
0
0
0
0
0
0
0
0
0
0
0
0
0
0
0
0
0
0
0
0
0
0
0
0
0
0
0
0
0
0
0
254
254
254
254
254
255
253
254
251
137
120
128
133
130
133
148
162
162
163
164
166
163
163
164
164
164
164
164
164
164
163
163
163
163
163
163
163
163
163
163
163
164
164
164
164
165
165
165
165
165
164
164
163
162
163
163
163
163
163
164
164
164
164
164
164
163
164
165
163
163
163
164
164
164
164
164
164
164
164
164
164
164
164
164
164
164
164
163
163
163
164
164
164
164
162
163
161
161
158
138
133
131
128
133
127
126
127
129
129
125
126
131
129
129
127
128
127
130
143
135
152
162
162
165
164
165
164
164
168
171
182
183
182
181
184
182
182
181
174
170
161
164
164
164
164
164
159
131
131
129
129
127
125
119
231
228
230
237
255
252
254
254
254
254
254
254
255
255
255
255
255
254
254
255
255
255
255
255
255
255
255
254
255
254
255
255
255
254
254
254
255
254
254
254
255
255
255
254
255
255
254
254
254
254
254
254
255
255
254
254
254
255
255
255
254
253
255
255
255
255
254
254
255
255
255
255
254
255
254
254
255
255
255
255
255
254
254
254
255
255
255
255
254
255
255
254
246
245
232
227
159
143
94
101
100
102
103
108
109
135
138
138
137
135
137
136
135
137
137
136
137
137
159
159
160
160
158
157
160
160
139
135
138
138
137
136
112
101
101
101
99
102
102
100
94
96
180
249
251
253
253
254
253
254
254
255
255
254
255
255
255
255
255
254
255
255
255
255
255
254
255
255
255
255
254
254
255
255
0
0
0
0
0
0
0
0
0
0
0
0
0
0
0
0
0
0
0
0
0
0
0
0
0
0
0
0
0
0
0
0
0
0
0
0
0
0
0
0
0
0
0
0
0
0
0
0
0
0
0
0
0
0
0
0
0
0
0
0
0
0
0
0
0
0
0
0
0
0
0
0
0
0
0
0
0
0
0
0
0
0
0
0
0
0
0
0
0
0
0
0
0
0
0
0
0
0
0
0
0
0
0
0
0
0
0
0
0
0
0
0
0
0
0
0
0
0
0
0
0
0
0
0
0
0
0
0
0
0
0
0
0
0
0
0
0
0
0
0
0
0
0
0
0
0
0
0
0
0
0
0
0
0
0
0
0
0
0
0
0
0
0
0
0
0
0
0
0
0
0
0
0
0
0
0
0
0
0
0
0
0
0
0
0
0
0
0
0
0
0
0
0
0
0
0
0
0
0
0
0
0
0
0
0
0
0
0
0
0
0
0
0
0
0
0
0
0
0
0
0
0
0
0
0
0
0
0
0
0
0
0
0
0
0
0
0
0
0
0
0
0
255
255
254
254
255
255
252
253
201
201
129
127
133
128
140
161
161
165
162
164
164
163
163
164
164
164
164
164
164
164
164
163
163
163
163
163
163
163
163
163
163
163
164
164
164
164
165
164
165
165
165
163
163
162
162
163
164
164
166
165
164
165
164
164
164
164
166
166
163
163
163
163
164
164
164
164
164
164
164
164
164
164
164
164
164
164
163
163
163
164
164
164
164
162
162
162
164
162
162
163
152
131
140
134
127
130
129
129
129
131
131
131
130
131
134
134
136
151
143
161
163
162
164
164
164
164
164
167
168
182
182
182
182
184
183
182
182
179
174
165
164
164
164
165
162
164
143
130
130
130
130
128
125
146
232
231
231
244
255
252
255
254
254
254
254
254
254
255
255
255
255
255
255
255
255
255
255
255
255
255
254
255
254
254
254
255
255
255
255
254
254
255
255
254
254
255
255
255
254
254
254
254
255
254
254
254
255
255
255
254
254
254
255
255
255
254
254
255
255
255
254
254
254
255
255
254
254
255
255
255
255
255
254
254
255
254
254
254
254
255
255
255
254
253
255
255
253
239
239
230
227
143
128
99
101
101
102
103
109
111
137
138
138
138
137
137
137
136
137
137
136
141
141
160
159
160
159
161
160
161
154
134
134
139
137
136
137
110
101
101
102
102
102
101
102
95
95
179
250
253
254
255
253
252
255
255
255
254
254
255
255
255
254
254
254
255
255
255
255
254
254
255
254
254
255
254
255
0
0
0
0
0
0
0
0
0
0
0
0
0
0
0
0
0
0
0
0
0
0
0
0
0
0
0
0
0
0
0
0
0
0
0
0
0
0
0
0
0
0
0
0
0
0
0
0
0
0
0
0
0
0
0
0
0
0
0
0
0
0
0
0
0
0
0
0
0
0
0
0
0
0
0
0
0
0
0
0
0
0
0
0
0
0
0
0
0
0
0
0
0
0
0
0
0
0
0
0
0
0
0
0
0
0
0
0
0
0
0
0
0
0
0
0
0
0
0
0
0
0
0
0
0
0
0
0
0
0
0
0
0
0
0
0
0
0
0
0
0
0
0
0
0
0
0
0
0
0
0
0
0
0
0
0
0
0
0
0
0
0
0
0
0
0
0
0
0
0
0
0
0
0
0
0
0
0
0
0
0
0
0
0
0
0
0
0
0
0
0
0
0
0
0
0
0
0
0
0
0
0
0
0
0
0
0
0
0
0
0
0
0
0
0
0
0
0
0
0
0
0
0
0
0
0
0
0
0
0
0
0
0
0
0
0
0
0
0
0
0
0
0
254
255
255
254
254
255
250
253
250
122
126
129
127
131
150
160
165
164
162
165
163
163
163
164
164
164
164
164
164
164
164
164
163
163
163
163
163
163
163
163
163
163
163
164
164
164
163
164
165
165
163
163
163
163
163
164
164
165
165
166
165
165
165
164
163
162
165
165
163
161
162
164
164
164
164
164
164
164
164
164
164
164
164
164
164
163
163
163
164
164
164
164
164
163
162
162
162
165
163
163
164
157
151
151
144
137
147
136
130
145
134
134
137
150
140
147
158
158
163
163
163
165
164
164
165
164
165
165
180
182
183
183
183
183
183
182
179
179
166
164
166
164
165
161
161
152
132
130
130
130
129
127
123
232
230
229
235
250
255
254
253
253
254
254
254
254
254
254
255
255
255
255
255
255
255
255
255
255
255
254
255
255
254
254
255
254
255
255
255
255
254
254
255
255
254
254
255
255
255
254
254
254
254
254
254
254
254
255
255
255
254
254
254
255
255
255
254
254
255
255
255
254
254
254
254
255
255
254
255
254
255
254
254
254
254
255
255
254
254
254
255
255
254
254
254
255
254
254
237
236
229
227
115
105
99
101
103
103
103
112
112
137
138
138
138
137
137
136
137
137
137
137
150
157
160
160
159
159
161
161
161
143
135
137
138
140
138
137
111
103
101
101
101
102
103
101
92
95
182
250
253
253
255
255
255
255
255
255
254
254
255
255
255
254
255
255
255
255
255
255
255
255
255
255
255
255
0
0
0
0
0
0
0
0
0
0
0
0
0
0
0
0
0
0
0
0
0
0
0
0
0
0
0
0
0
0
0
0
0
0
0
0
0
0
0
0
0
0
0
0
0
0
0
0
0
0
0
0
0
0
0
0
0
0
0
0
0
0
0
0
0
0
0
0
0
0
0
0
0
0
0
0
0
0
0
0
0
0
0
0
0
0
0
0
0
0
0
0
0
0
0
0
0
0
0
0
0
0
0
0
0
0
0
0
0
0
0
0
0
0
0
0
0
0
0
0
0
0
0
0
0
0
0
0
0
0
0
0
0
0
0
0
0
0
0
0
0
0
0
0
0
0
0
0
0
0
0
0
0
0
0
0
0
0
0
0
0
0
0
0
0
0
0
0
0
0
0
0
0
0
0
0
0
0
0
0
0
0
0
0
0
0
0
0
0
0
0
0
0
0
0
0
0
0
0
0
0
0
0
0
0
0
0
0
0
0
0
0
0
0
0
0
0
0
0
0
0
0
0
0
0
0
0
0
0
0
0
0
0
0
0
0
0
0
0
0
0
0
0
0
254
254
254
254
254
255
253
253
235
126
126
127
132
139
150
164
166
164
164
164
163
163
163
163
164
164
164
164
164
164
164
164
164
163
163
163
163
163
163
163
163
163
163
163
164
163
164
164
165
164
162
163
163
162
163
164
165
165
165
165
165
165
165
165
164
162
162
164
163
163
165
163
164
164
164
164
164
164
164
164
164
164
164
164
163
163
163
164
164
164
164
164
164
164
163
163
162
164
165
163
164
162
161
160
164
162
147
160
160
145
158
156
158
150
160
163
158
163
163
163
165
164
165
164
163
164
165
179
183
184
183
183
183
183
183
180
180
168
164
164
166
160
163
161
161
138
130
130
128
129
129
122
161
232
230
229
238
250
254
254
254
254
254
254
254
254
254
254
254
254
254
255
254
255
255
255
255
255
254
254
255
255
255
253
255
255
255
255
255
255
254
254
254
255
255
254
254
255
255
255
254
254
254
254
255
254
254
254
255
255
255
254
254
254
255
255
255
255
254
255
255
255
254
254
254
255
255
255
254
254
254
255
254
254
254
255
255
255
254
254
254
255
254
255
255
254
254
254
254
236
234
230
221
105
98
100
103
102
102
103
113
115
137
138
138
137
137
136
139
138
137
137
137
157
161
159
160
158
157
163
161
150
135
137
137
137
135
137
136
112
101
100
100
102
103
103
104
95
95
219
251
251
254
254
255
255
255
255
254
254
254
255
255
255
255
255
255
255
255
255
254
255
255
255
255
0
0
0
0
0
0
0
0
0
0
0
0
0
0
0
0
0
0
0
0
0
0
0
0
0
0
0
0
0
0
0
0
0
0
0
0
0
0
0
0
0
0
0
0
0
0
0
0
0
0
0
0
0
0
0
0
0
0
0
0
0
0
0
0
0
0
0
0
0
0
0
0
0
0
0
0
0
0
0
0
0
0
0
0
0
0
0
0
0
0
0
0
0
0
0
0
0
0
0
0
0
0
0
0
0
0
0
0
0
0
0
0
0
0
0
0
0
0
0
0
0
0
0
0
0
0
0
0
0
0
0
0
0
0
0
0
0
0
0
0
0
0
0
0
0
0
0
0
0
0
0
0
0
0
0
0
0
0
0
0
0
0
0
0
0
0
0
0
0
0
0
0
0
0
0
0
0
0
0
0
0
0
0
0
0
0
0
0
0
0
0
0
0
0
0
0
0
0
0
0
0
0
0
0
0
0
0
0
0
0
0
0
0
0
0
0
0
0
0
0
0
0
0
0
0
0
0
0
0
0
0
0
0
0
0
0
0
0
0
0
0
0
0
0
0
254
255
255
254
254
253
253
252
129
129
127
133
127
133
157
163
163
163
164
164
163
163
163
163
163
164
164
164
164
164
164
164
164
164
163
163
163
163
163
163
163
163
163
163
164
164
165
164
165
164
164
162
162
164
162
165
165
165
165
163
163
160
164
165
165
162
162
162
161
163
163
164
165
164
164
164
164
164
164
164
164
164
164
163
163
163
164
164
164
164
164
164
164
164
164
164
166
165
165
165
164
164
163
164
165
165
165
164
164
162
161
163
163
161
163
163
161
162
162
164
163
164
164
164
164
164
173
182
183
181
184
185
185
184
180
180
168
165
164
164
165
163
163
162
144
132
130
126
128
128
123
128
227
230
229
230
230
255
255
255
254
253
254
254
254
254
254
254
255
255
254
254
254
254
254
255
255
255
255
254
254
254
254
254
255
255
254
255
255
255
255
254
254
254
255
255
254
254
255
255
255
254
254
254
254
255
254
254
254
255
255
255
254
254
254
255
255
255
255
254
255
255
255
254
254
254
255
254
254
254
254
254
255
254
254
254
255
255
255
254
254
254
255
255
253
253
254
254
254
255
232
230
230
213
96
96
101
102
102
101
102
117
117
137
138
138
139
136
137
138
139
136
136
136
161
161
158
159
155
155
161
141
141
135
137
137
138
137
137
137
110
101
104
102
102
103
103
103
95
95
235
252
254
254
254
255
255
254
254
254
254
254
255
255
255
255
255
255
255
255
255
254
253
253
0
0
0
0
0
0
0
0
0
0
0
0
0
0
0
0
0
0
0
0
0
0
0
0
0
0
0
0
0
0
0
0
0
0
0
0
0
0
0
0
0
0
0
0
0
0
0
0
0
0
0
0
0
0
0
0
0
0
0
0
0
0
0
0
0
0
0
0
0
0
0
0
0
0
0
0
0
0
0
0
0
0
0
0
0
0
0
0
0
0
0
0
0
0
0
0
0
0
0
0
0
0
0
0
0
0
0
0
0
0
0
0
0
0
0
0
0
0
0
0
0
0
0
0
0
0
0
0
0
0
0
0
0
0
0
0
0
0
0
0
0
0
0
0
0
0
0
0
0
0
0
0
0
0
0
0
0
0
0
0
0
0
0
0
0
0
0
0
0
0
0
0
0
0
0
0
0
0
0
0
0
0
0
0
0
0
0
0
0
0
0
0
0
0
0
0
0
0
0
0
0
0
0
0
0
0
0
0
0
0
0
0
0
0
0
0
0
0
0
0
0
0
0
0
0
0
0
0
0
0
0
0
0
0
0
0
0
0
0
0
0
0
0
0
0
0
254
255
255
254
253
255
254
251
206
127
129
135
127
136
163
164
165
164
164
164
164
163
163
163
163
163
164
164
165
164
164
164
164
164
164
163
163
163
163
163
163
163
163
164
164
165
165
164
164
164
163
162
166
164
164
165
165
163
160
161
164
161
163
162
164
161
161
162
162
163
163
165
164
164
164
164
164
164
164
164
164
164
163
163
163
164
164
164
164
164
164
164
164
164
164
164
165
165
165
165
163
163
163
165
164
162
162
163
162
164
164
163
165
162
162
162
161
162
163
165
166
164
163
165
164
169
176
184
183
183
184
184
183
178
180
168
165
164
164
164
164
164
162
156
133
132
128
127
127
125
122
194
227
230
230
229
251
255
255
253
253
253
253
255
255
254
254
254
255
255
255
254
254
254
254
254
253
254
254
254
254
254
254
254
254
254
254
252
255
255
255
255
254
254
254
255
255
254
255
255
255
255
254
254
254
254
254
254
254
255
255
255
255
254
254
254
255
255
255
254
254
254
255
255
255
254
254
254
254
255
254
255
254
255
254
254
254
255
255
255
254
254
254
255
255
254
255
255
254
255
252
230
230
227
205
94
95
102
102
101
101
101
118
119
137
138
137
137
137
137
136
139
136
136
136
161
159
162
161
162
161
155
133
136
136
137
137
137
138
137
138
112
104
103
102
101
103
103
100
99
133
248
254
254
254
254
254
254
254
254
254
254
254
255
255
255
255
254
254
255
255
255
254
0
0
0
0
0
0
0
0
0
0
0
0
0
0
0
0
0
0
0
0
0
0
0
0
0
0
0
0
0
0
0
0
0
0
0
0
0
0
0
0
0
0
0
0
0
0
0
0
0
0
0
0
0
0
0
0
0
0
0
0
0
0
0
0
0
0
0
0
0
0
0
0
0
0
0
0
0
0
0
0
0
0
0
0
0
0
0
0
0
0
0
0
0
0
0
0
0
0
0
0
0
0
0
0
0
0
0
0
0
0
0
0
0
0
0
0
0
0
0
0
0
0
0
0
0
0
0
0
0
0
0
0
0
0
0
0
0
0
0
0
0
0
0
0
0
0
0
0
0
0
0
0
0
0
0
0
0
0
0
0
0
0
0
0
0
0
0
0
0
0
0
0
0
0
0
0
0
0
0
0
0
0
0
0
0
0
0
0
0
0
0
0
0
0
0
0
0
0
0
0
0
0
0
0
0
0
0
0
0
0
0
0
0
0
0
0
0
0
0
0
0
0
0
0
0
0
0
0
0
0
0
0
0
0
0
0
0
0
0
0
0
0
0
0
0
0
0
254
255
254
254
254
252
253
251
179
129
126
126
130
148
148
161
163
164
163
164
164
164
163
163
163
164
164
165
165
165
164
164
164
164
164
164
163
163
163
163
163
163
164
164
165
165
164
163
163
163
162
163
163
162
163
163
159
159
160
156
152
151
151
149
152
161
150
152
157
157
160
165
165
161
165
164
164
164
164
164
164
163
163
163
164
164
164
164
164
164
164
164
164
164
164
164
164
165
165
165
165
160
163
163
165
166
162
163
163
165
165
165
165
165
165
162
161
165
166
164
164
165
168
165
163
169
180
180
183
185
185
181
177
178
165
165
164
164
164
164
164
161
159
132
132
128
129
129
128
125
157
157
231
231
231
231
251
255
254
254
254
254
255
254
255
255
254
254
254
255
255
255
255
255
254
255
254
253
253
254
254
254
254
254
254
254
255
255
255
255
255
255
255
254
254
254
255
252
255
254
255
255
255
254
254
254
254
254
255
255
254
255
255
255
254
254
254
255
255
255
254
254
255
255
255
254
254
254
255
255
255
254
254
255
255
254
254
254
255
255
255
254
254
254
255
255
255
255
255
255
255
250
229
229
230
180
95
95
103
101
101
102
100
119
120
137
136
136
137
137
137
136
137
136
137
136
151
151
161
159
161
138
135
136
136
135
136
136
139
137
134
134
111
101
101
103
103
103
101
94
199
199
251
254
254
254
255
254
254
254
254
254
255
254
255
255
255
254
254
254
255
255
0
0
0
0
0
0
0
0
0
0
0
0
0
0
0
0
0
0
0
0
0
0
0
0
0
0
0
0
0
0
0
0
0
0
0
0
0
0
0
0
0
0
0
0
0
0
0
0
0
0
0
0
0
0
0
0
0
0
0
0
0
0
0
0
0
0
0
0
0
0
0
0
0
0
0
0
0
0
0
0
0
0
0
0
0
0
0
0
0
0
0
0
0
0
0
0
0
0
0
0
0
0
0
0
0
0
0
0
0
0
0
0
0
0
0
0
0
0
0
0
0
0
0
0
0
0
0
0
0
0
0
0
0
0
0
0
0
0
0
0
0
0
0
0
0
0
0
0
0
0
0
0
0
0
0
0
0
0
0
0
0
0
0
0
0
0
0
0
0
0
0
0
0
0
0
0
0
0
0
0
0
0
0
0
0
0
0
0
0
0
0
0
0
0
0
0
0
0
0
0
0
0
0
0
0
0
0
0
0
0
0
0
0
0
0
0
0
0
0
0
0
0
0
0
0
0
0
0
0
0
0
0
0
0
0
0
0
0
0
0
0
0
0
0
0
0
0
0
255
255
254
254
255
255
254
247
123
126
128
127
131
134
160
161
162
164
164
165
164
164
164
163
163
164
164
165
165
164
164
164
164
164
164
164
164
163
163
163
163
164
164
165
165
164
163
163
163
164
162
162
163
161
161
158
145
155
146
141
132
135
135
131
134
137
135
126
140
145
134
154
164
157
162
164
164
163
164
164
163
163
163
164
164
164
164
164
164
164
164
164
164
164
164
164
164
164
165
165
164
163
161
164
164
163
163
162
164
165
166
165
165
164
162
163
161
164
165
165
177
184
174
169
165
166
171
180
175
182
178
169
173
165
164
164
164
164
164
164
163
161
143
139
127
129
129
128
129
124
133
232
230
230
232
233
248
254
254
255
255
255
255
254
254
254
255
254
255
255
255
254
254
255
255
255
254
252
254
254
255
254
253
254
253
254
252
253
251
252
255
255
255
255
254
254
254
255
255
252
253
255
254
254
254
254
254
254
254
255
255
255
255
255
255
254
254
254
255
255
255
254
254
255
255
255
254
254
254
255
254
254
255
255
255
255
255
255
254
255
255
255
254
254
254
254
255
255
255
255
255
254
250
230
229
228
164
96
96
103
101
101
102
100
123
123
136
136
136
137
137
136
136
137
138
135
140
146
138
150
135
135
136
136
135
138
137
138
137
139
139
136
139
109
100
101
103
103
100
96
91
241
251
254
255
254
254
254
254
255
254
254
254
255
254
255
255
255
254
254
254
0
0
0
0
0
0
0
0
0
0
0
0
0
0
0
0
0
0
0
0
0
0
0
0
0
0
0
0
0
0
0
0
0
0
0
0
0
0
0
0
0
0
0
0
0
0
0
0
0
0
0
0
0
0
0
0
0
0
0
0
0
0
0
0
0
0
0
0
0
0
0
0
0
0
0
0
0
0
0
0
0
0
0
0
0
0
0
0
0
0
0
0
0
0
0
0
0
0
0
0
0
0
0
0
0
0
0
0
0
0
0
0
0
0
0
0
0
0
0
0
0
0
0
0
0
0
0
0
0
0
0
0
0
0
0
0
0
0
0
0
0
0
0
0
0
0
0
0
0
0
0
0
0
0
0
0
0
0
0
0
0
0
0
0
0
0
0
0
0
0
0
0
0
0
0
0
0
0
0
0
0
0
0
0
0
0
0
0
0
0
0
0
0
0
0
0
0
0
0
0
0
0
0
0
0
0
0
0
0
0
0
0
0
0
0
0
0
0
0
0
0
0
0
0
0
0
0
0
0
0
0
0
0
0
0
0
0
0
0
0
0
0
0
0
0
0
0
0
0
255
254
254
254
254
255
252
248
123
126
130
130
131
135
159
161
162
165
166
165
165
164
164
163
163
164
164
165
164
164
164
163
164
163
164
164
164
164
163
163
163
164
164
165
164
163
163
163
164
162
162
163
156
161
143
135
145
131
130
128
132
126
133
131
126
127
127
126
126
128
134
131
138
157
146
159
163
163
162
163
163
163
164
164
164
164
164
164
164
164
164
164
164
164
164
164
164
164
164
164
163
163
162
166
164
163
162
162
164
165
165
165
165
162
162
162
162
165
165
179
184
184
183
182
169
166
166
167
175
168
165
169
164
161
164
164
163
164
164
163
162
147
143
131
129
129
129
129
122
122
203
230
230
229
230
233
254
254
254
255
254
254
255
255
254
253
255
254
254
255
255
254
254
255
255
255
254
255
255
254
254
255
254
254
252
255
252
254
254
255
255
255
255
255
255
253
254
253
254
255
253
254
254
254
254
254
254
254
254
255
255
254
255
255
255
254
254
254
254
255
255
255
254
254
255
254
255
254
255
254
254
254
255
255
255
254
255
255
255
254
255
255
255
254
254
254
255
254
255
254
254
254
254
244
229
228
228
136
96
97
103
101
101
103
103
123
124
136
136
137
137
136
136
138
137
135
137
135
138
135
133
137
136
137
138
138
137
137
139
139
137
138
139
129
101
101
103
105
105
96
94
231
251
251
255
255
254
254
255
255
255
254
254
254
255
255
255
255
255
254
0
0
0
0
0
0
0
0
0
0
0
0
0
0
0
0
0
0
0
0
0
0
0
0
0
0
0
0
0
0
0
0
0
0
0
0
0
0
0
0
0
0
0
0
0
0
0
0
0
0
0
0
0
0
0
0
0
0
0
0
0
0
0
0
0
0
0
0
0
0
0
0
0
0
0
0
0
0
0
0
0
0
0
0
0
0
0
0
0
0
0
0
0
0
0
0
0
0
0
0
0
0
0
0
0
0
0
0
0
0
0
0
0
0
0
0
0
0
0
0
0
0
0
0
0
0
0
0
0
0
0
0
0
0
0
0
0
0
0
0
0
0
0
0
0
0
0
0
0
0
0
0
0
0
0
0
0
0
0
0
0
0
0
0
0
0
0
0
0
0
0
0
0
0
0
0
0
0
0
0
0
0
0
0
0
0
0
0
0
0
0
0
0
0
0
0
0
0
0
0
0
0
0
0
0
0
0
0
0
0
0
0
0
0
0
0
0
0
0
0
0
0
0
0
0
0
0
0
0
0
0
0
0
0
0
0
0
0
0
0
0
0
0
0
0
0
0
0
0
0
254
255
250
254
254
254
253
242
145
128
129
129
133
155
155
162
163
164
165
165
165
165
163
163
163
164
164
164
164
164
163
163
162
163
163
164
164
164
164
163
163
164
164
163
163
163
163
164
162
162
161
147
151
137
130
130
128
129
129
128
126
125
125
122
128
126
127
127
129
129
128
130
130
132
140
134
158
162
162
162
163
164
164
164
164
164
164
164
164
164
164
164
164
164
164
164
164
164
164
164
163
162
162
162
164
163
163
162
163
165
165
165
164
164
164
162
161
163
176
185
185
182
185
182
178
170
164
164
165
163
163
164
163
163
164
163
163
163
163
161
157
152
131
129
129
131
128
126
124
174
231
231
229
229
229
251
253
254
254
254
254
254
254
254
254
254
253
254
254
255
255
255
255
254
254
254
255
255
255
254
254
253
254
254
254
254
255
255
253
252
255
254
255
255
253
253
255
253
253
255
252
254
254
254
254
254
254
254
255
255
255
255
255
254
255
255
254
254
254
254
255
255
255
254
254
255
255
255
254
254
254
255
255
255
255
254
254
255
255
254
255
255
255
255
254
254
254
255
254
253
253
254
254
254
241
229
229
228
124
97
97
103
101
102
104
103
126
126
137
137
137
137
136
136
137
138
137
137
137
136
137
138
137
138
138
138
137
136
138
136
138
138
135
111
111
100
102
104
104
99
120
120
249
254
254
254
255
254
254
255
255
255
254
254
254
255
255
255
255
0
0
0
0
0
0
0
0
0
0
0
0
0
0
0
0
0
0
0
0
0
0
0
0
0
0
0
0
0
0
0
0
0
0
0
0
0
0
0
0
0
0
0
0
0
0
0
0
0
0
0
0
0
0
0
0
0
0
0
0
0
0
0
0
0
0
0
0
0
0
0
0
0
0
0
0
0
0
0
0
0
0
0
0
0
0
0
0
0
0
0
0
0
0
0
0
0
0
0
0
0
0
0
0
0
0
0
0
0
0
0
0
0
0
0
0
0
0
0
0
0
0
0
0
0
0
0
0
0
0
0
0
0
0
0
0
0
0
0
0
0
0
0
0
0
0
0
0
0
0
0
0
0
0
0
0
0
0
0
0
0
0
0
0
0
0
0
0
0
0
0
0
0
0
0
0
0
0
0
0
0
0
0
0
0
0
0
0
0
0
0
0
0
0
0
0
0
0
0
0
0
0
0
0
0
0
0
0
0
0
0
0
0
0
0
0
0
0
0
0
0
0
0
0
0
0
0
0
0
0
0
0
0
0
0
0
0
0
0
0
0
0
0
0
0
0
0
0
0
0
0
254
253
253
255
252
254
253
242
148
125
134
129
132
143
159
162
161
164
163
164
164
164
164
163
163
164
164
165
164
164
164
162
162
162
163
164
164
164
163
163
164
164
163
163
163
163
165
161
162
159
141
147
132
127
126
132
125
126
129
122
135
126
127
188
204
126
201
186
120
122
123
124
130
128
132
134
130
149
160
162
162
164
164
164
164
164
164
164
164
164
164
164
164
164
164
164
164
164
164
164
164
164
162
164
165
163
163
163
163
164
165
164
164
163
161
163
161
165
177
182
184
185
181
182
182
170
165
165
165
165
164
164
163
163
163
163
163
165
161
158
157
134
130
130
130
128
127
126
128
229
231
231
229
228
243
254
254
254
254
254
254
254
254
254
254
255
254
253
255
254
255
255
255
254
254
255
254
253
253
254
254
253
254
254
254
254
251
253
253
253
249
254
254
255
254
253
251
253
253
253
254
253
252
255
254
254
255
254
254
255
255
255
254
255
254
255
254
255
254
254
254
255
255
255
254
254
255
254
254
254
255
255
255
255
254
254
254
254
255
254
255
255
255
255
254
254
254
254
255
254
254
254
253
254
255
234
229
229
223
114
97
97
103
102
102
103
103
126
128
137
138
138
137
136
137
136
137
138
138
137
137
137
137
138
140
138
136
136
135
137
138
137
123
121
100
101
100
104
100
99
93
234
250
255
254
254
255
254
254
254
255
255
255
254
254
254
254
255
0
0
0
0
0
0
0
0
0
0
0
0
0
0
0
0
0
0
0
0
0
0
0
0
0
0
0
0
0
0
0
0
0
0
0
0
0
0
0
0
0
0
0
0
0
0
0
0
0
0
0
0
0
0
0
0
0
0
0
0
0
0
0
0
0
0
0
0
0
0
0
0
0
0
0
0
0
0
0
0
0
0
0
0
0
0
0
0
0
0
0
0
0
0
0
0
0
0
0
0
0
0
0
0
0
0
0
0
0
0
0
0
0
0
0
0
0
0
0
0
0
0
0
0
0
0
0
0
0
0
0
0
0
0
0
0
0
0
0
0
0
0
0
0
0
0
0
0
0
0
0
0
0
0
0
0
0
0
0
0
0
0
0
0
0
0
0
0
0
0
0
0
0
0
0
0
0
0
0
0
0
0
0
0
0
0
0
0
0
0
0
0
0
0
0
0
0
0
0
0
0
0
0
0
0
0
0
0
0
0
0
0
0
0
0
0
0
0
0
0
0
0
0
0
0
0
0
0
0
0
0
0
0
0
0
0
0
0
0
0
0
0
0
0
0
0
0
0
0
0
0
0
254
255
255
254
252
254
254
240
122
122
131
128
132
144
160
162
162
163
165
165
165
164
163
163
163
164
164
165
165
164
164
163
162
162
164
164
164
163
163
164
164
164
163
163
163
164
161
161
157
137
137
130
129
129
129
126
123
123
153
199
199
226
230
231
231
231
234
234
232
193
123
127
127
127
127
130
130
130
146
161
162
162
164
164
164
164
164
164
164
164
164
164
164
164
164
164
164
164
164
164
164
164
165
165
164
164
163
163
163
164
165
164
164
163
163
163
163
171
171
182
183
183
183
182
178
178
166
165
165
165
163
163
163
163
163
163
165
161
159
159
135
130
130
128
129
128
128
119
227
227
230
230
230
229
253
254
254
254
254
254
254
255
254
254
255
254
254
254
254
254
253
254
255
255
254
249
249
253
255
253
253
254
252
252
255
254
253
253
251
254
254
255
255
255
252
255
254
254
255
253
253
254
254
254
254
255
255
255
254
254
255
255
254
255
255
255
254
254
255
254
254
254
255
255
255
254
255
254
255
255
255
255
254
254
254
254
254
255
255
255
255
255
255
255
254
254
254
254
254
254
254
254
254
254
254
254
232
228
228
220
101
97
97
103
102
102
103
103
128
128
137
139
139
138
137
137
136
137
137
137
137
138
138
136
137
136
136
135
137
137
138
127
127
104
102
101
101
102
103
103
93
240
252
252
252
255
255
255
254
254
255
255
255
255
254
254
254
0
0
0
0
0
0
0
0
0
0
0
0
0
0
0
0
0
0
0
0
0
0
0
0
0
0
0
0
0
0
0
0
0
0
0
0
0
0
0
0
0
0
0
0
0
0
0
0
0
0
0
0
0
0
0
0
0
0
0
0
0
0
0
0
0
0
0
0
0
0
0
0
0
0
0
0
0
0
0
0
0
0
0
0
0
0
0
0
0
0
0
0
0
0
0
0
0
0
0
0
0
0
0
0
0
0
0
0
0
0
0
0
0
0
0
0
0
0
0
0
0
0
0
0
0
0
0
0
0
0
0
0
0
0
0
0
0
0
0
0
0
0
0
0
0
0
0
0
0
0
0
0
0
0
0
0
0
0
0
0
0
0
0
0
0
0
0
0
0
0
0
0
0
0
0
0
0
0
0
0
0
0
0
0
0
0
0
0
0
0
0
0
0
0
0
0
0
0
0
0
0
0
0
0
0
0
0
0
0
0
0
0
0
0
0
0
0
0
0
0
0
0
0
0
0
0
0
0
0
0
0
0
0
0
0
0
0
0
0
0
0
0
0
0
0
0
0
0
0
0
0
0
0
255
254
254
253
254
254
251
245
147
129
126
132
134
155
160
163
163
164
164
165
166
163
163
162
162
163
164
165
165
165
164
163
163
164
165
165
163
163
164
164
164
163
163
163
165
162
162
155
133
135
128
127
130
127
123
180
141
207
229
232
230
227
228
231
228
228
231
230
231
229
224
140
155
126
130
132
128
132
130
147
161
162
163
164
164
164
164
164
164
164
164
164
164
164
164
164
164
164
164
164
164
165
164
163
164
163
163
163
164
164
164
165
164
164
163
163
164
165
177
179
182
181
185
185
182
171
165
164
165
163
163
163
163
165
165
165
162
161
160
138
130
130
127
130
126
127
120
198
214
229
229
230
227
239
252
254
254
254
254
254
254
255
254
254
254
254
254
254
254
253
255
255
254
255
252
253
252
249
250
252
251
248
252
251
246
246
251
251
248
251
251
252
251
251
253
252
254
255
254
255
254
255
255
255
255
251
255
255
255
254
255
254
254
254
255
255
254
254
255
255
254
254
254
255
255
254
254
255
255
255
255
254
254
254
255
255
254
254
254
254
255
255
255
254
255
254
254
254
254
254
254
254
254
254
254
254
254
231
227
229
211
97
97
97
102
102
102
103
103
129
130
136
138
138
137
137
137
136
138
138
140
140
136
136
136
137
136
137
137
138
129
128
105
103
102
101
99
100
98
95
143
228
248
255
255
253
255
254
255
255
255
254
255
255
255
254
0
0
0
0
0
0
0
0
0
0
0
0
0
0
0
0
0
0
0
0
0
0
0
0
0
0
0
0
0
0
0
0
0
0
0
0
0
0
0
0
0
0
0
0
0
0
0
0
0
0
0
0
0
0
0
0
0
0
0
0
0
0
0
0
0
0
0
0
0
0
0
0
0
0
0
0
0
0
0
0
0
0
0
0
0
0
0
0
0
0
0
0
0
0
0
0
0
0
0
0
0
0
0
0
0
0
0
0
0
0
0
0
0
0
0
0
0
0
0
0
0
0
0
0
0
0
0
0
0
0
0
0
0
0
0
0
0
0
0
0
0
0
0
0
0
0
0
0
0
0
0
0
0
0
0
0
0
0
0
0
0
0
0
0
0
0
0
0
0
0
0
0
0
0
0
0
0
0
0
0
0
0
0
0
0
0
0
0
0
0
0
0
0
0
0
0
0
0
0
0
0
0
0
0
0
0
0
0
0
0
0
0
0
0
0
0
0
0
0
0
0
0
0
0
0
0
0
0
0
0
0
0
0
0
0
0
0
0
0
0
0
0
0
0
0
0
0
0
0
0
0
0
0
0
255
255
254
254
254
255
250
245
150
130
126
130
132
155
160
162
164
164
165
165
163
163
162
162
162
163
164
165
165
165
164
163
163
164
165
165
164
163
163
164
163
163
163
164
162
162
157
134
133
133
126
127
126
133
217
217
236
232
229
232
229
229
229
230
232
228
230
230
231
232
230
228
155
164
122
132
130
129
133
133
152
161
163
163
164
164
164
164
164
164
164
164
164
164
164
164
164
164
164
164
163
163
162
162
162
163
163
163
163
164
164
165
164
164
164
164
164
166
167
178
178
181
182
185
173
165
165
163
163
163
163
164
164
165
164
162
161
161
141
130
130
128
129
127
127
124
176
198
229
231
229
229
232
252
252
255
254
254
254
253
254
254
255
254
254
254
254
254
254
252
253
255
252
250
252
248
238
221
221
206
196
248
187
187
184
184
186
200
248
209
228
252
240
249
251
251
249
252
254
252
252
252
252
254
254
251
254
255
255
255
254
254
254
254
255
255
255
254
255
255
255
254
254
254
254
254
254
254
254
255
254
254
254
254
255
254
254
254
254
254
254
255
254
254
254
255
254
254
254
254
254
254
254
254
254
253
254
253
229
229
229
205
91
97
98
102
102
102
102
100
130
129
136
138
138
138
135
135
136
136
140
139
138
137
137
138
137
137
136
129
129
103
103
103
103
104
102
100
100
101
228
228
239
255
255
254
255
254
253
255
254
254
254
255
255
0
0
0
0
0
0
0
0
0
0
0
0
0
0
0
0
0
0
0
0
0
0
0
0
0
0
0
0
0
0
0
0
0
0
0
0
0
0
0
0
0
0
0
0
0
0
0
0
0
0
0
0
0
0
0
0
0
0
0
0
0
0
0
0
0
0
0
0
0
0
0
0
0
0
0
0
0
0
0
0
0
0
0
0
0
0
0
0
0
0
0
0
0
0
0
0
0
0
0
0
0
0
0
0
0
0
0
0
0
0
0
0
0
0
0
0
0
0
0
0
0
0
0
0
0
0
0
0
0
0
0
0
0
0
0
0
0
0
0
0
0
0
0
0
0
0
0
0
0
0
0
0
0
0
0
0
0
0
0
0
0
0
0
0
0
0
0
0
0
0
0
0
0
0
0
0
0
0
0
0
0
0
0
0
0
0
0
0
0
0
0
0
0
0
0
0
0
0
0
0
0
0
0
0
0
0
0
0
0
0
0
0
0
0
0
0
0
0
0
0
0
0
0
0
0
0
0
0
0
0
0
0
0
0
0
0
0
0
0
0
0
0
0
0
0
0
0
0
0
0
0
0
0
0
0
255
255
254
254
254
253
254
245
122
122
127
125
132
134
160
163
163
165
164
164
163
163
162
162
162
163
163
165
165
165
164
163
163
163
164
164
164
163
164
164
164
163
163
162
162
159
134
134
131
127
127
125
153
231
231
229
228
232
226
228
228
229
230
231
227
229
229
229
230
228
229
230
231
167
167
121
126
127
129
134
133
156
162
163
163
164
164
164
164
164
164
164
164
164
164
164
164
164
164
164
163
162
162
162
164
164
163
163
163
164
164
164
165
164
164
164
165
165
165
166
177
169
175
172
165
165
163
163
163
163
164
165
165
164
162
156
159
141
129
129
129
129
129
128
127
146
157
231
230
230
231
227
250
251
255
254
254
254
254
255
255
255
254
254
254
254
254
253
252
239
251
247
228
228
204
174
154
163
160
159
154
153
156
158
154
155
160
155
159
159
159
168
187
156
216
237
193
249
250
252
250
254
253
252
251
254
253
253
255
255
254
253
254
254
254
255
255
255
254
255
255
255
254
254
254
254
254
254
254
254
254
254
255
255
254
254
255
255
255
254
255
255
255
254
254
254
255
254
254
254
254
254
254
253
254
254
252
251
249
230
228
229
198
92
98
98
102
103
102
103
101
129
129
137
138
138
138
136
140
137
138
138
138
138
138
137
139
135
129
129
102
102
101
102
103
101
102
101
98
198
222
228
234
248
255
254
254
255
254
255
255
254
254
254
0
0
0
0
0
0
0
0
0
0
0
0
0
0
0
0
0
0
0
0
0
0
0
0
0
0
0
0
0
0
0
0
0
0
0
0
0
0
0
0
0
0
0
0
0
0
0
0
0
0
0
0
0
0
0
0
0
0
0
0
0
0
0
0
0
0
0
0
0
0
0
0
0
0
0
0
0
0
0
0
0
0
0
0
0
0
0
0
0
0
0
0
0
0
0
0
0
0
0
0
0
0
0
0
0
0
0
0
0
0
0
0
0
0
0
0
0
0
0
0
0
0
0
0
0
0
0
0
0
0
0
0
0
0
0
0
0
0
0
0
0
0
0
0
0
0
0
0
0
0
0
0
0
0
0
0
0
0
0
0
0
0
0
0
0
0
0
0
0
0
0
0
0
0
0
0
0
0
0
0
0
0
0
0
0
0
0
0
0
0
0
0
0
0
0
0
0
0
0
0
0
0
0
0
0
0
0
0
0
0
0
0
0
0
0
0
0
0
0
0
0
0
0
0
0
0
0
0
0
0
0
0
0
0
0
0
0
0
0
0
0
0
0
0
0
0
0
0
0
0
0
0
0
0
0
0
254
254
254
254
254
253
253
250
161
127
128
130
132
136
159
164
165
166
164
164
163
162
162
162
162
162
164
165
165
165
163
163
163
164
164
164
164
163
163
164
163
163
163
162
161
140
134
132
125
125
124
173
230
231
229
228
228
232
231
230
228
231
229
231
231
229
232
229
229
229
229
231
230
233
169
152
123
127
128
131
133
135
160
162
163
163
164
164
164
164
164
164
164
164
164
164
164
164
164
164
162
162
162
164
164
164
164
163
163
163
164
164
164
164
164
164
163
163
165
165
164
169
165
165
165
164
164
164
163
164
165
165
164
162
155
156
138
129
129
129
130
129
129
128
138
146
232
229
229
230
229
241
250
253
254
254
255
254
255
255
253
254
254
254
252
253
254
239
203
239
166
153
180
156
156
157
154
153
159
159
157
159
158
158
161
158
160
157
159
157
156
159
156
156
156
155
193
154
179
218
250
241
249
252
250
253
253
251
254
255
254
255
254
254
254
255
255
255
254
254
255
255
255
255
254
254
254
254
255
255
254
255
255
255
254
254
255
255
255
254
254
255
255
254
254
254
254
255
254
254
254
254
254
254
254
254
253
254
249
246
229
229
228
185
92
99
99
102
102
102
103
102
127
124
137
138
138
137
140
136
137
137
138
137
137
137
136
124
129
103
103
101
101
101
101
101
102
94
170
198
228
227
234
243
255
254
255
255
254
255
254
255
254
0
0
0
0
0
0
0
0
0
0
0
0
0
0
0
0
0
0
0
0
0
0
0
0
0
0
0
0
0
0
0
0
0
0
0
0
0
0
0
0
0
0
0
0
0
0
0
0
0
0
0
0
0
0
0
0
0
0
0
0
0
0
0
0
0
0
0
0
0
0
0
0
0
0
0
0
0
0
0
0
0
0
0
0
0
0
0
0
0
0
0
0
0
0
0
0
0
0
0
0
0
0
0
0
0
0
0
0
0
0
0
0
0
0
0
0
0
0
0
0
0
0
0
0
0
0
0
0
0
0
0
0
0
0
0
0
0
0
0
0
0
0
0
0
0
0
0
0
0
0
0
0
0
0
0
0
0
0
0
0
0
0
0
0
0
0
0
0
0
0
0
0
0
0
0
0
0
0
0
0
0
0
0
0
0
0
0
0
0
0
0
0
0
0
0
0
0
0
0
0
0
0
0
0
0
0
0
0
0
0
0
0
0
0
0
0
0
0
0
0
0
0
0
0
0
0
0
0
0
0
0
0
0
0
0
0
0
0
0
0
0
0
0
0
0
0
0
0
0
0
0
0
0
0
0
0
0
254
254
255
255
255
254
254
254
177
124
126
126
124
146
146
163
165
164
164
164
162
162
162
162
162
163
164
165
165
163
163
163
163
164
164
164
164
162
162
163
163
164
163
160
148
148
131
128
128
125
166
232
232
227
232
232
229
228
229
229
226
230
230
230
227
227
229
228
229
229
227
230
230
231
231
139
139
122
129
129
133
141
150
160
162
164
164
164
164
164
164
164
164
164
164
164
164
164
164
163
163
162
164
164
165
164
164
164
163
163
163
164
164
164
163
162
163
163
163
165
165
165
165
165
165
165
164
164
163
163
163
163
162
151
151
136
130
130
129
129
129
129
128
130
130
230
229
229
230
231
235
235
253
253
253
255
253
253
255
254
252
252
253
252
252
243
203
162
162
153
157
157
155
159
157
157
159
164
164
161
160
156
160
158
159
159
161
160
160
163
154
158
158
159
157
157
161
156
156
155
165
194
194
227
248
248
251
252
253
253
255
255
255
255
255
255
255
255
254
254
254
255
255
255
255
254
254
255
255
255
255
254
255
255
254
254
254
255
255
254
254
254
254
254
255
254
254
254
255
254
254
254
254
254
254
254
253
253
254
243
243
229
227
227
180
93
99
99
102
102
102
103
102
121
121
136
138
138
136
137
138
137
138
136
136
137
121
121
103
103
102
102
101
101
101
103
93
144
159
229
228
228
234
253
253
255
254
254
254
254
253
253
0
0
0
0
0
0
0
0
0
0
0
0
0
0
0
0
0
0
0
0
0
0
0
0
0
0
0
0
0
0
0
0
0
0
0
0
0
0
0
0
0
0
0
0
0
0
0
0
0
0
0
0
0
0
0
0
0
0
0
0
0
0
0
0
0
0
0
0
0
0
0
0
0
0
0
0
0
0
0
0
0
0
0
0
0
0
0
0
0
0
0
0
0
0
0
0
0
0
0
0
0
0
0
0
0
0
0
0
0
0
0
0
0
0
0
0
0
0
0
0
0
0
0
0
0
0
0
0
0
0
0
0
0
0
0
0
0
0
0
0
0
0
0
0
0
0
0
0
0
0
0
0
0
0
0
0
0
0
0
0
0
0
0
0
0
0
0
0
0
0
0
0
0
0
0
0
0
0
0
0
0
0
0
0
0
0
0
0
0
0
0
0
0
0
0
0
0
0
0
0
0
0
0
0
0
0
0
0
0
0
0
0
0
0
0
0
0
0
0
0
0
0
0
0
0
0
0
0
0
0
0
0
0
0
0
0
0
0
0
0
0
0
0
0
0
0
0
0
0
0
0
0
0
0
0
0
0
0
254
254
253
253
255
254
254
250
210
125
127
132
128
134
160
161
165
165
164
163
163
163
163
162
163
164
164
164
163
163
163
163
164
165
165
164
163
163
163
164
163
164
164
157
155
131
130
130
125
132
233
232
229
228
232
228
230
231
229
233
229
231
226
242
233
232
245
244
233
230
238
230
227
229
231
231
126
122
124
128
128
135
150
158
163
162
164
165
164
164
164
164
164
164
164
164
163
163
163
163
162
163
163
164
164
164
164
164
161
162
163
163
164
163
163
162
162
163
162
164
165
165
165
165
165
163
164
162
162
162
163
157
145
149
134
130
131
129
129
129
129
130
124
124
230
230
230
229
229
229
230
253
253
253
255
254
254
253
255
251
251
251
230
247
211
155
160
151
157
156
156
158
161
159
158
159
159
158
157
159
158
156
159
158
162
158
155
161
156
159
159
159
160
156
162
156
160
159
156
156
159
152
155
157
178
227
182
230
253
253
253
255
255
255
254
255
254
254
255
255
255
254
255
255
255
254
254
254
255
255
255
255
254
255
255
254
254
254
254
254
255
254
254
255
255
255
254
254
254
255
254
254
254
254
255
254
254
253
254
254
241
238
230
227
226
172
94
99
99
102
102
102
102
102
119
118
136
136
136
137
138
136
137
137
137
113
117
102
102
100
103
101
102
100
104
96
134
144
226
228
229
228
235
244
255
255
255
255
255
255
255
0
0
0
0
0
0
0
0
0
0
0
0
0
0
0
0
0
0
0
0
0
0
0
0
0
0
0
0
0
0
0
0
0
0
0
0
0
0
0
0
0
0
0
0
0
0
0
0
0
0
0
0
0
0
0
0
0
0
0
0
0
0
0
0
0
0
0
0
0
0
0
0
0
0
0
0
0
0
0
0
0
0
0
0
0
0
0
0
0
0
0
0
0
0
0
0
0
0
0
0
0
0
0
0
0
0
0
0
0
0
0
0
0
0
0
0
0
0
0
0
0
0
0
0
0
0
0
0
0
0
0
0
0
0
0
0
0
0
0
0
0
0
0
0
0
0
0
0
0
0
0
0
0
0
0
0
0
0
0
0
0
0
0
0
0
0
0
0
0
0
0
0
0
0
0
0
0
0
0
0
0
0
0
0
0
0
0
0
0
0
0
0
0
0
0
0
0
0
0
0
0
0
0
0
0
0
0
0
0
0
0
0
0
0
0
0
0
0
0
0
0
0
0
0
0
0
0
0
0
0
0
0
0
0
0
0
0
0
0
0
0
0
0
0
0
0
0
0
0
0
0
0
0
0
0
0
0
0
0
254
254
254
253
254
254
255
251
133
133
127
127
128
133
158
163
163
164
163
163
163
163
163
164
164
164
164
164
164
163
164
164
165
165
165
164
163
164
164
164
164
162
160
160
137
129
130
128
123
229
229
226
230
228
230
227
231
231
229
233
233
246
247
242
253
253
253
253
254
253
238
247
236
233
233
235
191
122
125
128
130
130
137
162
162
163
166
165
165
164
164
164
164
164
164
164
163
162
162
163
163
163
163
162
164
163
162
163
163
162
163
163
163
163
162
162
162
164
162
163
164
165
164
164
164
164
163
162
162
162
158
141
141
130
130
130
129
129
128
128
130
123
123
228
230
230
229
229
230
230
249
255
253
255
255
254
254
254
252
252
243
199
230
156
158
156
156
159
161
156
160
160
160
160
159
161
159
159
158
160
160
164
167
167
171
171
155
172
166
161
161
156
161
156
159
157
155
155
162
157
157
158
156
157
161
155
157
157
196
245
253
251
254
255
255
254
254
254
255
254
255
255
254
255
255
255
254
254
254
255
255
255
255
254
255
255
254
254
254
255
255
255
255
254
255
255
255
254
254
254
255
254
254
254
255
255
254
254
254
254
254
238
236
232
226
226
168
93
99
99
103
102
102
102
101
118
113
137
138
138
135
137
137
131
110
113
102
102
101
101
102
103
102
101
95
133
133
229
228
228
229
230
235
248
255
254
254
255
254
255
0
0
0
0
0
0
0
0
0
0
0
0
0
0
0
0
0
0
0
0
0
0
0
0
0
0
0
0
0
0
0
0
0
0
0
0
0
0
0
0
0
0
0
0
0
0
0
0
0
0
0
0
0
0
0
0
0
0
0
0
0
0
0
0
0
0
0
0
0
0
0
0
0
0
0
0
0
0
0
0
0
0
0
0
0
0
0
0
0
0
0
0
0
0
0
0
0
0
0
0
0
0
0
0
0
0
0
0
0
0
0
0
0
0
0
0
0
0
0
0
0
0
0
0
0
0
0
0
0
0
0
0
0
0
0
0
0
0
0
0
0
0
0
0
0
0
0
0
0
0
0
0
0
0
0
0
0
0
0
0
0
0
0
0
0
0
0
0
0
0
0
0
0
0
0
0
0
0
0
0
0
0
0
0
0
0
0
0
0
0
0
0
0
0
0
0
0
0
0
0
0
0
0
0
0
0
0
0
0
0
0
0
0
0
0
0
0
0
0
0
0
0
0
0
0
0
0
0
0
0
0
0
0
0
0
0
0
0
0
0
0
0
0
0
0
0
0
0
0
0
0
0
0
0
0
0
0
0
0
0
254
255
255
255
254
254
255
248
236
122
129
131
125
133
151
163
166
166
163
163
164
164
164
164
165
164
165
165
164
164
164
165
165
165
165
164
164
164
164
164
163
163
162
143
132
130
129
123
165
210
232
228
231
231
231
231
230
231
254
246
253
255
253
254
253
253
254
254
253
255
254
254
254
239
226
233
228
152
128
128
128
132
132
149
164
164
165
165
164
164
164
164
164
164
164
164
164
163
163
165
164
164
164
162
162
161
164
165
164
164
164
163
163
163
163
162
160
162
164
163
163
164
164
165
164
163
161
163
161
154
133
137
129
132
130
129
129
128
128
130
121
121
229
230
230
229
230
230
231
242
255
255
253
254
253
254
254
248
250
228
156
170
157
157
159
158
158
160
159
160
157
158
157
159
179
159
167
180
208
192
198
206
200
200
208
202
200
200
206
196
189
208
177
168
160
180
160
158
161
158
159
158
159
160
159
156
158
155
159
168
228
251
247
253
254
254
254
254
255
255
255
255
254
254
255
255
255
254
254
255
255
255
255
255
254
255
255
255
254
254
255
255
255
254
254
254
254
255
254
254
254
255
255
255
255
255
254
253
253
254
254
254
236
235
230
227
227
163
93
99
99
103
102
102
101
103
111
108
131
138
127
136
124
103
107
103
102
102
102
102
101
101
101
95
146
137
228
227
227
229
229
230
237
255
255
254
255
255
254
0
0
0
0
0
0
0
0
0
0
0
0
0
0
0
0
0
0
0
0
0
0
0
0
0
0
0
0
0
0
0
0
0
0
0
0
0
0
0
0
0
0
0
0
0
0
0
0
0
0
0
0
0
0
0
0
0
0
0
0
0
0
0
0
0
0
0
0
0
0
0
0
0
0
0
0
0
0
0
0
0
0
0
0
0
0
0
0
0
0
0
0
0
0
0
0
0
0
0
0
0
0
0
0
0
0
0
0
0
0
0
0
0
0
0
0
0
0
0
0
0
0
0
0
0
0
0
0
0
0
0
0
0
0
0
0
0
0
0
0
0
0
0
0
0
0
0
0
0
0
0
0
0
0
0
0
0
0
0
0
0
0
0
0
0
0
0
0
0
0
0
0
0
0
0
0
0
0
0
0
0
0
0
0
0
0
0
0
0
0
0
0
0
0
0
0
0
0
0
0
0
0
0
0
0
0
0
0
0
0
0
0
0
0
0
0
0
0
0
0
0
0
0
0
0
0
0
0
0
0
0
0
0
0
0
0
0
0
0
0
0
0
0
0
0
0
0
0
0
0
0
0
0
0
0
0
0
0
0
0
0
254
254
252
255
255
255
253
248
248
122
129
127
129
134
151
158
163
166
165
164
163
165
165
165
165
165
165
165
164
164
165
165
165
165
165
165
165
164
164
164
163
163
157
138
132
132
127
127
165
234
232
228
232
230
230
231
243
254
254
254
255
255
255
254
254
253
254
253
253
254
253
255
254
255
246
233
228
210
120
128
128
127
132
139
162
164
163
166
164
164
163
163
164
164
165
165
164
165
165
165
165
165
164
163
162
163
164
166
166
164
162
159
161
163
163
161
160
162
163
162
162
165
166
165
161
156
161
149
137
132
133
130
130
132
127
129
128
128
125
125
121
230
228
230
230
229
226
230
234
254
255
253
255
253
253
251
244
248
183
155
156
156
158
161
159
160
158
160
159
159
173
158
190
202
179
208
208
206
208
208
209
206
207
209
208
209
210
209
206
208
209
208
207
210
207
180
200
184
161
168
161
158
158
156
160
156
157
158
159
160
155
169
247
236
250
254
254
255
253
255
255
255
254
254
255
255
255
254
255
255
255
255
255
255
255
254
255
255
254
254
254
254
255
255
254
254
254
255
255
254
254
255
255
255
255
255
254
254
254
254
254
254
253
235
232
231
227
226
167
93
99
99
103
102
101
100
103
108
107
111
127
105
101
103
102
103
103
102
101
101
101
103
93
154
146
226
227
227
229
229
229
232
252
255
255
253
255
255
0
0
0
0
0
0
0
0
0
0
0
0
0
0
0
0
0
0
0
0
0
0
0
0
0
0
0
0
0
0
0
0
0
0
0
0
0
0
0
0
0
0
0
0
0
0
0
0
0
0
0
0
0
0
0
0
0
0
0
0
0
0
0
0
0
0
0
0
0
0
0
0
0
0
0
0
0
0
0
0
0
0
0
0
0
0
0
0
0
0
0
0
0
0
0
0
0
0
0
0
0
0
0
0
0
0
0
0
0
0
0
0
0
0
0
0
0
0
0
0
0
0
0
0
0
0
0
0
0
0
0
0
0
0
0
0
0
0
0
0
0
0
0
0
0
0
0
0
0
0
0
0
0
0
0
0
0
0
0
0
0
0
0
0
0
0
0
0
0
0
0
0
0
0
0
0
0
0
0
0
0
0
0
0
0
0
0
0
0
0
0
0
0
0
0
0
0
0
0
0
0
0
0
0
0
0
0
0
0
0
0
0
0
0
0
0
0
0
0
0
0
0
0
0
0
0
0
0
0
0
0
0
0
0
0
0
0
0
0
0
0
0
0
0
0
0
0
0
0
0
0
0
0
0
0
0
0
0
0
0
0
0
255
255
255
255
251
254
252
253
195
195
125
126
128
129
144
164
164
163
162
162
166
166
165
165
165
165
165
163
163
163
164
165
165
165
165
164
164
164
165
163
163
161
146
146
129
128
126
125
217
228
228
226
229
234
233
250
254
254
253
255
255
254
254
255
254
254
255
255
255
255
253
254
254
253
253
246
230
233
144
128
128
128
129
152
152
163
164
166
163
163
162
162
163
164
164
165
165
165
165
165
166
166
165
163
161
162
166
167
167
162
160
143
158
161
159
159
162
163
163
163
164
159
159
156
150
150
137
133
130
131
133
130
130
130
128
126
126
126
132
132
231
228
228
229
230
230
227
232
254
254
254
255
253
253
250
233
233
164
157
157
157
160
157
161
161
158
158
160
166
206
193
206
207
207
206
208
209
210
210
212
212
212
213
213
208
209
224
205
211
212
212
209
211
211
210
210
209
209
205
186
186
165
158
158
160
159
156
156
157
156
156
160
156
217
217
251
253
253
255
254
255
255
255
254
254
255
255
255
255
255
255
255
255
255
255
255
254
255
255
255
254
254
254
255
255
254
254
255
255
255
255
255
255
255
255
255
255
255
255
255
255
254
254
253
230
230
231
227
227
172
93
99
99
104
100
104
105
107
98
98
101
101
101
103
103
101
102
103
101
101
103
92
184
169
227
229
229
229
229
229
229
246
254
254
255
255
255
0
0
0
0
0
0
0
0
0
0
0
0
0
0
0
0
0
0
0
0
0
0
0
0
0
0
0
0
0
0
0
0
0
0
0
0
0
0
0
0
0
0
0
0
0
0
0
0
0
0
0
0
0
0
0
0
0
0
0
0
0
0
0
0
0
0
0
0
0
0
0
0
0
0
0
0
0
0
0
0
0
0
0
0
0
0
0
0
0
0
0
0
0
0
0
0
0
0
0
0
0
0
0
0
0
0
0
0
0
0
0
0
0
0
0
0
0
0
0
0
0
0
0
0
0
0
0
0
0
0
0
0
0
0
0
0
0
0
0
0
0
0
0
0
0
0
0
0
0
0
0
0
0
0
0
0
0
0
0
0
0
0
0
0
0
0
0
0
0
0
0
0
0
0
0
0
0
0
0
0
0
0
0
0
0
0
0
0
0
0
0
0
0
0
0
0
0
0
0
0
0
0
0
0
0
0
0
0
0
0
0
0
0
0
0
0
0
0
0
0
0
0
0
0
0
0
0
0
0
0
0
0
0
0
0
0
0
0
0
0
0
0
0
0
0
0
0
0
0
0
0
0
0
0
0
0
0
0
0
0
0
0
0
254
253
254
255
254
254
255
254
251
126
124
130
128
129
136
156
166
162
163
162
163
163
166
165
164
165
163
162
162
163
163
164
165
165
164
165
164
164
164
164
161
160
155
135
129
130
126
123
230
233
229
230
235
234
255
253
255
253
254
255
254
254
255
255
255
255
255
254
254
255
253
250
255
252
255
255
247
233
179
127
125
128
127
136
163
164
165
166
164
162
161
162
162
162
164
164
164
165
165
165
166
166
174
163
161
163
166
166
163
163
132
143
133
135
147
151
136
151
153
138
140
151
144
135
136
130
129
129
130
127
127
131
131
127
127
126
125
149
141
231
229
228
229
229
230
230
231
252
254
255
253
252
253
249
201
217
159
157
156
158
157
157
157
159
156
157
164
202
207
206
209
211
208
210
209
215
209
221
223
218
220
221
222
224
219
222
224
220
223
219
219
221
222
211
221
215
207
208
209
211
205
208
201
158
170
158
160
157
160
159
156
161
154
155
196
175
250
253
252
255
254
255
255
255
254
253
254
255
255
255
254
254
254
255
255
255
255
254
254
255
255
255
255
254
255
255
254
254
255
255
255
255
255
254
254
255
255
255
255
254
255
255
255
255
253
229
231
229
227
227
178
92
99
99
101
104
102
103
102
100
102
100
101
100
101
101
102
102
104
103
98
204
184
227
228
230
229
230
230
229
238
253
254
255
255
255
0
0
0
0
0
0
0
0
0
0
0
0
0
0
0
0
0
0
0
0
0
0
0
0
0
0
0
0
0
0
0
0
0
0
0
0
0
0
0
0
0
0
0
0
0
0
0
0
0
0
0
0
0
0
0
0
0
0
0
0
0
0
0
0
0
0
0
0
0
0
0
0
0
0
0
0
0
0
0
0
0
0
0
0
0
0
0
0
0
0
0
0
0
0
0
0
0
0
0
0
0
0
0
0
0
0
0
0
0
0
0
0
0
0
0
0
0
0
0
0
0
0
0
0
0
0
0
0
0
0
0
0
0
0
0
0
0
0
0
0
0
0
0
0
0
0
0
0
0
0
0
0
0
0
0
0
0
0
0
0
0
0
0
0
0
0
0
0
0
0
0
0
0
0
0
0
0
0
0
0
0
0
0
0
0
0
0
0
0
0
0
0
0
0
0
0
0
0
0
0
0
0
0
0
0
0
0
0
0
0
0
0
0
0
0
0
0
0
0
0
0
0
0
0
0
0
0
0
0
0
0
0
0
0
0
0
0
0
0
0
0
0
0
0
0
0
0
0
0
0
0
0
0
0
0
0
0
0
0
0
0
0
0
0
254
255
254
252
252
254
255
255
252
158
124
124
126
130
130
145
161
162
161
163
165
165
164
163
164
162
162
162
162
162
164
164
164
163
163
163
164
164
164
162
162
160
152
130
131
131
125
182
182
225
228
233
233
250
254
254
255
254
254
255
254
255
255
255
255
255
255
254
254
254
255
251
251
255
254
252
252
242
123
123
130
128
127
129
156
161
161
165
162
162
162
163
162
162
163
164
164
163
163
165
165
176
170
170
163
165
165
164
161
133
133
132
130
130
128
129
136
129
133
131
131
132
131
135
128
127
125
125
127
127
127
128
128
125
125
121
168
168
234
230
229
230
230
229
229
231
251
251
254
252
254
254
248
187
187
155
158
157
159
159
161
161
161
164
164
199
204
208
208
210
207
207
208
214
222
222
223
221
221
223
222
221
222
224
220
220
223
222
222
218
223
221
221
221
221
221
221
218
209
211
209
205
205
208
188
188
160
159
160
160
158
162
162
160
158
175
164
237
251
251
255
254
255
254
255
254
254
254
255
255
255
254
255
255
255
255
255
254
254
255
255
255
255
255
254
255
255
255
255
255
255
255
255
255
254
255
255
255
254
254
254
255
254
255
254
252
232
232
228
226
226
185
92
97
97
99
104
104
100
103
102
101
102
102
102
101
99
99
96
110
221
221
229
229
229
230
230
230
229
236
254
254
255
255
255
0
0
0
0
0
0
0
0
0
0
0
0
0
0
0
0
0
0
0
0
0
0
0
0
0
0
0
0
0
0
0
0
0
0
0
0
0
0
0
0
0
0
0
0
0
0
0
0
0
0
0
0
0
0
0
0
0
0
0
0
0
0
0
0
0
0
0
0
0
0
0
0
0
0
0
0
0
0
0
0
0
0
0
0
0
0
0
0
0
0
0
0
0
0
0
0
0
0
0
0
0
0
0
0
0
0
0
0
0
0
0
0
0
0
0
0
0
0
0
0
0
0
0
0
0
0
0
0
0
0
0
0
0
0
0
0
0
0
0
0
0
0
0
0
0
0
0
0
0
0
0
0
0
0
0
0
0
0
0
0
0
0
0
0
0
0
0
0
0
0
0
0
0
0
0
0
0
0
0
0
0
0
0
0
0
0
0
0
0
0
0
0
0
0
0
0
0
0
0
0
0
0
0
0
0
0
0
0
0
0
0
0
0
0
0
0
0
0
0
0
0
0
0
0
0
0
0
0
0
0
0
0
0
0
0
0
0
0
0
0
0
0
0
0
0
0
0
0
0
0
0
0
0
0
0
0
0
0
0
0
0
0
0
0
0
254
255
255
254
255
255
253
254
253
209
123
128
128
131
133
140
156
160
161
163
161
164
165
164
163
162
162
162
162
163
163
164
164
163
163
163
163
163
164
164
163
159
138
130
131
126
123
121
232
229
230
229
254
254
254
255
255
255
254
254
255
255
255
253
254
254
254
255
254
254
254
255
252
255
249
255
254
252
217
126
128
125
130
141
156
163
162
164
163
164
164
164
164
162
163
163
163
162
162
164
170
176
178
165
162
164
164
163
152
140
131
132
131
127
126
128
130
131
131
130
130
131
129
130
128
128
126
127
130
129
130
131
125
126
120
212
188
231
230
231
229
230
230
230
230
246
248
255
254
251
253
247
170
178
156
159
160
159
159
159
157
158
193
182
206
208
208
210
210
210
209
214
222
223
220
220
225
221
224
223
223
223
223
222
221
223
223
222
224
222
222
223
221
222
221
219
221
221
222
216
223
215
207
211
210
203
207
181
157
159
159
158
160
160
158
157
154
153
227
250
250
254
254
254
255
253
255
255
254
255
255
255
254
255
255
255
254
254
254
254
255
255
255
255
254
254
255
255
255
255
255
255
255
255
255
255
255
255
255
254
254
254
254
255
252
252
251
231
230
229
229
227
205
92
98
96
103
103
102
100
102
104
102
99
102
96
98
93
166
227
228
230
229
229
231
230
229
229
234
253
254
255
254
254
0
0
0
0
0
0
0
0
0
0
0
0
0
0
0
0
0
0
0
0
0
0
0
0
0
0
0
0
0
0
0
0
0
0
0
0
0
0
0
0
0
0
0
0
0
0
0
0
0
0
0
0
0
0
0
0
0
0
0
0
0
0
0
0
0
0
0
0
0
0
0
0
0
0
0
0
0
0
0
0
0
0
0
0
0
0
0
0
0
0
0
0
0
0
0
0
0
0
0
0
0
0
0
0
0
0
0
0
0
0
0
0
0
0
0
0
0
0
0
0
0
0
0
0
0
0
0
0
0
0
0
0
0
0
0
0
0
0
0
0
0
0
0
0
0
0
0
0
0
0
0
0
0
0
0
0
0
0
0
0
0
0
0
0
0
0
0
0
0
0
0
0
0
0
0
0
0
0
0
0
0
0
0
0
0
0
0
0
0
0
0
0
0
0
0
0
0
0
0
0
0
0
0
0
0
0
0
0
0
0
0
0
0
0
0
0
0
0
0
0
0
0
0
0
0
0
0
0
0
0
0
0
0
0
0
0
0
0
0
0
0
0
0
0
0
0
0
0
0
0
0
0
0
0
0
0
0
0
0
0
0
0
0
0
0
0
254
254
255
255
255
255
252
252
252
252
138
125
128
133
132
140
148
162
164
163
163
165
165
164
163
163
162
162
163
163
164
164
163
163
162
162
163
163
165
164
163
160
136
130
134
131
123
122
229
232
232
246
252
254
254
254
255
255
255
254
255
255
253
253
254
254
255
255
255
254
254
253
253
255
255
255
253
252
237
127
128
127
128
137
156
162
163
164
165
165
164
164
164
163
163
164
164
162
162
163
169
176
182
170
162
165
164
160
160
138
129
132
130
130
126
125
125
127
131
128
130
131
128
128
130
128
125
129
130
124
125
120
120
149
227
212
229
229
230
228
229
230
230
229
247
246
255
253
253
253
248
164
170
158
159
159
159
159
160
159
168
203
193
208
209
208
208
208
210
210
219
223
221
221
221
221
225
221
222
223
222
222
220
222
222
222
223
221
221
220
220
222
223
222
223
223
221
222
223
221
223
221
219
211
215
208
208
208
194
161
159
159
158
160
159
160
161
153
156
202
250
249
252
253
255
255
254
255
254
255
255
255
255
255
255
254
254
254
255
254
254
255
255
255
254
254
255
255
255
255
254
255
255
255
255
255
255
255
255
255
254
254
254
255
255
252
254
248
230
229
228
226
226
216
112
96
95
98
102
99
103
102
102
103
98
96
101
191
226
226
229
230
229
230
230
230
230
231
253
253
254
254
254
0
0
0
0
0
0
0
0
0
0
0
0
0
0
0
0
0
0
0
0
0
0
0
0
0
0
0
0
0
0
0
0
0
0
0
0
0
0
0
0
0
0
0
0
0
0
0
0
0
0
0
0
0
0
0
0
0
0
0
0
0
0
0
0
0
0
0
0
0
0
0
0
0
0
0
0
0
0
0
0
0
0
0
0
0
0
0
0
0
0
0
0
0
0
0
0
0
0
0
0
0
0
0
0
0
0
0
0
0
0
0
0
0
0
0
0
0
0
0
0
0
0
0
0
0
0
0
0
0
0
0
0
0
0
0
0
0
0
0
0
0
0
0
0
0
0
0
0
0
0
0
0
0
0
0
0
0
0
0
0
0
0
0
0
0
0
0
0
0
0
0
0
0
0
0
0
0
0
0
0
0
0
0
0
0
0
0
0
0
0
0
0
0
0
0
0
0
0
0
0
0
0
0
0
0
0
0
0
0
0
0
0
0
0
0
0
0
0
0
0
0
0
0
0
0
0
0
0
0
0
0
0
0
0
0
0
0
0
0
0
0
0
0
0
0
0
0
0
0
0
0
0
0
0
0
0
0
0
0
0
0
0
0
0
0
0
0
254
254
254
255
255
255
255
254
252
249
194
120
128
126
126
134
156
161
160
162
164
164
164
164
164
163
163
163
163
165
165
165
164
162
162
162
162
164
164
163
164
160
151
128
128
128
127
186
229
232
240
254
254
255
254
254
254
255
255
255
254
255
255
254
255
255
255
255
254
255
253
254
252
253
251
253
253
252
156
156
125
131
126
131
151
163
163
165
165
164
164
164
164
164
163
164
164
164
164
164
165
177
180
180
164
165
164
159
152
136
131
128
125
125
128
128
131
127
129
128
128
130
126
130
130
131
132
132
125
123
146
127
181
229
230
229
229
229
230
232
227
230
229
247
247
255
254
253
253
246
159
158
156
159
159
159
160
159
159
175
206
206
209
212
209
209
209
213
211
221
221
222
221
220
223
222
223
222
222
222
223
222
222
221
221
221
220
221
223
221
222
223
221
222
223
223
224
221
223
222
224
220
220
222
219
221
209
209
209
202
164
158
158
159
159
158
159
161
156
156
192
248
249
253
253
254
254
254
254
254
254
255
255
255
254
254
254
255
255
255
254
254
255
255
255
255
255
255
255
255
254
254
255
255
255
255
255
255
255
254
254
254
254
254
255
255
255
255
249
230
231
228
228
229
223
145
94
94
99
96
92
96
94
94
94
134
217
228
228
229
229
230
230
229
229
230
233
255
254
253
254
254
0
0
0
0
0
0
0
0
0
0
0
0
0
0
0
0
0
0
0
0
0
0
0
0
0
0
0
0
0
0
0
0
0
0
0
0
0
0
0
0
0
0
0
0
0
0
0
0
0
0
0
0
0
0
0
0
0
0
0
0
0
0
0
0
0
0
0
0
0
0
0
0
0
0
0
0
0
0
0
0
0
0
0
0
0
0
0
0
0
0
0
0
0
0
0
0
0
0
0
0
0
0
0
0
0
0
0
0
0
0
0
0
0
0
0
0
0
0
0
0
0
0
0
0
0
0
0
0
0
0
0
0
0
0
0
0
0
0
0
0
0
0
0
0
0
0
0
0
0
0
0
0
0
0
0
0
0
0
0
0
0
0
0
0
0
0
0
0
0
0
0
0
0
0
0
0
0
0
0
0
0
0
0
0
0
0
0
0
0
0
0
0
0
0
0
0
0
0
0
0
0
0
0
0
0
0
0
0
0
0
0
0
0
0
0
0
0
0
0
0
0
0
0
0
0
0
0
0
0
0
0
0
0
0
0
0
0
0
0
0
0
0
0
0
0
0
0
0
0
0
0
0
0
0
0
0
0
0
0
0
0
0
0
0
0
0
0
0
254
254
254
254
255
255
253
254
254
251
194
131
127
128
127
131
143
161
161
163
163
163
163
164
164
164
164
164
165
165
165
165
163
162
162
162
163
164
165
164
161
160
152
132
131
128
128
157
229
229
252
254
254
254
255
254
254
254
255
255
255
254
255
254
255
255
254
254
254
254
255
253
252
253
253
253
252
251
248
122
129
131
126
130
146
162
164
164
164
164
164
164
164
164
163
163
165
166
164
164
166
178
182
173
168
164
164
161
155
136
131
129
127
125
128
127
131
129
128
126
124
126
129
130
128
126
124
130
127
189
146
230
230
229
229
231
230
232
229
228
227
232
247
247
255
255
251
253
246
159
159
158
158
159
158
159
159
159
189
208
207
210
211
209
209
208
211
213
222
224
221
222
224
221
223
221
221
221
222
218
220
222
218
218
222
221
220
220
223
222
223
223
223
223
222
222
222
222
223
222
222
223
221
223
220
221
222
219
209
209
208
171
160
160
158
158
159
158
160
157
156
183
249
248
253
253
255
255
255
254
255
254
255
255
255
254
254
254
255
255
255
255
254
254
255
255
255
255
255
255
255
255
255
255
255
255
255
254
254
254
254
254
254
254
254
254
254
254
254
249
231
231
229
229
229
229
188
111
177
141
92
146
186
116
188
225
231
228
230
230
229
229
230
230
229
236
254
255
255
254
254
0
0
0
0
0
0
0
0
0
0
0
0
0
0
0
0
0
0
0
0
0
0
0
0
0
0
0
0
0
0
0
0
0
0
0
0
0
0
0
0
0
0
0
0
0
0
0
0
0
0
0
0
0
0
0
0
0
0
0
0
0
0
0
0
0
0
0
0
0
0
0
0
0
0
0
0
0
0
0
0
0
0
0
0
0
0
0
0
0
0
0
0
0
0
0
0
0
0
0
0
0
0
0
0
0
0
0
0
0
0
0
0
0
0
0
0
0
0
0
0
0
0
0
0
0
0
0
0
0
0
0
0
0
0
0
0
0
0
0
0
0
0
0
0
0
0
0
0
0
0
0
0
0
0
0
0
0
0
0
0
0
0
0
0
0
0
0
0
0
0
0
0
0
0
0
0
0
0
0
0
0
0
0
0
0
0
0
0
0
0
0
0
0
0
0
0
0
0
0
0
0
0
0
0
0
0
0
0
0
0
0
0
0
0
0
0
0
0
0
0
0
0
0
0
0
0
0
0
0
0
0
0
0
0
0
0
0
0
0
0
0
0
0
0
0
0
0
0
0
0
0
0
0
0
0
0
0
0
0
0
0
0
0
0
0
0
0
0
0
254
255
255
254
254
255
255
255
253
253
243
124
124
127
126
132
132
158
163
163
164
163
163
163
164
164
164
164
165
165
165
164
162
162
162
163
163
164
165
160
160
164
135
135
131
125
123
123
225
246
246
255
254
254
254
254
253
253
254
255
255
254
255
255
255
254
254
254
254
254
255
255
253
254
254
254
254
254
249
121
124
124
128
134
134
161
163
164
164
164
164
164
164
164
164
163
165
166
166
165
173
173
184
177
165
165
165
164
164
137
130
130
126
132
129
129
126
126
126
125
123
127
127
121
120
120
132
173
225
225
231
231
231
230
231
231
228
229
229
229
230
251
251
255
254
251
251
246
160
160
156
159
159
159
160
158
158
194
208
208
209
210
209
209
210
210
210
217
224
222
221
223
218
218
217
213
213
213
211
211
211
214
211
211
213
213
212
212
217
218
218
219
222
222
223
222
222
222
222
223
223
224
221
224
224
220
222
222
220
208
208
208
186
158
158
159
159
159
159
159
158
158
180
248
248
254
252
255
255
255
255
255
254
255
255
255
254
254
254
255
255
255
255
255
255
255
255
255
255
255
255
255
255
255
254
254
255
254
254
254
255
254
254
254
254
254
254
254
253
253
250
230
230
229
228
228
230
228
225
225
223
225
225
225
229
227
227
226
230
230
229
229
229
229
238
254
254
254
255
255
0
0
0
0
0
0
0
0
0
0
0
0
0
0
0
0
0
0
0
0
0
0
0
0
0
0
0
0
0
0
0
0
0
0
0
0
0
0
0
0
0
0
0
0
0
0
0
0
0
0
0
0
0
0
0
0
0
0
0
0
0
0
0
0
0
0
0
0
0
0
0
0
0
0
0
0
0
0
0
0
0
0
0
0
0
0
0
0
0
0
0
0
0
0
0
0
0
0
0
0
0
0
0
0
0
0
0
0
0
0
0
0
0
0
0
0
0
0
0
0
0
0
0
0
0
0
0
0
0
0
0
0
0
0
0
0
0
0
0
0
0
0
0
0
0
0
0
0
0
0
0
0
0
0
0
0
0
0
0
0
0
0
0
0
0
0
0
0
0
0
0
0
0
0
0
0
0
0
0
0
0
0
0
0
0
0
0
0
0
0
0
0
0
0
0
0
0
0
0
0
0
0
0
0
0
0
0
0
0
0
0
0
0
0
0
0
0
0
0
0
0
0
0
0
0
0
0
0
0
0
0
0
0
0
0
0
0
0
0
0
0
0
0
0
0
0
0
0
0
0
0
0
0
0
0
0
0
0
0
0
0
0
0
0
0
0
0
0
0
0
254
255
255
255
254
254
255
255
253
253
251
188
126
131
125
128
135
145
160
163
164
164
163
163
162
163
164
164
165
165
165
164
163
162
163
163
164
164
164
164
163
164
157
133
132
127
128
126
181
229
252
253
255
253
254
253
253
254
254
254
255
254
255
254
255
254
254
254
254
254
255
255
253
255
252
255
253
252
247
124
127
128
129
131
146
158
163
163
164
165
165
165
165
164
164
164
165
165
164
163
167
180
182
178
170
163
164
162
153
137
130
129
128
132
129
137
146
125
124
155
168
122
129
206
142
180
233
228
232
232
230
228
230
227
229
227
230
229
230
229
252
250
252
254
253
252
247
177
167
156
159
160
159
158
160
159
196
208
208
209
209
210
209
210
210
210
208
209
217
222
216
209
214
212
209
210
211
208
210
208
209
210
208
208
209
209
210
210
210
212
212
208
215
218
212
216
223
223
221
222
222
221
224
221
223
224
221
221
222
221
209
210
210
194
157
158
159
159
157
159
159
158
157
180
249
249
254
254
255
254
255
255
255
254
255
255
255
254
254
254
255
255
255
255
254
255
255
255
255
255
255
255
255
254
254
254
254
255
254
255
255
255
254
254
254
255
254
254
254
253
254
251
230
231
230
228
230
229
228
228
229
230
227
235
231
231
233
229
229
230
228
230
230
244
255
254
254
255
255
0
0
0
0
0
0
0
0
0
0
0
0
0
0
0
0
0
0
0
0
0
0
0
0
0
0
0
0
0
0
0
0
0
0
0
0
0
0
0
0
0
0
0
0
0
0
0
0
0
0
0
0
0
0
0
0
0
0
0
0
0
0
0
0
0
0
0
0
0
0
0
0
0
0
0
0
0
0
0
0
0
0
0
0
0
0
0
0
0
0
0
0
0
0
0
0
0
0
0
0
0
0
0
0
0
0
0
0
0
0
0
0
0
0
0
0
0
0
0
0
0
0
0
0
0
0
0
0
0
0
0
0
0
0
0
0
0
0
0
0
0
0
0
0
0
0
0
0
0
0
0
0
0
0
0
0
0
0
0
0
0
0
0
0
0
0
0
0
0
0
0
0
0
0
0
0
0
0
0
0
0
0
0
0
0
0
0
0
0
0
0
0
0
0
0
0
0
0
0
0
0
0
0
0
0
0
0
0
0
0
0
0
0
0
0
0
0
0
0
0
0
0
0
0
0
0
0
0
0
0
0
0
0
0
0
0
0
0
0
0
0
0
0
0
0
0
0
0
0
0
0
0
0
0
0
0
0
0
0
0
0
0
0
0
0
0
0
0
0
0
0
254
254
255
254
254
254
254
255
255
255
251
240
119
129
129
129
131
145
155
162
164
164
164
163
162
163
164
164
164
165
165
164
164
164
163
164
165
164
164
162
161
164
161
135
127
127
132
120
181
230
255
253
254
254
253
253
254
255
254
254
253
254
254
254
253
254
254
254
254
254
255
252
252
254
252
255
254
252
149
149
125
128
129
132
149
162
162
166
165
165
165
165
165
164
163
164
164
165
165
163
168
180
183
183
173
165
164
163
154
137
130
131
130
130
130
125
146
229
229
229
229
229
233
206
233
232
231
231
229
230
230
230
229
227
230
230
228
228
234
255
252
254
254
253
253
248
190
177
155
158
159
158
159
160
160
198
208
208
210
209
211
211
210
210
210
210
209
209
209
211
208
208
209
209
209
209
208
208
208
212
212
210
212
211
209
209
209
210
210
209
209
208
208
208
208
208
212
217
221
219
223
221
221
223
221
224
224
222
222
222
222
211
211
210
201
158
159
159
159
159
159
160
157
156
187
248
248
253
255
254
255
254
255
255
253
255
255
255
254
254
254
255
255
255
255
254
255
255
255
255
255
255
255
255
254
254
254
254
255
255
255
254
254
254
254
254
254
254
254
255
254
255
251
231
232
229
231
231
230
230
229
232
230
228
228
231
229
229
231
230
228
231
247
255
255
253
255
255
0
0
0
0
0
0
0
0
0
0
0
0
0
0
0
0
0
0
0
0
0
0
0
0
0
0
0
0
0
0
0
0
0
0
0
0
0
0
0
0
0
0
0
0
0
0
0
0
0
0
0
0
0
0
0
0
0
0
0
0
0
0
0
0
0
0
0
0
0
0
0
0
0
0
0
0
0
0
0
0
0
0
0
0
0
0
0
0
0
0
0
0
0
0
0
0
0
0
0
0
0
0
0
0
0
0
0
0
0
0
0
0
0
0
0
0
0
0
0
0
0
0
0
0
0
0
0
0
0
0
0
0
0
0
0
0
0
0
0
0
0
0
0
0
0
0
0
0
0
0
0
0
0
0
0
0
0
0
0
0
0
0
0
0
0
0
0
0
0
0
0
0
0
0
0
0
0
0
0
0
0
0
0
0
0
0
0
0
0
0
0
0
0
0
0
0
0
0
0
0
0
0
0
0
0
0
0
0
0
0
0
0
0
0
0
0
0
0
0
0
0
0
0
0
0
0
0
0
0
0
0
0
0
0
0
0
0
0
0
0
0
0
0
0
0
0
0
0
0
0
0
0
0
0
0
0
0
0
0
0
0
0
0
0
0
0
0
0
0
0
0
0
254
254
254
254
254
255
254
254
255
255
252
187
143
125
130
128
127
133
159
161
163
164
165
165
163
163
163
164
164
163
165
164
164
164
165
165
164
164
164
165
162
161
151
141
128
126
125
128
129
248
248
255
255
255
253
253
254
255
254
253
254
254
254
253
254
254
254
254
254
254
255
253
254
254
252
255
252
250
237
122
128
130
132
135
149
157
161
164
163
165
165
165
165
161
163
163
164
165
165
165
178
184
184
183
173
166
164
163
163
140
130
128
129
128
126
127
184
231
231
226
230
227
231
229
232
229
228
230
228
229
229
229
229
229
231
230
228
240
255
255
254
254
254
254
251
222
199
155
158
158
158
159
159
159
197
208
208
211
209
210
210
210
210
210
210
210
210
209
207
209
209
209
209
209
211
209
209
208
209
211
209
211
208
212
210
209
209
209
210
209
209
210
209
211
207
209
209
211
213
215
213
221
222
223
222
222
224
224
222
222
223
223
211
210
209
202
160
161
159
159
158
160
160
156
156
192
250
253
254
254
255
255
253
255
255
254
255
255
255
254
255
255
255
255
255
255
254
255
255
255
255
254
254
255
255
254
254
254
254
255
254
254
254
255
254
254
254
254
254
255
254
255
255
251
232
235
228
231
230
228
231
228
228
227
228
230
230
230
230
230
233
252
255
255
253
255
255
0
0
0
0
0
0
0
0
0
0
0
0
0
0
0
0
0
0
0
0
0
0
0
0
0
0
0
0
0
0
0
0
0
0
0
0
0
0
0
0
0
0
0
0
0
0
0
0
0
0
0
0
0
0
0
0
0
0
0
0
0
0
0
0
0
0
0
0
0
0
0
0
0
0
0
0
0
0
0
0
0
0
0
0
0
0
0
0
0
0
0
0
0
0
0
0
0
0
0
0
0
0
0
0
0
0
0
0
0
0
0
0
0
0
0
0
0
0
0
0
0
0
0
0
0
0
0
0
0
0
0
0
0
0
0
0
0
0
0
0
0
0
0
0
0
0
0
0
0
0
0
0
0
0
0
0
0
0
0
0
0
0
0
0
0
0
0
0
0
0
0
0
0
0
0
0
0
0
0
0
0
0
0
0
0
0
0
0
0
0
0
0
0
0
0
0
0
0
0
0
0
0
0
0
0
0
0
0
0
0
0
0
0
0
0
0
0
0
0
0
0
0
0
0
0
0
0
0
0
0
0
0
0
0
0
0
0
0
0
0
0
0
0
0
0
0
0
0
0
0
0
0
0
0
0
0
0
0
0
0
0
0
0
0
0
0
0
0
0
0
0
0
0
255
254
254
254
255
255
255
254
254
255
254
240
143
122
129
128
128
131
145
161
163
164
165
165
165
164
163
165
163
163
163
163
164
165
165
163
164
163
162
165
164
164
158
141
133
130
125
129
126
173
252
252
254
255
255
254
254
254
255
254
254
253
253
253
254
254
254
254
254
255
255
252
253
254
253
254
252
250
196
126
128
126
130
138
149
161
164
164
166
167
165
165
164
163
163
162
164
165
165
168
180
184
182
182
173
167
164
162
153
137
128
128
126
129
126
125
186
228
231
231
228
227
231
230
231
229
230
229
228
229
231
229
229
228
230
230
250
255
255
254
254
254
254
254
237
222
155
160
159
158
160
159
159
191
208
208
210
211
210
210
210
209
210
210
210
210
210
210
210
209
210
210
209
209
209
210
209
210
210
211
210
211
212
212
210
210
209
210
210
210
209
210
209
211
209
209
209
209
208
208
213
210
216
223
222
224
222
224
223
222
223
222
221
210
209
210
202
161
161
159
158
158
160
159
156
156
212
253
250
255
253
254
255
255
255
254
254
255
255
255
255
255
255
255
255
255
255
254
255
255
254
254
254
254
255
254
254
254
254
255
255
254
255
254
254
254
254
254
254
255
254
254
255
255
253
235
240
227
230
229
228
229
228
230
229
230
228
229
229
237
255
255
255
253
254
255
0
0
0
0
0
0
0
0
0
0
0
0
0
0
0
0
0
0
0
0
0
0
0
0
0
0
0
0
0
0
0
0
0
0
0
0
0
0
0
0
0
0
0
0
0
0
0
0
0
0
0
0
0
0
0
0
0
0
0
0
0
0
0
0
0
0
0
0
0
0
0
0
0
0
0
0
0
0
0
0
0
0
0
0
0
0
0
0
0
0
0
0
0
0
0
0
0
0
0
0
0
0
0
0
0
0
0
0
0
0
0
0
0
0
0
0
0
0
0
0
0
0
0
0
0
0
0
0
0
0
0
0
0
0
0
0
0
0
0
0
0
0
0
0
0
0
0
0
0
0
0
0
0
0
0
0
0
0
0
0
0
0
0
0
0
0
0
0
0
0
0
0
0
0
0
0
0
0
0
0
0
0
0
0
0
0
0
0
0
0
0
0
0
0
0
0
0
0
0
0
0
0
0
0
0
0
0
0
0
0
0
0
0
0
0
0
0
0
0
0
0
0
0
0
0
0
0
0
0
0
0
0
0
0
0
0
0
0
0
0
0
0
0
0
0
0
0
0
0
0
0
0
0
0
0
0
0
0
0
0
0
0
0
0
0
0
0
0
0
0
0
0
0
0
255
255
254
254
254
255
255
255
254
254
253
253
204
122
122
130
129
130
135
153
163
163
163
165
165
164
165
165
165
163
163
163
163
164
164
164
164
162
162
162
161
160
164
151
131
131
131
127
127
123
241
253
253
253
254
254
253
254
255
255
254
253
253
254
255
255
255
254
254
254
253
254
254
255
254
253
252
243
121
121
128
130
129
132
154
162
162
164
165
165
164
165
162
162
162
162
162
165
165
169
175
183
182
182
170
164
164
162
153
129
129
131
129
129
129
128
198
235
230
229
229
230
226
230
229
227
230
230
228
231
231
229
228
238
238
254
255
255
255
255
255
254
254
247
247
157
160
160
158
160
160
160
185
208
208
210
211
209
208
210
210
210
209
209
209
210
210
210
210
210
210
210
210
209
209
209
210
210
210
209
210
210
210
210
210
210
210
211
211
211
210
210
210
209
209
209
209
209
210
209
208
209
209
213
222
222
223
222
223
223
222
222
222
221
208
210
208
202
161
161
160
159
158
159
161
156
156
227
255
255
254
254
255
255
254
253
253
254
255
255
255
255
255
255
255
255
255
255
254
255
255
254
254
254
254
254
254
254
254
255
255
255
255
254
254
254
254
254
254
254
254
254
254
254
254
252
246
246
230
229
233
229
228
230
230
229
234
234
251
255
254
254
255
255
255
0
0
0
0
0
0
0
0
0
0
0
0
0
0
0
0
0
0
0
0
0
0
0
0
0
0
0
0
0
0
0
0
0
0
0
0
0
0
0
0
0
0
0
0
0
0
0
0
0
0
0
0
0
0
0
0
0
0
0
0
0
0
0
0
0
0
0
0
0
0
0
0
0
0
0
0
0
0
0
0
0
0
0
0
0
0
0
0
0
0
0
0
0
0
0
0
0
0
0
0
0
0
0
0
0
0
0
0
0
0
0
0
0
0
0
0
0
0
0
0
0
0
0
0
0
0
0
0
0
0
0
0
0
0
0
0
0
0
0
0
0
0
0
0
0
0
0
0
0
0
0
0
0
0
0
0
0
0
0
0
0
0
0
0
0
0
0
0
0
0
0
0
0
0
0
0
0
0
0
0
0
0
0
0
0
0
0
0
0
0
0
0
0
0
0
0
0
0
0
0
0
0
0
0
0
0
0
0
0
0
0
0
0
0
0
0
0
0
0
0
0
0
0
0
0
0
0
0
0
0
0
0
0
0
0
0
0
0
0
0
0
0
0
0
0
0
0
0
0
0
0
0
0
0
0
0
0
0
0
0
0
0
0
0
0
0
0
0
0
0
0
0
0
0
0
255
255
255
254
254
254
255
255
255
254
254
250
242
163
124
127
129
130
129
142
159
162
161
164
165
164
164
165
165
165
163
162
162
163
163
164
165
166
163
164
162
160
162
158
144
129
129
130
128
127
145
248
253
253
253
255
254
255
255
254
255
255
254
254
254
255
255
254
254
255
251
255
255
255
254
253
250
170
131
125
127
128
129
134
156
160
162
164
163
165
165
164
161
162
162
162
165
165
165
169
179
184
184
181
172
164
164
163
150
138
130
128
127
130
126
129
198
227
230
230
231
233
231
230
230
229
231
229
229
230
229
241
253
248
255
254
253
255
253
255
255
255
250
249
166
158
159
159
158
159
159
177
208
208
210
208
210
209
210
209
210
210
210
209
209
210
210
210
210
210
210
209
209
210
209
209
208
209
210
209
210
210
210
210
210
210
210
210
211
210
210
210
210
209
209
209
209
210
210
210
210
208
209
210
209
221
221
222
222
224
224
222
221
221
218
210
209
208
203
161
161
160
158
159
159
161
153
157
237
255
255
253
255
255
254
255
252
254
254
255
255
255
255
255
255
255
255
255
254
254
255
255
254
254
254
254
254
254
254
254
255
255
254
254
254
255
255
254
254
254
254
254
255
254
254
255
253
251
253
247
233
238
242
229
232
254
244
255
254
255
254
255
255
255
0
0
0
0
0
0
0
0
0
0
0
0
0
0
0
0
0
0
0
0
0
0
0
0
0
0
0
0
0
0
0
0
0
0
0
0
0
0
0
0
0
0
0
0
0
0
0
0
0
0
0
0
0
0
0
0
0
0
0
0
0
0
0
0
0
0
0
0
0
0
0
0
0
0
0
0
0
0
0
0
0
0
0
0
0
0
0
0
0
0
0
0
0
0
0
0
0
0
0
0
0
0
0
0
0
0
0
0
0
0
0
0
0
0
0
0
0
0
0
0
0
0
0
0
0
0
0
0
0
0
0
0
0
0
0
0
0
0
0
0
0
0
0
0
0
0
0
0
0
0
0
0
0
0
0
0
0
0
0
0
0
0
0
0
0
0
0
0
0
0
0
0
0
0
0
0
0
0
0
0
0
0
0
0
0
0
0
0
0
0
0
0
0
0
0
0
0
0
0
0
0
0
0
0
0
0
0
0
0
0
0
0
0
0
0
0
0
0
0
0
0
0
0
0
0
0
0
0
0
0
0
0
0
0
0
0
0
0
0
0
0
0
0
0
0
0
0
0
0
0
0
0
0
0
0
0
0
0
0
0
0
0
0
0
0
0
0
0
0
0
0
0
0
0
0
0
254
255
255
255
254
254
254
255
255
255
253
255
242
222
118
129
129
130
131
131
148
163
162
162
164
164
164
163
165
165
165
163
164
164
164
164
165
165
163
164
164
162
163
163
155
133
129
129
129
126
126
161
251
253
253
253
254
254
255
254
254
255
255
254
254
254
253
253
254
253
251
255
254
255
255
254
213
213
122
127
128
128
133
149
149
163
164
164
165
165
165
165
163
163
162
163
165
163
163
174
184
184
183
180
172
165
166
161
161
134
130
128
130
127
127
127
214
231
231
229
228
229
229
228
228
228
229
230
229
240
249
254
254
253
254
254
255
254
255
255
255
252
252
220
156
158
160
158
159
159
161
208
208
211
208
210
210
209
210
210
209
210
210
210
209
210
210
210
210
210
210
210
210
210
210
209
209
208
209
210
210
210
210
210
210
210
210
210
210
209
209
210
210
209
209
209
210
210
210
210
210
210
210
210
210
210
220
220
221
222
224
223
222
222
222
217
209
209
209
203
160
160
160
160
160
159
158
157
164
249
253
253
254
254
254
254
255
255
255
255
255
255
255
255
255
254
255
255
255
254
254
255
255
254
254
254
254
254
254
254
254
254
254
254
255
255
254
254
254
254
254
255
255
255
254
255
255
255
254
254
254
252
252
253
254
254
255
253
255
255
253
254
255
0
0
0
0
0
0
0
0
0
0
0
0
0
0
0
0
0
0
0
0
0
0
0
0
0
0
0
0
0
0
0
0
0
0
0
0
0
0
0
0
0
0
0
0
0
0
0
0
0
0
0
0
0
0
0
0
0
0
0
0
0
0
0
0
0
0
0
0
0
0
0
0
0
0
0
0
0
0
0
0
0
0
0
0
0
0
0
0
0
0
0
0
0
0
0
0
0
0
0
0
0
0
0
0
0
0
0
0
0
0
0
0
0
0
0
0
0
0
0
0
0
0
0
0
0
0
0
0
0
0
0
0
0
0
0
0
0
0
0
0
0
0
0
0
0
0
0
0
0
0
0
0
0
0
0
0
0
0
0
0
0
0
0
0
0
0
0
0
0
0
0
0
0
0
0
0
0
0
0
0
0
0
0
0
0
0
0
0
0
0
0
0
0
0
0
0
0
0
0
0
0
0
0
0
0
0
0
0
0
0
0
0
0
0
0
0
0
0
0
0
0
0
0
0
0
0
0
0
0
0
0
0
0
0
0
0
0
0
0
0
0
0
0
0
0
0
0
0
0
0
0
0
0
0
0
0
0
0
0
0
0
0
0
0
0
0
0
0
0
0
0
0
0
0
0
0
0
254
254
255
255
255
254
254
254
255
255
252
254
250
187
148
125
128
129
129
133
131
158
164
163
164
164
163
163
163
165
165
164
164
165
164
163
164
164
165
163
163
163
164
162
160
150
131
130
130
128
123
121
171
251
254
250
253
253
255
253
254
255
255
255
254
251
253
253
254
252
254
253
255
254
255
246
235
121
127
129
128
133
132
141
161
164
163
164
165
165
165
164
163
163
162
164
164
164
168
181
183
183
184
184
172
166
165
166
148
132
128
128
132
129
127
139
222
231
235
230
239
230
230
241
231
236
250
241
249
254
254
254
254
254
254
254
255
255
254
255
254
253
240
159
153
158
158
160
160
158
195
206
210
210
210
210
210
210
210
210
210
210
210
210
210
209
210
209
209
210
210
210
210
210
210
210
209
209
209
210
210
210
210
210
209
210
210
210
209
209
209
209
210
210
209
209
209
210
210
209
209
210
210
210
210
210
210
220
220
221
221
223
222
222
222
222
216
208
209
210
201
157
156
160
156
159
156
157
179
202
250
254
254
255
254
255
255
255
254
254
254
255
255
255
254
254
254
255
255
255
254
254
255
255
254
254
254
254
254
254
254
254
254
254
254
255
255
254
254
254
254
254
255
255
254
255
255
253
255
254
255
254
255
255
255
253
253
255
255
252
255
255
0
0
0
0
0
0
0
0
0
0
0
0
0
0
0
0
0
0
0
0
0
0
0
0
0
0
0
0
0
0
0
0
0
0
0
0
0
0
0
0
0
0
0
0
0
0
0
0
0
0
0
0
0
0
0
0
0
0
0
0
0
0
0
0
0
0
0
0
0
0
0
0
0
0
0
0
0
0
0
0
0
0
0
0
0
0
0
0
0
0
0
0
0
0
0
0
0
0
0
0
0
0
0
0
0
0
0
0
0
0
0
0
0
0
0
0
0
0
0
0
0
0
0
0
0
0
0
0
0
0
0
0
0
0
0
0
0
0
0
0
0
0
0
0
0
0
0
0
0
0
0
0
0
0
0
0
0
0
0
0
0
0
0
0
0
0
0
0
0
0
0
0
0
0
0
0
0
0
0
0
0
0
0
0
0
0
0
0
0
0
0
0
0
0
0
0
0
0
0
0
0
0
0
0
0
0
0
0
0
0
0
0
0
0
0
0
0
0
0
0
0
0
0
0
0
0
0
0
0
0
0
0
0
0
0
0
0
0
0
0
0
0
0
0
0
0
0
0
0
0
0
0
0
0
0
0
0
0
0
0
0
0
0
0
0
0
0
0
0
0
0
0
0
0
0
0
0
0
254
254
254
255
255
255
254
254
252
255
252
250
254
233
148
122
127
129
131
131
137
137
158
163
164
164
164
163
162
163
164
164
163
164
164
164
163
164
165
165
163
163
162
161
160
158
138
130
130
130
129
121
122
167
249
250
253
255
255
254
254
255
255
255
255
251
254
255
254
253
252
254
255
254
249
246
130
128
130
130
130
128
132
150
165
164
164
164
165
165
165
163
163
162
163
164
164
164
176
181
183
184
184
182
171
166
165
163
147
132
131
130
130
129
123
153
222
230
254
253
253
251
252
241
253
255
250
254
255
254
254
254
254
254
255
255
255
255
254
254
254
251
189
159
156
159
159
160
158
182
195
208
210
209
210
210
210
210
211
211
210
210
210
210
210
210
209
209
210
210
210
210
209
210
210
210
210
209
209
209
209
210
210
209
209
209
210
209
209
210
210
209
209
211
210
209
210
210
210
210
210
210
210
210
210
210
210
210
220
221
223
223
222
222
223
222
221
213
209
209
209
198
156
159
158
159
159
160
153
202
224
250
254
254
254
254
255
255
255
254
254
255
255
255
254
254
254
254
255
255
255
254
254
255
255
254
254
254
254
254
254
254
254
254
255
255
255
254
254
254
254
254
254
255
254
254
254
253
253
255
255
254
254
255
253
255
255
255
254
255
255
0
0
0
0
0
0
0
0
0
0
0
0
0
0
0
0
0
0
0
0
0
0
0
0
0
0
0
0
0
0
0
0
0
0
0
0
0
0
0
0
0
0
0
0
0
0
0
0
0
0
0
0
0
0
0
0
0
0
0
0
0
0
0
0
0
0
0
0
0
0
0
0
0
0
0
0
0
0
0
0
0
0
0
0
0
0
0
0
0
0
0
0
0
0
0
0
0
0
0
0
0
0
0
0
0
0
0
0
0
0
0
0
0
0
0
0
0
0
0
0
0
0
0
0
0
0
0
0
0
0
0
0
0
0
0
0
0
0
0
0
0
0
0
0
0
0
0
0
0
0
0
0
0
0
0
0
0
0
0
0
0
0
0
0
0
0
0
0
0
0
0
0
0
0
0
0
0
0
0
0
0
0
0
0
0
0
0
0
0
0
0
0
0
0
0
0
0
0
0
0
0
0
0
0
0
0
0
0
0
0
0
0
0
0
0
0
0
0
0
0
0
0
0
0
0
0
0
0
0
0
0
0
0
0
0
0
0
0
0
0
0
0
0
0
0
0
0
0
0
0
0
0
0
0
0
0
0
0
0
0
0
0
0
0
0
0
0
0
0
0
0
0
0
0
0
0
0
0
0
255
254
254
254
255
255
255
254
253
253
255
253
255
251
221
119
119
129
129
129
130
146
153
160
163
165
165
165
163
163
163
163
163
163
164
164
164
163
164
164
164
166
162
162
162
157
155
134
131
129
129
127
123
124
154
247
252
252
254
251
252
254
254
251
254
249
255
255
253
255
253
254
253
247
247
134
129
128
129
131
130
129
143
161
161
163
164
163
164
164
163
163
162
163
164
164
164
171
171
184
184
184
184
176
168
166
162
162
162
133
130
127
128
129
120
120
228
236
252
253
255
254
255
255
255
255
255
254
254
252
253
254
254
255
255
254
255
255
255
255
252
224
224
157
160
157
158
159
166
166
210
211
208
209
210
210
210
209
210
210
210
210
209
209
210
209
209
210
210
209
209
209
209
209
210
209
210
210
209
209
209
209
209
209
209
209
209
210
210
210
210
209
211
211
212
210
209
209
210
210
210
210
210
209
210
210
210
210
210
221
221
223
223
222
222
224
220
217
211
210
210
209
187
156
156
159
156
156
159
153
240
240
250
253
255
254
254
254
254
254
254
254
255
255
255
255
254
254
254
255
255
255
254
254
255
255
255
254
254
254
254
254
254
254
255
255
255
254
254
254
254
254
254
254
255
255
254
255
255
255
254
254
254
254
255
255
255
253
255
255
0
0
0
0
0
0
0
0
0
0
0
0
0
0
0
0
0
0
0
0
0
0
0
0
0
0
0
0
0
0
0
0
0
0
0
0
0
0
0
0
0
0
0
0
0
0
0
0
0
0
0
0
0
0
0
0
0
0
0
0
0
0
0
0
0
0
0
0
0
0
0
0
0
0
0
0
0
0
0
0
0
0
0
0
0
0
0
0
0
0
0
0
0
0
0
0
0
0
0
0
0
0
0
0
0
0
0
0
0
0
0
0
0
0
0
0
0
0
0
0
0
0
0
0
0
0
0
0
0
0
0
0
0
0
0
0
0
0
0
0
0
0
0
0
0
0
0
0
0
0
0
0
0
0
0
0
0
0
0
0
0
0
0
0
0
0
0
0
0
0
0
0
0
0
0
0
0
0
0
0
0
0
0
0
0
0
0
0
0
0
0
0
0
0
0
0
0
0
0
0
0
0
0
0
0
0
0
0
0
0
0
0
0
0
0
0
0
0
0
0
0
0
0
0
0
0
0
0
0
0
0
0
0
0
0
0
0
0
0
0
0
0
0
0
0
0
0
0
0
0
0
0
0
0
0
0
0
0
0
0
0
0
0
0
0
0
0
0
0
0
0
0
0
0
0
0
0
0
0
0
255
255
254
254
254
255
255
253
254
254
255
254
255
255
236
185
126
128
130
129
129
131
153
158
162
164
165
165
163
163
163
163
162
163
163
164
164
164
163
164
164
163
165
163
164
162
155
154
131
132
130
130
127
124
126
128
236
250
251
253
252
254
253
251
254
253
253
254
254
253
253
251
218
239
133
128
129
128
127
130
130
133
159
160
165
164
163
163
163
164
164
162
163
165
164
165
166
166
182
185
184
184
184
174
168
162
163
162
138
133
127
127
129
127
125
178
235
236
252
255
253
254
254
254
254
253
255
255
254
255
254
253
254
254
254
254
254
255
255
254
249
247
156
156
158
157
159
160
159
206
208
211
208
209
210
210
209
209
210
210
210
210
209
209
209
209
210
210
209
209
209
210
210
210
210
210
210
210
210
209
209
209
209
209
209
209
209
209
209
210
209
209
209
211
211
211
210
210
207
209
210
210
210
209
209
210
210
210
210
211
221
221
222
222
222
223
222
217
216
209
210
211
208
184
156
159
158
156
161
155
166
247
249
253
255
255
254
254
255
254
255
254
254
255
255
255
255
254
254
254
255
255
255
254
254
255
255
255
254
254
254
254
254
255
255
255
255
255
254
254
254
254
254
254
255
255
255
255
255
254
254
254
255
255
255
255
254
255
254
0
0
0
0
0
0
0
0
0
0
0
0
0
0
0
0
0
0
0
0
0
0
0
0
0
0
0
0
0
0
0
0
0
0
0
0
0
0
0
0
0
0
0
0
0
0
0
0
0
0
0
0
0
0
0
0
0
0
0
0
0
0
0
0
0
0
0
0
0
0
0
0
0
0
0
0
0
0
0
0
0
0
0
0
0
0
0
0
0
0
0
0
0
0
0
0
0
0
0
0
0
0
0
0
0
0
0
0
0
0
0
0
0
0
0
0
0
0
0
0
0
0
0
0
0
0
0
0
0
0
0
0
0
0
0
0
0
0
0
0
0
0
0
0
0
0
0
0
0
0
0
0
0
0
0
0
0
0
0
0
0
0
0
0
0
0
0
0
0
0
0
0
0
0
0
0
0
0
0
0
0
0
0
0
0
0
0
0
0
0
0
0
0
0
0
0
0
0
0
0
0
0
0
0
0
0
0
0
0
0
0
0
0
0
0
0
0
0
0
0
0
0
0
0
0
0
0
0
0
0
0
0
0
0
0
0
0
0
0
0
0
0
0
0
0
0
0
0
0
0
0
0
0
0
0
0
0
0
0
0
0
0
0
0
0
0
0
0
0
0
0
0
0
0
0
0
0
0
0
0
0
255
255
255
254
254
254
255
255
254
252
254
254
255
251
251
231
124
128
128
129
129
129
135
159
159
164
165
165
165
164
163
163
163
162
163
163
163
164
164
164
164
163
163
164
165
165
161
153
153
131
130
129
129
127
126
126
124
161
234
234
250
252
252
254
253
253
253
252
251
251
247
178
178
124
131
129
129
128
128
128
130
157
157
163
164
164
164
163
164
164
164
163
165
165
165
165
165
170
185
185
184
184
179
179
167
163
163
161
139
130
130
128
128
128
122
205
227
227
249
251
251
255
255
255
255
254
255
255
255
254
254
254
255
254
254
254
254
254
254
251
249
215
158
160
160
157
161
161
177
208
210
210
209
209
209
210
209
210
210
210
210
210
210
210
210
209
210
209
209
209
210
210
210
210
210
210
210
210
210
210
209
209
209
209
209
209
211
208
208
210
211
210
210
210
210
210
210
211
207
210
209
210
210
210
210
210
210
210
210
210
214
221
221
221
222
223
223
221
214
214
207
209
209
206
166
159
159
157
161
161
155
217
253
253
255
254
254
254
254
254
255
254
255
255
254
255
255
255
254
254
254
255
255
255
254
255
255
255
255
254
254
254
254
254
255
255
255
255
255
255
255
254
254
254
254
255
255
255
255
254
254
254
254
255
255
253
255
255
0
0
0
0
0
0
0
0
0
0
0
0
0
0
0
0
0
0
0
0
0
0
0
0
0
0
0
0
0
0
0
0
0
0
0
0
0
0
0
0
0
0
0
0
0
0
0
0
0
0
0
0
0
0
0
0
0
0
0
0
0
0
0
0
0
0
0
0
0
0
0
0
0
0
0
0
0
0
0
0
0
0
0
0
0
0
0
0
0
0
0
0
0
0
0
0
0
0
0
0
0
0
0
0
0
0
0
0
0
0
0
0
0
0
0
0
0
0
0
0
0
0
0
0
0
0
0
0
0
0
0
0
0
0
0
0
0
0
0
0
0
0
0
0
0
0
0
0
0
0
0
0
0
0
0
0
0
0
0
0
0
0
0
0
0
0
0
0
0
0
0
0
0
0
0
0
0
0
0
0
0
0
0
0
0
0
0
0
0
0
0
0
0
0
0
0
0
0
0
0
0
0
0
0
0
0
0
0
0
0
0
0
0
0
0
0
0
0
0
0
0
0
0
0
0
0
0
0
0
0
0
0
0
0
0
0
0
0
0
0
0
0
0
0
0
0
0
0
0
0
0
0
0
0
0
0
0
0
0
0
0
0
0
0
0
0
0
0
0
0
0
0
0
0
0
0
0
0
0
0
0
0
254
255
255
255
254
254
254
255
255
255
253
253
254
255
248
236
194
122
129
131
129
130
131
142
160
159
166
164
164
164
164
163
164
164
163
162
162
163
163
163
164
164
165
165
165
164
165
160
154
152
134
130
127
127
127
126
127
126
127
177
122
238
249
191
250
250
201
180
248
214
119
140
125
127
129
129
129
128
128
130
153
156
162
163
164
164
163
164
164
164
164
164
165
165
163
165
170
184
185
186
183
182
183
171
162
162
163
158
134
130
129
130
130
131
118
222
233
237
255
254
253
254
255
255
253
253
255
253
254
254
254
254
254
254
254
255
255
254
254
252
246
153
158
157
158
158
160
164
200
210
208
209
209
209
209
209
209
210
210
210
210
210
210
210
210
210
209
209
209
210
210
210
209
210
210
211
209
210
210
210
210
209
209
209
209
210
209
208
210
208
209
210
210
209
209
209
209
211
208
211
210
209
210
210
210
209
209
210
209
210
209
216
222
222
222
222
222
222
220
211
211
209
208
208
199
160
159
158
158
158
159
162
237
254
252
254
255
255
255
255
254
255
255
255
254
254
255
255
255
254
254
254
255
255
255
254
255
255
255
255
255
255
254
255
255
254
254
254
255
255
254
254
254
254
254
255
255
254
254
254
255
253
254
254
254
255
255
0
0
0
0
0
0
0
0
0
0
0
0
0
0
0
0
0
0
0
0
0
0
0
0
0
0
0
0
0
0
0
0
0
0
0
0
0
0
0
0
0
0
0
0
0
0
0
0
0
0
0
0
0
0
0
0
0
0
0
0
0
0
0
0
0
0
0
0
0
0
0
0
0
0
0
0
0
0
0
0
0
0
0
0
0
0
0
0
0
0
0
0
0
0
0
0
0
0
0
0
0
0
0
0
0
0
0
0
0
0
0
0
0
0
0
0
0
0
0
0
0
0
0
0
0
0
0
0
0
0
0
0
0
0
0
0
0
0
0
0
0
0
0
0
0
0
0
0
0
0
0
0
0
0
0
0
0
0
0
0
0
0
0
0
0
0
0
0
0
0
0
0
0
0
0
0
0
0
0
0
0
0
0
0
0
0
0
0
0
0
0
0
0
0
0
0
0
0
0
0
0
0
0
0
0
0
0
0
0
0
0
0
0
0
0
0
0
0
0
0
0
0
0
0
0
0
0
0
0
0
0
0
0
0
0
0
0
0
0
0
0
0
0
0
0
0
0
0
0
0
0
0
0
0
0
0
0
0
0
0
0
0
0
0
0
0
0
0
0
0
0
0
0
0
0
0
0
0
0
0
0
0
0
254
254
255
254
254
254
254
254
255
255
253
255
254
255
254
233
233
159
126
131
128
127
131
131
155
161
161
165
164
164
164
165
164
164
164
163
162
162
163
163
163
165
165
165
165
163
165
165
160
152
152
132
129
127
127
128
129
129
128
129
122
125
127
191
118
125
123
123
125
127
119
124
127
129
129
128
128
128
132
151
153
161
163
164
164
163
163
164
164
165
164
164
164
163
163
167
181
184
182
183
182
182
180
165
162
162
161
143
143
130
129
130
128
127
170
170
231
243
255
253
254
254
254
254
253
253
255
255
254
254
254
254
254
254
255
255
255
254
254
253
213
158
158
159
158
158
159
180
210
210
209
209
209
209
209
209
209
209
210
210
209
209
210
210
210
210
210
209
210
210
210
209
211
211
210
210
209
210
209
210
210
209
209
209
209
209
209
205
207
208
208
207
208
209
208
208
209
211
210
211
210
209
209
210
210
210
209
209
210
208
209
210
221
222
222
223
223
222
222
217
211
210
210
208
208
190
159
158
159
155
155
155
188
249
252
254
254
255
255
254
255
255
254
254
254
254
254
255
255
255
254
254
254
255
255
255
254
254
255
255
255
255
255
255
254
254
254
255
255
255
254
254
254
254
254
255
255
254
254
254
254
255
254
255
255
255
0
0
0
0
0
0
0
0
0
0
0
0
0
0
0
0
0
0
0
0
0
0
0
0
0
0
0
0
0
0
0
0
0
0
0
0
0
0
0
0
0
0
0
0
0
0
0
0
0
0
0
0
0
0
0
0
0
0
0
0
0
0
0
0
0
0
0
0
0
0
0
0
0
0
0
0
0
0
0
0
0
0
0
0
0
0
0
0
0
0
0
0
0
0
0
0
0
0
0
0
0
0
0
0
0
0
0
0
0
0
0
0
0
0
0
0
0
0
0
0
0
0
0
0
0
0
0
0
0
0
0
0
0
0
0
0
0
0
0
0
0
0
0
0
0
0
0
0
0
0
0
0
0
0
0
0
0
0
0
0
0
0
0
0
0
0
0
0
0
0
0
0
0
0
0
0
0
0
0
0
0
0
0
0
0
0
0
0
0
0
0
0
0
0
0
0
0
0
0
0
0
0
0
0
0
0
0
0
0
0
0
0
0
0
0
0
0
0
0
0
0
0
0
0
0
0
0
0
0
0
0
0
0
0
0
0
0
0
0
0
0
0
0
0
0
0
0
0
0
0
0
0
0
0
0
0
0
0
0
0
0
0
0
0
0
0
0
0
0
0
0
0
0
0
0
0
0
0
0
0
0
0
0
0
254
254
254
254
254
254
254
254
254
255
255
254
253
253
252
251
232
229
133
127
126
126
127
132
135
157
161
163
165
165
164
164
164
165
165
164
162
162
162
162
164
163
164
165
165
165
165
165
164
161
154
156
133
131
128
129
130
129
130
128
127
129
129
130
127
129
125
127
127
128
125
129
128
129
129
131
128
132
149
149
162
163
163
164
162
163
163
165
165
164
164
164
164
163
166
178
178
183
182
181
182
183
171
171
165
163
162
155
130
129
129
129
127
124
122
233
228
228
252
252
252
254
254
254
255
255
255
255
254
254
254
254
255
255
254
255
254
254
255
248
175
158
158
164
164
161
164
202
208
209
209
209
210
209
209
209
209
209
210
210
209
209
209
210
210
210
210
210
209
210
209
210
211
208
210
210
209
211
211
210
210
208
208
210
199
208
206
208
176
205
208
193
206
206
209
209
209
211
208
212
211
211
211
209
210
209
209
210
210
210
208
212
215
223
222
222
223
223
221
221
213
209
208
209
208
206
174
159
159
157
161
156
156
222
250
253
253
254
255
255
255
254
254
254
254
255
255
254
255
255
255
254
254
254
255
255
255
254
254
255
255
255
255
254
254
254
254
254
255
255
255
254
254
254
254
255
255
255
254
254
254
254
255
254
254
0
0
0
0
0
0
0
0
0
0
0
0
0
0
0
0
0
0
0
0
0
0
0
0
0
0
0
0
0
0
0
0
0
0
0
0
0
0
0
0
0
0
0
0
0
0
0
0
0
0
0
0
0
0
0
0
0
0
0
0
0
0
0
0
0
0
0
0
0
0
0
0
0
0
0
0
0
0
0
0
0
0
0
0
0
0
0
0
0
0
0
0
0
0
0
0
0
0
0
0
0
0
0
0
0
0
0
0
0
0
0
0
0
0
0
0
0
0
0
0
0
0
0
0
0
0
0
0
0
0
0
0
0
0
0
0
0
0
0
0
0
0
0
0
0
0
0
0
0
0
0
0
0
0
0
0
0
0
0
0
0
0
0
0
0
0
0
0
0
0
0
0
0
0
0
0
0
0
0
0
0
0
0
0
0
0
0
0
0
0
0
0
0
0
0
0
0
0
0
0
0
0
0
0
0
0
0
0
0
0
0
0
0
0
0
0
0
0
0
0
0
0
0
0
0
0
0
0
0
0
0
0
0
0
0
0
0
0
0
0
0
0
0
0
0
0
0
0
0
0
0
0
0
0
0
0
0
0
0
0
0
0
0
0
0
0
0
0
0
0
0
0
0
0
0
0
0
0
0
0
0
0
0
0
0
254
254
254
254
254
255
255
254
254
254
255
255
252
254
252
254
238
229
215
122
127
128
130
129
135
137
158
163
164
164
165
164
164
165
165
165
164
162
162
162
162
163
164
165
165
165
165
165
164
163
164
156
159
143
134
129
129
128
130
129
130
127
127
131
128
129
126
128
127
127
130
126
128
130
132
131
134
156
154
162
162
163
163
162
163
163
165
165
164
164
164
164
164
166
172
174
183
183
182
181
184
184
178
165
165
161
162
148
133
129
127
128
125
124
139
235
228
232
255
254
254
254
251
254
255
255
255
255
255
254
254
254
255
255
255
254
254
255
251
222
175
155
156
159
157
161
180
202
207
209
209
209
210
209
209
209
209
209
209
210
209
209
209
209
210
210
210
210
210
209
209
210
209
210
210
210
211
212
209
209
206
208
197
175
199
158
153
159
176
160
159
193
163
178
207
208
206
210
208
207
211
207
210
209
209
209
209
209
210
209
210
210
215
219
222
222
222
222
223
221
217
210
208
209
210
206
204
161
160
157
156
157
156
168
251
254
252
255
255
255
254
254
254
254
254
255
255
255
254
255
254
255
254
254
254
255
255
255
254
254
255
255
255
254
254
254
254
255
255
255
255
254
255
254
254
254
255
255
255
254
254
254
255
253
0
0
0
0
0
0
0
0
0
0
0
0
0
0
0
0
0
0
0
0
0
0
0
0
0
0
0
0
0
0
0
0
0
0
0
0
0
0
0
0
0
0
0
0
0
0
0
0
0
0
0
0
0
0
0
0
0
0
0
0
0
0
0
0
0
0
0
0
0
0
0
0
0
0
0
0
0
0
0
0
0
0
0
0
0
0
0
0
0
0
0
0
0
0
0
0
0
0
0
0
0
0
0
0
0
0
0
0
0
0
0
0
0
0
0
0
0
0
0
0
0
0
0
0
0
0
0
0
0
0
0
0
0
0
0
0
0
0
0
0
0
0
0
0
0
0
0
0
0
0
0
0
0
0
0
0
0
0
0
0
0
0
0
0
0
0
0
0
0
0
0
0
0
0
0
0
0
0
0
0
0
0
0
0
0
0
0
0
0
0
0
0
0
0
0
0
0
0
0
0
0
0
0
0
0
0
0
0
0
0
0
0
0
0
0
0
0
0
0
0
0
0
0
0
0
0
0
0
0
0
0
0
0
0
0
0
0
0
0
0
0
0
0
0
0
0
0
0
0
0
0
0
0
0
0
0
0
0
0
0
0
0
0
0
0
0
0
0
0
0
0
0
0
0
0
0
0
0
0
0
0
0
0
0
0
0
255
254
254
254
254
255
255
255
254
254
254
255
255
254
253
254
254
231
191
191
125
126
130
130
130
140
140
160
164
164
163
167
164
164
165
165
165
164
162
162
162
163
164
164
165
165
165
165
163
162
162
164
162
164
150
134
130
130
132
126
126
131
129
129
129
129
129
129
130
130
129
127
130
132
132
141
158
158
163
162
163
163
162
163
163
165
165
164
164
164
164
164
166
170
170
183
183
182
182
184
184
184
170
164
163
163
158
132
132
126
127
129
128
121
232
232
228
248
248
254
253
254
254
254
254
254
255
254
254
255
254
254
254
255
255
255
251
252
249
249
155
161
161
162
162
162
162
208
209
209
209
210
210
210
210
209
209
209
209
209
210
209
209
209
209
210
210
210
210
209
209
211
210
210
210
209
209
208
208
203
203
175
157
157
160
161
159
160
157
160
160
160
157
157
165
182
202
202
209
210
210
210
210
209
209
210
210
210
209
209
209
209
212
221
221
220
223
223
222
223
214
214
210
211
211
210
185
169
159
161
156
156
158
215
215
252
255
253
253
254
254
254
254
254
255
255
255
254
254
254
255
255
255
254
254
254
255
255
255
254
254
255
255
254
254
254
254
255
254
254
254
255
255
255
254
254
254
255
255
255
254
254
254
0
0
0
0
0
0
0
0
0
0
0
0
0
0
0
0
0
0
0
0
0
0
0
0
0
0
0
0
0
0
0
0
0
0
0
0
0
0
0
0
0
0
0
0
0
0
0
0
0
0
0
0
0
0
0
0
0
0
0
0
0
0
0
0
0
0
0
0
0
0
0
0
0
0
0
0
0
0
0
0
0
0
0
0
0
0
0
0
0
0
0
0
0
0
0
0
0
0
0
0
0
0
0
0
0
0
0
0
0
0
0
0
0
0
0
0
0
0
0
0
0
0
0
0
0
0
0
0
0
0
0
0
0
0
0
0
0
0
0
0
0
0
0
0
0
0
0
0
0
0
0
0
0
0
0
0
0
0
0
0
0
0
0
0
0
0
0
0
0
0
0
0
0
0
0
0
0
0
0
0
0
0
0
0
0
0
0
0
0
0
0
0
0
0
0
0
0
0
0
0
0
0
0
0
0
0
0
0
0
0
0
0
0
0
0
0
0
0
0
0
0
0
0
0
0
0
0
0
0
0
0
0
0
0
0
0
0
0
0
0
0
0
0
0
0
0
0
0
0
0
0
0
0
0
0
0
0
0
0
0
0
0
0
0
0
0
0
0
0
0
0
0
0
0
0
0
0
0
0
0
0
0
0
0
0
0
0
255
255
254
254
254
254
255
254
255
254
254
254
255
255
255
254
250
245
229
162
141
129
126
130
130
130
145
148
161
164
164
163
167
165
165
165
165
165
165
162
162
162
162
164
165
164
164
163
161
164
161
163
161
164
165
158
141
131
139
128
128
133
135
129
130
129
130
130
129
130
129
135
142
134
149
163
161
164
164
163
163
162
163
163
165
165
163
164
163
164
165
165
167
168
183
183
183
183
184
184
184
174
165
165
166
162
144
135
127
130
128
129
126
139
186
228
229
236
255
254
254
254
254
255
255
254
254
254
254
254
254
254
254
254
255
254
247
253
251
190
156
157
159
156
161
156
198
210
207
210
210
210
210
210
210
210
209
210
210
209
209
210
209
209
209
209
210
210
209
209
210
210
208
210
209
207
209
207
181
194
158
161
162
157
160
160
159
157
155
158
155
160
162
159
161
159
166
194
181
208
210
208
208
210
211
210
210
210
210
209
209
210
208
214
222
223
222
224
222
224
222
211
209
209
211
212
202
169
158
159
160
161
159
151
248
252
255
255
255
254
254
254
254
255
254
254
254
255
254
254
254
255
255
255
255
254
254
255
254
255
254
254
254
254
254
255
255
254
254
254
254
254
255
255
255
254
254
254
255
255
255
254
0
0
0
0
0
0
0
0
0
0
0
0
0
0
0
0
0
0
0
0
0
0
0
0
0
0
0
0
0
0
0
0
0
0
0
0
0
0
0
0
0
0
0
0
0
0
0
0
0
0
0
0
0
0
0
0
0
0
0
0
0
0
0
0
0
0
0
0
0
0
0
0
0
0
0
0
0
0
0
0
0
0
0
0
0
0
0
0
0
0
0
0
0
0
0
0
0
0
0
0
0
0
0
0
0
0
0
0
0
0
0
0
0
0
0
0
0
0
0
0
0
0
0
0
0
0
0
0
0
0
0
0
0
0
0
0
0
0
0
0
0
0
0
0
0
0
0
0
0
0
0
0
0
0
0
0
0
0
0
0
0
0
0
0
0
0
0
0
0
0
0
0
0
0
0
0
0
0
0
0
0
0
0
0
0
0
0
0
0
0
0
0
0
0
0
0
0
0
0
0
0
0
0
0
0
0
0
0
0
0
0
0
0
0
0
0
0
0
0
0
0
0
0
0
0
0
0
0
0
0
0
0
0
0
0
0
0
0
0
0
0
0
0
0
0
0
0
0
0
0
0
0
0
0
0
0
0
0
0
0
0
0
0
0
0
0
0
0
0
0
0
0
0
0
0
0
0
0
0
0
0
0
0
0
0
0
0
0
255
255
255
254
254
254
255
254
254
254
254
254
254
255
255
253
255
245
238
229
127
127
129
128
130
128
131
152
152
161
165
165
164
164
165
165
165
165
165
165
162
162
162
165
165
165
164
162
161
161
162
163
163
160
165
165
161
156
139
149
135
126
126
130
133
129
133
136
138
138
144
151
151
159
163
163
164
163
163
163
162
163
163
164
165
163
163
162
163
163
164
167
167
181
183
184
184
184
183
184
182
165
166
166
161
159
144
134
128
128
128
127
117
117
224
235
229
242
255
254
254
253
254
255
255
255
254
254
254
254
254
254
254
254
251
254
254
254
251
169
156
160
157
160
160
156
204
210
207
211
210
210
210
209
209
210
209
210
210
210
209
209
210
209
209
209
209
209
209
210
210
210
210
210
209
208
202
168
168
160
158
161
157
156
158
158
156
158
158
159
156
160
157
154
159
159
160
158
181
170
207
211
211
211
210
210
210
209
209
209
210
210
210
210
220
223
222
224
221
221
223
215
209
208
207
210
210
189
159
159
160
156
159
156
214
253
253
254
254
254
254
254
255
255
254
253
254
255
255
254
254
254
255
255
255
254
254
254
254
255
255
254
254
254
255
255
255
255
254
255
255
254
254
255
254
255
254
254
254
255
255
0
0
0
0
0
0
0
0
0
0
0
0
0
0
0
0
0
0
0
0
0
0
0
0
0
0
0
0
0
0
0
0
0
0
0
0
0
0
0
0
0
0
0
0
0
0
0
0
0
0
0
0
0
0
0
0
0
0
0
0
0
0
0
0
0
0
0
0
0
0
0
0
0
0
0
0
0
0
0
0
0
0
0
0
0
0
0
0
0
0
0
0
0
0
0
0
0
0
0
0
0
0
0
0
0
0
0
0
0
0
0
0
0
0
0
0
0
0
0
0
0
0
0
0
0
0
0
0
0
0
0
0
0
0
0
0
0
0
0
0
0
0
0
0
0
0
0
0
0
0
0
0
0
0
0
0
0
0
0
0
0
0
0
0
0
0
0
0
0
0
0
0
0
0
0
0
0
0
0
0
0
0
0
0
0
0
0
0
0
0
0
0
0
0
0
0
0
0
0
0
0
0
0
0
0
0
0
0
0
0
0
0
0
0
0
0
0
0
0
0
0
0
0
0
0
0
0
0
0
0
0
0
0
0
0
0
0
0
0
0
0
0
0
0
0
0
0
0
0
0
0
0
0
0
0
0
0
0
0
0
0
0
0
0
0
0
0
0
0
0
0
0
0
0
0
0
0
0
0
0
0
0
0
0
0
0
0
0
0
254
254
254
255
254
254
254
254
253
253
254
254
254
254
255
255
253
255
231
233
220
126
123
128
129
129
131
133
156
158
161
165
165
164
164
164
164
165
165
165
165
162
163
164
165
165
165
164
162
162
163
161
165
163
162
164
162
164
161
161
165
155
149
162
144
144
147
158
149
153
163
157
162
162
163
165
164
162
162
162
162
163
164
164
163
163
162
162
162
164
168
167
181
183
182
184
183
183
183
183
168
165
167
163
162
160
136
126
130
129
130
125
124
179
231
229
228
254
253
253
255
255
255
254
255
254
255
254
254
254
254
254
255
254
255
255
251
252
248
224
155
158
160
159
159
162
184
210
211
207
210
210
210
210
209
210
210
209
210
209
210
209
209
210
209
209
210
209
210
210
210
209
209
210
205
193
159
161
158
161
156
160
158
157
156
156
175
155
154
181
154
158
161
156
159
158
159
156
159
162
158
203
208
206
212
210
209
209
209
209
209
210
207
209
213
222
222
220
224
221
222
220
211
210
211
208
206
201
166
159
158
159
156
156
176
246
255
254
254
255
252
255
255
254
254
254
254
255
255
255
254
254
254
255
255
255
254
254
254
254
255
255
254
254
255
255
255
254
254
254
255
254
254
254
255
255
255
255
255
254
0
0
0
0
0
0
0
0
0
0
0
0
0
0
0
0
0
0
0
0
0
0
0
0
0
0
0
0
0
0
0
0
0
0
0
0
0
0
0
0
0
0
0
0
0
0
0
0
0
0
0
0
0
0
0
0
0
0
0
0
0
0
0
0
0
0
0
0
0
0
0
0
0
0
0
0
0
0
0
0
0
0
0
0
0
0
0
0
0
0
0
0
0
0
0
0
0
0
0
0
0
0
0
0
0
0
0
0
0
0
0
0
0
0
0
0
0
0
0
0
0
0
0
0
0
0
0
0
0
0
0
0
0
0
0
0
0
0
0
0
0
0
0
0
0
0
0
0
0
0
0
0
0
0
0
0
0
0
0
0
0
0
0
0
0
0
0
0
0
0
0
0
0
0
0
0
0
0
0
0
0
0
0
0
0
0
0
0
0
0
0
0
0
0
0
0
0
0
0
0
0
0
0
0
0
0
0
0
0
0
0
0
0
0
0
0
0
0
0
0
0
0
0
0
0
0
0
0
0
0
0
0
0
0
0
0
0
0
0
0
0
0
0
0
0
0
0
0
0
0
0
0
0
0
0
0
0
0
0
0
0
0
0
0
0
0
0
0
0
0
0
0
0
0
0
0
0
0
0
0
0
0
0
0
0
0
0
0
0
0
255
254
254
254
255
254
254
254
254
253
253
254
254
254
254
255
255
255
246
233
231
189
123
121
129
129
131
131
135
158
157
162
165
165
162
163
164
163
164
165
165
163
163
164
164
165
165
165
164
163
163
165
166
163
164
162
162
162
165
164
165
164
164
162
163
161
164
158
161
164
163
163
164
162
165
164
164
162
164
163
162
164
164
163
163
162
162
162
164
169
168
181
184
182
182
182
183
183
183
178
164
165
163
163
162
154
129
131
130
128
127
125
120
225
231
232
232
255
253
255
254
255
255
254
254
254
255
255
254
253
254
254
255
254
254
255
249
253
248
202
157
156
160
157
159
162
193
210
212
207
207
212
210
209
209
210
210
210
209
209
209
210
209
209
210
210
210
209
210
210
210
208
209
206
173
159
159
158
160
161
156
159
179
157
207
226
175
229
226
181
217
211
183
156
155
154
159
159
161
159
158
160
202
206
207
210
210
209
209
210
209
210
209
209
211
221
224
220
221
223
222
223
211
209
211
209
208
201
180
159
158
159
159
154
176
226
251
254
251
254
253
255
253
254
254
255
254
254
255
255
255
254
254
255
255
254
255
254
254
254
254
255
255
254
254
255
255
254
254
254
254
254
254
254
255
255
255
255
255
0
0
0
0
0
0
0
0
0
0
0
0
0
0
0
0
0
0
0
0
0
0
0
0
0
0
0
0
0
0
0
0
0
0
0
0
0
0
0
0
0
0
0
0
0
0
0
0
0
0
0
0
0
0
0
0
0
0
0
0
0
0
0
0
0
0
0
0
0
0
0
0
0
0
0
0
0
0
0
0
0
0
0
0
0
0
0
0
0
0
0
0
0
0
0
0
0
0
0
0
0
0
0
0
0
0
0
0
0
0
0
0
0
0
0
0
0
0
0
0
0
0
0
0
0
0
0
0
0
0
0
0
0
0
0
0
0
0
0
0
0
0
0
0
0
0
0
0
0
0
0
0
0
0
0
0
0
0
0
0
0
0
0
0
0
0
0
0
0
0
0
0
0
0
0
0
0
0
0
0
0
0
0
0
0
0
0
0
0
0
0
0
0
0
0
0
0
0
0
0
0
0
0
0
0
0
0
0
0
0
0
0
0
0
0
0
0
0
0
0
0
0
0
0
0
0
0
0
0
0
0
0
0
0
0
0
0
0
0
0
0
0
0
0
0
0
0
0
0
0
0
0
0
0
0
0
0
0
0
0
0
0
0
0
0
0
0
0
0
0
0
0
0
0
0
0
0
0
0
0
0
0
0
0
0
0
0
0
0
0
0
255
255
254
254
254
254
254
254
254
254
253
253
254
254
254
254
255
255
254
241
228
228
170
123
124
130
129
131
131
138
159
159
162
164
164
162
162
163
163
164
163
163
163
163
164
164
165
165
164
163
163
165
165
165
164
164
162
163
165
164
164
160
160
164
163
163
163
163
163
163
164
163
163
165
163
164
164
165
164
164
163
164
164
163
162
162
162
165
170
170
182
184
183
183
182
184
184
184
179
167
164
164
165
165
160
132
129
128
129
132
132
125
190
190
229
227
240
252
253
254
254
254
254
254
254
254
255
255
255
253
253
253
254
254
255
254
254
254
247
157
156
159
159
157
157
165
206
208
210
208
212
212
208
210
210
209
210
210
210
209
209
209
210
209
211
211
209
210
210
210
210
210
206
170
158
159
160
153
153
156
175
227
212
232
228
228
227
229
229
230
231
230
229
221
177
177
158
159
158
159
159
159
159
203
209
210
208
208
210
210
208
210
210
209
213
216
222
222
223
223
223
220
212
209
212
210
210
206
160
160
158
158
160
157
155
249
249
254
254
253
255
253
254
254
254
255
255
254
254
255
255
255
254
254
255
255
255
255
254
254
254
254
255
255
254
254
255
255
255
254
254
254
255
255
255
255
254
254
0
0
0
0
0
0
0
0
0
0
0
0
0
0
0
0
0
0
0
0
0
0
0
0
0
0
0
0
0
0
0
0
0
0
0
0
0
0
0
0
0
0
0
0
0
0
0
0
0
0
0
0
0
0
0
0
0
0
0
0
0
0
0
0
0
0
0
0
0
0
0
0
0
0
0
0
0
0
0
0
0
0
0
0
0
0
0
0
0
0
0
0
0
0
0
0
0
0
0
0
0
0
0
0
0
0
0
0
0
0
0
0
0
0
0
0
0
0
0
0
0
0
0
0
0
0
0
0
0
0
0
0
0
0
0
0
0
0
0
0
0
0
0
0
0
0
0
0
0
0
0
0
0
0
0
0
0
0
0
0
0
0
0
0
0
0
0
0
0
0
0
0
0
0
0
0
0
0
0
0
0
0
0
0
0
0
0
0
0
0
0
0
0
0
0
0
0
0
0
0
0
0
0
0
0
0
0
0
0
0
0
0
0
0
0
0
0
0
0
0
0
0
0
0
0
0
0
0
0
0
0
0
0
0
0
0
0
0
0
0
0
0
0
0
0
0
0
0
0
0
0
0
0
0
0
0
0
0
0
0
0
0
0
0
0
0
0
0
0
0
0
0
0
0
0
0
0
0
0
0
0
0
0
0
0
0
0
0
0
0
0
0
255
255
254
254
254
254
254
254
254
254
254
253
253
254
253
253
254
255
254
254
234
230
232
139
124
123
130
128
131
131
139
159
161
161
164
163
162
162
163
164
163
163
163
163
163
164
164
164
164
165
163
164
165
164
164
164
163
163
165
164
165
166
164
164
165
163
165
166
164
165
164
163
167
164
163
164
165
164
164
162
163
164
164
164
163
163
166
173
171
182
184
183
183
182
183
184
183
182
169
167
164
165
165
162
144
129
129
129
129
127
126
122
143
231
229
229
240
254
254
255
254
254
254
254
255
255
254
254
254
255
254
254
252
254
252
252
254
251
246
156
156
157
161
159
162
166
206
208
209
207
209
209
210
210
210
210
209
210
210
210
209
209
209
211
211
207
210
210
209
210
210
207
166
159
158
158
155
158
157
217
230
227
230
229
225
232
230
228
231
229
226
230
231
229
231
204
225
170
158
158
159
159
158
158
206
210
210
212
208
210
209
209
210
210
210
216
219
222
221
224
223
220
212
208
212
208
208
208
195
162
160
158
160
153
153
196
251
250
255
253
252
253
253
254
254
255
255
255
254
254
255
255
255
254
254
254
255
255
255
254
254
254
254
255
255
254
254
255
255
254
254
254
255
255
255
254
254
0
0
0
0
0
0
0
0
0
0
0
0
0
0
0
0
0
0
0
0
0
0
0
0
0
0
0
0
0
0
0
0
0
0
0
0
0
0
0
0
0
0
0
0
0
0
0
0
0
0
0
0
0
0
0
0
0
0
0
0
0
0
0
0
0
0
0
0
0
0
0
0
0
0
0
0
0
0
0
0
0
0
0
0
0
0
0
0
0
0
0
0
0
0
0
0
0
0
0
0
0
0
0
0
0
0
0
0
0
0
0
0
0
0
0
0
0
0
0
0
0
0
0
0
0
0
0
0
0
0
0
0
0
0
0
0
0
0
0
0
0
0
0
0
0
0
0
0
0
0
0
0
0
0
0
0
0
0
0
0
0
0
0
0
0
0
0
0
0
0
0
0
0
0
0
0
0
0
0
0
0
0
0
0
0
0
0
0
0
0
0
0
0
0
0
0
0
0
0
0
0
0
0
0
0
0
0
0
0
0
0
0
0
0
0
0
0
0
0
0
0
0
0
0
0
0
0
0
0
0
0
0
0
0
0
0
0
0
0
0
0
0
0
0
0
0
0
0
0
0
0
0
0
0
0
0
0
0
0
0
0
0
0
0
0
0
0
0
0
0
0
0
0
0
0
0
0
0
0
0
0
0
0
0
0
0
0
0
0
0
0
0
0
254
254
254
254
254
254
254
254
254
254
254
254
253
254
254
254
254
253
255
255
252
229
231
231
127
122
122
127
129
131
131
142
162
162
161
164
164
162
164
164
164
163
163
163
163
163
163
163
164
164
164
164
163
164
164
164
162
162
164
163
163
162
164
165
165
165
166
166
165
166
164
162
162
163
163
162
164
164
161
162
165
165
165
164
164
166
178
173
185
184
184
184
182
183
183
184
183
170
170
163
164
164
161
153
130
130
129
127
127
128
122
122
204
228
227
227
247
254
254
254
255
254
254
254
255
255
254
254
254
255
254
253
253
254
253
253
253
250
173
173
160
157
157
160
158
204
204
212
211
211
210
209
210
210
210
210
210
209
209
209
210
209
210
210
208
211
211
208
210
210
206
168
159
159
159
155
155
170
227
232
232
230
232
232
229
229
230
230
229
230
230
231
231
231
229
229
226
226
173
158
158
159
159
166
166
206
210
210
208
211
209
210
210
210
210
212
222
222
221
222
222
222
213
210
210
210
211
208
203
157
159
159
160
160
160
170
251
254
254
253
255
255
254
255
254
254
255
255
255
254
254
255
255
254
254
254
254
255
255
255
254
254
254
254
255
255
254
254
255
255
254
255
255
255
254
254
0
0
0
0
0
0
0
0
0
0
0
0
0
0
0
0
0
0
0
0
0
0
0
0
0
0
0
0
0
0
0
0
0
0
0
0
0
0
0
0
0
0
0
0
0
0
0
0
0
0
0
0
0
0
0
0
0
0
0
0
0
0
0
0
0
0
0
0
0
0
0
0
0
0
0
0
0
0
0
0
0
0
0
0
0
0
0
0
0
0
0
0
0
0
0
0
0
0
0
0
0
0
0
0
0
0
0
0
0
0
0
0
0
0
0
0
0
0
0
0
0
0
0
0
0
0
0
0
0
0
0
0
0
0
0
0
0
0
0
0
0
0
0
0
0
0
0
0
0
0
0
0
0
0
0
0
0
0
0
0
0
0
0
0
0
0
0
0
0
0
0
0
0
0
0
0
0
0
0
0
0
0
0
0
0
0
0
0
0
0
0
0
0
0
0
0
0
0
0
0
0
0
0
0
0
0
0
0
0
0
0
0
0
0
0
0
0
0
0
0
0
0
0
0
0
0
0
0
0
0
0
0
0
0
0
0
0
0
0
0
0
0
0
0
0
0
0
0
0
0
0
0
0
0
0
0
0
0
0
0
0
0
0
0
0
0
0
0
0
0
0
0
0
0
0
0
0
0
0
0
0
0
0
0
0
0
0
0
0
0
0
0
0
0
254
254
254
255
255
254
254
254
255
254
254
254
254
254
255
255
254
254
254
255
255
242
231
226
223
122
126
126
128
129
131
131
143
162
161
162
164
165
164
164
163
163
163
163
163
164
163
163
163
164
165
164
163
163
163
163
163
163
164
165
163
163
164
165
163
163
165
164
162
163
161
162
162
163
162
163
164
162
163
165
164
165
168
165
171
182
179
185
185
184
184
182
182
182
184
184
172
171
164
165
164
163
161
137
134
129
129
126
126
124
127
165
232
230
231
236
253
255
254
254
255
255
254
254
254
254
254
254
254
255
255
254
253
254
254
255
252
253
238
155
155
162
156
160
159
170
205
211
207
207
209
209
209
210
210
210
210
210
209
209
209
210
210
209
210
211
208
207
211
206
172
157
158
159
155
155
175
229
228
227
229
228
227
230
229
228
229
230
230
228
232
229
233
233
229
230
229
228
228
174
158
158
159
159
179
190
206
212
211
209
214
210
211
210
209
209
216
224
223
223
224
217
211
209
211
209
209
207
178
159
159
158
161
156
159
154
250
254
251
254
255
255
254
255
255
254
254
255
255
255
254
254
254
254
254
255
255
254
255
255
255
254
254
254
255
255
255
254
254
255
255
255
254
254
254
0
0
0
0
0
0
0
0
0
0
0
0
0
0
0
0
0
0
0
0
0
0
0
0
0
0
0
0
0
0
0
0
0
0
0
0
0
0
0
0
0
0
0
0
0
0
0
0
0
0
0
0
0
0
0
0
0
0
0
0
0
0
0
0
0
0
0
0
0
0
0
0
0
0
0
0
0
0
0
0
0
0
0
0
0
0
0
0
0
0
0
0
0
0
0
0
0
0
0
0
0
0
0
0
0
0
0
0
0
0
0
0
0
0
0
0
0
0
0
0
0
0
0
0
0
0
0
0
0
0
0
0
0
0
0
0
0
0
0
0
0
0
0
0
0
0
0
0
0
0
0
0
0
0
0
0
0
0
0
0
0
0
0
0
0
0
0
0
0
0
0
0
0
0
0
0
0
0
0
0
0
0
0
0
0
0
0
0
0
0
0
0
0
0
0
0
0
0
0
0
0
0
0
0
0
0
0
0
0
0
0
0
0
0
0
0
0
0
0
0
0
0
0
0
0
0
0
0
0
0
0
0
0
0
0
0
0
0
0
0
0
0
0
0
0
0
0
0
0
0
0
0
0
0
0
0
0
0
0
0
0
0
0
0
0
0
0
0
0
0
0
0
0
0
0
0
0
0
0
0
0
0
0
0
0
0
0
0
0
0
0
0
0
0
0
254
254
254
255
255
255
254
254
254
255
254
254
254
254
255
254
255
254
254
254
254
254
236
232
223
213
119
126
126
127
127
131
131
143
161
160
162
165
165
164
164
163
163
163
164
164
164
163
163
163
164
164
165
164
164
163
164
162
164
163
162
163
163
165
164
163
165
165
162
164
162
161
162
163
162
163
164
163
167
167
168
173
168
179
183
182
185
184
186
184
183
183
182
184
184
173
173
164
164
165
164
161
141
141
129
130
129
129
126
124
124
228
227
230
229
246
253
255
254
255
255
254
255
254
254
254
254
254
254
254
255
255
254
254
254
255
253
253
236
157
155
158
154
159
159
171
209
211
210
209
209
209
209
210
210
210
210
210
210
209
209
209
209
209
210
210
210
207
208
187
159
157
158
156
155
171
227
230
230
228
230
228
233
230
229
230
229
228
230
229
229
229
228
230
231
231
230
229
228
229
155
159
159
160
159
190
203
208
211
210
211
209
211
212
210
209
210
221
226
226
221
214
211
210
210
209
208
205
190
159
157
157
161
159
160
203
203
253
251
254
255
255
254
254
255
255
254
254
255
255
255
254
254
254
254
255
255
255
254
255
255
255
254
254
254
255
255
255
254
254
255
255
254
254
0
0
0
0
0
0
0
0
0
0
0
0
0
0
0
0
0
0
0
0
0
0
0
0
0
0
0
0
0
0
0
0
0
0
0
0
0
0
0
0
0
0
0
0
0
0
0
0
0
0
0
0
0
0
0
0
0
0
0
0
0
0
0
0
0
0
0
0
0
0
0
0
0
0
0
0
0
0
0
0
0
0
0
0
0
0
0
0
0
0
0
0
0
0
0
0
0
0
0
0
0
0
0
0
0
0
0
0
0
0
0
0
0
0
0
0
0
0
0
0
0
0
0
0
0
0
0
0
0
0
0
0
0
0
0
0
0
0
0
0
0
0
0
0
0
0
0
0
0
0
0
0
0
0
0
0
0
0
0
0
0
0
0
0
0
0
0
0
0
0
0
0
0
0
0
0
0
0
0
0
0
0
0
0
0
0
0
0
0
0
0
0
0
0
0
0
0
0
0
0
0
0
0
0
0
0
0
0
0
0
0
0
0
0
0
0
0
0
0
0
0
0
0
0
0
0
0
0
0
0
0
0
0
0
0
0
0
0
0
0
0
0
0
0
0
0
0
0
0
0
0
0
0
0
0
0
0
0
0
0
0
0
0
0
0
0
0
0
0
0
0
0
0
0
0
0
0
0
0
0
0
0
0
0
0
0
0
0
0
0
0
0
0
0
0
0
255
254
254
254
255
255
255
254
254
254
255
254
255
254
254
255
255
255
254
254
254
254
254
233
232
210
210
118
126
126
127
128
131
131
143
160
159
162
166
166
165
164
164
164
164
164
164
164
163
163
163
164
165
165
164
164
165
165
164
163
167
165
165
171
165
164
165
165
165
164
170
164
164
165
165
165
168
175
170
171
183
178
183
184
184
184
185
186
186
183
183
183
183
184
172
173
165
163
164
164
159
150
145
131
130
130
127
128
128
119
210
229
230
232
237
237
253
254
253
254
254
254
254
255
254
254
254
254
254
254
254
255
255
255
254
254
255
252
234
164
161
159
157
163
156
172
203
207
209
209
209
209
209
210
210
210
210
209
210
211
209
209
210
209
208
210
210
209
202
158
161
157
157
157
162
229
229
231
230
228
229
227
230
230
230
228
233
228
230
230
230
228
230
231
229
228
227
230
228
226
212
152
159
158
160
160
206
206
209
209
208
212
207
210
210
211
210
210
220
221
213
214
210
210
210
208
210
209
206
156
162
162
162
156
157
156
247
253
254
255
255
255
255
254
254
255
255
254
254
255
255
255
254
254
255
255
255
254
254
254
255
255
255
254
254
254
255
255
255
254
254
254
254
0
0
0
0
0
0
0
0
0
0
0
0
0
0
0
0
0
0
0
0
0
0
0
0
0
0
0
0
0
0
0
0
0
0
0
0
0
0
0
0
0
0
0
0
0
0
0
0
0
0
0
0
0
0
0
0
0
0
0
0
0
0
0
0
0
0
0
0
0
0
0
0
0
0
0
0
0
0
0
0
0
0
0
0
0
0
0
0
0
0
0
0
0
0
0
0
0
0
0
0
0
0
0
0
0
0
0
0
0
0
0
0
0
0
0
0
0
0
0
0
0
0
0
0
0
0
0
0
0
0
0
0
0
0
0
0
0
0
0
0
0
0
0
0
0
0
0
0
0
0
0
0
0
0
0
0
0
0
0
0
0
0
0
0
0
0
0
0
0
0
0
0
0
0
0
0
0
0
0
0
0
0
0
0
0
0
0
0
0
0
0
0
0
0
0
0
0
0
0
0
0
0
0
0
0
0
0
0
0
0
0
0
0
0
0
0
0
0
0
0
0
0
0
0
0
0
0
0
0
0
0
0
0
0
0
0
0
0
0
0
0
0
0
0
0
0
0
0
0
0
0
0
0
0
0
0
0
0
0
0
0
0
0
0
0
0
0
0
0
0
0
0
0
0
0
0
0
0
0
0
0
0
0
0
0
0
0
0
0
0
0
0
0
0
0
0
0
255
255
254
254
254
255
255
255
254
254
254
255
255
255
254
254
255
255
255
254
254
254
254
251
230
230
201
195
122
126
125
127
128
130
131
141
159
159
162
166
165
165
165
164
164
164
164
164
163
163
163
163
164
165
165
165
165
165
173
175
167
178
178
171
179
178
170
167
178
176
170
178
176
170
170
179
180
175
183
184
183
185
182
183
183
185
185
186
183
183
182
183
183
172
172
164
163
163
163
162
151
150
131
128
130
128
127
128
122
155
231
229
230
230
229
250
255
253
253
254
254
254
254
254
253
254
254
254
254
254
254
254
255
255
254
254
254
251
234
171
159
162
157
159
159
172
202
208
209
209
210
210
209
210
209
209
209
209
211
211
210
210
210
210
210
210
209
208
169
158
159
158
159
156
221
227
229
229
228
228
230
229
230
228
238
243
233
249
251
238
239
250
252
231
241
234
227
229
230
230
212
184
159
158
157
156
175
208
210
210
208
208
210
209
209
210
210
210
207
208
213
209
211
210
210
209
211
209
209
164
157
157
156
156
157
156
237
253
254
255
255
255
255
254
254
254
255
255
254
254
255
255
255
254
254
255
255
255
254
254
255
255
255
255
254
254
254
255
255
255
254
254
0
0
0
0
0
0
0
0
0
0
0
0
0
0
0
0
0
0
0
0
0
0
0
0
0
0
0
0
0
0
0
0
0
0
0
0
0
0
0
0
0
0
0
0
0
0
0
0
0
0
0
0
0
0
0
0
0
0
0
0
0
0
0
0
0
0
0
0
0
0
0
0
0
0
0
0
0
0
0
0
0
0
0
0
0
0
0
0
0
0
0
0
0
0
0
0
0
0
0
0
0
0
0
0
0
0
0
0
0
0
0
0
0
0
0
0
0
0
0
0
0
0
0
0
0
0
0
0
0
0
0
0
0
0
0
0
0
0
0
0
0
0
0
0
0
0
0
0
0
0
0
0
0
0
0
0
0
0
0
0
0
0
0
0
0
0
0
0
0
0
0
0
0
0
0
0
0
0
0
0
0
0
0
0
0
0
0
0
0
0
0
0
0
0
0
0
0
0
0
0
0
0
0
0
0
0
0
0
0
0
0
0
0
0
0
0
0
0
0
0
0
0
0
0
0
0
0
0
0
0
0
0
0
0
0
0
0
0
0
0
0
0
0
0
0
0
0
0
0
0
0
0
0
0
0
0
0
0
0
0
0
0
0
0
0
0
0
0
0
0
0
0
0
0
0
0
0
0
0
0
0
0
0
0
0
0
0
0
0
0
0
0
0
0
0
0
0
0
254
255
255
254
254
254
255
255
255
254
254
254
255
255
255
254
254
255
255
255
254
254
254
248
248
230
228
189
189
124
125
125
128
127
131
131
139
159
159
162
165
165
165
165
164
164
164
164
164
164
163
163
163
164
165
165
169
177
181
181
182
184
184
184
184
184
184
183
183
183
184
183
183
182
183
183
183
184
184
184
186
182
182
183
184
184
184
182
183
183
183
183
171
171
164
163
163
164
162
155
153
131
129
129
130
128
128
129
132
233
233
231
230
230
233
255
253
253
254
254
254
254
255
255
255
254
254
254
254
255
255
255
254
255
255
253
251
251
236
156
151
158
155
156
156
165
209
209
212
210
210
210
210
209
209
209
209
210
210
211
210
210
210
210
210
209
210
185
185
161
155
155
155
200
228
228
230
227
227
231
230
230
233
244
252
252
254
254
254
255
254
253
253
254
251
251
242
232
235
228
230
161
161
159
159
159
158
206
209
209
210
209
209
209
209
209
209
209
207
207
207
209
209
211
209
207
207
208
198
198
157
160
161
161
160
174
174
251
253
254
254
255
255
255
254
254
254
255
255
254
254
255
254
254
254
255
255
255
255
255
255
254
255
255
255
254
254
254
255
255
255
0
0
0
0
0
0
0
0
0
0
0
0
0
0
0
0
0
0
0
0
0
0
0
0
0
0
0
0
0
0
0
0
0
0
0
0
0
0
0
0
0
0
0
0
0
0
0
0
0
0
0
0
0
0
0
0
0
0
0
0
0
0
0
0
0
0
0
0
0
0
0
0
0
0
0
0
0
0
0
0
0
0
0
0
0
0
0
0
0
0
0
0
0
0
0
0
0
0
0
0
0
0
0
0
0
0
0
0
0
0
0
0
0
0
0
0
0
0
0
0
0
0
0
0
0
0
0
0
0
0
0
0
0
0
0
0
0
0
0
0
0
0
0
0
0
0
0
0
0
0
0
0
0
0
0
0
0
0
0
0
0
0
0
0
0
0
0
0
0
0
0
0
0
0
0
0
0
0
0
0
0
0
0
0
0
0
0
0
0
0
0
0
0
0
0
0
0
0
0
0
0
0
0
0
0
0
0
0
0
0
0
0
0
0
0
0
0
0
0
0
0
0
0
0
0
0
0
0
0
0
0
0
0
0
0
0
0
0
0
0
0
0
0
0
0
0
0
0
0
0
0
0
0
0
0
0
0
0
0
0
0
0
0
0
0
0
0
0
0
0
0
0
0
0
0
0
0
0
0
0
0
0
0
0
0
0
0
0
0
0
0
0
0
0
0
0
0
0
0
254
254
255
255
254
254
254
255
255
255
254
254
254
255
255
255
254
254
254
254
255
255
255
254
245
241
230
230
185
182
125
126
124
129
128
131
130
138
157
156
161
165
165
167
164
164
163
164
164
164
164
163
163
164
165
168
174
182
184
183
183
184
183
182
184
183
183
183
183
185
185
187
184
185
184
184
183
183
183
184
182
182
183
184
183
183
182
183
183
183
179
168
169
164
164
164
164
163
156
155
131
129
129
129
130
129
129
122
220
231
229
230
230
232
250
255
253
254
254
254
254
254
254
255
255
255
255
255
255
254
255
255
254
254
255
254
255
253
241
158
151
160
157
157
158
162
200
208
209
208
210
210
210
210
209
209
210
210
210
210
210
209
208
209
209
209
209
201
157
162
159
158
159
229
228
231
231
229
231
230
231
239
254
254
255
254
253
255
255
252
255
254
254
254
253
255
254
253
235
239
230
228
153
158
158
161
157
193
210
208
208
210
210
210
210
209
212
207
211
212
219
211
210
210
209
210
213
208
210
161
158
153
161
160
158
154
227
243
254
254
255
254
255
255
255
254
254
254
255
255
254
254
255
254
254
255
255
255
255
255
255
255
254
255
255
255
254
254
254
255
0
0
0
0
0
0
0
0
0
0
0
0
0
0
0
0
0
0
0
0
0
0
0
0
0
0
0
0
0
0
0
0
0
0
0
0
0
0
0
0
0
0
0
0
0
0
0
0
0
0
0
0
0
0
0
0
0
0
0
0
0
0
0
0
0
0
0
0
0
0
0
0
0
0
0
0
0
0
0
0
0
0
0
0
0
0
0
0
0
0
0
0
0
0
0
0
0
0
0
0
0
0
0
0
0
0
0
0
0
0
0
0
0
0
0
0
0
0
0
0
0
0
0
0
0
0
0
0
0
0
0
0
0
0
0
0
0
0
0
0
0
0
0
0
0
0
0
0
0
0
0
0
0
0
0
0
0
0
0
0
0
0
0
0
0
0
0
0
0
0
0
0
0
0
0
0
0
0
0
0
0
0
0
0
0
0
0
0
0
0
0
0
0
0
0
0
0
0
0
0
0
0
0
0
0
0
0
0
0
0
0
0
0
0
0
0
0
0
0
0
0
0
0
0
0
0
0
0
0
0
0
0
0
0
0
0
0
0
0
0
0
0
0
0
0
0
0
0
0
0
0
0
0
0
0
0
0
0
0
0
0
0
0
0
0
0
0
0
0
0
0
0
0
0
0
0
0
0
0
0
0
0
0
0
0
0
0
0
0
0
0
0
0
0
0
0
0
0
0
0
255
254
254
255
255
254
255
254
255
255
255
254
254
254
255
254
254
254
254
254
254
254
255
255
253
238
238
230
232
182
179
122
124
124
130
128
130
131
135
155
155
160
160
160
165
165
163
163
165
164
164
163
163
164
165
169
180
180
181
181
183
184
182
182
184
182
183
183
182
185
185
184
184
183
183
183
183
183
182
183
182
182
186
183
183
184
182
183
181
176
166
166
163
164
164
165
163
156
156
130
129
129
129
130
130
130
124
202
202
230
230
230
229
241
255
255
255
254
254
254
255
254
255
255
254
254
255
255
255
255
254
255
255
255
253
254
255
254
184
184
157
161
161
158
159
162
192
208
210
210
209
210
210
210
209
210
210
210
210
210
210
210
208
211
209
210
210
184
160
162
157
157
220
220
228
230
231
228
230
230
250
254
254
254
254
254
253
254
254
255
255
255
255
254
253
253
254
254
253
243
243
231
167
158
155
159
159
159
207
211
208
210
209
210
210
210
208
207
223
222
219
222
214
207
207
206
211
208
207
164
163
163
161
158
158
155
226
255
255
254
253
253
254
255
255
255
254
254
254
255
255
254
254
255
255
255
255
254
255
255
255
255
254
254
255
255
255
254
254
0
0
0
0
0
0
0
0
0
0
0
0
0
0
0
0
0
0
0
0
0
0
0
0
0
0
0
0
0
0
0
0
0
0
0
0
0
0
0
0
0
0
0
0
0
0
0
0
0
0
0
0
0
0
0
0
0
0
0
0
0
0
0
0
0
0
0
0
0
0
0
0
0
0
0
0
0
0
0
0
0
0
0
0
0
0
0
0
0
0
0
0
0
0
0
0
0
0
0
0
0
0
0
0
0
0
0
0
0
0
0
0
0
0
0
0
0
0
0
0
0
0
0
0
0
0
0
0
0
0
0
0
0
0
0
0
0
0
0
0
0
0
0
0
0
0
0
0
0
0
0
0
0
0
0
0
0
0
0
0
0
0
0
0
0
0
0
0
0
0
0
0
0
0
0
0
0
0
0
0
0
0
0
0
0
0
0
0
0
0
0
0
0
0
0
0
0
0
0
0
0
0
0
0
0
0
0
0
0
0
0
0
0
0
0
0
0
0
0
0
0
0
0
0
0
0
0
0
0
0
0
0
0
0
0
0
0
0
0
0
0
0
0
0
0
0
0
0
0
0
0
0
0
0
0
0
0
0
0
0
0
0
0
0
0
0
0
0
0
0
0
0
0
0
0
0
0
0
0
0
0
0
0
0
0
0
0
0
0
0
0
0
0
0
0
0
0
0
0
0
0
255
255
254
254
255
255
255
254
254
255
255
255
254
254
254
255
254
254
254
254
254
254
254
255
255
254
235
233
229
234
186
189
123
124
124
130
127
131
130
133
152
145
161
161
162
163
165
163
163
164
164
164
163
165
166
167
176
185
184
181
184
184
184
183
184
184
184
184
184
183
184
184
183
183
183
185
184
184
183
183
183
183
184
184
184
180
182
180
173
164
165
164
165
164
164
162
155
155
131
129
128
129
130
130
129
124
175
188
231
229
230
229
234
253
255
255
255
254
254
255
255
255
255
255
254
254
254
255
254
254
254
254
251
255
253
254
252
252
246
156
155
158
161
160
157
157
208
207
208
209
210
209
210
210
210
210
210
210
210
209
210
210
210
210
209
208
205
164
157
159
157
156
189
228
229
229
229
232
232
253
254
254
254
255
254
253
254
253
254
255
254
254
254
254
254
255
255
253
253
252
241
243
224
156
159
160
160
179
205
210
212
208
210
210
209
209
210
223
222
222
223
223
223
215
210
209
208
209
196
161
157
157
159
160
157
171
225
241
254
254
255
255
254
254
254
255
255
254
254
254
255
255
254
254
255
255
255
254
254
255
255
255
254
254
254
255
255
255
0
0
0
0
0
0
0
0
0
0
0
0
0
0
0
0
0
0
0
0
0
0
0
0
0
0
0
0
0
0
0
0
0
0
0
0
0
0
0
0
0
0
0
0
0
0
0
0
0
0
0
0
0
0
0
0
0
0
0
0
0
0
0
0
0
0
0
0
0
0
0
0
0
0
0
0
0
0
0
0
0
0
0
0
0
0
0
0
0
0
0
0
0
0
0
0
0
0
0
0
0
0
0
0
0
0
0
0
0
0
0
0
0
0
0
0
0
0
0
0
0
0
0
0
0
0
0
0
0
0
0
0
0
0
0
0
0
0
0
0
0
0
0
0
0
0
0
0
0
0
0
0
0
0
0
0
0
0
0
0
0
0
0
0
0
0
0
0
0
0
0
0
0
0
0
0
0
0
0
0
0
0
0
0
0
0
0
0
0
0
0
0
0
0
0
0
0
0
0
0
0
0
0
0
0
0
0
0
0
0
0
0
0
0
0
0
0
0
0
0
0
0
0
0
0
0
0
0
0
0
0
0
0
0
0
0
0
0
0
0
0
0
0
0
0
0
0
0
0
0
0
0
0
0
0
0
0
0
0
0
0
0
0
0
0
0
0
0
0
0
0
0
0
0
0
0
0
0
0
0
0
0
0
0
0
0
0
0
0
0
0
0
0
0
0
0
0
0
0
0
0
0
