P2
570 540
255
254
0
0
0
0
0
0
0
0
0
0
0
0
0
0
0
0
0
0
0
0
0
0
0
0
0
0
0
0
0
0
0
0
0
0
0
0
0
0
0
0
0
0
0
0
0
0
0
0
0
0
0
0
0
0
0
0
0
0
0
0
0
0
0
0
0
0
0
0
0
0
0
0
0
0
0
0
0
0
0
0
0
0
0
0
0
0
0
0
0
0
0
0
0
0
0
0
0
0
0
0
0
0
0
0
0
0
0
0
0
0
0
0
0
0
0
0
0
0
0
0
0
0
0
0
0
0
0
0
0
0
0
0
0
0
0
0
0
0
0
0
0
0
0
0
0
0
0
0
0
0
0
0
0
0
0
0
0
0
0
0
0
0
0
0
0
0
0
0
0
0
0
0
0
0
0
0
0
0
0
0
0
0
0
0
0
0
0
0
0
0
0
0
0
0
0
0
0
0
0
0
0
0
0
0
0
0
0
0
0
0
0
0
0
0
0
0
0
0
0
0
0
0
0
0
0
0
0
0
0
0
0
0
0
0
0
0
0
0
0
0
0
0
0
0
0
0
0
0
0
0
0
0
0
0
0
0
0
0
0
0
0
0
0
0
0
0
0
0
0
0
0
0
0
0
0
0
0
0
0
0
0
0
0
0
0
0
0
0
0
0
0
0
0
0
0
0
0
0
0
0
0
0
0
0
0
0
0
0
0
0
0
0
0
0
0
0
0
0
0
0
0
0
0
0
0
0
0
0
0
0
0
0
0
0
0
0
0
0
0
0
0
0
0
0
0
0
0
0
0
0
0
0
0
0
0
0
0
0
0
0
0
0
0
0
0
0
0
0
0
0
0
0
0
0
0
0
0
0
0
0
0
0
0
0
0
0
0
0
0
0
0
0
0
0
0
0
0
0
0
0
0
0
0
0
0
0
0
0
0
0
0
0
0
0
0
0
0
0
0
0
0
0
0
0
0
0
0
0
0
0
0
0
0
0
0
0
0
0
0
0
0
0
0
0
0
0
0
0
0
0
0
0
0
0
0
0
0
0
0
0
0
0
0
0
0
0
0
0
0
0
0
0
0
0
0
0
0
0
0
0
0
0
0
0
0
0
0
0
0
0
0
0
0
0
0
0
0
0
0
0
0
0
0
0
0
0
0
0
0
0
0
0
0
0
0
0
0
0
0
0
0
0
0
0
0
0
0
0
0
0
0
0
0
0
0
0
0
0
0
0
0
0
0
0
0
0
0
0
0
0
0
0
0
0
0
0
0
0
0
0
0
0
0
0
0
0
0
0
0
254
254
0
0
0
0
0
0
0
0
0
0
0
0
0
0
0
0
0
0
0
0
0
0
0
0
0
0
0
0
0
0
0
0
0
0
0
0
0
0
0
0
0
0
0
0
0
0
0
0
0
0
0
0
0
0
0
0
0
0
0
0
0
0
0
0
0
0
0
0
0
0
0
0
0
0
0
0
0
0
0
0
0
0
0
0
0
0
0
0
0
0
0
0
0
0
0
0
0
0
0
0
0
0
0
0
0
0
0
0
0
0
0
0
0
0
0
0
0
0
0
0
0
0
0
0
0
0
0
0
0
0
0
0
0
0
0
0
0
0
0
0
0
0
0
0
0
0
0
0
0
0
0
0
0
0
0
0
0
0
0
0
0
0
0
0
0
0
0
0
0
0
0
0
0
0
0
0
0
0
0
0
0
0
0
0
0
0
0
0
0
0
0
0
0
0
0
0
0
0
0
0
0
0
0
0
0
0
0
0
0
0
0
0
0
0
0
0
0
0
0
0
0
0
0
0
0
0
0
0
0
0
0
0
0
0
0
0
0
0
0
0
0
0
0
0
0
0
0
0
0
0
0
0
0
0
0
0
0
0
0
0
0
0
0
0
0
0
0
0
0
0
0
0
0
0
0
0
0
0
0
0
0
0
0
0
0
0
0
0
0
0
0
0
0
0
0
0
0
0
0
0
0
0
0
0
0
0
0
0
0
0
0
0
0
0
0
0
0
0
0
0
0
0
0
0
0
0
0
0
0
0
0
0
0
0
0
0
0
0
0
0
0
0
0
0
0
0
0
0
0
0
0
0
0
0
0
0
0
0
0
0
0
0
0
0
0
0
0
0
0
0
0
0
0
0
0
0
0
0
0
0
0
0
0
0
0
0
0
0
0
0
0
0
0
0
0
0
0
0
0
0
0
0
0
0
0
0
0
0
0
0
0
0
0
0
0
0
0
0
0
0
0
0
0
0
0
0
0
0
0
0
0
0
0
0
0
0
0
0
0
0
0
0
0
0
0
0
0
0
0
0
0
0
0
0
0
0
0
0
0
0
0
0
0
0
0
0
0
0
0
0
0
0
0
0
0
0
0
0
0
0
0
0
0
0
0
0
0
0
0
0
0
0
0
0
0
0
0
0
0
0
0
0
0
0
0
0
0
0
0
0
0
0
0
0
0
0
0
0
0
0
0
0
0
0
0
0
0
0
0
0
0
0
0
0
0
0
0
0
0
0
0
0
0
0
0
0
0
0
0
0
0
0
0
0
0
0
0
0
0
0
0
0
0
0
0
0
0
0
254
254
254
0
0
0
0
0
0
0
0
0
0
0
0
0
0
0
0
0
0
0
0
0
0
0
0
0
0
0
0
0
0
0
0
0
0
0
0
0
0
0
0
0
0
0
0
0
0
0
0
0
0
0
0
0
0
0
0
0
0
0
0
0
0
0
0
0
0
0
0
0
0
0
0
0
0
0
0
0
0
0
0
0
0
0
0
0
0
0
0
0
0
0
0
0
0
0
0
0
0
0
0
0
0
0
0
0
0
0
0
0
0
0
0
0
0
0
0
0
0
0
0
0
0
0
0
0
0
0
0
0
0
0
0
0
0
0
0
0
0
0
0
0
0
0
0
0
0
0
0
0
0
0
0
0
0
0
0
0
0
0
0
0
0
0
0
0
0
0
0
0
0
0
0
0
0
0
0
0
0
0
0
0
0
0
0
0
0
0
0
0
0
0
0
0
0
0
0
0
0
0
0
0
0
0
0
0
0
0
0
0
0
0
0
0
0
0
0
0
0
0
0
0
0
0
0
0
0
0
0
0
0
0
0
0
0
0
0
0
0
0
0
0
0
0
0
0
0
0
0
0
0
0
0
0
0
0
0
0
0
0
0
0
0
0
0
0
0
0
0
0
0
0
0
0
0
0
0
0
0
0
0
0
0
0
0
0
0
0
0
0
0
0
0
0
0
0
0
0
0
0
0
0
0
0
0
0
0
0
0
0
0
0
0
0
0
0
0
0
0
0
0
0
0
0
0
0
0
0
0
0
0
0
0
0
0
0
0
0
0
0
0
0
0
0
0
0
0
0
0
0
0
0
0
0
0
0
0
0
0
0
0
0
0
0
0
0
0
0
0
0
0
0
0
0
0
0
0
0
0
0
0
0
0
0
0
0
0
0
0
0
0
0
0
0
0
0
0
0
0
0
0
0
0
0
0
0
0
0
0
0
0
0
0
0
0
0
0
0
0
0
0
0
0
0
0
0
0
0
0
0
0
0
0
0
0
0
0
0
0
0
0
0
0
0
0
0
0
0
0
0
0
0
0
0
0
0
0
0
0
0
0
0
0
0
0
0
0
0
0
0
0
0
0
0
0
0
0
0
0
0
0
0
0
0
0
0
0
0
0
0
0
0
0
0
0
0
0
0
0
0
0
0
0
0
0
0
0
0
0
0
0
0
0
0
0
0
0
0
0
0
0
0
0
0
0
0
0
0
0
0
0
0
0
0
0
0
0
0
0
0
0
0
0
0
0
0
0
0
0
0
0
0
0
0
0
0
0
0
0
0
0
0
0
0
0
0
0
0
255
254
254
254
0
0
0
0
0
0
0
0
0
0
0
0
0
0
0
0
0
0
0
0
0
0
0
0
0
0
0
0
0
0
0
0
0
0
0
0
0
0
0
0
0
0
0
0
0
0
0
0
0
0
0
0
0
0
0
0
0
0
0
0
0
0
0
0
0
0
0
0
0
0
0
0
0
0
0
0
0
0
0
0
0
0
0
0
0
0
0
0
0
0
0
0
0
0
0
0
0
0
0
0
0
0
0
0
0
0
0
0
0
0
0
0
0
0
0
0
0
0
0
0
0
0
0
0
0
0
0
0
0
0
0
0
0
0
0
0
0
0
0
0
0
0
0
0
0
0
0
0
0
0
0
0
0
0
0
0
0
0
0
0
0
0
0
0
0
0
0
0
0
0
0
0
0
0
0
0
0
0
0
0
0
0
0
0
0
0
0
0
0
0
0
0
0
0
0
0
0
0
0
0
0
0
0
0
0
0
0
0
0
0
0
0
0
0
0
0
0
0
0
0
0
0
0
0
0
0
0
0
0
0
0
0
0
0
0
0
0
0
0
0
0
0
0
0
0
0
0
0
0
0
0
0
0
0
0
0
0
0
0
0
0
0
0
0
0
0
0
0
0
0
0
0
0
0
0
0
0
0
0
0
0
0
0
0
0
0
0
0
0
0
0
0
0
0
0
0
0
0
0
0
0
0
0
0
0
0
0
0
0
0
0
0
0
0
0
0
0
0
0
0
0
0
0
0
0
0
0
0
0
0
0
0
0
0
0
0
0
0
0
0
0
0
0
0
0
0
0
0
0
0
0
0
0
0
0
0
0
0
0
0
0
0
0
0
0
0
0
0
0
0
0
0
0
0
0
0
0
0
0
0
0
0
0
0
0
0
0
0
0
0
0
0
0
0
0
0
0
0
0
0
0
0
0
0
0
0
0
0
0
0
0
0
0
0
0
0
0
0
0
0
0
0
0
0
0
0
0
0
0
0
0
0
0
0
0
0
0
0
0
0
0
0
0
0
0
0
0
0
0
0
0
0
0
0
0
0
0
0
0
0
0
0
0
0
0
0
0
0
0
0
0
0
0
0
0
0
0
0
0
0
0
0
0
0
0
0
0
0
0
0
0
0
0
0
0
0
0
0
0
0
0
0
0
0
0
0
0
0
0
0
0
0
0
0
0
0
0
0
0
0
0
0
0
0
0
0
0
0
0
0
0
0
0
0
0
0
0
0
0
0
0
0
0
0
0
0
0
0
0
0
0
0
0
0
0
0
0
0
0
0
0
0
0
0
0
0
255
255
254
254
254
0
0
0
0
0
0
0
0
0
0
0
0
0
0
0
0
0
0
0
0
0
0
0
0
0
0
0
0
0
0
0
0
0
0
0
0
0
0
0
0
0
0
0
0
0
0
0
0
0
0
0
0
0
0
0
0
0
0
0
0
0
0
0
0
0
0
0
0
0
0
0
0
0
0
0
0
0
0
0
0
0
0
0
0
0
0
0
0
0
0
0
0
0
0
0
0
0
0
0
0
0
0
0
0
0
0
0
0
0
0
0
0
0
0
0
0
0
0
0
0
0
0
0
0
0
0
0
0
0
0
0
0
0
0
0
0
0
0
0
0
0
0
0
0
0
0
0
0
0
0
0
0
0
0
0
0
0
0
0
0
0
0
0
0
0
0
0
0
0
0
0
0
0
0
0
0
0
0
0
0
0
0
0
0
0
0
0
0
0
0
0
0
0
0
0
0
0
0
0
0
0
0
0
0
0
0
0
0
0
0
0
0
0
0
0
0
0
0
0
0
0
0
0
0
0
0
0
0
0
0
0
0
0
0
0
0
0
0
0
0
0
0
0
0
0
0
0
0
0
0
0
0
0
0
0
0
0
0
0
0
0
0
0
0
0
0
0
0
0
0
0
0
0
0
0
0
0
0
0
0
0
0
0
0
0
0
0
0
0
0
0
0
0
0
0
0
0
0
0
0
0
0
0
0
0
0
0
0
0
0
0
0
0
0
0
0
0
0
0
0
0
0
0
0
0
0
0
0
0
0
0
0
0
0
0
0
0
0
0
0
0
0
0
0
0
0
0
0
0
0
0
0
0
0
0
0
0
0
0
0
0
0
0
0
0
0
0
0
0
0
0
0
0
0
0
0
0
0
0
0
0
0
0
0
0
0
0
0
0
0
0
0
0
0
0
0
0
0
0
0
0
0
0
0
0
0
0
0
0
0
0
0
0
0
0
0
0
0
0
0
0
0
0
0
0
0
0
0
0
0
0
0
0
0
0
0
0
0
0
0
0
0
0
0
0
0
0
0
0
0
0
0
0
0
0
0
0
0
0
0
0
0
0
0
0
0
0
0
0
0
0
0
0
0
0
0
0
0
0
0
0
0
0
0
0
0
0
0
0
0
0
0
0
0
0
0
0
0
0
0
0
0
0
0
0
0
0
0
0
0
0
0
0
0
0
0
0
0
0
0
0
0
0
0
0
0
0
0
0
0
0
0
0
0
0
0
0
0
0
0
0
0
0
0
0
0
0
0
0
0
0
0
0
0
0
0
0
0
0
0
0
0
0
0
0
255
254
254
254
254
254
0
0
0
0
0
0
0
0
0
0
0
0
0
0
0
0
0
0
0
0
0
0
0
0
0
0
0
0
0
0
0
0
0
0
0
0
0
0
0
0
0
0
0
0
0
0
0
0
0
0
0
0
0
0
0
0
0
0
0
0
0
0
0
0
0
0
0
0
0
0
0
0
0
0
0
0
0
0
0
0
0
0
0
0
0
0
0
0
0
0
0
0
0
0
0
0
0
0
0
0
0
0
0
0
0
0
0
0
0
0
0
0
0
0
0
0
0
0
0
0
0
0
0
0
0
0
0
0
0
0
0
0
0
0
0
0
0
0
0
0
0
0
0
0
0
0
0
0
0
0
0
0
0
0
0
0
0
0
0
0
0
0
0
0
0
0
0
0
0
0
0
0
0
0
0
0
0
0
0
0
0
0
0
0
0
0
0
0
0
0
0
0
0
0
0
0
0
0
0
0
0
0
0
0
0
0
0
0
0
0
0
0
0
0
0
0
0
0
0
0
0
0
0
0
0
0
0
0
0
0
0
0
0
0
0
0
0
0
0
0
0
0
0
0
0
0
0
0
0
0
0
0
0
0
0
0
0
0
0
0
0
0
0
0
0
0
0
0
0
0
0
0
0
0
0
0
0
0
0
0
0
0
0
0
0
0
0
0
0
0
0
0
0
0
0
0
0
0
0
0
0
0
0
0
0
0
0
0
0
0
0
0
0
0
0
0
0
0
0
0
0
0
0
0
0
0
0
0
0
0
0
0
0
0
0
0
0
0
0
0
0
0
0
0
0
0
0
0
0
0
0
0
0
0
0
0
0
0
0
0
0
0
0
0
0
0
0
0
0
0
0
0
0
0
0
0
0
0
0
0
0
0
0
0
0
0
0
0
0
0
0
0
0
0
0
0
0
0
0
0
0
0
0
0
0
0
0
0
0
0
0
0
0
0
0
0
0
0
0
0
0
0
0
0
0
0
0
0
0
0
0
0
0
0
0
0
0
0
0
0
0
0
0
0
0
0
0
0
0
0
0
0
0
0
0
0
0
0
0
0
0
0
0
0
0
0
0
0
0
0
0
0
0
0
0
0
0
0
0
0
0
0
0
0
0
0
0
0
0
0
0
0
0
0
0
0
0
0
0
0
0
0
0
0
0
0
0
0
0
0
0
0
0
0
0
0
0
0
0
0
0
0
0
0
0
0
0
0
0
0
0
0
0
0
0
0
0
0
0
0
0
0
0
0
0
0
0
0
0
0
0
0
0
0
0
0
0
0
0
0
0
0
0
0
254
254
254
255
254
254
254
0
0
0
0
0
0
0
0
0
0
0
0
0
0
0
0
0
0
0
0
0
0
0
0
0
0
0
0
0
0
0
0
0
0
0
0
0
0
0
0
0
0
0
0
0
0
0
0
0
0
0
0
0
0
0
0
0
0
0
0
0
0
0
0
0
0
0
0
0
0
0
0
0
0
0
0
0
0
0
0
0
0
0
0
0
0
0
0
0
0
0
0
0
0
0
0
0
0
0
0
0
0
0
0
0
0
0
0
0
0
0
0
0
0
0
0
0
0
0
0
0
0
0
0
0
0
0
0
0
0
0
0
0
0
0
0
0
0
0
0
0
0
0
0
0
0
0
0
0
0
0
0
0
0
0
0
0
0
0
0
0
0
0
0
0
0
0
0
0
0
0
0
0
0
0
0
0
0
0
0
0
0
0
0
0
0
0
0
0
0
0
0
0
0
0
0
0
0
0
0
0
0
0
0
0
0
0
0
0
0
0
0
0
0
0
0
0
0
0
0
0
0
0
0
0
0
0
0
0
0
0
0
0
0
0
0
0
0
0
0
0
0
0
0
0
0
0
0
0
0
0
0
0
0
0
0
0
0
0
0
0
0
0
0
0
0
0
0
0
0
0
0
0
0
0
0
0
0
0
0
0
0
0
0
0
0
0
0
0
0
0
0
0
0
0
0
0
0
0
0
0
0
0
0
0
0
0
0
0
0
0
0
0
0
0
0
0
0
0
0
0
0
0
0
0
0
0
0
0
0
0
0
0
0
0
0
0
0
0
0
0
0
0
0
0
0
0
0
0
0
0
0
0
0
0
0
0
0
0
0
0
0
0
0
0
0
0
0
0
0
0
0
0
0
0
0
0
0
0
0
0
0
0
0
0
0
0
0
0
0
0
0
0
0
0
0
0
0
0
0
0
0
0
0
0
0
0
0
0
0
0
0
0
0
0
0
0
0
0
0
0
0
0
0
0
0
0
0
0
0
0
0
0
0
0
0
0
0
0
0
0
0
0
0
0
0
0
0
0
0
0
0
0
0
0
0
0
0
0
0
0
0
0
0
0
0
0
0
0
0
0
0
0
0
0
0
0
0
0
0
0
0
0
0
0
0
0
0
0
0
0
0
0
0
0
0
0
0
0
0
0
0
0
0
0
0
0
0
0
0
0
0
0
0
0
0
0
0
0
0
0
0
0
0
0
0
0
0
0
0
0
0
0
0
0
0
0
0
0
0
0
0
0
0
0
0
0
0
0
0
0
0
0
0
0
0
0
0
0
0
0
0
0
254
254
254
255
255
254
254
254
0
0
0
0
0
0
0
0
0
0
0
0
0
0
0
0
0
0
0
0
0
0
0
0
0
0
0
0
0
0
0
0
0
0
0
0
0
0
0
0
0
0
0
0
0
0
0
0
0
0
0
0
0
0
0
0
0
0
0
0
0
0
0
0
0
0
0
0
0
0
0
0
0
0
0
0
0
0
0
0
0
0
0
0
0
0
0
0
0
0
0
0
0
0
0
0
0
0
0
0
0
0
0
0
0
0
0
0
0
0
0
0
0
0
0
0
0
0
0
0
0
0
0
0
0
0
0
0
0
0
0
0
0
0
0
0
0
0
0
0
0
0
0
0
0
0
0
0
0
0
0
0
0
0
0
0
0
0
0
0
0
0
0
0
0
0
0
0
0
0
0
0
0
0
0
0
0
0
0
0
0
0
0
0
0
0
0
0
0
0
0
0
0
0
0
0
0
0
0
0
0
0
0
0
0
0
0
0
0
0
0
0
0
0
0
0
0
0
0
0
0
0
0
0
0
0
0
0
0
0
0
0
0
0
0
0
0
0
0
0
0
0
0
0
0
0
0
0
0
0
0
0
0
0
0
0
0
0
0
0
0
0
0
0
0
0
0
0
0
0
0
0
0
0
0
0
0
0
0
0
0
0
0
0
0
0
0
0
0
0
0
0
0
0
0
0
0
0
0
0
0
0
0
0
0
0
0
0
0
0
0
0
0
0
0
0
0
0
0
0
0
0
0
0
0
0
0
0
0
0
0
0
0
0
0
0
0
0
0
0
0
0
0
0
0
0
0
0
0
0
0
0
0
0
0
0
0
0
0
0
0
0
0
0
0
0
0
0
0
0
0
0
0
0
0
0
0
0
0
0
0
0
0
0
0
0
0
0
0
0
0
0
0
0
0
0
0
0
0
0
0
0
0
0
0
0
0
0
0
0
0
0
0
0
0
0
0
0
0
0
0
0
0
0
0
0
0
0
0
0
0
0
0
0
0
0
0
0
0
0
0
0
0
0
0
0
0
0
0
0
0
0
0
0
0
0
0
0
0
0
0
0
0
0
0
0
0
0
0
0
0
0
0
0
0
0
0
0
0
0
0
0
0
0
0
0
0
0
0
0
0
0
0
0
0
0
0
0
0
0
0
0
0
0
0
0
0
0
0
0
0
0
0
0
0
0
0
0
0
0
0
0
0
0
0
0
0
0
0
0
0
0
0
0
0
0
0
0
0
0
0
0
0
0
0
0
0
0
0
0
0
0
0
0
0
0
0
0
0
0
0
0
254
254
254
255
255
255
254
254
254
0
0
0
0
0
0
0
0
0
0
0
0
0
0
0
0
0
0
0
0
0
0
0
0
0
0
0
0
0
0
0
0
0
0
0
0
0
0
0
0
0
0
0
0
0
0
0
0
0
0
0
0
0
0
0
0
0
0
0
0
0
0
0
0
0
0
0
0
0
0
0
0
0
0
0
0
0
0
0
0
0
0
0
0
0
0
0
0
0
0
0
0
0
0
0
0
0
0
0
0
0
0
0
0
0
0
0
0
0
0
0
0
0
0
0
0
0
0
0
0
0
0
0
0
0
0
0
0
0
0
0
0
0
0
0
0
0
0
0
0
0
0
0
0
0
0
0
0
0
0
0
0
0
0
0
0
0
0
0
0
0
0
0
0
0
0
0
0
0
0
0
0
0
0
0
0
0
0
0
0
0
0
0
0
0
0
0
0
0
0
0
0
0
0
0
0
0
0
0
0
0
0
0
0
0
0
0
0
0
0
0
0
0
0
0
0
0
0
0
0
0
0
0
0
0
0
0
0
0
0
0
0
0
0
0
0
0
0
0
0
0
0
0
0
0
0
0
0
0
0
0
0
0
0
0
0
0
0
0
0
0
0
0
0
0
0
0
0
0
0
0
0
0
0
0
0
0
0
0
0
0
0
0
0
0
0
0
0
0
0
0
0
0
0
0
0
0
0
0
0
0
0
0
0
0
0
0
0
0
0
0
0
0
0
0
0
0
0
0
0
0
0
0
0
0
0
0
0
0
0
0
0
0
0
0
0
0
0
0
0
0
0
0
0
0
0
0
0
0
0
0
0
0
0
0
0
0
0
0
0
0
0
0
0
0
0
0
0
0
0
0
0
0
0
0
0
0
0
0
0
0
0
0
0
0
0
0
0
0
0
0
0
0
0
0
0
0
0
0
0
0
0
0
0
0
0
0
0
0
0
0
0
0
0
0
0
0
0
0
0
0
0
0
0
0
0
0
0
0
0
0
0
0
0
0
0
0
0
0
0
0
0
0
0
0
0
0
0
0
0
0
0
0
0
0
0
0
0
0
0
0
0
0
0
0
0
0
0
0
0
0
0
0
0
0
0
0
0
0
0
0
0
0
0
0
0
0
0
0
0
0
0
0
0
0
0
0
0
0
0
0
0
0
0
0
0
0
0
0
0
0
0
0
0
0
0
0
0
0
0
0
0
0
0
0
0
0
0
0
0
0
0
0
0
0
0
0
0
0
0
0
0
0
0
0
0
0
0
0
0
0
0
0
0
0
0
0
0
0
0
0
254
254
254
254
255
255
255
254
254
254
0
0
0
0
0
0
0
0
0
0
0
0
0
0
0
0
0
0
0
0
0
0
0
0
0
0
0
0
0
0
0
0
0
0
0
0
0
0
0
0
0
0
0
0
0
0
0
0
0
0
0
0
0
0
0
0
0
0
0
0
0
0
0
0
0
0
0
0
0
0
0
0
0
0
0
0
0
0
0
0
0
0
0
0
0
0
0
0
0
0
0
0
0
0
0
0
0
0
0
0
0
0
0
0
0
0
0
0
0
0
0
0
0
0
0
0
0
0
0
0
0
0
0
0
0
0
0
0
0
0
0
0
0
0
0
0
0
0
0
0
0
0
0
0
0
0
0
0
0
0
0
0
0
0
0
0
0
0
0
0
0
0
0
0
0
0
0
0
0
0
0
0
0
0
0
0
0
0
0
0
0
0
0
0
0
0
0
0
0
0
0
0
0
0
0
0
0
0
0
0
0
0
0
0
0
0
0
0
0
0
0
0
0
0
0
0
0
0
0
0
0
0
0
0
0
0
0
0
0
0
0
0
0
0
0
0
0
0
0
0
0
0
0
0
0
0
0
0
0
0
0
0
0
0
0
0
0
0
0
0
0
0
0
0
0
0
0
0
0
0
0
0
0
0
0
0
0
0
0
0
0
0
0
0
0
0
0
0
0
0
0
0
0
0
0
0
0
0
0
0
0
0
0
0
0
0
0
0
0
0
0
0
0
0
0
0
0
0
0
0
0
0
0
0
0
0
0
0
0
0
0
0
0
0
0
0
0
0
0
0
0
0
0
0
0
0
0
0
0
0
0
0
0
0
0
0
0
0
0
0
0
0
0
0
0
0
0
0
0
0
0
0
0
0
0
0
0
0
0
0
0
0
0
0
0
0
0
0
0
0
0
0
0
0
0
0
0
0
0
0
0
0
0
0
0
0
0
0
0
0
0
0
0
0
0
0
0
0
0
0
0
0
0
0
0
0
0
0
0
0
0
0
0
0
0
0
0
0
0
0
0
0
0
0
0
0
0
0
0
0
0
0
0
0
0
0
0
0
0
0
0
0
0
0
0
0
0
0
0
0
0
0
0
0
0
0
0
0
0
0
0
0
0
0
0
0
0
0
0
0
0
0
0
0
0
0
0
0
0
0
0
0
0
0
0
0
0
0
0
0
0
0
0
0
0
0
0
0
0
0
0
0
0
0
0
0
0
0
0
0
0
0
0
0
0
0
0
0
0
0
0
0
0
0
0
0
0
0
0
0
0
0
0
0
0
0
0
0
0
0
255
255
254
254
254
254
255
255
254
254
254
0
0
0
0
0
0
0
0
0
0
0
0
0
0
0
0
0
0
0
0
0
0
0
0
0
0
0
0
0
0
0
0
0
0
0
0
0
0
0
0
0
0
0
0
0
0
0
0
0
0
0
0
0
0
0
0
0
0
0
0
0
0
0
0
0
0
0
0
0
0
0
0
0
0
0
0
0
0
0
0
0
0
0
0
0
0
0
0
0
0
0
0
0
0
0
0
0
0
0
0
0
0
0
0
0
0
0
0
0
0
0
0
0
0
0
0
0
0
0
0
0
0
0
0
0
0
0
0
0
0
0
0
0
0
0
0
0
0
0
0
0
0
0
0
0
0
0
0
0
0
0
0
0
0
0
0
0
0
0
0
0
0
0
0
0
0
0
0
0
0
0
0
0
0
0
0
0
0
0
0
0
0
0
0
0
0
0
0
0
0
0
0
0
0
0
0
0
0
0
0
0
0
0
0
0
0
0
0
0
0
0
0
0
0
0
0
0
0
0
0
0
0
0
0
0
0
0
0
0
0
0
0
0
0
0
0
0
0
0
0
0
0
0
0
0
0
0
0
0
0
0
0
0
0
0
0
0
0
0
0
0
0
0
0
0
0
0
0
0
0
0
0
0
0
0
0
0
0
0
0
0
0
0
0
0
0
0
0
0
0
0
0
0
0
0
0
0
0
0
0
0
0
0
0
0
0
0
0
0
0
0
0
0
0
0
0
0
0
0
0
0
0
0
0
0
0
0
0
0
0
0
0
0
0
0
0
0
0
0
0
0
0
0
0
0
0
0
0
0
0
0
0
0
0
0
0
0
0
0
0
0
0
0
0
0
0
0
0
0
0
0
0
0
0
0
0
0
0
0
0
0
0
0
0
0
0
0
0
0
0
0
0
0
0
0
0
0
0
0
0
0
0
0
0
0
0
0
0
0
0
0
0
0
0
0
0
0
0
0
0
0
0
0
0
0
0
0
0
0
0
0
0
0
0
0
0
0
0
0
0
0
0
0
0
0
0
0
0
0
0
0
0
0
0
0
0
0
0
0
0
0
0
0
0
0
0
0
0
0
0
0
0
0
0
0
0
0
0
0
0
0
0
0
0
0
0
0
0
0
0
0
0
0
0
0
0
0
0
0
0
0
0
0
0
0
0
0
0
0
0
0
0
0
0
0
0
0
0
0
0
0
0
0
0
0
0
0
0
0
0
0
0
0
0
0
0
0
0
0
0
0
0
0
0
0
0
0
0
0
0
0
0
0
0
0
0
0
0
0
255
255
254
254
254
254
254
255
255
255
254
254
0
0
0
0
0
0
0
0
0
0
0
0
0
0
0
0
0
0
0
0
0
0
0
0
0
0
0
0
0
0
0
0
0
0
0
0
0
0
0
0
0
0
0
0
0
0
0
0
0
0
0
0
0
0
0
0
0
0
0
0
0
0
0
0
0
0
0
0
0
0
0
0
0
0
0
0
0
0
0
0
0
0
0
0
0
0
0
0
0
0
0
0
0
0
0
0
0
0
0
0
0
0
0
0
0
0
0
0
0
0
0
0
0
0
0
0
0
0
0
0
0
0
0
0
0
0
0
0
0
0
0
0
0
0
0
0
0
0
0
0
0
0
0
0
0
0
0
0
0
0
0
0
0
0
0
0
0
0
0
0
0
0
0
0
0
0
0
0
0
0
0
0
0
0
0
0
0
0
0
0
0
0
0
0
0
0
0
0
0
0
0
0
0
0
0
0
0
0
0
0
0
0
0
0
0
0
0
0
0
0
0
0
0
0
0
0
0
0
0
0
0
0
0
0
0
0
0
0
0
0
0
0
0
0
0
0
0
0
0
0
0
0
0
0
0
0
0
0
0
0
0
0
0
0
0
0
0
0
0
0
0
0
0
0
0
0
0
0
0
0
0
0
0
0
0
0
0
0
0
0
0
0
0
0
0
0
0
0
0
0
0
0
0
0
0
0
0
0
0
0
0
0
0
0
0
0
0
0
0
0
0
0
0
0
0
0
0
0
0
0
0
0
0
0
0
0
0
0
0
0
0
0
0
0
0
0
0
0
0
0
0
0
0
0
0
0
0
0
0
0
0
0
0
0
0
0
0
0
0
0
0
0
0
0
0
0
0
0
0
0
0
0
0
0
0
0
0
0
0
0
0
0
0
0
0
0
0
0
0
0
0
0
0
0
0
0
0
0
0
0
0
0
0
0
0
0
0
0
0
0
0
0
0
0
0
0
0
0
0
0
0
0
0
0
0
0
0
0
0
0
0
0
0
0
0
0
0
0
0
0
0
0
0
0
0
0
0
0
0
0
0
0
0
0
0
0
0
0
0
0
0
0
0
0
0
0
0
0
0
0
0
0
0
0
0
0
0
0
0
0
0
0
0
0
0
0
0
0
0
0
0
0
0
0
0
0
0
0
0
0
0
0
0
0
0
0
0
0
0
0
0
0
0
0
0
0
0
0
0
0
0
0
0
0
0
0
0
0
0
0
0
0
0
0
0
0
0
0
0
0
0
0
0
0
0
0
0
0
0
0
0
0
0
0
0
0
0
0
255
254
254
255
254
254
254
254
255
255
255
254
254
0
0
0
0
0
0
0
0
0
0
0
0
0
0
0
0
0
0
0
0
0
0
0
0
0
0
0
0
0
0
0
0
0
0
0
0
0
0
0
0
0
0
0
0
0
0
0
0
0
0
0
0
0
0
0
0
0
0
0
0
0
0
0
0
0
0
0
0
0
0
0
0
0
0
0
0
0
0
0
0
0
0
0
0
0
0
0
0
0
0
0
0
0
0
0
0
0
0
0
0
0
0
0
0
0
0
0
0
0
0
0
0
0
0
0
0
0
0
0
0
0
0
0
0
0
0
0
0
0
0
0
0
0
0
0
0
0
0
0
0
0
0
0
0
0
0
0
0
0
0
0
0
0
0
0
0
0
0
0
0
0
0
0
0
0
0
0
0
0
0
0
0
0
0
0
0
0
0
0
0
0
0
0
0
0
0
0
0
0
0
0
0
0
0
0
0
0
0
0
0
0
0
0
0
0
0
0
0
0
0
0
0
0
0
0
0
0
0
0
0
0
0
0
0
0
0
0
0
0
0
0
0
0
0
0
0
0
0
0
0
0
0
0
0
0
0
0
0
0
0
0
0
0
0
0
0
0
0
0
0
0
0
0
0
0
0
0
0
0
0
0
0
0
0
0
0
0
0
0
0
0
0
0
0
0
0
0
0
0
0
0
0
0
0
0
0
0
0
0
0
0
0
0
0
0
0
0
0
0
0
0
0
0
0
0
0
0
0
0
0
0
0
0
0
0
0
0
0
0
0
0
0
0
0
0
0
0
0
0
0
0
0
0
0
0
0
0
0
0
0
0
0
0
0
0
0
0
0
0
0
0
0
0
0
0
0
0
0
0
0
0
0
0
0
0
0
0
0
0
0
0
0
0
0
0
0
0
0
0
0
0
0
0
0
0
0
0
0
0
0
0
0
0
0
0
0
0
0
0
0
0
0
0
0
0
0
0
0
0
0
0
0
0
0
0
0
0
0
0
0
0
0
0
0
0
0
0
0
0
0
0
0
0
0
0
0
0
0
0
0
0
0
0
0
0
0
0
0
0
0
0
0
0
0
0
0
0
0
0
0
0
0
0
0
0
0
0
0
0
0
0
0
0
0
0
0
0
0
0
0
0
0
0
0
0
0
0
0
0
0
0
0
0
0
0
0
0
0
0
0
0
0
0
0
0
0
0
0
0
0
0
0
0
0
0
0
0
0
0
0
0
0
0
0
0
0
0
0
0
0
0
0
0
0
0
0
0
0
0
0
0
0
0
0
0
0
0
254
254
255
255
255
254
254
254
254
255
255
255
254
254
0
0
0
0
0
0
0
0
0
0
0
0
0
0
0
0
0
0
0
0
0
0
0
0
0
0
0
0
0
0
0
0
0
0
0
0
0
0
0
0
0
0
0
0
0
0
0
0
0
0
0
0
0
0
0
0
0
0
0
0
0
0
0
0
0
0
0
0
0
0
0
0
0
0
0
0
0
0
0
0
0
0
0
0
0
0
0
0
0
0
0
0
0
0
0
0
0
0
0
0
0
0
0
0
0
0
0
0
0
0
0
0
0
0
0
0
0
0
0
0
0
0
0
0
0
0
0
0
0
0
0
0
0
0
0
0
0
0
0
0
0
0
0
0
0
0
0
0
0
0
0
0
0
0
0
0
0
0
0
0
0
0
0
0
0
0
0
0
0
0
0
0
0
0
0
0
0
0
0
0
0
0
0
0
0
0
0
0
0
0
0
0
0
0
0
0
0
0
0
0
0
0
0
0
0
0
0
0
0
0
0
0
0
0
0
0
0
0
0
0
0
0
0
0
0
0
0
0
0
0
0
0
0
0
0
0
0
0
0
0
0
0
0
0
0
0
0
0
0
0
0
0
0
0
0
0
0
0
0
0
0
0
0
0
0
0
0
0
0
0
0
0
0
0
0
0
0
0
0
0
0
0
0
0
0
0
0
0
0
0
0
0
0
0
0
0
0
0
0
0
0
0
0
0
0
0
0
0
0
0
0
0
0
0
0
0
0
0
0
0
0
0
0
0
0
0
0
0
0
0
0
0
0
0
0
0
0
0
0
0
0
0
0
0
0
0
0
0
0
0
0
0
0
0
0
0
0
0
0
0
0
0
0
0
0
0
0
0
0
0
0
0
0
0
0
0
0
0
0
0
0
0
0
0
0
0
0
0
0
0
0
0
0
0
0
0
0
0
0
0
0
0
0
0
0
0
0
0
0
0
0
0
0
0
0
0
0
0
0
0
0
0
0
0
0
0
0
0
0
0
0
0
0
0
0
0
0
0
0
0
0
0
0
0
0
0
0
0
0
0
0
0
0
0
0
0
0
0
0
0
0
0
0
0
0
0
0
0
0
0
0
0
0
0
0
0
0
0
0
0
0
0
0
0
0
0
0
0
0
0
0
0
0
0
0
0
0
0
0
0
0
0
0
0
0
0
0
0
0
0
0
0
0
0
0
0
0
0
0
0
0
0
0
0
0
0
0
0
0
0
0
0
0
0
0
0
0
0
0
0
0
0
0
0
0
0
0
0
0
0
0
0
0
0
0
0
254
254
254
254
254
255
254
254
254
254
255
255
255
254
254
0
0
0
0
0
0
0
0
0
0
0
0
0
0
0
0
0
0
0
0
0
0
0
0
0
0
0
0
0
0
0
0
0
0
0
0
0
0
0
0
0
0
0
0
0
0
0
0
0
0
0
0
0
0
0
0
0
0
0
0
0
0
0
0
0
0
0
0
0
0
0
0
0
0
0
0
0
0
0
0
0
0
0
0
0
0
0
0
0
0
0
0
0
0
0
0
0
0
0
0
0
0
0
0
0
0
0
0
0
0
0
0
0
0
0
0
0
0
0
0
0
0
0
0
0
0
0
0
0
0
0
0
0
0
0
0
0
0
0
0
0
0
0
0
0
0
0
0
0
0
0
0
0
0
0
0
0
0
0
0
0
0
0
0
0
0
0
0
0
0
0
0
0
0
0
0
0
0
0
0
0
0
0
0
0
0
0
0
0
0
0
0
0
0
0
0
0
0
0
0
0
0
0
0
0
0
0
0
0
0
0
0
0
0
0
0
0
0
0
0
0
0
0
0
0
0
0
0
0
0
0
0
0
0
0
0
0
0
0
0
0
0
0
0
0
0
0
0
0
0
0
0
0
0
0
0
0
0
0
0
0
0
0
0
0
0
0
0
0
0
0
0
0
0
0
0
0
0
0
0
0
0
0
0
0
0
0
0
0
0
0
0
0
0
0
0
0
0
0
0
0
0
0
0
0
0
0
0
0
0
0
0
0
0
0
0
0
0
0
0
0
0
0
0
0
0
0
0
0
0
0
0
0
0
0
0
0
0
0
0
0
0
0
0
0
0
0
0
0
0
0
0
0
0
0
0
0
0
0
0
0
0
0
0
0
0
0
0
0
0
0
0
0
0
0
0
0
0
0
0
0
0
0
0
0
0
0
0
0
0
0
0
0
0
0
0
0
0
0
0
0
0
0
0
0
0
0
0
0
0
0
0
0
0
0
0
0
0
0
0
0
0
0
0
0
0
0
0
0
0
0
0
0
0
0
0
0
0
0
0
0
0
0
0
0
0
0
0
0
0
0
0
0
0
0
0
0
0
0
0
0
0
0
0
0
0
0
0
0
0
0
0
0
0
0
0
0
0
0
0
0
0
0
0
0
0
0
0
0
0
0
0
0
0
0
0
0
0
0
0
0
0
0
0
0
0
0
0
0
0
0
0
0
0
0
0
0
0
0
0
0
0
0
0
0
0
0
0
0
0
0
0
0
0
0
0
0
0
0
0
0
0
0
0
0
0
0
0
0
0
0
0
0
0
0
253
254
254
254
254
254
255
255
254
254
255
255
255
255
254
254
0
0
0
0
0
0
0
0
0
0
0
0
0
0
0
0
0
0
0
0
0
0
0
0
0
0
0
0
0
0
0
0
0
0
0
0
0
0
0
0
0
0
0
0
0
0
0
0
0
0
0
0
0
0
0
0
0
0
0
0
0
0
0
0
0
0
0
0
0
0
0
0
0
0
0
0
0
0
0
0
0
0
0
0
0
0
0
0
0
0
0
0
0
0
0
0
0
0
0
0
0
0
0
0
0
0
0
0
0
0
0
0
0
0
0
0
0
0
0
0
0
0
0
0
0
0
0
0
0
0
0
0
0
0
0
0
0
0
0
0
0
0
0
0
0
0
0
0
0
0
0
0
0
0
0
0
0
0
0
0
0
0
0
0
0
0
0
0
0
0
0
0
0
0
0
0
0
0
0
0
0
0
0
0
0
0
0
0
0
0
0
0
0
0
0
0
0
0
0
0
0
0
0
0
0
0
0
0
0
0
0
0
0
0
0
0
0
0
0
0
0
0
0
0
0
0
0
0
0
0
0
0
0
0
0
0
0
0
0
0
0
0
0
0
0
0
0
0
0
0
0
0
0
0
0
0
0
0
0
0
0
0
0
0
0
0
0
0
0
0
0
0
0
0
0
0
0
0
0
0
0
0
0
0
0
0
0
0
0
0
0
0
0
0
0
0
0
0
0
0
0
0
0
0
0
0
0
0
0
0
0
0
0
0
0
0
0
0
0
0
0
0
0
0
0
0
0
0
0
0
0
0
0
0
0
0
0
0
0
0
0
0
0
0
0
0
0
0
0
0
0
0
0
0
0
0
0
0
0
0
0
0
0
0
0
0
0
0
0
0
0
0
0
0
0
0
0
0
0
0
0
0
0
0
0
0
0
0
0
0
0
0
0
0
0
0
0
0
0
0
0
0
0
0
0
0
0
0
0
0
0
0
0
0
0
0
0
0
0
0
0
0
0
0
0
0
0
0
0
0
0
0
0
0
0
0
0
0
0
0
0
0
0
0
0
0
0
0
0
0
0
0
0
0
0
0
0
0
0
0
0
0
0
0
0
0
0
0
0
0
0
0
0
0
0
0
0
0
0
0
0
0
0
0
0
0
0
0
0
0
0
0
0
0
0
0
0
0
0
0
0
0
0
0
0
0
0
0
0
0
0
0
0
0
0
0
0
0
0
0
0
0
0
0
0
0
0
0
0
0
0
0
0
0
0
0
0
0
0
0
0
0
0
0
0
0
0
0
0
0
0
0
0
0
255
254
254
254
254
254
255
255
255
254
254
255
255
255
254
254
254
0
0
0
0
0
0
0
0
0
0
0
0
0
0
0
0
0
0
0
0
0
0
0
0
0
0
0
0
0
0
0
0
0
0
0
0
0
0
0
0
0
0
0
0
0
0
0
0
0
0
0
0
0
0
0
0
0
0
0
0
0
0
0
0
0
0
0
0
0
0
0
0
0
0
0
0
0
0
0
0
0
0
0
0
0
0
0
0
0
0
0
0
0
0
0
0
0
0
0
0
0
0
0
0
0
0
0
0
0
0
0
0
0
0
0
0
0
0
0
0
0
0
0
0
0
0
0
0
0
0
0
0
0
0
0
0
0
0
0
0
0
0
0
0
0
0
0
0
0
0
0
0
0
0
0
0
0
0
0
0
0
0
0
0
0
0
0
0
0
0
0
0
0
0
0
0
0
0
0
0
0
0
0
0
0
0
0
0
0
0
0
0
0
0
0
0
0
0
0
0
0
0
0
0
0
0
0
0
0
0
0
0
0
0
0
0
0
0
0
0
0
0
0
0
0
0
0
0
0
0
0
0
0
0
0
0
0
0
0
0
0
0
0
0
0
0
0
0
0
0
0
0
0
0
0
0
0
0
0
0
0
0
0
0
0
0
0
0
0
0
0
0
0
0
0
0
0
0
0
0
0
0
0
0
0
0
0
0
0
0
0
0
0
0
0
0
0
0
0
0
0
0
0
0
0
0
0
0
0
0
0
0
0
0
0
0
0
0
0
0
0
0
0
0
0
0
0
0
0
0
0
0
0
0
0
0
0
0
0
0
0
0
0
0
0
0
0
0
0
0
0
0
0
0
0
0
0
0
0
0
0
0
0
0
0
0
0
0
0
0
0
0
0
0
0
0
0
0
0
0
0
0
0
0
0
0
0
0
0
0
0
0
0
0
0
0
0
0
0
0
0
0
0
0
0
0
0
0
0
0
0
0
0
0
0
0
0
0
0
0
0
0
0
0
0
0
0
0
0
0
0
0
0
0
0
0
0
0
0
0
0
0
0
0
0
0
0
0
0
0
0
0
0
0
0
0
0
0
0
0
0
0
0
0
0
0
0
0
0
0
0
0
0
0
0
0
0
0
0
0
0
0
0
0
0
0
0
0
0
0
0
0
0
0
0
0
0
0
0
0
0
0
0
0
0
0
0
0
0
0
0
0
0
0
0
0
0
0
0
0
0
0
0
0
0
0
0
0
0
0
0
0
0
0
0
0
0
0
0
0
0
0
0
0
0
0
0
0
0
0
0
0
0
255
255
254
254
254
254
255
255
255
254
254
254
255
255
255
254
254
254
0
0
0
0
0
0
0
0
0
0
0
0
0
0
0
0
0
0
0
0
0
0
0
0
0
0
0
0
0
0
0
0
0
0
0
0
0
0
0
0
0
0
0
0
0
0
0
0
0
0
0
0
0
0
0
0
0
0
0
0
0
0
0
0
0
0
0
0
0
0
0
0
0
0
0
0
0
0
0
0
0
0
0
0
0
0
0
0
0
0
0
0
0
0
0
0
0
0
0
0
0
0
0
0
0
0
0
0
0
0
0
0
0
0
0
0
0
0
0
0
0
0
0
0
0
0
0
0
0
0
0
0
0
0
0
0
0
0
0
0
0
0
0
0
0
0
0
0
0
0
0
0
0
0
0
0
0
0
0
0
0
0
0
0
0
0
0
0
0
0
0
0
0
0
0
0
0
0
0
0
0
0
0
0
0
0
0
0
0
0
0
0
0
0
0
0
0
0
0
0
0
0
0
0
0
0
0
0
0
0
0
0
0
0
0
0
0
0
0
0
0
0
0
0
0
0
0
0
0
0
0
0
0
0
0
0
0
0
0
0
0
0
0
0
0
0
0
0
0
0
0
0
0
0
0
0
0
0
0
0
0
0
0
0
0
0
0
0
0
0
0
0
0
0
0
0
0
0
0
0
0
0
0
0
0
0
0
0
0
0
0
0
0
0
0
0
0
0
0
0
0
0
0
0
0
0
0
0
0
0
0
0
0
0
0
0
0
0
0
0
0
0
0
0
0
0
0
0
0
0
0
0
0
0
0
0
0
0
0
0
0
0
0
0
0
0
0
0
0
0
0
0
0
0
0
0
0
0
0
0
0
0
0
0
0
0
0
0
0
0
0
0
0
0
0
0
0
0
0
0
0
0
0
0
0
0
0
0
0
0
0
0
0
0
0
0
0
0
0
0
0
0
0
0
0
0
0
0
0
0
0
0
0
0
0
0
0
0
0
0
0
0
0
0
0
0
0
0
0
0
0
0
0
0
0
0
0
0
0
0
0
0
0
0
0
0
0
0
0
0
0
0
0
0
0
0
0
0
0
0
0
0
0
0
0
0
0
0
0
0
0
0
0
0
0
0
0
0
0
0
0
0
0
0
0
0
0
0
0
0
0
0
0
0
0
0
0
0
0
0
0
0
0
0
0
0
0
0
0
0
0
0
0
0
0
0
0
0
0
0
0
0
0
0
0
0
0
0
0
0
0
0
0
0
0
0
0
0
0
0
0
0
0
0
0
0
0
0
0
0
0
0
255
255
255
254
254
255
255
255
254
255
254
255
255
255
255
255
255
254
254
0
0
0
0
0
0
0
0
0
0
0
0
0
0
0
0
0
0
0
0
0
0
0
0
0
0
0
0
0
0
0
0
0
0
0
0
0
0
0
0
0
0
0
0
0
0
0
0
0
0
0
0
0
0
0
0
0
0
0
0
0
0
0
0
0
0
0
0
0
0
0
0
0
0
0
0
0
0
0
0
0
0
0
0
0
0
0
0
0
0
0
0
0
0
0
0
0
0
0
0
0
0
0
0
0
0
0
0
0
0
0
0
0
0
0
0
0
0
0
0
0
0
0
0
0
0
0
0
0
0
0
0
0
0
0
0
0
0
0
0
0
0
0
0
0
0
0
0
0
0
0
0
0
0
0
0
0
0
0
0
0
0
0
0
0
0
0
0
0
0
0
0
0
0
0
0
0
0
0
0
0
0
0
0
0
0
0
0
0
0
0
0
0
0
0
0
0
0
0
0
0
0
0
0
0
0
0
0
0
0
0
0
0
0
0
0
0
0
0
0
0
0
0
0
0
0
0
0
0
0
0
0
0
0
0
0
0
0
0
0
0
0
0
0
0
0
0
0
0
0
0
0
0
0
0
0
0
0
0
0
0
0
0
0
0
0
0
0
0
0
0
0
0
0
0
0
0
0
0
0
0
0
0
0
0
0
0
0
0
0
0
0
0
0
0
0
0
0
0
0
0
0
0
0
0
0
0
0
0
0
0
0
0
0
0
0
0
0
0
0
0
0
0
0
0
0
0
0
0
0
0
0
0
0
0
0
0
0
0
0
0
0
0
0
0
0
0
0
0
0
0
0
0
0
0
0
0
0
0
0
0
0
0
0
0
0
0
0
0
0
0
0
0
0
0
0
0
0
0
0
0
0
0
0
0
0
0
0
0
0
0
0
0
0
0
0
0
0
0
0
0
0
0
0
0
0
0
0
0
0
0
0
0
0
0
0
0
0
0
0
0
0
0
0
0
0
0
0
0
0
0
0
0
0
0
0
0
0
0
0
0
0
0
0
0
0
0
0
0
0
0
0
0
0
0
0
0
0
0
0
0
0
0
0
0
0
0
0
0
0
0
0
0
0
0
0
0
0
0
0
0
0
0
0
0
0
0
0
0
0
0
0
0
0
0
0
0
0
0
0
0
0
0
0
0
0
0
0
0
0
0
0
0
0
0
0
0
0
0
0
0
0
0
0
0
0
0
0
0
0
0
0
0
0
0
0
0
0
0
0
0
0
0
0
0
0
0
0
0
0
0
254
255
255
255
254
255
255
254
255
255
255
255
255
254
254
255
255
255
254
254
0
0
0
0
0
0
0
0
0
0
0
0
0
0
0
0
0
0
0
0
0
0
0
0
0
0
0
0
0
0
0
0
0
0
0
0
0
0
0
0
0
0
0
0
0
0
0
0
0
0
0
0
0
0
0
0
0
0
0
0
0
0
0
0
0
0
0
0
0
0
0
0
0
0
0
0
0
0
0
0
0
0
0
0
0
0
0
0
0
0
0
0
0
0
0
0
0
0
0
0
0
0
0
0
0
0
0
0
0
0
0
0
0
0
0
0
0
0
0
0
0
0
0
0
0
0
0
0
0
0
0
0
0
0
0
0
0
0
0
0
0
0
0
0
0
0
0
0
0
0
0
0
0
0
0
0
0
0
0
0
0
0
0
0
0
0
0
0
0
0
0
0
0
0
0
0
0
0
0
0
0
0
0
0
0
0
0
0
0
0
0
0
0
0
0
0
0
0
0
0
0
0
0
0
0
0
0
0
0
0
0
0
0
0
0
0
0
0
0
0
0
0
0
0
0
0
0
0
0
0
0
0
0
0
0
0
0
0
0
0
0
0
0
0
0
0
0
0
0
0
0
0
0
0
0
0
0
0
0
0
0
0
0
0
0
0
0
0
0
0
0
0
0
0
0
0
0
0
0
0
0
0
0
0
0
0
0
0
0
0
0
0
0
0
0
0
0
0
0
0
0
0
0
0
0
0
0
0
0
0
0
0
0
0
0
0
0
0
0
0
0
0
0
0
0
0
0
0
0
0
0
0
0
0
0
0
0
0
0
0
0
0
0
0
0
0
0
0
0
0
0
0
0
0
0
0
0
0
0
0
0
0
0
0
0
0
0
0
0
0
0
0
0
0
0
0
0
0
0
0
0
0
0
0
0
0
0
0
0
0
0
0
0
0
0
0
0
0
0
0
0
0
0
0
0
0
0
0
0
0
0
0
0
0
0
0
0
0
0
0
0
0
0
0
0
0
0
0
0
0
0
0
0
0
0
0
0
0
0
0
0
0
0
0
0
0
0
0
0
0
0
0
0
0
0
0
0
0
0
0
0
0
0
0
0
0
0
0
0
0
0
0
0
0
0
0
0
0
0
0
0
0
0
0
0
0
0
0
0
0
0
0
0
0
0
0
0
0
0
0
0
0
0
0
0
0
0
0
0
0
0
0
0
0
0
0
0
0
0
0
0
0
0
0
0
0
0
0
0
0
0
0
0
0
0
0
0
0
0
0
0
0
0
0
0
0
0
0
0
0
255
254
255
255
255
254
254
254
254
255
255
255
254
254
254
254
255
254
254
254
255
0
0
0
0
0
0
0
0
0
0
0
0
0
0
0
0
0
0
0
0
0
0
0
0
0
0
0
0
0
0
0
0
0
0
0
0
0
0
0
0
0
0
0
0
0
0
0
0
0
0
0
0
0
0
0
0
0
0
0
0
0
0
0
0
0
0
0
0
0
0
0
0
0
0
0
0
0
0
0
0
0
0
0
0
0
0
0
0
0
0
0
0
0
0
0
0
0
0
0
0
0
0
0
0
0
0
0
0
0
0
0
0
0
0
0
0
0
0
0
0
0
0
0
0
0
0
0
0
0
0
0
0
0
0
0
0
0
0
0
0
0
0
0
0
0
0
0
0
0
0
0
0
0
0
0
0
0
0
0
0
0
0
0
0
0
0
0
0
0
0
0
0
0
0
0
0
0
0
0
0
0
0
0
0
0
0
0
0
0
0
0
0
0
0
0
0
0
0
0
0
0
0
0
0
0
0
0
0
0
0
0
0
0
0
0
0
0
0
0
0
0
0
0
0
0
0
0
0
0
0
0
0
0
0
0
0
0
0
0
0
0
0
0
0
0
0
0
0
0
0
0
0
0
0
0
0
0
0
0
0
0
0
0
0
0
0
0
0
0
0
0
0
0
0
0
0
0
0
0
0
0
0
0
0
0
0
0
0
0
0
0
0
0
0
0
0
0
0
0
0
0
0
0
0
0
0
0
0
0
0
0
0
0
0
0
0
0
0
0
0
0
0
0
0
0
0
0
0
0
0
0
0
0
0
0
0
0
0
0
0
0
0
0
0
0
0
0
0
0
0
0
0
0
0
0
0
0
0
0
0
0
0
0
0
0
0
0
0
0
0
0
0
0
0
0
0
0
0
0
0
0
0
0
0
0
0
0
0
0
0
0
0
0
0
0
0
0
0
0
0
0
0
0
0
0
0
0
0
0
0
0
0
0
0
0
0
0
0
0
0
0
0
0
0
0
0
0
0
0
0
0
0
0
0
0
0
0
0
0
0
0
0
0
0
0
0
0
0
0
0
0
0
0
0
0
0
0
0
0
0
0
0
0
0
0
0
0
0
0
0
0
0
0
0
0
0
0
0
0
0
0
0
0
0
0
0
0
0
0
0
0
0
0
0
0
0
0
0
0
0
0
0
0
0
0
0
0
0
0
0
0
0
0
0
0
0
0
0
0
0
0
0
0
0
0
0
0
0
0
0
0
0
0
0
0
0
0
0
0
0
0
0
0
0
0
0
0
0
0
255
255
254
255
255
255
255
254
254
255
255
255
254
254
254
254
254
254
255
255
255
255
0
0
0
0
0
0
0
0
0
0
0
0
0
0
0
0
0
0
0
0
0
0
0
0
0
0
0
0
0
0
0
0
0
0
0
0
0
0
0
0
0
0
0
0
0
0
0
0
0
0
0
0
0
0
0
0
0
0
0
0
0
0
0
0
0
0
0
0
0
0
0
0
0
0
0
0
0
0
0
0
0
0
0
0
0
0
0
0
0
0
0
0
0
0
0
0
0
0
0
0
0
0
0
0
0
0
0
0
0
0
0
0
0
0
0
0
0
0
0
0
0
0
0
0
0
0
0
0
0
0
0
0
0
0
0
0
0
0
0
0
0
0
0
0
0
0
0
0
0
0
0
0
0
0
0
0
0
0
0
0
0
0
0
0
0
0
0
0
0
0
0
0
0
0
0
0
0
0
0
0
0
0
0
0
0
0
0
0
0
0
0
0
0
0
0
0
0
0
0
0
0
0
0
0
0
0
0
0
0
0
0
0
0
0
0
0
0
0
0
0
0
0
0
0
0
0
0
0
0
0
0
0
0
0
0
0
0
0
0
0
0
0
0
0
0
0
0
0
0
0
0
0
0
0
0
0
0
0
0
0
0
0
0
0
0
0
0
0
0
0
0
0
0
0
0
0
0
0
0
0
0
0
0
0
0
0
0
0
0
0
0
0
0
0
0
0
0
0
0
0
0
0
0
0
0
0
0
0
0
0
0
0
0
0
0
0
0
0
0
0
0
0
0
0
0
0
0
0
0
0
0
0
0
0
0
0
0
0
0
0
0
0
0
0
0
0
0
0
0
0
0
0
0
0
0
0
0
0
0
0
0
0
0
0
0
0
0
0
0
0
0
0
0
0
0
0
0
0
0
0
0
0
0
0
0
0
0
0
0
0
0
0
0
0
0
0
0
0
0
0
0
0
0
0
0
0
0
0
0
0
0
0
0
0
0
0
0
0
0
0
0
0
0
0
0
0
0
0
0
0
0
0
0
0
0
0
0
0
0
0
0
0
0
0
0
0
0
0
0
0
0
0
0
0
0
0
0
0
0
0
0
0
0
0
0
0
0
0
0
0
0
0
0
0
0
0
0
0
0
0
0
0
0
0
0
0
0
0
0
0
0
0
0
0
0
0
0
0
0
0
0
0
0
0
0
0
0
0
0
0
0
0
0
0
0
0
0
0
0
0
0
0
0
0
0
0
0
0
0
0
0
0
0
0
0
0
0
0
0
0
0
0
0
0
0
0
0
0
255
255
255
254
254
254
254
255
254
254
254
254
255
255
254
254
254
254
255
255
255
255
254
0
0
0
0
0
0
0
0
0
0
0
0
0
0
0
0
0
0
0
0
0
0
0
0
0
0
0
0
0
0
0
0
0
0
0
0
0
0
0
0
0
0
0
0
0
0
0
0
0
0
0
0
0
0
0
0
0
0
0
0
0
0
0
0
0
0
0
0
0
0
0
0
0
0
0
0
0
0
0
0
0
0
0
0
0
0
0
0
0
0
0
0
0
0
0
0
0
0
0
0
0
0
0
0
0
0
0
0
0
0
0
0
0
0
0
0
0
0
0
0
0
0
0
0
0
0
0
0
0
0
0
0
0
0
0
0
0
0
0
0
0
0
0
0
0
0
0
0
0
0
0
0
0
0
0
0
0
0
0
0
0
0
0
0
0
0
0
0
0
0
0
0
0
0
0
0
0
0
0
0
0
0
0
0
0
0
0
0
0
0
0
0
0
0
0
0
0
0
0
0
0
0
0
0
0
0
0
0
0
0
0
0
0
0
0
0
0
0
0
0
0
0
0
0
0
0
0
0
0
0
0
0
0
0
0
0
0
0
0
0
0
0
0
0
0
0
0
0
0
0
0
0
0
0
0
0
0
0
0
0
0
0
0
0
0
0
0
0
0
0
0
0
0
0
0
0
0
0
0
0
0
0
0
0
0
0
0
0
0
0
0
0
0
0
0
0
0
0
0
0
0
0
0
0
0
0
0
0
0
0
0
0
0
0
0
0
0
0
0
0
0
0
0
0
0
0
0
0
0
0
0
0
0
0
0
0
0
0
0
0
0
0
0
0
0
0
0
0
0
0
0
0
0
0
0
0
0
0
0
0
0
0
0
0
0
0
0
0
0
0
0
0
0
0
0
0
0
0
0
0
0
0
0
0
0
0
0
0
0
0
0
0
0
0
0
0
0
0
0
0
0
0
0
0
0
0
0
0
0
0
0
0
0
0
0
0
0
0
0
0
0
0
0
0
0
0
0
0
0
0
0
0
0
0
0
0
0
0
0
0
0
0
0
0
0
0
0
0
0
0
0
0
0
0
0
0
0
0
0
0
0
0
0
0
0
0
0
0
0
0
0
0
0
0
0
0
0
0
0
0
0
0
0
0
0
0
0
0
0
0
0
0
0
0
0
0
0
0
0
0
0
0
0
0
0
0
0
0
0
0
0
0
0
0
0
0
0
0
0
0
0
0
0
0
0
0
0
0
0
0
0
0
0
0
0
0
0
0
0
0
0
0
0
0
0
0
0
255
255
254
254
254
254
254
254
255
254
254
254
255
255
255
255
254
254
255
255
255
254
254
254
0
0
0
0
0
0
0
0
0
0
0
0
0
0
0
0
0
0
0
0
0
0
0
0
0
0
0
0
0
0
0
0
0
0
0
0
0
0
0
0
0
0
0
0
0
0
0
0
0
0
0
0
0
0
0
0
0
0
0
0
0
0
0
0
0
0
0
0
0
0
0
0
0
0
0
0
0
0
0
0
0
0
0
0
0
0
0
0
0
0
0
0
0
0
0
0
0
0
0
0
0
0
0
0
0
0
0
0
0
0
0
0
0
0
0
0
0
0
0
0
0
0
0
0
0
0
0
0
0
0
0
0
0
0
0
0
0
0
0
0
0
0
0
0
0
0
0
0
0
0
0
0
0
0
0
0
0
0
0
0
0
0
0
0
0
0
0
0
0
0
0
0
0
0
0
0
0
0
0
0
0
0
0
0
0
0
0
0
0
0
0
0
0
0
0
0
0
0
0
0
0
0
0
0
0
0
0
0
0
0
0
0
0
0
0
0
0
0
0
0
0
0
0
0
0
0
0
0
0
0
0
0
0
0
0
0
0
0
0
0
0
0
0
0
0
0
0
0
0
0
0
0
0
0
0
0
0
0
0
0
0
0
0
0
0
0
0
0
0
0
0
0
0
0
0
0
0
0
0
0
0
0
0
0
0
0
0
0
0
0
0
0
0
0
0
0
0
0
0
0
0
0
0
0
0
0
0
0
0
0
0
0
0
0
0
0
0
0
0
0
0
0
0
0
0
0
0
0
0
0
0
0
0
0
0
0
0
0
0
0
0
0
0
0
0
0
0
0
0
0
0
0
0
0
0
0
0
0
0
0
0
0
0
0
0
0
0
0
0
0
0
0
0
0
0
0
0
0
0
0
0
0
0
0
0
0
0
0
0
0
0
0
0
0
0
0
0
0
0
0
0
0
0
0
0
0
0
0
0
0
0
0
0
0
0
0
0
0
0
0
0
0
0
0
0
0
0
0
0
0
0
0
0
0
0
0
0
0
0
0
0
0
0
0
0
0
0
0
0
0
0
0
0
0
0
0
0
0
0
0
0
0
0
0
0
0
0
0
0
0
0
0
0
0
0
0
0
0
0
0
0
0
0
0
0
0
0
0
0
0
0
0
0
0
0
0
0
0
0
0
0
0
0
0
0
0
0
0
0
0
0
0
0
0
0
0
0
0
0
0
0
0
0
0
0
0
0
0
0
0
0
0
0
0
0
0
0
0
0
0
0
0
0
0
0
0
255
255
255
254
254
254
254
254
255
255
254
254
255
254
254
255
255
254
254
254
255
255
254
254
254
0
0
0
0
0
0
0
0
0
0
0
0
0
0
0
0
0
0
0
0
0
0
0
0
0
0
0
0
0
0
0
0
0
0
0
0
0
0
0
0
0
0
0
0
0
0
0
0
0
0
0
0
0
0
0
0
0
0
0
0
0
0
0
0
0
0
0
0
0
0
0
0
0
0
0
0
0
0
0
0
0
0
0
0
0
0
0
0
0
0
0
0
0
0
0
0
0
0
0
0
0
0
0
0
0
0
0
0
0
0
0
0
0
0
0
0
0
0
0
0
0
0
0
0
0
0
0
0
0
0
0
0
0
0
0
0
0
0
0
0
0
0
0
0
0
0
0
0
0
0
0
0
0
0
0
0
0
0
0
0
0
0
0
0
0
0
0
0
0
0
0
0
0
0
0
0
0
0
0
0
0
0
0
0
0
0
0
0
0
0
0
0
0
0
0
0
0
0
0
0
0
0
0
0
0
0
0
0
0
0
0
0
0
0
0
0
0
0
0
0
0
0
0
0
0
0
0
0
0
0
0
0
0
0
0
0
0
0
0
0
0
0
0
0
0
0
0
0
0
0
0
0
0
0
0
0
0
0
0
0
0
0
0
0
0
0
0
0
0
0
0
0
0
0
0
0
0
0
0
0
0
0
0
0
0
0
0
0
0
0
0
0
0
0
0
0
0
0
0
0
0
0
0
0
0
0
0
0
0
0
0
0
0
0
0
0
0
0
0
0
0
0
0
0
0
0
0
0
0
0
0
0
0
0
0
0
0
0
0
0
0
0
0
0
0
0
0
0
0
0
0
0
0
0
0
0
0
0
0
0
0
0
0
0
0
0
0
0
0
0
0
0
0
0
0
0
0
0
0
0
0
0
0
0
0
0
0
0
0
0
0
0
0
0
0
0
0
0
0
0
0
0
0
0
0
0
0
0
0
0
0
0
0
0
0
0
0
0
0
0
0
0
0
0
0
0
0
0
0
0
0
0
0
0
0
0
0
0
0
0
0
0
0
0
0
0
0
0
0
0
0
0
0
0
0
0
0
0
0
0
0
0
0
0
0
0
0
0
0
0
0
0
0
0
0
0
0
0
0
0
0
0
0
0
0
0
0
0
0
0
0
0
0
0
0
0
0
0
0
0
0
0
0
0
0
0
0
0
0
0
0
0
0
0
0
0
0
0
0
0
0
0
0
0
0
0
0
0
0
0
0
0
0
0
0
0
0
0
0
0
0
0
0
0
0
255
255
255
255
255
255
254
254
254
255
255
254
254
254
255
255
255
255
254
254
254
255
255
254
254
254
0
0
0
0
0
0
0
0
0
0
0
0
0
0
0
0
0
0
0
0
0
0
0
0
0
0
0
0
0
0
0
0
0
0
0
0
0
0
0
0
0
0
0
0
0
0
0
0
0
0
0
0
0
0
0
0
0
0
0
0
0
0
0
0
0
0
0
0
0
0
0
0
0
0
0
0
0
0
0
0
0
0
0
0
0
0
0
0
0
0
0
0
0
0
0
0
0
0
0
0
0
0
0
0
0
0
0
0
0
0
0
0
0
0
0
0
0
0
0
0
0
0
0
0
0
0
0
0
0
0
0
0
0
0
0
0
0
0
0
0
0
0
0
0
0
0
0
0
0
0
0
0
0
0
0
0
0
0
0
0
0
0
0
0
0
0
0
0
0
0
0
0
0
0
0
0
0
0
0
0
0
0
0
0
0
0
0
0
0
0
0
0
0
0
0
0
0
0
0
0
0
0
0
0
0
0
0
0
0
0
0
0
0
0
0
0
0
0
0
0
0
0
0
0
0
0
0
0
0
0
0
0
0
0
0
0
0
0
0
0
0
0
0
0
0
0
0
0
0
0
0
0
0
0
0
0
0
0
0
0
0
0
0
0
0
0
0
0
0
0
0
0
0
0
0
0
0
0
0
0
0
0
0
0
0
0
0
0
0
0
0
0
0
0
0
0
0
0
0
0
0
0
0
0
0
0
0
0
0
0
0
0
0
0
0
0
0
0
0
0
0
0
0
0
0
0
0
0
0
0
0
0
0
0
0
0
0
0
0
0
0
0
0
0
0
0
0
0
0
0
0
0
0
0
0
0
0
0
0
0
0
0
0
0
0
0
0
0
0
0
0
0
0
0
0
0
0
0
0
0
0
0
0
0
0
0
0
0
0
0
0
0
0
0
0
0
0
0
0
0
0
0
0
0
0
0
0
0
0
0
0
0
0
0
0
0
0
0
0
0
0
0
0
0
0
0
0
0
0
0
0
0
0
0
0
0
0
0
0
0
0
0
0
0
0
0
0
0
0
0
0
0
0
0
0
0
0
0
0
0
0
0
0
0
0
0
0
0
0
0
0
0
0
0
0
0
0
0
0
0
0
0
0
0
0
0
0
0
0
0
0
0
0
0
0
0
0
0
0
0
0
0
0
0
0
0
0
0
0
0
0
0
0
0
0
0
0
0
0
0
0
0
0
0
0
0
0
0
0
0
0
0
0
0
0
0
0
0
0
0
0
0
0
0
254
255
255
255
255
255
255
254
255
255
255
255
254
254
255
255
255
255
254
254
254
255
255
254
254
254
254
0
0
0
0
0
0
0
0
0
0
0
0
0
0
0
0
0
0
0
0
0
0
0
0
0
0
0
0
0
0
0
0
0
0
0
0
0
0
0
0
0
0
0
0
0
0
0
0
0
0
0
0
0
0
0
0
0
0
0
0
0
0
0
0
0
0
0
0
0
0
0
0
0
0
0
0
0
0
0
0
0
0
0
0
0
0
0
0
0
0
0
0
0
0
0
0
0
0
0
0
0
0
0
0
0
0
0
0
0
0
0
0
0
0
0
0
0
0
0
0
0
0
0
0
0
0
0
0
0
0
0
0
0
0
0
0
0
0
0
0
0
0
0
0
0
0
0
0
0
0
0
0
0
0
0
0
0
0
0
0
0
0
0
0
0
0
0
0
0
0
0
0
0
0
0
0
0
0
0
0
0
0
0
0
0
0
0
0
0
0
0
0
0
0
0
0
0
0
0
0
0
0
0
0
0
0
0
0
0
0
0
0
0
0
0
0
0
0
0
0
0
0
0
0
0
0
0
0
0
0
0
0
0
0
0
0
0
0
0
0
0
0
0
0
0
0
0
0
0
0
0
0
0
0
0
0
0
0
0
0
0
0
0
0
0
0
0
0
0
0
0
0
0
0
0
0
0
0
0
0
0
0
0
0
0
0
0
0
0
0
0
0
0
0
0
0
0
0
0
0
0
0
0
0
0
0
0
0
0
0
0
0
0
0
0
0
0
0
0
0
0
0
0
0
0
0
0
0
0
0
0
0
0
0
0
0
0
0
0
0
0
0
0
0
0
0
0
0
0
0
0
0
0
0
0
0
0
0
0
0
0
0
0
0
0
0
0
0
0
0
0
0
0
0
0
0
0
0
0
0
0
0
0
0
0
0
0
0
0
0
0
0
0
0
0
0
0
0
0
0
0
0
0
0
0
0
0
0
0
0
0
0
0
0
0
0
0
0
0
0
0
0
0
0
0
0
0
0
0
0
0
0
0
0
0
0
0
0
0
0
0
0
0
0
0
0
0
0
0
0
0
0
0
0
0
0
0
0
0
0
0
0
0
0
0
0
0
0
0
0
0
0
0
0
0
0
0
0
0
0
0
0
0
0
0
0
0
0
0
0
0
0
0
0
0
0
0
0
0
0
0
0
0
0
0
0
0
0
0
0
0
0
0
0
0
0
0
0
0
0
0
0
0
0
0
0
0
0
0
0
0
0
0
0
0
0
0
0
0
0
0
0
0
254
254
255
255
255
255
255
255
254
255
255
255
255
255
255
254
254
254
254
254
254
254
254
255
255
254
254
254
0
0
0
0
0
0
0
0
0
0
0
0
0
0
0
0
0
0
0
0
0
0
0
0
0
0
0
0
0
0
0
0
0
0
0
0
0
0
0
0
0
0
0
0
0
0
0
0
0
0
0
0
0
0
0
0
0
0
0
0
0
0
0
0
0
0
0
0
0
0
0
0
0
0
0
0
0
0
0
0
0
0
0
0
0
0
0
0
0
0
0
0
0
0
0
0
0
0
0
0
0
0
0
0
0
0
0
0
0
0
0
0
0
0
0
0
0
0
0
0
0
0
0
0
0
0
0
0
0
0
0
0
0
0
0
0
0
0
0
0
0
0
0
0
0
0
0
0
0
0
0
0
0
0
0
0
0
0
0
0
0
0
0
0
0
0
0
0
0
0
0
0
0
0
0
0
0
0
0
0
0
0
0
0
0
0
0
0
0
0
0
0
0
0
0
0
0
0
0
0
0
0
0
0
0
0
0
0
0
0
0
0
0
0
0
0
0
0
0
0
0
0
0
0
0
0
0
0
0
0
0
0
0
0
0
0
0
0
0
0
0
0
0
0
0
0
0
0
0
0
0
0
0
0
0
0
0
0
0
0
0
0
0
0
0
0
0
0
0
0
0
0
0
0
0
0
0
0
0
0
0
0
0
0
0
0
0
0
0
0
0
0
0
0
0
0
0
0
0
0
0
0
0
0
0
0
0
0
0
0
0
0
0
0
0
0
0
0
0
0
0
0
0
0
0
0
0
0
0
0
0
0
0
0
0
0
0
0
0
0
0
0
0
0
0
0
0
0
0
0
0
0
0
0
0
0
0
0
0
0
0
0
0
0
0
0
0
0
0
0
0
0
0
0
0
0
0
0
0
0
0
0
0
0
0
0
0
0
0
0
0
0
0
0
0
0
0
0
0
0
0
0
0
0
0
0
0
0
0
0
0
0
0
0
0
0
0
0
0
0
0
0
0
0
0
0
0
0
0
0
0
0
0
0
0
0
0
0
0
0
0
0
0
0
0
0
0
0
0
0
0
0
0
0
0
0
0
0
0
0
0
0
0
0
0
0
0
0
0
0
0
0
0
0
0
0
0
0
0
0
0
0
0
0
0
0
0
0
0
0
0
0
0
0
0
0
0
0
0
0
0
0
0
0
0
0
0
0
0
0
0
0
0
0
0
0
0
0
0
0
0
0
0
0
0
0
0
0
0
0
0
0
0
0
0
0
0
0
0
0
0
0
254
254
254
255
255
255
255
255
255
255
255
255
255
255
255
254
254
254
254
255
255
254
254
254
255
255
255
254
254
0
0
0
0
0
0
0
0
0
0
0
0
0
0
0
0
0
0
0
0
0
0
0
0
0
0
0
0
0
0
0
0
0
0
0
0
0
0
0
0
0
0
0
0
0
0
0
0
0
0
0
0
0
0
0
0
0
0
0
0
0
0
0
0
0
0
0
0
0
0
0
0
0
0
0
0
0
0
0
0
0
0
0
0
0
0
0
0
0
0
0
0
0
0
0
0
0
0
0
0
0
0
0
0
0
0
0
0
0
0
0
0
0
0
0
0
0
0
0
0
0
0
0
0
0
0
0
0
0
0
0
0
0
0
0
0
0
0
0
0
0
0
0
0
0
0
0
0
0
0
0
0
0
0
0
0
0
0
0
0
0
0
0
0
0
0
0
0
0
0
0
0
0
0
0
0
0
0
0
0
0
0
0
0
0
0
0
0
0
0
0
0
0
0
0
0
0
0
0
0
0
0
0
0
0
0
0
0
0
0
0
0
0
0
0
0
0
0
0
0
0
0
0
0
0
0
0
0
0
0
0
0
0
0
0
0
0
0
0
0
0
0
0
0
0
0
0
0
0
0
0
0
0
0
0
0
0
0
0
0
0
0
0
0
0
0
0
0
0
0
0
0
0
0
0
0
0
0
0
0
0
0
0
0
0
0
0
0
0
0
0
0
0
0
0
0
0
0
0
0
0
0
0
0
0
0
0
0
0
0
0
0
0
0
0
0
0
0
0
0
0
0
0
0
0
0
0
0
0
0
0
0
0
0
0
0
0
0
0
0
0
0
0
0
0
0
0
0
0
0
0
0
0
0
0
0
0
0
0
0
0
0
0
0
0
0
0
0
0
0
0
0
0
0
0
0
0
0
0
0
0
0
0
0
0
0
0
0
0
0
0
0
0
0
0
0
0
0
0
0
0
0
0
0
0
0
0
0
0
0
0
0
0
0
0
0
0
0
0
0
0
0
0
0
0
0
0
0
0
0
0
0
0
0
0
0
0
0
0
0
0
0
0
0
0
0
0
0
0
0
0
0
0
0
0
0
0
0
0
0
0
0
0
0
0
0
0
0
0
0
0
0
0
0
0
0
0
0
0
0
0
0
0
0
0
0
0
0
0
0
0
0
0
0
0
0
0
0
0
0
0
0
0
0
0
0
0
0
0
0
0
0
0
0
0
0
0
0
0
0
0
0
0
0
0
0
0
0
0
0
0
0
0
0
0
0
0
0
0
0
0
255
254
254
254
255
255
255
255
254
254
255
255
255
255
255
254
254
254
255
255
255
255
254
254
254
254
254
255
254
254
0
0
0
0
0
0
0
0
0
0
0
0
0
0
0
0
0
0
0
0
0
0
0
0
0
0
0
0
0
0
0
0
0
0
0
0
0
0
0
0
0
0
0
0
0
0
0
0
0
0
0
0
0
0
0
0
0
0
0
0
0
0
0
0
0
0
0
0
0
0
0
0
0
0
0
0
0
0
0
0
0
0
0
0
0
0
0
0
0
0
0
0
0
0
0
0
0
0
0
0
0
0
0
0
0
0
0
0
0
0
0
0
0
0
0
0
0
0
0
0
0
0
0
0
0
0
0
0
0
0
0
0
0
0
0
0
0
0
0
0
0
0
0
0
0
0
0
0
0
0
0
0
0
0
0
0
0
0
0
0
0
0
0
0
0
0
0
0
0
0
0
0
0
0
0
0
0
0
0
0
0
0
0
0
0
0
0
0
0
0
0
0
0
0
0
0
0
0
0
0
0
0
0
0
0
0
0
0
0
0
0
0
0
0
0
0
0
0
0
0
0
0
0
0
0
0
0
0
0
0
0
0
0
0
0
0
0
0
0
0
0
0
0
0
0
0
0
0
0
0
0
0
0
0
0
0
0
0
0
0
0
0
0
0
0
0
0
0
0
0
0
0
0
0
0
0
0
0
0
0
0
0
0
0
0
0
0
0
0
0
0
0
0
0
0
0
0
0
0
0
0
0
0
0
0
0
0
0
0
0
0
0
0
0
0
0
0
0
0
0
0
0
0
0
0
0
0
0
0
0
0
0
0
0
0
0
0
0
0
0
0
0
0
0
0
0
0
0
0
0
0
0
0
0
0
0
0
0
0
0
0
0
0
0
0
0
0
0
0
0
0
0
0
0
0
0
0
0
0
0
0
0
0
0
0
0
0
0
0
0
0
0
0
0
0
0
0
0
0
0
0
0
0
0
0
0
0
0
0
0
0
0
0
0
0
0
0
0
0
0
0
0
0
0
0
0
0
0
0
0
0
0
0
0
0
0
0
0
0
0
0
0
0
0
0
0
0
0
0
0
0
0
0
0
0
0
0
0
0
0
0
0
0
0
0
0
0
0
0
0
0
0
0
0
0
0
0
0
0
0
0
0
0
0
0
0
0
0
0
0
0
0
0
0
0
0
0
0
0
0
0
0
0
0
0
0
0
0
0
0
0
0
0
0
0
0
0
0
0
0
0
0
0
0
0
0
0
0
0
0
0
0
0
0
0
0
0
0
0
0
254
255
254
254
254
255
255
255
255
254
254
255
255
255
255
255
255
255
255
254
254
254
254
254
254
254
254
255
254
254
254
0
0
0
0
0
0
0
0
0
0
0
0
0
0
0
0
0
0
0
0
0
0
0
0
0
0
0
0
0
0
0
0
0
0
0
0
0
0
0
0
0
0
0
0
0
0
0
0
0
0
0
0
0
0
0
0
0
0
0
0
0
0
0
0
0
0
0
0
0
0
0
0
0
0
0
0
0
0
0
0
0
0
0
0
0
0
0
0
0
0
0
0
0
0
0
0
0
0
0
0
0
0
0
0
0
0
0
0
0
0
0
0
0
0
0
0
0
0
0
0
0
0
0
0
0
0
0
0
0
0
0
0
0
0
0
0
0
0
0
0
0
0
0
0
0
0
0
0
0
0
0
0
0
0
0
0
0
0
0
0
0
0
0
0
0
0
0
0
0
0
0
0
0
0
0
0
0
0
0
0
0
0
0
0
0
0
0
0
0
0
0
0
0
0
0
0
0
0
0
0
0
0
0
0
0
0
0
0
0
0
0
0
0
0
0
0
0
0
0
0
0
0
0
0
0
0
0
0
0
0
0
0
0
0
0
0
0
0
0
0
0
0
0
0
0
0
0
0
0
0
0
0
0
0
0
0
0
0
0
0
0
0
0
0
0
0
0
0
0
0
0
0
0
0
0
0
0
0
0
0
0
0
0
0
0
0
0
0
0
0
0
0
0
0
0
0
0
0
0
0
0
0
0
0
0
0
0
0
0
0
0
0
0
0
0
0
0
0
0
0
0
0
0
0
0
0
0
0
0
0
0
0
0
0
0
0
0
0
0
0
0
0
0
0
0
0
0
0
0
0
0
0
0
0
0
0
0
0
0
0
0
0
0
0
0
0
0
0
0
0
0
0
0
0
0
0
0
0
0
0
0
0
0
0
0
0
0
0
0
0
0
0
0
0
0
0
0
0
0
0
0
0
0
0
0
0
0
0
0
0
0
0
0
0
0
0
0
0
0
0
0
0
0
0
0
0
0
0
0
0
0
0
0
0
0
0
0
0
0
0
0
0
0
0
0
0
0
0
0
0
0
0
0
0
0
0
0
0
0
0
0
0
0
0
0
0
0
0
0
0
0
0
0
0
0
0
0
0
0
0
0
0
0
0
0
0
0
0
0
0
0
0
0
0
0
0
0
0
0
0
0
0
0
0
0
0
0
0
0
0
0
0
0
0
0
0
0
0
0
0
0
0
0
0
0
0
0
0
0
0
0
0
0
0
0
0
0
0
0
254
254
255
254
254
254
255
255
255
255
254
254
255
255
255
255
255
255
254
254
254
254
254
255
254
254
254
255
255
255
254
254
0
0
0
0
0
0
0
0
0
0
0
0
0
0
0
0
0
0
0
0
0
0
0
0
0
0
0
0
0
0
0
0
0
0
0
0
0
0
0
0
0
0
0
0
0
0
0
0
0
0
0
0
0
0
0
0
0
0
0
0
0
0
0
0
0
0
0
0
0
0
0
0
0
0
0
0
0
0
0
0
0
0
0
0
0
0
0
0
0
0
0
0
0
0
0
0
0
0
0
0
0
0
0
0
0
0
0
0
0
0
0
0
0
0
0
0
0
0
0
0
0
0
0
0
0
0
0
0
0
0
0
0
0
0
0
0
0
0
0
0
0
0
0
0
0
0
0
0
0
0
0
0
0
0
0
0
0
0
0
0
0
0
0
0
0
0
0
0
0
0
0
0
0
0
0
0
0
0
0
0
0
0
0
0
0
0
0
0
0
0
0
0
0
0
0
0
0
0
0
0
0
0
0
0
0
0
0
0
0
0
0
0
0
0
0
0
0
0
0
0
0
0
0
0
0
0
0
0
0
0
0
0
0
0
0
0
0
0
0
0
0
0
0
0
0
0
0
0
0
0
0
0
0
0
0
0
0
0
0
0
0
0
0
0
0
0
0
0
0
0
0
0
0
0
0
0
0
0
0
0
0
0
0
0
0
0
0
0
0
0
0
0
0
0
0
0
0
0
0
0
0
0
0
0
0
0
0
0
0
0
0
0
0
0
0
0
0
0
0
0
0
0
0
0
0
0
0
0
0
0
0
0
0
0
0
0
0
0
0
0
0
0
0
0
0
0
0
0
0
0
0
0
0
0
0
0
0
0
0
0
0
0
0
0
0
0
0
0
0
0
0
0
0
0
0
0
0
0
0
0
0
0
0
0
0
0
0
0
0
0
0
0
0
0
0
0
0
0
0
0
0
0
0
0
0
0
0
0
0
0
0
0
0
0
0
0
0
0
0
0
0
0
0
0
0
0
0
0
0
0
0
0
0
0
0
0
0
0
0
0
0
0
0
0
0
0
0
0
0
0
0
0
0
0
0
0
0
0
0
0
0
0
0
0
0
0
0
0
0
0
0
0
0
0
0
0
0
0
0
0
0
0
0
0
0
0
0
0
0
0
0
0
0
0
0
0
0
0
0
0
0
0
0
0
0
0
0
0
0
0
0
0
0
0
0
0
0
0
0
0
0
0
0
0
0
0
0
0
0
0
0
0
0
0
0
0
0
0
254
254
254
255
254
254
254
255
255
255
255
254
254
255
255
255
255
254
254
255
254
254
254
255
255
254
254
254
254
254
254
254
254
0
0
0
0
0
0
0
0
0
0
0
0
0
0
0
0
0
0
0
0
0
0
0
0
0
0
0
0
0
0
0
0
0
0
0
0
0
0
0
0
0
0
0
0
0
0
0
0
0
0
0
0
0
0
0
0
0
0
0
0
0
0
0
0
0
0
0
0
0
0
0
0
0
0
0
0
0
0
0
0
0
0
0
0
0
0
0
0
0
0
0
0
0
0
0
0
0
0
0
0
0
0
0
0
0
0
0
0
0
0
0
0
0
0
0
0
0
0
0
0
0
0
0
0
0
0
0
0
0
0
0
0
0
0
0
0
0
0
0
0
0
0
0
0
0
0
0
0
0
0
0
0
0
0
0
0
0
0
0
0
0
0
0
0
0
0
0
0
0
0
0
0
0
0
0
0
0
0
0
0
0
0
0
0
0
0
0
0
0
0
0
0
0
0
0
0
0
0
0
0
0
0
0
0
0
0
0
0
0
0
0
0
0
0
0
0
0
0
0
0
0
0
0
0
0
0
0
0
0
0
0
0
0
0
0
0
0
0
0
0
0
0
0
0
0
0
0
0
0
0
0
0
0
0
0
0
0
0
0
0
0
0
0
0
0
0
0
0
0
0
0
0
0
0
0
0
0
0
0
0
0
0
0
0
0
0
0
0
0
0
0
0
0
0
0
0
0
0
0
0
0
0
0
0
0
0
0
0
0
0
0
0
0
0
0
0
0
0
0
0
0
0
0
0
0
0
0
0
0
0
0
0
0
0
0
0
0
0
0
0
0
0
0
0
0
0
0
0
0
0
0
0
0
0
0
0
0
0
0
0
0
0
0
0
0
0
0
0
0
0
0
0
0
0
0
0
0
0
0
0
0
0
0
0
0
0
0
0
0
0
0
0
0
0
0
0
0
0
0
0
0
0
0
0
0
0
0
0
0
0
0
0
0
0
0
0
0
0
0
0
0
0
0
0
0
0
0
0
0
0
0
0
0
0
0
0
0
0
0
0
0
0
0
0
0
0
0
0
0
0
0
0
0
0
0
0
0
0
0
0
0
0
0
0
0
0
0
0
0
0
0
0
0
0
0
0
0
0
0
0
0
0
0
0
0
0
0
0
0
0
0
0
0
0
0
0
0
0
0
0
0
0
0
0
0
0
0
0
0
0
0
0
0
0
0
0
0
0
0
0
0
0
0
0
0
0
0
0
0
0
0
0
0
0
0
0
0
255
254
254
254
254
254
254
254
254
255
255
255
254
254
255
255
255
255
254
255
255
254
254
254
254
254
254
254
254
254
254
254
254
254
0
0
0
0
0
0
0
0
0
0
0
0
0
0
0
0
0
0
0
0
0
0
0
0
0
0
0
0
0
0
0
0
0
0
0
0
0
0
0
0
0
0
0
0
0
0
0
0
0
0
0
0
0
0
0
0
0
0
0
0
0
0
0
0
0
0
0
0
0
0
0
0
0
0
0
0
0
0
0
0
0
0
0
0
0
0
0
0
0
0
0
0
0
0
0
0
0
0
0
0
0
0
0
0
0
0
0
0
0
0
0
0
0
0
0
0
0
0
0
0
0
0
0
0
0
0
0
0
0
0
0
0
0
0
0
0
0
0
0
0
0
0
0
0
0
0
0
0
0
0
0
0
0
0
0
0
0
0
0
0
0
0
0
0
0
0
0
0
0
0
0
0
0
0
0
0
0
0
0
0
0
0
0
0
0
0
0
0
0
0
0
0
0
0
0
0
0
0
0
0
0
0
0
0
0
0
0
0
0
0
0
0
0
0
0
0
0
0
0
0
0
0
0
0
0
0
0
0
0
0
0
0
0
0
0
0
0
0
0
0
0
0
0
0
0
0
0
0
0
0
0
0
0
0
0
0
0
0
0
0
0
0
0
0
0
0
0
0
0
0
0
0
0
0
0
0
0
0
0
0
0
0
0
0
0
0
0
0
0
0
0
0
0
0
0
0
0
0
0
0
0
0
0
0
0
0
0
0
0
0
0
0
0
0
0
0
0
0
0
0
0
0
0
0
0
0
0
0
0
0
0
0
0
0
0
0
0
0
0
0
0
0
0
0
0
0
0
0
0
0
0
0
0
0
0
0
0
0
0
0
0
0
0
0
0
0
0
0
0
0
0
0
0
0
0
0
0
0
0
0
0
0
0
0
0
0
0
0
0
0
0
0
0
0
0
0
0
0
0
0
0
0
0
0
0
0
0
0
0
0
0
0
0
0
0
0
0
0
0
0
0
0
0
0
0
0
0
0
0
0
0
0
0
0
0
0
0
0
0
0
0
0
0
0
0
0
0
0
0
0
0
0
0
0
0
0
0
0
0
0
0
0
0
0
0
0
0
0
0
0
0
0
0
0
0
0
0
0
0
0
0
0
0
0
0
0
0
0
0
0
0
0
0
0
0
0
0
0
0
0
0
0
0
0
0
0
0
0
0
0
0
0
0
0
0
0
0
0
0
0
0
0
0
0
0
0
0
0
0
0
0
0
0
0
0
0
254
255
254
254
254
255
254
254
254
255
255
255
255
254
254
255
255
255
254
254
254
254
254
254
254
254
254
254
254
254
254
254
254
254
254
0
0
0
0
0
0
0
0
0
0
0
0
0
0
0
0
0
0
0
0
0
0
0
0
0
0
0
0
0
0
0
0
0
0
0
0
0
0
0
0
0
0
0
0
0
0
0
0
0
0
0
0
0
0
0
0
0
0
0
0
0
0
0
0
0
0
0
0
0
0
0
0
0
0
0
0
0
0
0
0
0
0
0
0
0
0
0
0
0
0
0
0
0
0
0
0
0
0
0
0
0
0
0
0
0
0
0
0
0
0
0
0
0
0
0
0
0
0
0
0
0
0
0
0
0
0
0
0
0
0
0
0
0
0
0
0
0
0
0
0
0
0
0
0
0
0
0
0
0
0
0
0
0
0
0
0
0
0
0
0
0
0
0
0
0
0
0
0
0
0
0
0
0
0
0
0
0
0
0
0
0
0
0
0
0
0
0
0
0
0
0
0
0
0
0
0
0
0
0
0
0
0
0
0
0
0
0
0
0
0
0
0
0
0
0
0
0
0
0
0
0
0
0
0
0
0
0
0
0
0
0
0
0
0
0
0
0
0
0
0
0
0
0
0
0
0
0
0
0
0
0
0
0
0
0
0
0
0
0
0
0
0
0
0
0
0
0
0
0
0
0
0
0
0
0
0
0
0
0
0
0
0
0
0
0
0
0
0
0
0
0
0
0
0
0
0
0
0
0
0
0
0
0
0
0
0
0
0
0
0
0
0
0
0
0
0
0
0
0
0
0
0
0
0
0
0
0
0
0
0
0
0
0
0
0
0
0
0
0
0
0
0
0
0
0
0
0
0
0
0
0
0
0
0
0
0
0
0
0
0
0
0
0
0
0
0
0
0
0
0
0
0
0
0
0
0
0
0
0
0
0
0
0
0
0
0
0
0
0
0
0
0
0
0
0
0
0
0
0
0
0
0
0
0
0
0
0
0
0
0
0
0
0
0
0
0
0
0
0
0
0
0
0
0
0
0
0
0
0
0
0
0
0
0
0
0
0
0
0
0
0
0
0
0
0
0
0
0
0
0
0
0
0
0
0
0
0
0
0
0
0
0
0
0
0
0
0
0
0
0
0
0
0
0
0
0
0
0
0
0
0
0
0
0
0
0
0
0
0
0
0
0
0
0
0
0
0
0
0
0
0
0
0
0
0
0
0
0
0
0
0
0
0
0
0
0
0
0
0
0
0
0
0
0
0
0
0
0
0
0
0
0
0
0
0
254
255
255
254
254
254
254
254
254
254
255
255
255
255
255
255
255
255
255
254
254
254
254
254
254
254
254
254
254
254
254
254
254
254
254
254
0
0
0
0
0
0
0
0
0
0
0
0
0
0
0
0
0
0
0
0
0
0
0
0
0
0
0
0
0
0
0
0
0
0
0
0
0
0
0
0
0
0
0
0
0
0
0
0
0
0
0
0
0
0
0
0
0
0
0
0
0
0
0
0
0
0
0
0
0
0
0
0
0
0
0
0
0
0
0
0
0
0
0
0
0
0
0
0
0
0
0
0
0
0
0
0
0
0
0
0
0
0
0
0
0
0
0
0
0
0
0
0
0
0
0
0
0
0
0
0
0
0
0
0
0
0
0
0
0
0
0
0
0
0
0
0
0
0
0
0
0
0
0
0
0
0
0
0
0
0
0
0
0
0
0
0
0
0
0
0
0
0
0
0
0
0
0
0
0
0
0
0
0
0
0
0
0
0
0
0
0
0
0
0
0
0
0
0
0
0
0
0
0
0
0
0
0
0
0
0
0
0
0
0
0
0
0
0
0
0
0
0
0
0
0
0
0
0
0
0
0
0
0
0
0
0
0
0
0
0
0
0
0
0
0
0
0
0
0
0
0
0
0
0
0
0
0
0
0
0
0
0
0
0
0
0
0
0
0
0
0
0
0
0
0
0
0
0
0
0
0
0
0
0
0
0
0
0
0
0
0
0
0
0
0
0
0
0
0
0
0
0
0
0
0
0
0
0
0
0
0
0
0
0
0
0
0
0
0
0
0
0
0
0
0
0
0
0
0
0
0
0
0
0
0
0
0
0
0
0
0
0
0
0
0
0
0
0
0
0
0
0
0
0
0
0
0
0
0
0
0
0
0
0
0
0
0
0
0
0
0
0
0
0
0
0
0
0
0
0
0
0
0
0
0
0
0
0
0
0
0
0
0
0
0
0
0
0
0
0
0
0
0
0
0
0
0
0
0
0
0
0
0
0
0
0
0
0
0
0
0
0
0
0
0
0
0
0
0
0
0
0
0
0
0
0
0
0
0
0
0
0
0
0
0
0
0
0
0
0
0
0
0
0
0
0
0
0
0
0
0
0
0
0
0
0
0
0
0
0
0
0
0
0
0
0
0
0
0
0
0
0
0
0
0
0
0
0
0
0
0
0
0
0
0
0
0
0
0
0
0
0
0
0
0
0
0
0
0
0
0
0
0
0
0
0
0
0
0
0
0
0
0
0
0
0
0
0
0
0
0
0
0
0
0
0
0
0
0
0
0
0
0
0
255
255
255
254
254
254
254
254
254
254
254
255
255
255
255
255
255
255
255
255
254
254
255
255
254
254
254
254
254
254
254
254
255
255
254
254
254
0
0
0
0
0
0
0
0
0
0
0
0
0
0
0
0
0
0
0
0
0
0
0
0
0
0
0
0
0
0
0
0
0
0
0
0
0
0
0
0
0
0
0
0
0
0
0
0
0
0
0
0
0
0
0
0
0
0
0
0
0
0
0
0
0
0
0
0
0
0
0
0
0
0
0
0
0
0
0
0
0
0
0
0
0
0
0
0
0
0
0
0
0
0
0
0
0
0
0
0
0
0
0
0
0
0
0
0
0
0
0
0
0
0
0
0
0
0
0
0
0
0
0
0
0
0
0
0
0
0
0
0
0
0
0
0
0
0
0
0
0
0
0
0
0
0
0
0
0
0
0
0
0
0
0
0
0
0
0
0
0
0
0
0
0
0
0
0
0
0
0
0
0
0
0
0
0
0
0
0
0
0
0
0
0
0
0
0
0
0
0
0
0
0
0
0
0
0
0
0
0
0
0
0
0
0
0
0
0
0
0
0
0
0
0
0
0
0
0
0
0
0
0
0
0
0
0
0
0
0
0
0
0
0
0
0
0
0
0
0
0
0
0
0
0
0
0
0
0
0
0
0
0
0
0
0
0
0
0
0
0
0
0
0
0
0
0
0
0
0
0
0
0
0
0
0
0
0
0
0
0
0
0
0
0
0
0
0
0
0
0
0
0
0
0
0
0
0
0
0
0
0
0
0
0
0
0
0
0
0
0
0
0
0
0
0
0
0
0
0
0
0
0
0
0
0
0
0
0
0
0
0
0
0
0
0
0
0
0
0
0
0
0
0
0
0
0
0
0
0
0
0
0
0
0
0
0
0
0
0
0
0
0
0
0
0
0
0
0
0
0
0
0
0
0
0
0
0
0
0
0
0
0
0
0
0
0
0
0
0
0
0
0
0
0
0
0
0
0
0
0
0
0
0
0
0
0
0
0
0
0
0
0
0
0
0
0
0
0
0
0
0
0
0
0
0
0
0
0
0
0
0
0
0
0
0
0
0
0
0
0
0
0
0
0
0
0
0
0
0
0
0
0
0
0
0
0
0
0
0
0
0
0
0
0
0
0
0
0
0
0
0
0
0
0
0
0
0
0
0
0
0
0
0
0
0
0
0
0
0
0
0
0
0
0
0
0
0
0
0
0
0
0
0
0
0
0
0
0
0
0
0
0
0
0
0
0
0
0
0
0
0
0
0
0
0
0
0
0
0
0
0
0
251
255
254
254
254
254
254
254
254
254
255
255
255
255
255
255
254
254
255
254
254
254
254
253
254
254
254
254
254
254
254
254
254
255
255
255
254
254
0
0
0
0
0
0
0
0
0
0
0
0
0
0
0
0
0
0
0
0
0
0
0
0
0
0
0
0
0
0
0
0
0
0
0
0
0
0
0
0
0
0
0
0
0
0
0
0
0
0
0
0
0
0
0
0
0
0
0
0
0
0
0
0
0
0
0
0
0
0
0
0
0
0
0
0
0
0
0
0
0
0
0
0
0
0
0
0
0
0
0
0
0
0
0
0
0
0
0
0
0
0
0
0
0
0
0
0
0
0
0
0
0
0
0
0
0
0
0
0
0
0
0
0
0
0
0
0
0
0
0
0
0
0
0
0
0
0
0
0
0
0
0
0
0
0
0
0
0
0
0
0
0
0
0
0
0
0
0
0
0
0
0
0
0
0
0
0
0
0
0
0
0
0
0
0
0
0
0
0
0
0
0
0
0
0
0
0
0
0
0
0
0
0
0
0
0
0
0
0
0
0
0
0
0
0
0
0
0
0
0
0
0
0
0
0
0
0
0
0
0
0
0
0
0
0
0
0
0
0
0
0
0
0
0
0
0
0
0
0
0
0
0
0
0
0
0
0
0
0
0
0
0
0
0
0
0
0
0
0
0
0
0
0
0
0
0
0
0
0
0
0
0
0
0
0
0
0
0
0
0
0
0
0
0
0
0
0
0
0
0
0
0
0
0
0
0
0
0
0
0
0
0
0
0
0
0
0
0
0
0
0
0
0
0
0
0
0
0
0
0
0
0
0
0
0
0
0
0
0
0
0
0
0
0
0
0
0
0
0
0
0
0
0
0
0
0
0
0
0
0
0
0
0
0
0
0
0
0
0
0
0
0
0
0
0
0
0
0
0
0
0
0
0
0
0
0
0
0
0
0
0
0
0
0
0
0
0
0
0
0
0
0
0
0
0
0
0
0
0
0
0
0
0
0
0
0
0
0
0
0
0
0
0
0
0
0
0
0
0
0
0
0
0
0
0
0
0
0
0
0
0
0
0
0
0
0
0
0
0
0
0
0
0
0
0
0
0
0
0
0
0
0
0
0
0
0
0
0
0
0
0
0
0
0
0
0
0
0
0
0
0
0
0
0
0
0
0
0
0
0
0
0
0
0
0
0
0
0
0
0
0
0
0
0
0
0
0
0
0
0
0
0
0
0
0
0
0
0
0
0
0
0
0
0
0
0
0
0
0
0
0
0
0
0
0
0
0
0
0
0
0
251
255
254
254
254
255
254
254
254
254
255
254
255
255
255
255
254
254
254
254
254
254
254
255
254
254
254
254
254
254
254
254
254
254
255
255
255
254
254
0
0
0
0
0
0
0
0
0
0
0
0
0
0
0
0
0
0
0
0
0
0
0
0
0
0
0
0
0
0
0
0
0
0
0
0
0
0
0
0
0
0
0
0
0
0
0
0
0
0
0
0
0
0
0
0
0
0
0
0
0
0
0
0
0
0
0
0
0
0
0
0
0
0
0
0
0
0
0
0
0
0
0
0
0
0
0
0
0
0
0
0
0
0
0
0
0
0
0
0
0
0
0
0
0
0
0
0
0
0
0
0
0
0
0
0
0
0
0
0
0
0
0
0
0
0
0
0
0
0
0
0
0
0
0
0
0
0
0
0
0
0
0
0
0
0
0
0
0
0
0
0
0
0
0
0
0
0
0
0
0
0
0
0
0
0
0
0
0
0
0
0
0
0
0
0
0
0
0
0
0
0
0
0
0
0
0
0
0
0
0
0
0
0
0
0
0
0
0
0
0
0
0
0
0
0
0
0
0
0
0
0
0
0
0
0
0
0
0
0
0
0
0
0
0
0
0
0
0
0
0
0
0
0
0
0
0
0
0
0
0
0
0
0
0
0
0
0
0
0
0
0
0
0
0
0
0
0
0
0
0
0
0
0
0
0
0
0
0
0
0
0
0
0
0
0
0
0
0
0
0
0
0
0
0
0
0
0
0
0
0
0
0
0
0
0
0
0
0
0
0
0
0
0
0
0
0
0
0
0
0
0
0
0
0
0
0
0
0
0
0
0
0
0
0
0
0
0
0
0
0
0
0
0
0
0
0
0
0
0
0
0
0
0
0
0
0
0
0
0
0
0
0
0
0
0
0
0
0
0
0
0
0
0
0
0
0
0
0
0
0
0
0
0
0
0
0
0
0
0
0
0
0
0
0
0
0
0
0
0
0
0
0
0
0
0
0
0
0
0
0
0
0
0
0
0
0
0
0
0
0
0
0
0
0
0
0
0
0
0
0
0
0
0
0
0
0
0
0
0
0
0
0
0
0
0
0
0
0
0
0
0
0
0
0
0
0
0
0
0
0
0
0
0
0
0
0
0
0
0
0
0
0
0
0
0
0
0
0
0
0
0
0
0
0
0
0
0
0
0
0
0
0
0
0
0
0
0
0
0
0
0
0
0
0
0
0
0
0
0
0
0
0
0
0
0
0
0
0
0
0
0
0
0
0
0
0
0
0
0
0
0
0
0
0
0
0
0
0
0
0
255
254
254
255
255
255
255
254
254
254
254
255
255
255
255
255
255
254
254
254
254
254
254
254
255
254
254
254
255
255
254
254
254
254
254
255
255
254
254
254
0
0
0
0
0
0
0
0
0
0
0
0
0
0
0
0
0
0
0
0
0
0
0
0
0
0
0
0
0
0
0
0
0
0
0
0
0
0
0
0
0
0
0
0
0
0
0
0
0
0
0
0
0
0
0
0
0
0
0
0
0
0
0
0
0
0
0
0
0
0
0
0
0
0
0
0
0
0
0
0
0
0
0
0
0
0
0
0
0
0
0
0
0
0
0
0
0
0
0
0
0
0
0
0
0
0
0
0
0
0
0
0
0
0
0
0
0
0
0
0
0
0
0
0
0
0
0
0
0
0
0
0
0
0
0
0
0
0
0
0
0
0
0
0
0
0
0
0
0
0
0
0
0
0
0
0
0
0
0
0
0
0
0
0
0
0
0
0
0
0
0
0
0
0
0
0
0
0
0
0
0
0
0
0
0
0
0
0
0
0
0
0
0
0
0
0
0
0
0
0
0
0
0
0
0
0
0
0
0
0
0
0
0
0
0
0
0
0
0
0
0
0
0
0
0
0
0
0
0
0
0
0
0
0
0
0
0
0
0
0
0
0
0
0
0
0
0
0
0
0
0
0
0
0
0
0
0
0
0
0
0
0
0
0
0
0
0
0
0
0
0
0
0
0
0
0
0
0
0
0
0
0
0
0
0
0
0
0
0
0
0
0
0
0
0
0
0
0
0
0
0
0
0
0
0
0
0
0
0
0
0
0
0
0
0
0
0
0
0
0
0
0
0
0
0
0
0
0
0
0
0
0
0
0
0
0
0
0
0
0
0
0
0
0
0
0
0
0
0
0
0
0
0
0
0
0
0
0
0
0
0
0
0
0
0
0
0
0
0
0
0
0
0
0
0
0
0
0
0
0
0
0
0
0
0
0
0
0
0
0
0
0
0
0
0
0
0
0
0
0
0
0
0
0
0
0
0
0
0
0
0
0
0
0
0
0
0
0
0
0
0
0
0
0
0
0
0
0
0
0
0
0
0
0
0
0
0
0
0
0
0
0
0
0
0
0
0
0
0
0
0
0
0
0
0
0
0
0
0
0
0
0
0
0
0
0
0
0
0
0
0
0
0
0
0
0
0
0
0
0
0
0
0
0
0
0
0
0
0
0
0
0
0
0
0
0
0
0
0
0
0
0
0
0
0
0
0
0
0
0
0
0
0
0
0
0
0
0
0
0
0
0
0
0
0
0
0
0
0
0
254
253
252
255
255
255
255
254
254
255
255
255
255
255
254
255
255
254
254
254
255
255
254
254
255
255
254
254
255
255
255
255
255
254
254
254
255
255
254
254
254
0
0
0
0
0
0
0
0
0
0
0
0
0
0
0
0
0
0
0
0
0
0
0
0
0
0
0
0
0
0
0
0
0
0
0
0
0
0
0
0
0
0
0
0
0
0
0
0
0
0
0
0
0
0
0
0
0
0
0
0
0
0
0
0
0
0
0
0
0
0
0
0
0
0
0
0
0
0
0
0
0
0
0
0
0
0
0
0
0
0
0
0
0
0
0
0
0
0
0
0
0
0
0
0
0
0
0
0
0
0
0
0
0
0
0
0
0
0
0
0
0
0
0
0
0
0
0
0
0
0
0
0
0
0
0
0
0
0
0
0
0
0
0
0
0
0
0
0
0
0
0
0
0
0
0
0
0
0
0
0
0
0
0
0
0
0
0
0
0
0
0
0
0
0
0
0
0
0
0
0
0
0
0
0
0
0
0
0
0
0
0
0
0
0
0
0
0
0
0
0
0
0
0
0
0
0
0
0
0
0
0
0
0
0
0
0
0
0
0
0
0
0
0
0
0
0
0
0
0
0
0
0
0
0
0
0
0
0
0
0
0
0
0
0
0
0
0
0
0
0
0
0
0
0
0
0
0
0
0
0
0
0
0
0
0
0
0
0
0
0
0
0
0
0
0
0
0
0
0
0
0
0
0
0
0
0
0
0
0
0
0
0
0
0
0
0
0
0
0
0
0
0
0
0
0
0
0
0
0
0
0
0
0
0
0
0
0
0
0
0
0
0
0
0
0
0
0
0
0
0
0
0
0
0
0
0
0
0
0
0
0
0
0
0
0
0
0
0
0
0
0
0
0
0
0
0
0
0
0
0
0
0
0
0
0
0
0
0
0
0
0
0
0
0
0
0
0
0
0
0
0
0
0
0
0
0
0
0
0
0
0
0
0
0
0
0
0
0
0
0
0
0
0
0
0
0
0
0
0
0
0
0
0
0
0
0
0
0
0
0
0
0
0
0
0
0
0
0
0
0
0
0
0
0
0
0
0
0
0
0
0
0
0
0
0
0
0
0
0
0
0
0
0
0
0
0
0
0
0
0
0
0
0
0
0
0
0
0
0
0
0
0
0
0
0
0
0
0
0
0
0
0
0
0
0
0
0
0
0
0
0
0
0
0
0
0
0
0
0
0
0
0
0
0
0
0
0
0
0
0
0
0
0
0
0
0
0
0
0
0
0
0
0
0
0
0
0
0
0
254
254
255
255
255
255
255
255
255
255
254
254
255
255
255
253
255
254
254
255
255
255
255
254
254
255
254
255
255
255
255
255
255
254
254
254
254
255
255
254
254
254
0
0
0
0
0
0
0
0
0
0
0
0
0
0
0
0
0
0
0
0
0
0
0
0
0
0
0
0
0
0
0
0
0
0
0
0
0
0
0
0
0
0
0
0
0
0
0
0
0
0
0
0
0
0
0
0
0
0
0
0
0
0
0
0
0
0
0
0
0
0
0
0
0
0
0
0
0
0
0
0
0
0
0
0
0
0
0
0
0
0
0
0
0
0
0
0
0
0
0
0
0
0
0
0
0
0
0
0
0
0
0
0
0
0
0
0
0
0
0
0
0
0
0
0
0
0
0
0
0
0
0
0
0
0
0
0
0
0
0
0
0
0
0
0
0
0
0
0
0
0
0
0
0
0
0
0
0
0
0
0
0
0
0
0
0
0
0
0
0
0
0
0
0
0
0
0
0
0
0
0
0
0
0
0
0
0
0
0
0
0
0
0
0
0
0
0
0
0
0
0
0
0
0
0
0
0
0
0
0
0
0
0
0
0
0
0
0
0
0
0
0
0
0
0
0
0
0
0
0
0
0
0
0
0
0
0
0
0
0
0
0
0
0
0
0
0
0
0
0
0
0
0
0
0
0
0
0
0
0
0
0
0
0
0
0
0
0
0
0
0
0
0
0
0
0
0
0
0
0
0
0
0
0
0
0
0
0
0
0
0
0
0
0
0
0
0
0
0
0
0
0
0
0
0
0
0
0
0
0
0
0
0
0
0
0
0
0
0
0
0
0
0
0
0
0
0
0
0
0
0
0
0
0
0
0
0
0
0
0
0
0
0
0
0
0
0
0
0
0
0
0
0
0
0
0
0
0
0
0
0
0
0
0
0
0
0
0
0
0
0
0
0
0
0
0
0
0
0
0
0
0
0
0
0
0
0
0
0
0
0
0
0
0
0
0
0
0
0
0
0
0
0
0
0
0
0
0
0
0
0
0
0
0
0
0
0
0
0
0
0
0
0
0
0
0
0
0
0
0
0
0
0
0
0
0
0
0
0
0
0
0
0
0
0
0
0
0
0
0
0
0
0
0
0
0
0
0
0
0
0
0
0
0
0
0
0
0
0
0
0
0
0
0
0
0
0
0
0
0
0
0
0
0
0
0
0
0
0
0
0
0
0
0
0
0
0
0
0
0
0
0
0
0
0
0
0
0
0
0
0
0
0
0
0
0
0
0
0
0
0
0
0
0
0
0
0
0
0
254
250
254
252
253
253
255
255
255
255
254
254
254
254
254
255
254
255
255
255
255
255
255
255
255
255
254
254
255
255
254
254
254
255
254
254
254
254
255
255
254
254
254
0
0
0
0
0
0
0
0
0
0
0
0
0
0
0
0
0
0
0
0
0
0
0
0
0
0
0
0
0
0
0
0
0
0
0
0
0
0
0
0
0
0
0
0
0
0
0
0
0
0
0
0
0
0
0
0
0
0
0
0
0
0
0
0
0
0
0
0
0
0
0
0
0
0
0
0
0
0
0
0
0
0
0
0
0
0
0
0
0
0
0
0
0
0
0
0
0
0
0
0
0
0
0
0
0
0
0
0
0
0
0
0
0
0
0
0
0
0
0
0
0
0
0
0
0
0
0
0
0
0
0
0
0
0
0
0
0
0
0
0
0
0
0
0
0
0
0
0
0
0
0
0
0
0
0
0
0
0
0
0
0
0
0
0
0
0
0
0
0
0
0
0
0
0
0
0
0
0
0
0
0
0
0
0
0
0
0
0
0
0
0
0
0
0
0
0
0
0
0
0
0
0
0
0
0
0
0
0
0
0
0
0
0
0
0
0
0
0
0
0
0
0
0
0
0
0
0
0
0
0
0
0
0
0
0
0
0
0
0
0
0
0
0
0
0
0
0
0
0
0
0
0
0
0
0
0
0
0
0
0
0
0
0
0
0
0
0
0
0
0
0
0
0
0
0
0
0
0
0
0
0
0
0
0
0
0
0
0
0
0
0
0
0
0
0
0
0
0
0
0
0
0
0
0
0
0
0
0
0
0
0
0
0
0
0
0
0
0
0
0
0
0
0
0
0
0
0
0
0
0
0
0
0
0
0
0
0
0
0
0
0
0
0
0
0
0
0
0
0
0
0
0
0
0
0
0
0
0
0
0
0
0
0
0
0
0
0
0
0
0
0
0
0
0
0
0
0
0
0
0
0
0
0
0
0
0
0
0
0
0
0
0
0
0
0
0
0
0
0
0
0
0
0
0
0
0
0
0
0
0
0
0
0
0
0
0
0
0
0
0
0
0
0
0
0
0
0
0
0
0
0
0
0
0
0
0
0
0
0
0
0
0
0
0
0
0
0
0
0
0
0
0
0
0
0
0
0
0
0
0
0
0
0
0
0
0
0
0
0
0
0
0
0
0
0
0
0
0
0
0
0
0
0
0
0
0
0
0
0
0
0
0
0
0
0
0
0
0
0
0
0
0
0
0
0
0
0
0
0
0
0
0
0
0
0
0
0
0
0
0
0
0
0
0
0
0
0
235
248
254
253
253
253
254
255
255
255
254
254
254
254
255
255
255
253
254
255
255
255
255
254
254
255
255
254
255
255
255
254
254
254
255
255
254
254
255
255
255
254
254
254
0
0
0
0
0
0
0
0
0
0
0
0
0
0
0
0
0
0
0
0
0
0
0
0
0
0
0
0
0
0
0
0
0
0
0
0
0
0
0
0
0
0
0
0
0
0
0
0
0
0
0
0
0
0
0
0
0
0
0
0
0
0
0
0
0
0
0
0
0
0
0
0
0
0
0
0
0
0
0
0
0
0
0
0
0
0
0
0
0
0
0
0
0
0
0
0
0
0
0
0
0
0
0
0
0
0
0
0
0
0
0
0
0
0
0
0
0
0
0
0
0
0
0
0
0
0
0
0
0
0
0
0
0
0
0
0
0
0
0
0
0
0
0
0
0
0
0
0
0
0
0
0
0
0
0
0
0
0
0
0
0
0
0
0
0
0
0
0
0
0
0
0
0
0
0
0
0
0
0
0
0
0
0
0
0
0
0
0
0
0
0
0
0
0
0
0
0
0
0
0
0
0
0
0
0
0
0
0
0
0
0
0
0
0
0
0
0
0
0
0
0
0
0
0
0
0
0
0
0
0
0
0
0
0
0
0
0
0
0
0
0
0
0
0
0
0
0
0
0
0
0
0
0
0
0
0
0
0
0
0
0
0
0
0
0
0
0
0
0
0
0
0
0
0
0
0
0
0
0
0
0
0
0
0
0
0
0
0
0
0
0
0
0
0
0
0
0
0
0
0
0
0
0
0
0
0
0
0
0
0
0
0
0
0
0
0
0
0
0
0
0
0
0
0
0
0
0
0
0
0
0
0
0
0
0
0
0
0
0
0
0
0
0
0
0
0
0
0
0
0
0
0
0
0
0
0
0
0
0
0
0
0
0
0
0
0
0
0
0
0
0
0
0
0
0
0
0
0
0
0
0
0
0
0
0
0
0
0
0
0
0
0
0
0
0
0
0
0
0
0
0
0
0
0
0
0
0
0
0
0
0
0
0
0
0
0
0
0
0
0
0
0
0
0
0
0
0
0
0
0
0
0
0
0
0
0
0
0
0
0
0
0
0
0
0
0
0
0
0
0
0
0
0
0
0
0
0
0
0
0
0
0
0
0
0
0
0
0
0
0
0
0
0
0
0
0
0
0
0
0
0
0
0
0
0
0
0
0
0
0
0
0
0
0
0
0
0
0
0
0
0
0
0
0
0
0
0
0
0
0
0
0
0
0
0
0
0
0
0
0
0
0
0
0
0
0
156
187
231
249
249
252
255
252
254
255
255
254
254
254
255
255
255
255
253
254
254
254
254
254
254
254
254
255
255
255
255
254
254
254
254
255
255
255
255
254
255
255
254
254
254
0
0
0
0
0
0
0
0
0
0
0
0
0
0
0
0
0
0
0
0
0
0
0
0
0
0
0
0
0
0
0
0
0
0
0
0
0
0
0
0
0
0
0
0
0
0
0
0
0
0
0
0
0
0
0
0
0
0
0
0
0
0
0
0
0
0
0
0
0
0
0
0
0
0
0
0
0
0
0
0
0
0
0
0
0
0
0
0
0
0
0
0
0
0
0
0
0
0
0
0
0
0
0
0
0
0
0
0
0
0
0
0
0
0
0
0
0
0
0
0
0
0
0
0
0
0
0
0
0
0
0
0
0
0
0
0
0
0
0
0
0
0
0
0
0
0
0
0
0
0
0
0
0
0
0
0
0
0
0
0
0
0
0
0
0
0
0
0
0
0
0
0
0
0
0
0
0
0
0
0
0
0
0
0
0
0
0
0
0
0
0
0
0
0
0
0
0
0
0
0
0
0
0
0
0
0
0
0
0
0
0
0
0
0
0
0
0
0
0
0
0
0
0
0
0
0
0
0
0
0
0
0
0
0
0
0
0
0
0
0
0
0
0
0
0
0
0
0
0
0
0
0
0
0
0
0
0
0
0
0
0
0
0
0
0
0
0
0
0
0
0
0
0
0
0
0
0
0
0
0
0
0
0
0
0
0
0
0
0
0
0
0
0
0
0
0
0
0
0
0
0
0
0
0
0
0
0
0
0
0
0
0
0
0
0
0
0
0
0
0
0
0
0
0
0
0
0
0
0
0
0
0
0
0
0
0
0
0
0
0
0
0
0
0
0
0
0
0
0
0
0
0
0
0
0
0
0
0
0
0
0
0
0
0
0
0
0
0
0
0
0
0
0
0
0
0
0
0
0
0
0
0
0
0
0
0
0
0
0
0
0
0
0
0
0
0
0
0
0
0
0
0
0
0
0
0
0
0
0
0
0
0
0
0
0
0
0
0
0
0
0
0
0
0
0
0
0
0
0
0
0
0
0
0
0
0
0
0
0
0
0
0
0
0
0
0
0
0
0
0
0
0
0
0
0
0
0
0
0
0
0
0
0
0
0
0
0
0
0
0
0
0
0
0
0
0
0
0
0
0
0
0
0
0
0
0
0
0
0
0
0
0
0
0
0
0
0
0
0
0
0
0
0
0
0
0
0
0
0
0
0
0
0
0
0
0
0
0
0
0
0
0
0
0
0
156
156
157
181
227
189
235
252
250
251
255
255
255
254
255
254
254
255
254
255
254
254
254
254
254
254
254
255
255
255
255
254
254
254
254
255
255
255
254
254
254
255
255
254
254
254
0
0
0
0
0
0
0
0
0
0
0
0
0
0
0
0
0
0
0
0
0
0
0
0
0
0
0
0
0
0
0
0
0
0
0
0
0
0
0
0
0
0
0
0
0
0
0
0
0
0
0
0
0
0
0
0
0
0
0
0
0
0
0
0
0
0
0
0
0
0
0
0
0
0
0
0
0
0
0
0
0
0
0
0
0
0
0
0
0
0
0
0
0
0
0
0
0
0
0
0
0
0
0
0
0
0
0
0
0
0
0
0
0
0
0
0
0
0
0
0
0
0
0
0
0
0
0
0
0
0
0
0
0
0
0
0
0
0
0
0
0
0
0
0
0
0
0
0
0
0
0
0
0
0
0
0
0
0
0
0
0
0
0
0
0
0
0
0
0
0
0
0
0
0
0
0
0
0
0
0
0
0
0
0
0
0
0
0
0
0
0
0
0
0
0
0
0
0
0
0
0
0
0
0
0
0
0
0
0
0
0
0
0
0
0
0
0
0
0
0
0
0
0
0
0
0
0
0
0
0
0
0
0
0
0
0
0
0
0
0
0
0
0
0
0
0
0
0
0
0
0
0
0
0
0
0
0
0
0
0
0
0
0
0
0
0
0
0
0
0
0
0
0
0
0
0
0
0
0
0
0
0
0
0
0
0
0
0
0
0
0
0
0
0
0
0
0
0
0
0
0
0
0
0
0
0
0
0
0
0
0
0
0
0
0
0
0
0
0
0
0
0
0
0
0
0
0
0
0
0
0
0
0
0
0
0
0
0
0
0
0
0
0
0
0
0
0
0
0
0
0
0
0
0
0
0
0
0
0
0
0
0
0
0
0
0
0
0
0
0
0
0
0
0
0
0
0
0
0
0
0
0
0
0
0
0
0
0
0
0
0
0
0
0
0
0
0
0
0
0
0
0
0
0
0
0
0
0
0
0
0
0
0
0
0
0
0
0
0
0
0
0
0
0
0
0
0
0
0
0
0
0
0
0
0
0
0
0
0
0
0
0
0
0
0
0
0
0
0
0
0
0
0
0
0
0
0
0
0
0
0
0
0
0
0
0
0
0
0
0
0
0
0
0
0
0
0
0
0
0
0
0
0
0
0
0
0
0
0
0
0
0
0
0
0
0
0
0
0
0
0
0
0
0
0
0
0
0
0
0
0
0
0
0
0
0
0
0
0
0
0
0
0
0
158
157
157
156
154
160
160
200
242
242
250
254
252
255
251
254
254
254
252
252
255
255
255
255
254
254
254
254
255
255
255
254
254
254
254
255
255
254
254
254
254
254
255
255
254
254
254
0
0
0
0
0
0
0
0
0
0
0
0
0
0
0
0
0
0
0
0
0
0
0
0
0
0
0
0
0
0
0
0
0
0
0
0
0
0
0
0
0
0
0
0
0
0
0
0
0
0
0
0
0
0
0
0
0
0
0
0
0
0
0
0
0
0
0
0
0
0
0
0
0
0
0
0
0
0
0
0
0
0
0
0
0
0
0
0
0
0
0
0
0
0
0
0
0
0
0
0
0
0
0
0
0
0
0
0
0
0
0
0
0
0
0
0
0
0
0
0
0
0
0
0
0
0
0
0
0
0
0
0
0
0
0
0
0
0
0
0
0
0
0
0
0
0
0
0
0
0
0
0
0
0
0
0
0
0
0
0
0
0
0
0
0
0
0
0
0
0
0
0
0
0
0
0
0
0
0
0
0
0
0
0
0
0
0
0
0
0
0
0
0
0
0
0
0
0
0
0
0
0
0
0
0
0
0
0
0
0
0
0
0
0
0
0
0
0
0
0
0
0
0
0
0
0
0
0
0
0
0
0
0
0
0
0
0
0
0
0
0
0
0
0
0
0
0
0
0
0
0
0
0
0
0
0
0
0
0
0
0
0
0
0
0
0
0
0
0
0
0
0
0
0
0
0
0
0
0
0
0
0
0
0
0
0
0
0
0
0
0
0
0
0
0
0
0
0
0
0
0
0
0
0
0
0
0
0
0
0
0
0
0
0
0
0
0
0
0
0
0
0
0
0
0
0
0
0
0
0
0
0
0
0
0
0
0
0
0
0
0
0
0
0
0
0
0
0
0
0
0
0
0
0
0
0
0
0
0
0
0
0
0
0
0
0
0
0
0
0
0
0
0
0
0
0
0
0
0
0
0
0
0
0
0
0
0
0
0
0
0
0
0
0
0
0
0
0
0
0
0
0
0
0
0
0
0
0
0
0
0
0
0
0
0
0
0
0
0
0
0
0
0
0
0
0
0
0
0
0
0
0
0
0
0
0
0
0
0
0
0
0
0
0
0
0
0
0
0
0
0
0
0
0
0
0
0
0
0
0
0
0
0
0
0
0
0
0
0
0
0
0
0
0
0
0
0
0
0
0
0
0
0
0
0
0
0
0
0
0
0
0
0
0
0
0
0
0
0
0
0
0
0
0
0
0
0
0
0
0
0
0
0
0
0
0
0
0
0
0
0
0
0
159
161
161
158
159
157
155
156
166
221
185
246
252
252
254
252
253
254
254
254
255
253
255
255
255
255
254
254
254
255
255
255
254
255
255
254
254
254
255
254
254
254
254
255
255
254
254
254
0
0
0
0
0
0
0
0
0
0
0
0
0
0
0
0
0
0
0
0
0
0
0
0
0
0
0
0
0
0
0
0
0
0
0
0
0
0
0
0
0
0
0
0
0
0
0
0
0
0
0
0
0
0
0
0
0
0
0
0
0
0
0
0
0
0
0
0
0
0
0
0
0
0
0
0
0
0
0
0
0
0
0
0
0
0
0
0
0
0
0
0
0
0
0
0
0
0
0
0
0
0
0
0
0
0
0
0
0
0
0
0
0
0
0
0
0
0
0
0
0
0
0
0
0
0
0
0
0
0
0
0
0
0
0
0
0
0
0
0
0
0
0
0
0
0
0
0
0
0
0
0
0
0
0
0
0
0
0
0
0
0
0
0
0
0
0
0
0
0
0
0
0
0
0
0
0
0
0
0
0
0
0
0
0
0
0
0
0
0
0
0
0
0
0
0
0
0
0
0
0
0
0
0
0
0
0
0
0
0
0
0
0
0
0
0
0
0
0
0
0
0
0
0
0
0
0
0
0
0
0
0
0
0
0
0
0
0
0
0
0
0
0
0
0
0
0
0
0
0
0
0
0
0
0
0
0
0
0
0
0
0
0
0
0
0
0
0
0
0
0
0
0
0
0
0
0
0
0
0
0
0
0
0
0
0
0
0
0
0
0
0
0
0
0
0
0
0
0
0
0
0
0
0
0
0
0
0
0
0
0
0
0
0
0
0
0
0
0
0
0
0
0
0
0
0
0
0
0
0
0
0
0
0
0
0
0
0
0
0
0
0
0
0
0
0
0
0
0
0
0
0
0
0
0
0
0
0
0
0
0
0
0
0
0
0
0
0
0
0
0
0
0
0
0
0
0
0
0
0
0
0
0
0
0
0
0
0
0
0
0
0
0
0
0
0
0
0
0
0
0
0
0
0
0
0
0
0
0
0
0
0
0
0
0
0
0
0
0
0
0
0
0
0
0
0
0
0
0
0
0
0
0
0
0
0
0
0
0
0
0
0
0
0
0
0
0
0
0
0
0
0
0
0
0
0
0
0
0
0
0
0
0
0
0
0
0
0
0
0
0
0
0
0
0
0
0
0
0
0
0
0
0
0
0
0
0
0
0
0
0
0
0
0
0
0
0
0
0
0
0
0
0
0
0
0
0
0
0
0
0
0
0
0
0
0
0
0
0
0
0
0
159
159
161
157
157
158
158
156
157
158
160
160
219
251
251
252
255
254
254
254
255
255
255
255
255
255
255
254
254
254
255
255
255
255
255
254
254
254
254
255
255
254
254
254
255
255
254
254
253
0
0
0
0
0
0
0
0
0
0
0
0
0
0
0
0
0
0
0
0
0
0
0
0
0
0
0
0
0
0
0
0
0
0
0
0
0
0
0
0
0
0
0
0
0
0
0
0
0
0
0
0
0
0
0
0
0
0
0
0
0
0
0
0
0
0
0
0
0
0
0
0
0
0
0
0
0
0
0
0
0
0
0
0
0
0
0
0
0
0
0
0
0
0
0
0
0
0
0
0
0
0
0
0
0
0
0
0
0
0
0
0
0
0
0
0
0
0
0
0
0
0
0
0
0
0
0
0
0
0
0
0
0
0
0
0
0
0
0
0
0
0
0
0
0
0
0
0
0
0
0
0
0
0
0
0
0
0
0
0
0
0
0
0
0
0
0
0
0
0
0
0
0
0
0
0
0
0
0
0
0
0
0
0
0
0
0
0
0
0
0
0
0
0
0
0
0
0
0
0
0
0
0
0
0
0
0
0
0
0
0
0
0
0
0
0
0
0
0
0
0
0
0
0
0
0
0
0
0
0
0
0
0
0
0
0
0
0
0
0
0
0
0
0
0
0
0
0
0
0
0
0
0
0
0
0
0
0
0
0
0
0
0
0
0
0
0
0
0
0
0
0
0
0
0
0
0
0
0
0
0
0
0
0
0
0
0
0
0
0
0
0
0
0
0
0
0
0
0
0
0
0
0
0
0
0
0
0
0
0
0
0
0
0
0
0
0
0
0
0
0
0
0
0
0
0
0
0
0
0
0
0
0
0
0
0
0
0
0
0
0
0
0
0
0
0
0
0
0
0
0
0
0
0
0
0
0
0
0
0
0
0
0
0
0
0
0
0
0
0
0
0
0
0
0
0
0
0
0
0
0
0
0
0
0
0
0
0
0
0
0
0
0
0
0
0
0
0
0
0
0
0
0
0
0
0
0
0
0
0
0
0
0
0
0
0
0
0
0
0
0
0
0
0
0
0
0
0
0
0
0
0
0
0
0
0
0
0
0
0
0
0
0
0
0
0
0
0
0
0
0
0
0
0
0
0
0
0
0
0
0
0
0
0
0
0
0
0
0
0
0
0
0
0
0
0
0
0
0
0
0
0
0
0
0
0
0
0
0
0
0
0
0
0
0
0
0
0
0
0
0
0
0
0
0
0
0
0
0
0
0
0
0
0
0
0
0
0
0
0
0
180
159
176
160
160
159
158
159
160
160
156
157
157
191
245
228
250
255
252
253
255
255
254
254
255
255
255
255
254
254
254
255
255
255
255
254
254
254
254
254
255
255
254
254
254
254
254
254
253
254
0
0
0
0
0
0
0
0
0
0
0
0
0
0
0
0
0
0
0
0
0
0
0
0
0
0
0
0
0
0
0
0
0
0
0
0
0
0
0
0
0
0
0
0
0
0
0
0
0
0
0
0
0
0
0
0
0
0
0
0
0
0
0
0
0
0
0
0
0
0
0
0
0
0
0
0
0
0
0
0
0
0
0
0
0
0
0
0
0
0
0
0
0
0
0
0
0
0
0
0
0
0
0
0
0
0
0
0
0
0
0
0
0
0
0
0
0
0
0
0
0
0
0
0
0
0
0
0
0
0
0
0
0
0
0
0
0
0
0
0
0
0
0
0
0
0
0
0
0
0
0
0
0
0
0
0
0
0
0
0
0
0
0
0
0
0
0
0
0
0
0
0
0
0
0
0
0
0
0
0
0
0
0
0
0
0
0
0
0
0
0
0
0
0
0
0
0
0
0
0
0
0
0
0
0
0
0
0
0
0
0
0
0
0
0
0
0
0
0
0
0
0
0
0
0
0
0
0
0
0
0
0
0
0
0
0
0
0
0
0
0
0
0
0
0
0
0
0
0
0
0
0
0
0
0
0
0
0
0
0
0
0
0
0
0
0
0
0
0
0
0
0
0
0
0
0
0
0
0
0
0
0
0
0
0
0
0
0
0
0
0
0
0
0
0
0
0
0
0
0
0
0
0
0
0
0
0
0
0
0
0
0
0
0
0
0
0
0
0
0
0
0
0
0
0
0
0
0
0
0
0
0
0
0
0
0
0
0
0
0
0
0
0
0
0
0
0
0
0
0
0
0
0
0
0
0
0
0
0
0
0
0
0
0
0
0
0
0
0
0
0
0
0
0
0
0
0
0
0
0
0
0
0
0
0
0
0
0
0
0
0
0
0
0
0
0
0
0
0
0
0
0
0
0
0
0
0
0
0
0
0
0
0
0
0
0
0
0
0
0
0
0
0
0
0
0
0
0
0
0
0
0
0
0
0
0
0
0
0
0
0
0
0
0
0
0
0
0
0
0
0
0
0
0
0
0
0
0
0
0
0
0
0
0
0
0
0
0
0
0
0
0
0
0
0
0
0
0
0
0
0
0
0
0
0
0
0
0
0
0
0
0
0
0
0
0
0
0
0
0
0
0
0
0
0
0
0
0
0
0
0
0
0
0
0
0
0
0
0
0
210
208
176
198
171
159
155
159
158
160
161
159
157
156
157
228
207
251
254
253
255
253
254
255
254
255
255
255
255
254
255
255
255
255
255
255
254
254
254
254
254
255
255
254
254
254
254
255
254
254
254
0
0
0
0
0
0
0
0
0
0
0
0
0
0
0
0
0
0
0
0
0
0
0
0
0
0
0
0
0
0
0
0
0
0
0
0
0
0
0
0
0
0
0
0
0
0
0
0
0
0
0
0
0
0
0
0
0
0
0
0
0
0
0
0
0
0
0
0
0
0
0
0
0
0
0
0
0
0
0
0
0
0
0
0
0
0
0
0
0
0
0
0
0
0
0
0
0
0
0
0
0
0
0
0
0
0
0
0
0
0
0
0
0
0
0
0
0
0
0
0
0
0
0
0
0
0
0
0
0
0
0
0
0
0
0
0
0
0
0
0
0
0
0
0
0
0
0
0
0
0
0
0
0
0
0
0
0
0
0
0
0
0
0
0
0
0
0
0
0
0
0
0
0
0
0
0
0
0
0
0
0
0
0
0
0
0
0
0
0
0
0
0
0
0
0
0
0
0
0
0
0
0
0
0
0
0
0
0
0
0
0
0
0
0
0
0
0
0
0
0
0
0
0
0
0
0
0
0
0
0
0
0
0
0
0
0
0
0
0
0
0
0
0
0
0
0
0
0
0
0
0
0
0
0
0
0
0
0
0
0
0
0
0
0
0
0
0
0
0
0
0
0
0
0
0
0
0
0
0
0
0
0
0
0
0
0
0
0
0
0
0
0
0
0
0
0
0
0
0
0
0
0
0
0
0
0
0
0
0
0
0
0
0
0
0
0
0
0
0
0
0
0
0
0
0
0
0
0
0
0
0
0
0
0
0
0
0
0
0
0
0
0
0
0
0
0
0
0
0
0
0
0
0
0
0
0
0
0
0
0
0
0
0
0
0
0
0
0
0
0
0
0
0
0
0
0
0
0
0
0
0
0
0
0
0
0
0
0
0
0
0
0
0
0
0
0
0
0
0
0
0
0
0
0
0
0
0
0
0
0
0
0
0
0
0
0
0
0
0
0
0
0
0
0
0
0
0
0
0
0
0
0
0
0
0
0
0
0
0
0
0
0
0
0
0
0
0
0
0
0
0
0
0
0
0
0
0
0
0
0
0
0
0
0
0
0
0
0
0
0
0
0
0
0
0
0
0
0
0
0
0
0
0
0
0
0
0
0
0
0
0
0
0
0
0
0
0
0
0
0
0
0
0
0
0
0
0
0
0
0
0
0
0
0
0
0
0
0
0
207
210
208
205
205
192
162
179
160
156
160
160
161
155
155
158
182
165
245
254
255
255
253
254
254
254
254
255
255
255
255
255
254
255
254
255
255
254
254
254
255
255
255
254
254
254
255
255
255
254
254
254
0
0
0
0
0
0
0
0
0
0
0
0
0
0
0
0
0
0
0
0
0
0
0
0
0
0
0
0
0
0
0
0
0
0
0
0
0
0
0
0
0
0
0
0
0
0
0
0
0
0
0
0
0
0
0
0
0
0
0
0
0
0
0
0
0
0
0
0
0
0
0
0
0
0
0
0
0
0
0
0
0
0
0
0
0
0
0
0
0
0
0
0
0
0
0
0
0
0
0
0
0
0
0
0
0
0
0
0
0
0
0
0
0
0
0
0
0
0
0
0
0
0
0
0
0
0
0
0
0
0
0
0
0
0
0
0
0
0
0
0
0
0
0
0
0
0
0
0
0
0
0
0
0
0
0
0
0
0
0
0
0
0
0
0
0
0
0
0
0
0
0
0
0
0
0
0
0
0
0
0
0
0
0
0
0
0
0
0
0
0
0
0
0
0
0
0
0
0
0
0
0
0
0
0
0
0
0
0
0
0
0
0
0
0
0
0
0
0
0
0
0
0
0
0
0
0
0
0
0
0
0
0
0
0
0
0
0
0
0
0
0
0
0
0
0
0
0
0
0
0
0
0
0
0
0
0
0
0
0
0
0
0
0
0
0
0
0
0
0
0
0
0
0
0
0
0
0
0
0
0
0
0
0
0
0
0
0
0
0
0
0
0
0
0
0
0
0
0
0
0
0
0
0
0
0
0
0
0
0
0
0
0
0
0
0
0
0
0
0
0
0
0
0
0
0
0
0
0
0
0
0
0
0
0
0
0
0
0
0
0
0
0
0
0
0
0
0
0
0
0
0
0
0
0
0
0
0
0
0
0
0
0
0
0
0
0
0
0
0
0
0
0
0
0
0
0
0
0
0
0
0
0
0
0
0
0
0
0
0
0
0
0
0
0
0
0
0
0
0
0
0
0
0
0
0
0
0
0
0
0
0
0
0
0
0
0
0
0
0
0
0
0
0
0
0
0
0
0
0
0
0
0
0
0
0
0
0
0
0
0
0
0
0
0
0
0
0
0
0
0
0
0
0
0
0
0
0
0
0
0
0
0
0
0
0
0
0
0
0
0
0
0
0
0
0
0
0
0
0
0
0
0
0
0
0
0
0
0
0
0
0
0
0
0
0
0
0
0
0
0
0
0
0
0
0
0
0
0
0
0
0
0
0
0
0
0
0
0
207
208
210
207
208
210
208
179
197
164
159
159
158
160
157
158
156
165
158
221
250
254
252
255
254
254
254
254
255
255
255
254
254
254
254
254
254
255
254
254
254
255
254
254
254
255
255
255
255
255
254
254
254
0
0
0
0
0
0
0
0
0
0
0
0
0
0
0
0
0
0
0
0
0
0
0
0
0
0
0
0
0
0
0
0
0
0
0
0
0
0
0
0
0
0
0
0
0
0
0
0
0
0
0
0
0
0
0
0
0
0
0
0
0
0
0
0
0
0
0
0
0
0
0
0
0
0
0
0
0
0
0
0
0
0
0
0
0
0
0
0
0
0
0
0
0
0
0
0
0
0
0
0
0
0
0
0
0
0
0
0
0
0
0
0
0
0
0
0
0
0
0
0
0
0
0
0
0
0
0
0
0
0
0
0
0
0
0
0
0
0
0
0
0
0
0
0
0
0
0
0
0
0
0
0
0
0
0
0
0
0
0
0
0
0
0
0
0
0
0
0
0
0
0
0
0
0
0
0
0
0
0
0
0
0
0
0
0
0
0
0
0
0
0
0
0
0
0
0
0
0
0
0
0
0
0
0
0
0
0
0
0
0
0
0
0
0
0
0
0
0
0
0
0
0
0
0
0
0
0
0
0
0
0
0
0
0
0
0
0
0
0
0
0
0
0
0
0
0
0
0
0
0
0
0
0
0
0
0
0
0
0
0
0
0
0
0
0
0
0
0
0
0
0
0
0
0
0
0
0
0
0
0
0
0
0
0
0
0
0
0
0
0
0
0
0
0
0
0
0
0
0
0
0
0
0
0
0
0
0
0
0
0
0
0
0
0
0
0
0
0
0
0
0
0
0
0
0
0
0
0
0
0
0
0
0
0
0
0
0
0
0
0
0
0
0
0
0
0
0
0
0
0
0
0
0
0
0
0
0
0
0
0
0
0
0
0
0
0
0
0
0
0
0
0
0
0
0
0
0
0
0
0
0
0
0
0
0
0
0
0
0
0
0
0
0
0
0
0
0
0
0
0
0
0
0
0
0
0
0
0
0
0
0
0
0
0
0
0
0
0
0
0
0
0
0
0
0
0
0
0
0
0
0
0
0
0
0
0
0
0
0
0
0
0
0
0
0
0
0
0
0
0
0
0
0
0
0
0
0
0
0
0
0
0
0
0
0
0
0
0
0
0
0
0
0
0
0
0
0
0
0
0
0
0
0
0
0
0
0
0
0
0
0
0
0
0
0
0
0
0
0
0
0
0
0
0
0
0
0
0
0
0
0
0
0
0
0
0
0
210
210
210
210
210
210
210
208
202
202
177
160
158
158
156
159
159
159
154
154
207
248
253
253
255
253
253
254
255
255
255
255
254
254
254
254
254
255
255
254
254
254
254
254
255
255
255
255
255
254
254
254
254
254
0
0
0
0
0
0
0
0
0
0
0
0
0
0
0
0
0
0
0
0
0
0
0
0
0
0
0
0
0
0
0
0
0
0
0
0
0
0
0
0
0
0
0
0
0
0
0
0
0
0
0
0
0
0
0
0
0
0
0
0
0
0
0
0
0
0
0
0
0
0
0
0
0
0
0
0
0
0
0
0
0
0
0
0
0
0
0
0
0
0
0
0
0
0
0
0
0
0
0
0
0
0
0
0
0
0
0
0
0
0
0
0
0
0
0
0
0
0
0
0
0
0
0
0
0
0
0
0
0
0
0
0
0
0
0
0
0
0
0
0
0
0
0
0
0
0
0
0
0
0
0
0
0
0
0
0
0
0
0
0
0
0
0
0
0
0
0
0
0
0
0
0
0
0
0
0
0
0
0
0
0
0
0
0
0
0
0
0
0
0
0
0
0
0
0
0
0
0
0
0
0
0
0
0
0
0
0
0
0
0
0
0
0
0
0
0
0
0
0
0
0
0
0
0
0
0
0
0
0
0
0
0
0
0
0
0
0
0
0
0
0
0
0
0
0
0
0
0
0
0
0
0
0
0
0
0
0
0
0
0
0
0
0
0
0
0
0
0
0
0
0
0
0
0
0
0
0
0
0
0
0
0
0
0
0
0
0
0
0
0
0
0
0
0
0
0
0
0
0
0
0
0
0
0
0
0
0
0
0
0
0
0
0
0
0
0
0
0
0
0
0
0
0
0
0
0
0
0
0
0
0
0
0
0
0
0
0
0
0
0
0
0
0
0
0
0
0
0
0
0
0
0
0
0
0
0
0
0
0
0
0
0
0
0
0
0
0
0
0
0
0
0
0
0
0
0
0
0
0
0
0
0
0
0
0
0
0
0
0
0
0
0
0
0
0
0
0
0
0
0
0
0
0
0
0
0
0
0
0
0
0
0
0
0
0
0
0
0
0
0
0
0
0
0
0
0
0
0
0
0
0
0
0
0
0
0
0
0
0
0
0
0
0
0
0
0
0
0
0
0
0
0
0
0
0
0
0
0
0
0
0
0
0
0
0
0
0
0
0
0
0
0
0
0
0
0
0
0
0
0
0
0
0
0
0
0
0
0
0
0
0
0
0
0
0
0
0
0
0
0
0
0
0
0
0
0
0
0
0
0
0
0
0
0
0
0
210
210
210
208
208
210
210
210
207
207
210
189
161
159
159
158
158
159
158
154
155
169
248
253
252
255
254
255
255
255
255
255
254
254
255
254
255
255
255
255
254
254
254
255
255
255
255
255
254
254
254
255
254
254
254
0
0
0
0
0
0
0
0
0
0
0
0
0
0
0
0
0
0
0
0
0
0
0
0
0
0
0
0
0
0
0
0
0
0
0
0
0
0
0
0
0
0
0
0
0
0
0
0
0
0
0
0
0
0
0
0
0
0
0
0
0
0
0
0
0
0
0
0
0
0
0
0
0
0
0
0
0
0
0
0
0
0
0
0
0
0
0
0
0
0
0
0
0
0
0
0
0
0
0
0
0
0
0
0
0
0
0
0
0
0
0
0
0
0
0
0
0
0
0
0
0
0
0
0
0
0
0
0
0
0
0
0
0
0
0
0
0
0
0
0
0
0
0
0
0
0
0
0
0
0
0
0
0
0
0
0
0
0
0
0
0
0
0
0
0
0
0
0
0
0
0
0
0
0
0
0
0
0
0
0
0
0
0
0
0
0
0
0
0
0
0
0
0
0
0
0
0
0
0
0
0
0
0
0
0
0
0
0
0
0
0
0
0
0
0
0
0
0
0
0
0
0
0
0
0
0
0
0
0
0
0
0
0
0
0
0
0
0
0
0
0
0
0
0
0
0
0
0
0
0
0
0
0
0
0
0
0
0
0
0
0
0
0
0
0
0
0
0
0
0
0
0
0
0
0
0
0
0
0
0
0
0
0
0
0
0
0
0
0
0
0
0
0
0
0
0
0
0
0
0
0
0
0
0
0
0
0
0
0
0
0
0
0
0
0
0
0
0
0
0
0
0
0
0
0
0
0
0
0
0
0
0
0
0
0
0
0
0
0
0
0
0
0
0
0
0
0
0
0
0
0
0
0
0
0
0
0
0
0
0
0
0
0
0
0
0
0
0
0
0
0
0
0
0
0
0
0
0
0
0
0
0
0
0
0
0
0
0
0
0
0
0
0
0
0
0
0
0
0
0
0
0
0
0
0
0
0
0
0
0
0
0
0
0
0
0
0
0
0
0
0
0
0
0
0
0
0
0
0
0
0
0
0
0
0
0
0
0
0
0
0
0
0
0
0
0
0
0
0
0
0
0
0
0
0
0
0
0
0
0
0
0
0
0
0
0
0
0
0
0
0
0
0
0
0
0
0
0
0
0
0
0
0
0
0
0
0
0
0
0
0
0
0
0
0
0
0
0
0
0
0
0
0
0
0
0
0
0
0
0
0
0
0
0
0
210
210
208
210
210
210
210
210
209
208
210
210
206
178
159
158
159
159
158
157
157
157
159
238
252
251
255
255
254
254
255
255
255
255
255
255
255
255
255
255
255
254
255
255
255
255
255
254
254
254
254
255
255
254
254
254
0
0
0
0
0
0
0
0
0
0
0
0
0
0
0
0
0
0
0
0
0
0
0
0
0
0
0
0
0
0
0
0
0
0
0
0
0
0
0
0
0
0
0
0
0
0
0
0
0
0
0
0
0
0
0
0
0
0
0
0
0
0
0
0
0
0
0
0
0
0
0
0
0
0
0
0
0
0
0
0
0
0
0
0
0
0
0
0
0
0
0
0
0
0
0
0
0
0
0
0
0
0
0
0
0
0
0
0
0
0
0
0
0
0
0
0
0
0
0
0
0
0
0
0
0
0
0
0
0
0
0
0
0
0
0
0
0
0
0
0
0
0
0
0
0
0
0
0
0
0
0
0
0
0
0
0
0
0
0
0
0
0
0
0
0
0
0
0
0
0
0
0
0
0
0
0
0
0
0
0
0
0
0
0
0
0
0
0
0
0
0
0
0
0
0
0
0
0
0
0
0
0
0
0
0
0
0
0
0
0
0
0
0
0
0
0
0
0
0
0
0
0
0
0
0
0
0
0
0
0
0
0
0
0
0
0
0
0
0
0
0
0
0
0
0
0
0
0
0
0
0
0
0
0
0
0
0
0
0
0
0
0
0
0
0
0
0
0
0
0
0
0
0
0
0
0
0
0
0
0
0
0
0
0
0
0
0
0
0
0
0
0
0
0
0
0
0
0
0
0
0
0
0
0
0
0
0
0
0
0
0
0
0
0
0
0
0
0
0
0
0
0
0
0
0
0
0
0
0
0
0
0
0
0
0
0
0
0
0
0
0
0
0
0
0
0
0
0
0
0
0
0
0
0
0
0
0
0
0
0
0
0
0
0
0
0
0
0
0
0
0
0
0
0
0
0
0
0
0
0
0
0
0
0
0
0
0
0
0
0
0
0
0
0
0
0
0
0
0
0
0
0
0
0
0
0
0
0
0
0
0
0
0
0
0
0
0
0
0
0
0
0
0
0
0
0
0
0
0
0
0
0
0
0
0
0
0
0
0
0
0
0
0
0
0
0
0
0
0
0
0
0
0
0
0
0
0
0
0
0
0
0
0
0
0
0
0
0
0
0
0
0
0
0
0
0
0
0
0
0
0
0
0
0
0
0
0
0
0
0
0
0
0
0
0
0
0
0
0
0
0
0
0
0
0
0
0
0
0
0
0
0
0
0
210
210
211
211
210
210
210
210
209
209
209
209
210
208
189
157
157
159
158
157
158
158
158
155
229
250
250
255
255
255
254
255
255
255
255
255
255
255
255
255
255
255
255
255
255
255
254
254
254
254
254
254
255
255
254
254
254
0
0
0
0
0
0
0
0
0
0
0
0
0
0
0
0
0
0
0
0
0
0
0
0
0
0
0
0
0
0
0
0
0
0
0
0
0
0
0
0
0
0
0
0
0
0
0
0
0
0
0
0
0
0
0
0
0
0
0
0
0
0
0
0
0
0
0
0
0
0
0
0
0
0
0
0
0
0
0
0
0
0
0
0
0
0
0
0
0
0
0
0
0
0
0
0
0
0
0
0
0
0
0
0
0
0
0
0
0
0
0
0
0
0
0
0
0
0
0
0
0
0
0
0
0
0
0
0
0
0
0
0
0
0
0
0
0
0
0
0
0
0
0
0
0
0
0
0
0
0
0
0
0
0
0
0
0
0
0
0
0
0
0
0
0
0
0
0
0
0
0
0
0
0
0
0
0
0
0
0
0
0
0
0
0
0
0
0
0
0
0
0
0
0
0
0
0
0
0
0
0
0
0
0
0
0
0
0
0
0
0
0
0
0
0
0
0
0
0
0
0
0
0
0
0
0
0
0
0
0
0
0
0
0
0
0
0
0
0
0
0
0
0
0
0
0
0
0
0
0
0
0
0
0
0
0
0
0
0
0
0
0
0
0
0
0
0
0
0
0
0
0
0
0
0
0
0
0
0
0
0
0
0
0
0
0
0
0
0
0
0
0
0
0
0
0
0
0
0
0
0
0
0
0
0
0
0
0
0
0
0
0
0
0
0
0
0
0
0
0
0
0
0
0
0
0
0
0
0
0
0
0
0
0
0
0
0
0
0
0
0
0
0
0
0
0
0
0
0
0
0
0
0
0
0
0
0
0
0
0
0
0
0
0
0
0
0
0
0
0
0
0
0
0
0
0
0
0
0
0
0
0
0
0
0
0
0
0
0
0
0
0
0
0
0
0
0
0
0
0
0
0
0
0
0
0
0
0
0
0
0
0
0
0
0
0
0
0
0
0
0
0
0
0
0
0
0
0
0
0
0
0
0
0
0
0
0
0
0
0
0
0
0
0
0
0
0
0
0
0
0
0
0
0
0
0
0
0
0
0
0
0
0
0
0
0
0
0
0
0
0
0
0
0
0
0
0
0
0
0
0
0
0
0
0
0
0
0
0
0
0
0
0
0
0
0
0
0
0
0
0
0
0
0
0
0
0
0
0
0
0
0
0
207
209
211
209
210
210
210
210
210
209
209
209
210
212
207
200
162
169
160
157
157
158
158
155
157
222
249
249
253
255
255
254
255
255
255
255
255
254
254
255
255
255
254
255
255
254
254
254
255
254
254
254
254
255
255
254
254
254
0
0
0
0
0
0
0
0
0
0
0
0
0
0
0
0
0
0
0
0
0
0
0
0
0
0
0
0
0
0
0
0
0
0
0
0
0
0
0
0
0
0
0
0
0
0
0
0
0
0
0
0
0
0
0
0
0
0
0
0
0
0
0
0
0
0
0
0
0
0
0
0
0
0
0
0
0
0
0
0
0
0
0
0
0
0
0
0
0
0
0
0
0
0
0
0
0
0
0
0
0
0
0
0
0
0
0
0
0
0
0
0
0
0
0
0
0
0
0
0
0
0
0
0
0
0
0
0
0
0
0
0
0
0
0
0
0
0
0
0
0
0
0
0
0
0
0
0
0
0
0
0
0
0
0
0
0
0
0
0
0
0
0
0
0
0
0
0
0
0
0
0
0
0
0
0
0
0
0
0
0
0
0
0
0
0
0
0
0
0
0
0
0
0
0
0
0
0
0
0
0
0
0
0
0
0
0
0
0
0
0
0
0
0
0
0
0
0
0
0
0
0
0
0
0
0
0
0
0
0
0
0
0
0
0
0
0
0
0
0
0
0
0
0
0
0
0
0
0
0
0
0
0
0
0
0
0
0
0
0
0
0
0
0
0
0
0
0
0
0
0
0
0
0
0
0
0
0
0
0
0
0
0
0
0
0
0
0
0
0
0
0
0
0
0
0
0
0
0
0
0
0
0
0
0
0
0
0
0
0
0
0
0
0
0
0
0
0
0
0
0
0
0
0
0
0
0
0
0
0
0
0
0
0
0
0
0
0
0
0
0
0
0
0
0
0
0
0
0
0
0
0
0
0
0
0
0
0
0
0
0
0
0
0
0
0
0
0
0
0
0
0
0
0
0
0
0
0
0
0
0
0
0
0
0
0
0
0
0
0
0
0
0
0
0
0
0
0
0
0
0
0
0
0
0
0
0
0
0
0
0
0
0
0
0
0
0
0
0
0
0
0
0
0
0
0
0
0
0
0
0
0
0
0
0
0
0
0
0
0
0
0
0
0
0
0
0
0
0
0
0
0
0
0
0
0
0
0
0
0
0
0
0
0
0
0
0
0
0
0
0
0
0
0
0
0
0
0
0
0
0
0
0
0
0
0
0
0
0
0
0
0
0
0
0
0
0
0
0
0
0
0
0
0
0
0
0
0
0
0
0
0
210
208
209
209
209
209
210
210
210
210
210
210
208
210
210
209
205
177
177
159
159
159
159
154
154
154
211
251
251
253
255
255
255
255
255
255
255
254
254
254
255
255
255
254
254
254
254
255
255
255
254
254
254
254
255
255
254
254
254
0
0
0
0
0
0
0
0
0
0
0
0
0
0
0
0
0
0
0
0
0
0
0
0
0
0
0
0
0
0
0
0
0
0
0
0
0
0
0
0
0
0
0
0
0
0
0
0
0
0
0
0
0
0
0
0
0
0
0
0
0
0
0
0
0
0
0
0
0
0
0
0
0
0
0
0
0
0
0
0
0
0
0
0
0
0
0
0
0
0
0
0
0
0
0
0
0
0
0
0
0
0
0
0
0
0
0
0
0
0
0
0
0
0
0
0
0
0
0
0
0
0
0
0
0
0
0
0
0
0
0
0
0
0
0
0
0
0
0
0
0
0
0
0
0
0
0
0
0
0
0
0
0
0
0
0
0
0
0
0
0
0
0
0
0
0
0
0
0
0
0
0
0
0
0
0
0
0
0
0
0
0
0
0
0
0
0
0
0
0
0
0
0
0
0
0
0
0
0
0
0
0
0
0
0
0
0
0
0
0
0
0
0
0
0
0
0
0
0
0
0
0
0
0
0
0
0
0
0
0
0
0
0
0
0
0
0
0
0
0
0
0
0
0
0
0
0
0
0
0
0
0
0
0
0
0
0
0
0
0
0
0
0
0
0
0
0
0
0
0
0
0
0
0
0
0
0
0
0
0
0
0
0
0
0
0
0
0
0
0
0
0
0
0
0
0
0
0
0
0
0
0
0
0
0
0
0
0
0
0
0
0
0
0
0
0
0
0
0
0
0
0
0
0
0
0
0
0
0
0
0
0
0
0
0
0
0
0
0
0
0
0
0
0
0
0
0
0
0
0
0
0
0
0
0
0
0
0
0
0
0
0
0
0
0
0
0
0
0
0
0
0
0
0
0
0
0
0
0
0
0
0
0
0
0
0
0
0
0
0
0
0
0
0
0
0
0
0
0
0
0
0
0
0
0
0
0
0
0
0
0
0
0
0
0
0
0
0
0
0
0
0
0
0
0
0
0
0
0
0
0
0
0
0
0
0
0
0
0
0
0
0
0
0
0
0
0
0
0
0
0
0
0
0
0
0
0
0
0
0
0
0
0
0
0
0
0
0
0
0
0
0
0
0
0
0
0
0
0
0
0
0
0
0
0
0
0
0
0
0
0
0
0
0
0
0
0
0
0
0
0
0
0
0
0
0
0
0
0
0
0
210
209
209
209
209
209
209
210
210
210
210
211
210
209
210
211
210
206
186
192
158
159
158
160
156
158
157
205
251
251
253
254
254
255
255
255
255
255
254
254
254
255
255
255
254
254
254
254
255
255
255
254
254
254
255
255
255
254
254
254
0
0
0
0
0
0
0
0
0
0
0
0
0
0
0
0
0
0
0
0
0
0
0
0
0
0
0
0
0
0
0
0
0
0
0
0
0
0
0
0
0
0
0
0
0
0
0
0
0
0
0
0
0
0
0
0
0
0
0
0
0
0
0
0
0
0
0
0
0
0
0
0
0
0
0
0
0
0
0
0
0
0
0
0
0
0
0
0
0
0
0
0
0
0
0
0
0
0
0
0
0
0
0
0
0
0
0
0
0
0
0
0
0
0
0
0
0
0
0
0
0
0
0
0
0
0
0
0
0
0
0
0
0
0
0
0
0
0
0
0
0
0
0
0
0
0
0
0
0
0
0
0
0
0
0
0
0
0
0
0
0
0
0
0
0
0
0
0
0
0
0
0
0
0
0
0
0
0
0
0
0
0
0
0
0
0
0
0
0
0
0
0
0
0
0
0
0
0
0
0
0
0
0
0
0
0
0
0
0
0
0
0
0
0
0
0
0
0
0
0
0
0
0
0
0
0
0
0
0
0
0
0
0
0
0
0
0
0
0
0
0
0
0
0
0
0
0
0
0
0
0
0
0
0
0
0
0
0
0
0
0
0
0
0
0
0
0
0
0
0
0
0
0
0
0
0
0
0
0
0
0
0
0
0
0
0
0
0
0
0
0
0
0
0
0
0
0
0
0
0
0
0
0
0
0
0
0
0
0
0
0
0
0
0
0
0
0
0
0
0
0
0
0
0
0
0
0
0
0
0
0
0
0
0
0
0
0
0
0
0
0
0
0
0
0
0
0
0
0
0
0
0
0
0
0
0
0
0
0
0
0
0
0
0
0
0
0
0
0
0
0
0
0
0
0
0
0
0
0
0
0
0
0
0
0
0
0
0
0
0
0
0
0
0
0
0
0
0
0
0
0
0
0
0
0
0
0
0
0
0
0
0
0
0
0
0
0
0
0
0
0
0
0
0
0
0
0
0
0
0
0
0
0
0
0
0
0
0
0
0
0
0
0
0
0
0
0
0
0
0
0
0
0
0
0
0
0
0
0
0
0
0
0
0
0
0
0
0
0
0
0
0
0
0
0
0
0
0
0
0
0
0
0
0
0
0
0
0
0
0
0
0
0
0
0
0
0
0
0
0
0
0
0
0
0
0
0
0
0
0
209
209
209
209
209
209
209
210
210
210
210
209
210
210
210
210
210
209
208
192
198
159
158
159
159
158
158
158
194
251
251
255
253
253
255
255
255
255
255
254
254
254
255
255
255
255
254
254
255
255
255
255
254
254
254
255
255
255
254
254
254
0
0
0
0
0
0
0
0
0
0
0
0
0
0
0
0
0
0
0
0
0
0
0
0
0
0
0
0
0
0
0
0
0
0
0
0
0
0
0
0
0
0
0
0
0
0
0
0
0
0
0
0
0
0
0
0
0
0
0
0
0
0
0
0
0
0
0
0
0
0
0
0
0
0
0
0
0
0
0
0
0
0
0
0
0
0
0
0
0
0
0
0
0
0
0
0
0
0
0
0
0
0
0
0
0
0
0
0
0
0
0
0
0
0
0
0
0
0
0
0
0
0
0
0
0
0
0
0
0
0
0
0
0
0
0
0
0
0
0
0
0
0
0
0
0
0
0
0
0
0
0
0
0
0
0
0
0
0
0
0
0
0
0
0
0
0
0
0
0
0
0
0
0
0
0
0
0
0
0
0
0
0
0
0
0
0
0
0
0
0
0
0
0
0
0
0
0
0
0
0
0
0
0
0
0
0
0
0
0
0
0
0
0
0
0
0
0
0
0
0
0
0
0
0
0
0
0
0
0
0
0
0
0
0
0
0
0
0
0
0
0
0
0
0
0
0
0
0
0
0
0
0
0
0
0
0
0
0
0
0
0
0
0
0
0
0
0
0
0
0
0
0
0
0
0
0
0
0
0
0
0
0
0
0
0
0
0
0
0
0
0
0
0
0
0
0
0
0
0
0
0
0
0
0
0
0
0
0
0
0
0
0
0
0
0
0
0
0
0
0
0
0
0
0
0
0
0
0
0
0
0
0
0
0
0
0
0
0
0
0
0
0
0
0
0
0
0
0
0
0
0
0
0
0
0
0
0
0
0
0
0
0
0
0
0
0
0
0
0
0
0
0
0
0
0
0
0
0
0
0
0
0
0
0
0
0
0
0
0
0
0
0
0
0
0
0
0
0
0
0
0
0
0
0
0
0
0
0
0
0
0
0
0
0
0
0
0
0
0
0
0
0
0
0
0
0
0
0
0
0
0
0
0
0
0
0
0
0
0
0
0
0
0
0
0
0
0
0
0
0
0
0
0
0
0
0
0
0
0
0
0
0
0
0
0
0
0
0
0
0
0
0
0
0
0
0
0
0
0
0
0
0
0
0
0
0
0
0
0
0
0
0
0
0
0
0
0
0
0
0
0
0
0
0
0
0
0
0
0
209
209
209
209
209
209
209
210
210
210
210
210
210
210
210
210
209
208
209
210
201
201
161
158
159
159
158
158
158
194
250
249
255
255
254
254
255
255
255
255
254
255
254
255
255
255
255
255
255
255
255
255
255
254
254
254
254
255
255
254
254
254
0
0
0
0
0
0
0
0
0
0
0
0
0
0
0
0
0
0
0
0
0
0
0
0
0
0
0
0
0
0
0
0
0
0
0
0
0
0
0
0
0
0
0
0
0
0
0
0
0
0
0
0
0
0
0
0
0
0
0
0
0
0
0
0
0
0
0
0
0
0
0
0
0
0
0
0
0
0
0
0
0
0
0
0
0
0
0
0
0
0
0
0
0
0
0
0
0
0
0
0
0
0
0
0
0
0
0
0
0
0
0
0
0
0
0
0
0
0
0
0
0
0
0
0
0
0
0
0
0
0
0
0
0
0
0
0
0
0
0
0
0
0
0
0
0
0
0
0
0
0
0
0
0
0
0
0
0
0
0
0
0
0
0
0
0
0
0
0
0
0
0
0
0
0
0
0
0
0
0
0
0
0
0
0
0
0
0
0
0
0
0
0
0
0
0
0
0
0
0
0
0
0
0
0
0
0
0
0
0
0
0
0
0
0
0
0
0
0
0
0
0
0
0
0
0
0
0
0
0
0
0
0
0
0
0
0
0
0
0
0
0
0
0
0
0
0
0
0
0
0
0
0
0
0
0
0
0
0
0
0
0
0
0
0
0
0
0
0
0
0
0
0
0
0
0
0
0
0
0
0
0
0
0
0
0
0
0
0
0
0
0
0
0
0
0
0
0
0
0
0
0
0
0
0
0
0
0
0
0
0
0
0
0
0
0
0
0
0
0
0
0
0
0
0
0
0
0
0
0
0
0
0
0
0
0
0
0
0
0
0
0
0
0
0
0
0
0
0
0
0
0
0
0
0
0
0
0
0
0
0
0
0
0
0
0
0
0
0
0
0
0
0
0
0
0
0
0
0
0
0
0
0
0
0
0
0
0
0
0
0
0
0
0
0
0
0
0
0
0
0
0
0
0
0
0
0
0
0
0
0
0
0
0
0
0
0
0
0
0
0
0
0
0
0
0
0
0
0
0
0
0
0
0
0
0
0
0
0
0
0
0
0
0
0
0
0
0
0
0
0
0
0
0
0
0
0
0
0
0
0
0
0
0
0
0
0
0
0
0
0
0
0
0
0
0
0
0
0
0
0
0
0
0
0
0
0
0
0
0
0
0
0
0
0
0
0
0
0
0
0
0
0
0
0
0
0
0
0
209
209
209
209
209
209
210
210
210
210
210
210
210
210
210
210
211
208
209
210
211
205
206
164
159
158
159
158
157
157
199
249
251
254
254
255
255
255
255
255
255
255
255
255
255
255
255
254
255
255
255
255
255
254
254
254
254
255
255
255
255
254
254
0
0
0
0
0
0
0
0
0
0
0
0
0
0
0
0
0
0
0
0
0
0
0
0
0
0
0
0
0
0
0
0
0
0
0
0
0
0
0
0
0
0
0
0
0
0
0
0
0
0
0
0
0
0
0
0
0
0
0
0
0
0
0
0
0
0
0
0
0
0
0
0
0
0
0
0
0
0
0
0
0
0
0
0
0
0
0
0
0
0
0
0
0
0
0
0
0
0
0
0
0
0
0
0
0
0
0
0
0
0
0
0
0
0
0
0
0
0
0
0
0
0
0
0
0
0
0
0
0
0
0
0
0
0
0
0
0
0
0
0
0
0
0
0
0
0
0
0
0
0
0
0
0
0
0
0
0
0
0
0
0
0
0
0
0
0
0
0
0
0
0
0
0
0
0
0
0
0
0
0
0
0
0
0
0
0
0
0
0
0
0
0
0
0
0
0
0
0
0
0
0
0
0
0
0
0
0
0
0
0
0
0
0
0
0
0
0
0
0
0
0
0
0
0
0
0
0
0
0
0
0
0
0
0
0
0
0
0
0
0
0
0
0
0
0
0
0
0
0
0
0
0
0
0
0
0
0
0
0
0
0
0
0
0
0
0
0
0
0
0
0
0
0
0
0
0
0
0
0
0
0
0
0
0
0
0
0
0
0
0
0
0
0
0
0
0
0
0
0
0
0
0
0
0
0
0
0
0
0
0
0
0
0
0
0
0
0
0
0
0
0
0
0
0
0
0
0
0
0
0
0
0
0
0
0
0
0
0
0
0
0
0
0
0
0
0
0
0
0
0
0
0
0
0
0
0
0
0
0
0
0
0
0
0
0
0
0
0
0
0
0
0
0
0
0
0
0
0
0
0
0
0
0
0
0
0
0
0
0
0
0
0
0
0
0
0
0
0
0
0
0
0
0
0
0
0
0
0
0
0
0
0
0
0
0
0
0
0
0
0
0
0
0
0
0
0
0
0
0
0
0
0
0
0
0
0
0
0
0
0
0
0
0
0
0
0
0
0
0
0
0
0
0
0
0
0
0
0
0
0
0
0
0
0
0
0
0
0
0
0
0
0
0
0
0
0
0
0
0
0
0
0
0
0
0
0
0
0
0
0
0
0
0
0
0
0
0
0
0
0
0
0
0
0
0
0
0
209
209
209
209
209
210
210
210
210
210
210
209
209
210
210
210
210
211
209
209
210
210
207
207
166
158
158
159
157
157
156
203
250
250
254
255
253
255
255
255
255
255
254
254
255
255
255
255
254
254
254
254
254
254
254
254
254
254
255
255
255
255
254
254
0
0
0
0
0
0
0
0
0
0
0
0
0
0
0
0
0
0
0
0
0
0
0
0
0
0
0
0
0
0
0
0
0
0
0
0
0
0
0
0
0
0
0
0
0
0
0
0
0
0
0
0
0
0
0
0
0
0
0
0
0
0
0
0
0
0
0
0
0
0
0
0
0
0
0
0
0
0
0
0
0
0
0
0
0
0
0
0
0
0
0
0
0
0
0
0
0
0
0
0
0
0
0
0
0
0
0
0
0
0
0
0
0
0
0
0
0
0
0
0
0
0
0
0
0
0
0
0
0
0
0
0
0
0
0
0
0
0
0
0
0
0
0
0
0
0
0
0
0
0
0
0
0
0
0
0
0
0
0
0
0
0
0
0
0
0
0
0
0
0
0
0
0
0
0
0
0
0
0
0
0
0
0
0
0
0
0
0
0
0
0
0
0
0
0
0
0
0
0
0
0
0
0
0
0
0
0
0
0
0
0
0
0
0
0
0
0
0
0
0
0
0
0
0
0
0
0
0
0
0
0
0
0
0
0
0
0
0
0
0
0
0
0
0
0
0
0
0
0
0
0
0
0
0
0
0
0
0
0
0
0
0
0
0
0
0
0
0
0
0
0
0
0
0
0
0
0
0
0
0
0
0
0
0
0
0
0
0
0
0
0
0
0
0
0
0
0
0
0
0
0
0
0
0
0
0
0
0
0
0
0
0
0
0
0
0
0
0
0
0
0
0
0
0
0
0
0
0
0
0
0
0
0
0
0
0
0
0
0
0
0
0
0
0
0
0
0
0
0
0
0
0
0
0
0
0
0
0
0
0
0
0
0
0
0
0
0
0
0
0
0
0
0
0
0
0
0
0
0
0
0
0
0
0
0
0
0
0
0
0
0
0
0
0
0
0
0
0
0
0
0
0
0
0
0
0
0
0
0
0
0
0
0
0
0
0
0
0
0
0
0
0
0
0
0
0
0
0
0
0
0
0
0
0
0
0
0
0
0
0
0
0
0
0
0
0
0
0
0
0
0
0
0
0
0
0
0
0
0
0
0
0
0
0
0
0
0
0
0
0
0
0
0
0
0
0
0
0
0
0
0
0
0
0
0
0
0
0
0
0
0
0
0
0
0
0
0
0
0
0
0
0
0
0
0
0
209
209
209
209
209
210
210
210
209
210
210
209
209
209
210
210
209
209
211
209
209
210
210
208
208
167
158
159
160
157
156
156
207
250
250
254
253
254
254
255
255
255
255
254
255
255
255
255
255
254
254
254
254
254
255
255
255
255
255
255
255
255
255
254
254
0
0
0
0
0
0
0
0
0
0
0
0
0
0
0
0
0
0
0
0
0
0
0
0
0
0
0
0
0
0
0
0
0
0
0
0
0
0
0
0
0
0
0
0
0
0
0
0
0
0
0
0
0
0
0
0
0
0
0
0
0
0
0
0
0
0
0
0
0
0
0
0
0
0
0
0
0
0
0
0
0
0
0
0
0
0
0
0
0
0
0
0
0
0
0
0
0
0
0
0
0
0
0
0
0
0
0
0
0
0
0
0
0
0
0
0
0
0
0
0
0
0
0
0
0
0
0
0
0
0
0
0
0
0
0
0
0
0
0
0
0
0
0
0
0
0
0
0
0
0
0
0
0
0
0
0
0
0
0
0
0
0
0
0
0
0
0
0
0
0
0
0
0
0
0
0
0
0
0
0
0
0
0
0
0
0
0
0
0
0
0
0
0
0
0
0
0
0
0
0
0
0
0
0
0
0
0
0
0
0
0
0
0
0
0
0
0
0
0
0
0
0
0
0
0
0
0
0
0
0
0
0
0
0
0
0
0
0
0
0
0
0
0
0
0
0
0
0
0
0
0
0
0
0
0
0
0
0
0
0
0
0
0
0
0
0
0
0
0
0
0
0
0
0
0
0
0
0
0
0
0
0
0
0
0
0
0
0
0
0
0
0
0
0
0
0
0
0
0
0
0
0
0
0
0
0
0
0
0
0
0
0
0
0
0
0
0
0
0
0
0
0
0
0
0
0
0
0
0
0
0
0
0
0
0
0
0
0
0
0
0
0
0
0
0
0
0
0
0
0
0
0
0
0
0
0
0
0
0
0
0
0
0
0
0
0
0
0
0
0
0
0
0
0
0
0
0
0
0
0
0
0
0
0
0
0
0
0
0
0
0
0
0
0
0
0
0
0
0
0
0
0
0
0
0
0
0
0
0
0
0
0
0
0
0
0
0
0
0
0
0
0
0
0
0
0
0
0
0
0
0
0
0
0
0
0
0
0
0
0
0
0
0
0
0
0
0
0
0
0
0
0
0
0
0
0
0
0
0
0
0
0
0
0
0
0
0
0
0
0
0
0
0
0
0
0
0
0
0
0
0
0
0
0
0
0
0
0
0
0
0
0
0
0
0
0
0
0
0
0
0
0
0
0
0
209
209
209
209
209
209
210
210
210
210
210
210
209
209
209
210
210
209
210
209
210
210
210
209
208
208
168
159
159
161
157
157
155
224
250
250
254
255
255
253
255
255
255
255
255
255
255
255
255
255
254
254
254
254
255
255
255
255
255
254
255
255
255
254
254
254
0
0
0
0
0
0
0
0
0
0
0
0
0
0
0
0
0
0
0
0
0
0
0
0
0
0
0
0
0
0
0
0
0
0
0
0
0
0
0
0
0
0
0
0
0
0
0
0
0
0
0
0
0
0
0
0
0
0
0
0
0
0
0
0
0
0
0
0
0
0
0
0
0
0
0
0
0
0
0
0
0
0
0
0
0
0
0
0
0
0
0
0
0
0
0
0
0
0
0
0
0
0
0
0
0
0
0
0
0
0
0
0
0
0
0
0
0
0
0
0
0
0
0
0
0
0
0
0
0
0
0
0
0
0
0
0
0
0
0
0
0
0
0
0
0
0
0
0
0
0
0
0
0
0
0
0
0
0
0
0
0
0
0
0
0
0
0
0
0
0
0
0
0
0
0
0
0
0
0
0
0
0
0
0
0
0
0
0
0
0
0
0
0
0
0
0
0
0
0
0
0
0
0
0
0
0
0
0
0
0
0
0
0
0
0
0
0
0
0
0
0
0
0
0
0
0
0
0
0
0
0
0
0
0
0
0
0
0
0
0
0
0
0
0
0
0
0
0
0
0
0
0
0
0
0
0
0
0
0
0
0
0
0
0
0
0
0
0
0
0
0
0
0
0
0
0
0
0
0
0
0
0
0
0
0
0
0
0
0
0
0
0
0
0
0
0
0
0
0
0
0
0
0
0
0
0
0
0
0
0
0
0
0
0
0
0
0
0
0
0
0
0
0
0
0
0
0
0
0
0
0
0
0
0
0
0
0
0
0
0
0
0
0
0
0
0
0
0
0
0
0
0
0
0
0
0
0
0
0
0
0
0
0
0
0
0
0
0
0
0
0
0
0
0
0
0
0
0
0
0
0
0
0
0
0
0
0
0
0
0
0
0
0
0
0
0
0
0
0
0
0
0
0
0
0
0
0
0
0
0
0
0
0
0
0
0
0
0
0
0
0
0
0
0
0
0
0
0
0
0
0
0
0
0
0
0
0
0
0
0
0
0
0
0
0
0
0
0
0
0
0
0
0
0
0
0
0
0
0
0
0
0
0
0
0
0
0
0
0
0
0
0
0
0
0
0
0
0
0
0
0
0
0
0
0
0
0
0
0
0
0
0
0
0
0
0
0
0
0
0
0
0
0
0
209
209
209
209
209
209
209
210
209
210
210
210
210
209
210
210
210
211
210
211
210
210
210
210
209
207
206
167
158
159
159
158
158
153
232
251
251
255
255
255
253
255
255
255
255
255
255
255
255
255
254
254
254
254
254
255
255
255
255
254
254
254
254
254
254
254
254
0
0
0
0
0
0
0
0
0
0
0
0
0
0
0
0
0
0
0
0
0
0
0
0
0
0
0
0
0
0
0
0
0
0
0
0
0
0
0
0
0
0
0
0
0
0
0
0
0
0
0
0
0
0
0
0
0
0
0
0
0
0
0
0
0
0
0
0
0
0
0
0
0
0
0
0
0
0
0
0
0
0
0
0
0
0
0
0
0
0
0
0
0
0
0
0
0
0
0
0
0
0
0
0
0
0
0
0
0
0
0
0
0
0
0
0
0
0
0
0
0
0
0
0
0
0
0
0
0
0
0
0
0
0
0
0
0
0
0
0
0
0
0
0
0
0
0
0
0
0
0
0
0
0
0
0
0
0
0
0
0
0
0
0
0
0
0
0
0
0
0
0
0
0
0
0
0
0
0
0
0
0
0
0
0
0
0
0
0
0
0
0
0
0
0
0
0
0
0
0
0
0
0
0
0
0
0
0
0
0
0
0
0
0
0
0
0
0
0
0
0
0
0
0
0
0
0
0
0
0
0
0
0
0
0
0
0
0
0
0
0
0
0
0
0
0
0
0
0
0
0
0
0
0
0
0
0
0
0
0
0
0
0
0
0
0
0
0
0
0
0
0
0
0
0
0
0
0
0
0
0
0
0
0
0
0
0
0
0
0
0
0
0
0
0
0
0
0
0
0
0
0
0
0
0
0
0
0
0
0
0
0
0
0
0
0
0
0
0
0
0
0
0
0
0
0
0
0
0
0
0
0
0
0
0
0
0
0
0
0
0
0
0
0
0
0
0
0
0
0
0
0
0
0
0
0
0
0
0
0
0
0
0
0
0
0
0
0
0
0
0
0
0
0
0
0
0
0
0
0
0
0
0
0
0
0
0
0
0
0
0
0
0
0
0
0
0
0
0
0
0
0
0
0
0
0
0
0
0
0
0
0
0
0
0
0
0
0
0
0
0
0
0
0
0
0
0
0
0
0
0
0
0
0
0
0
0
0
0
0
0
0
0
0
0
0
0
0
0
0
0
0
0
0
0
0
0
0
0
0
0
0
0
0
0
0
0
0
0
0
0
0
0
0
0
0
0
0
0
0
0
0
0
0
0
0
0
0
0
0
0
0
0
0
0
0
0
0
0
0
0
0
0
209
209
209
209
209
209
209
209
209
209
209
210
210
209
210
210
210
210
210
211
210
210
210
210
210
209
206
208
162
159
159
158
155
155
159
245
251
252
255
255
254
255
255
255
255
255
255
255
255
255
255
254
254
254
254
255
255
255
254
254
254
254
254
254
254
254
254
254
0
0
0
0
0
0
0
0
0
0
0
0
0
0
0
0
0
0
0
0
0
0
0
0
0
0
0
0
0
0
0
0
0
0
0
0
0
0
0
0
0
0
0
0
0
0
0
0
0
0
0
0
0
0
0
0
0
0
0
0
0
0
0
0
0
0
0
0
0
0
0
0
0
0
0
0
0
0
0
0
0
0
0
0
0
0
0
0
0
0
0
0
0
0
0
0
0
0
0
0
0
0
0
0
0
0
0
0
0
0
0
0
0
0
0
0
0
0
0
0
0
0
0
0
0
0
0
0
0
0
0
0
0
0
0
0
0
0
0
0
0
0
0
0
0
0
0
0
0
0
0
0
0
0
0
0
0
0
0
0
0
0
0
0
0
0
0
0
0
0
0
0
0
0
0
0
0
0
0
0
0
0
0
0
0
0
0
0
0
0
0
0
0
0
0
0
0
0
0
0
0
0
0
0
0
0
0
0
0
0
0
0
0
0
0
0
0
0
0
0
0
0
0
0
0
0
0
0
0
0
0
0
0
0
0
0
0
0
0
0
0
0
0
0
0
0
0
0
0
0
0
0
0
0
0
0
0
0
0
0
0
0
0
0
0
0
0
0
0
0
0
0
0
0
0
0
0
0
0
0
0
0
0
0
0
0
0
0
0
0
0
0
0
0
0
0
0
0
0
0
0
0
0
0
0
0
0
0
0
0
0
0
0
0
0
0
0
0
0
0
0
0
0
0
0
0
0
0
0
0
0
0
0
0
0
0
0
0
0
0
0
0
0
0
0
0
0
0
0
0
0
0
0
0
0
0
0
0
0
0
0
0
0
0
0
0
0
0
0
0
0
0
0
0
0
0
0
0
0
0
0
0
0
0
0
0
0
0
0
0
0
0
0
0
0
0
0
0
0
0
0
0
0
0
0
0
0
0
0
0
0
0
0
0
0
0
0
0
0
0
0
0
0
0
0
0
0
0
0
0
0
0
0
0
0
0
0
0
0
0
0
0
0
0
0
0
0
0
0
0
0
0
0
0
0
0
0
0
0
0
0
0
0
0
0
0
0
0
0
0
0
0
0
0
0
0
0
0
0
0
0
0
0
0
0
0
0
0
0
0
0
0
0
0
0
0
0
0
0
0
0
0
210
209
209
209
209
209
209
209
209
209
209
209
209
209
209
211
210
210
211
210
210
210
210
210
209
211
209
207
207
161
160
158
159
154
155
168
248
252
252
254
254
255
255
255
255
255
255
255
254
255
255
255
255
254
254
254
254
255
254
254
254
254
254
254
255
255
254
254
254
0
0
0
0
0
0
0
0
0
0
0
0
0
0
0
0
0
0
0
0
0
0
0
0
0
0
0
0
0
0
0
0
0
0
0
0
0
0
0
0
0
0
0
0
0
0
0
0
0
0
0
0
0
0
0
0
0
0
0
0
0
0
0
0
0
0
0
0
0
0
0
0
0
0
0
0
0
0
0
0
0
0
0
0
0
0
0
0
0
0
0
0
0
0
0
0
0
0
0
0
0
0
0
0
0
0
0
0
0
0
0
0
0
0
0
0
0
0
0
0
0
0
0
0
0
0
0
0
0
0
0
0
0
0
0
0
0
0
0
0
0
0
0
0
0
0
0
0
0
0
0
0
0
0
0
0
0
0
0
0
0
0
0
0
0
0
0
0
0
0
0
0
0
0
0
0
0
0
0
0
0
0
0
0
0
0
0
0
0
0
0
0
0
0
0
0
0
0
0
0
0
0
0
0
0
0
0
0
0
0
0
0
0
0
0
0
0
0
0
0
0
0
0
0
0
0
0
0
0
0
0
0
0
0
0
0
0
0
0
0
0
0
0
0
0
0
0
0
0
0
0
0
0
0
0
0
0
0
0
0
0
0
0
0
0
0
0
0
0
0
0
0
0
0
0
0
0
0
0
0
0
0
0
0
0
0
0
0
0
0
0
0
0
0
0
0
0
0
0
0
0
0
0
0
0
0
0
0
0
0
0
0
0
0
0
0
0
0
0
0
0
0
0
0
0
0
0
0
0
0
0
0
0
0
0
0
0
0
0
0
0
0
0
0
0
0
0
0
0
0
0
0
0
0
0
0
0
0
0
0
0
0
0
0
0
0
0
0
0
0
0
0
0
0
0
0
0
0
0
0
0
0
0
0
0
0
0
0
0
0
0
0
0
0
0
0
0
0
0
0
0
0
0
0
0
0
0
0
0
0
0
0
0
0
0
0
0
0
0
0
0
0
0
0
0
0
0
0
0
0
0
0
0
0
0
0
0
0
0
0
0
0
0
0
0
0
0
0
0
0
0
0
0
0
0
0
0
0
0
0
0
0
0
0
0
0
0
0
0
0
0
0
0
0
0
0
0
0
0
0
0
0
0
0
0
0
0
0
0
0
0
0
0
0
0
0
0
0
0
0
0
210
210
209
209
209
209
209
209
209
209
209
209
209
209
208
210
209
210
209
208
210
210
209
208
209
207
212
209
204
200
159
158
159
158
155
157
195
250
255
255
252
255
255
254
255
255
255
254
254
255
255
255
255
255
255
254
254
254
254
254
254
254
254
255
255
255
255
254
254
254
0
0
0
0
0
0
0
0
0
0
0
0
0
0
0
0
0
0
0
0
0
0
0
0
0
0
0
0
0
0
0
0
0
0
0
0
0
0
0
0
0
0
0
0
0
0
0
0
0
0
0
0
0
0
0
0
0
0
0
0
0
0
0
0
0
0
0
0
0
0
0
0
0
0
0
0
0
0
0
0
0
0
0
0
0
0
0
0
0
0
0
0
0
0
0
0
0
0
0
0
0
0
0
0
0
0
0
0
0
0
0
0
0
0
0
0
0
0
0
0
0
0
0
0
0
0
0
0
0
0
0
0
0
0
0
0
0
0
0
0
0
0
0
0
0
0
0
0
0
0
0
0
0
0
0
0
0
0
0
0
0
0
0
0
0
0
0
0
0
0
0
0
0
0
0
0
0
0
0
0
0
0
0
0
0
0
0
0
0
0
0
0
0
0
0
0
0
0
0
0
0
0
0
0
0
0
0
0
0
0
0
0
0
0
0
0
0
0
0
0
0
0
0
0
0
0
0
0
0
0
0
0
0
0
0
0
0
0
0
0
0
0
0
0
0
0
0
0
0
0
0
0
0
0
0
0
0
0
0
0
0
0
0
0
0
0
0
0
0
0
0
0
0
0
0
0
0
0
0
0
0
0
0
0
0
0
0
0
0
0
0
0
0
0
0
0
0
0
0
0
0
0
0
0
0
0
0
0
0
0
0
0
0
0
0
0
0
0
0
0
0
0
0
0
0
0
0
0
0
0
0
0
0
0
0
0
0
0
0
0
0
0
0
0
0
0
0
0
0
0
0
0
0
0
0
0
0
0
0
0
0
0
0
0
0
0
0
0
0
0
0
0
0
0
0
0
0
0
0
0
0
0
0
0
0
0
0
0
0
0
0
0
0
0
0
0
0
0
0
0
0
0
0
0
0
0
0
0
0
0
0
0
0
0
0
0
0
0
0
0
0
0
0
0
0
0
0
0
0
0
0
0
0
0
0
0
0
0
0
0
0
0
0
0
0
0
0
0
0
0
0
0
0
0
0
0
0
0
0
0
0
0
0
0
0
0
0
0
0
0
0
0
0
0
0
0
0
0
0
0
0
0
0
0
0
0
0
0
0
0
0
0
0
0
0
0
0
0
0
0
210
209
209
209
209
209
209
209
209
209
209
209
209
211
210
212
212
209
209
209
209
208
209
209
211
209
209
210
210
196
196
159
159
159
157
155
155
217
251
254
254
254
254
254
254
255
254
254
254
255
255
255
255
255
255
255
254
254
254
254
254
254
255
255
255
255
255
255
254
254
254
0
0
0
0
0
0
0
0
0
0
0
0
0
0
0
0
0
0
0
0
0
0
0
0
0
0
0
0
0
0
0
0
0
0
0
0
0
0
0
0
0
0
0
0
0
0
0
0
0
0
0
0
0
0
0
0
0
0
0
0
0
0
0
0
0
0
0
0
0
0
0
0
0
0
0
0
0
0
0
0
0
0
0
0
0
0
0
0
0
0
0
0
0
0
0
0
0
0
0
0
0
0
0
0
0
0
0
0
0
0
0
0
0
0
0
0
0
0
0
0
0
0
0
0
0
0
0
0
0
0
0
0
0
0
0
0
0
0
0
0
0
0
0
0
0
0
0
0
0
0
0
0
0
0
0
0
0
0
0
0
0
0
0
0
0
0
0
0
0
0
0
0
0
0
0
0
0
0
0
0
0
0
0
0
0
0
0
0
0
0
0
0
0
0
0
0
0
0
0
0
0
0
0
0
0
0
0
0
0
0
0
0
0
0
0
0
0
0
0
0
0
0
0
0
0
0
0
0
0
0
0
0
0
0
0
0
0
0
0
0
0
0
0
0
0
0
0
0
0
0
0
0
0
0
0
0
0
0
0
0
0
0
0
0
0
0
0
0
0
0
0
0
0
0
0
0
0
0
0
0
0
0
0
0
0
0
0
0
0
0
0
0
0
0
0
0
0
0
0
0
0
0
0
0
0
0
0
0
0
0
0
0
0
0
0
0
0
0
0
0
0
0
0
0
0
0
0
0
0
0
0
0
0
0
0
0
0
0
0
0
0
0
0
0
0
0
0
0
0
0
0
0
0
0
0
0
0
0
0
0
0
0
0
0
0
0
0
0
0
0
0
0
0
0
0
0
0
0
0
0
0
0
0
0
0
0
0
0
0
0
0
0
0
0
0
0
0
0
0
0
0
0
0
0
0
0
0
0
0
0
0
0
0
0
0
0
0
0
0
0
0
0
0
0
0
0
0
0
0
0
0
0
0
0
0
0
0
0
0
0
0
0
0
0
0
0
0
0
0
0
0
0
0
0
0
0
0
0
0
0
0
0
0
0
0
0
0
0
0
0
0
0
0
0
0
0
0
0
0
0
0
0
0
0
0
0
0
0
0
0
0
0
0
0
0
0
0
0
0
209
209
209
209
210
209
209
209
209
209
209
209
208
209
208
211
211
209
209
211
217
218
208
207
208
210
210
211
209
211
188
179
159
159
159
158
159
158
245
253
253
254
255
254
253
254
255
255
255
254
255
255
255
255
254
255
255
254
254
254
255
255
255
255
255
255
255
255
254
254
254
254
0
0
0
0
0
0
0
0
0
0
0
0
0
0
0
0
0
0
0
0
0
0
0
0
0
0
0
0
0
0
0
0
0
0
0
0
0
0
0
0
0
0
0
0
0
0
0
0
0
0
0
0
0
0
0
0
0
0
0
0
0
0
0
0
0
0
0
0
0
0
0
0
0
0
0
0
0
0
0
0
0
0
0
0
0
0
0
0
0
0
0
0
0
0
0
0
0
0
0
0
0
0
0
0
0
0
0
0
0
0
0
0
0
0
0
0
0
0
0
0
0
0
0
0
0
0
0
0
0
0
0
0
0
0
0
0
0
0
0
0
0
0
0
0
0
0
0
0
0
0
0
0
0
0
0
0
0
0
0
0
0
0
0
0
0
0
0
0
0
0
0
0
0
0
0
0
0
0
0
0
0
0
0
0
0
0
0
0
0
0
0
0
0
0
0
0
0
0
0
0
0
0
0
0
0
0
0
0
0
0
0
0
0
0
0
0
0
0
0
0
0
0
0
0
0
0
0
0
0
0
0
0
0
0
0
0
0
0
0
0
0
0
0
0
0
0
0
0
0
0
0
0
0
0
0
0
0
0
0
0
0
0
0
0
0
0
0
0
0
0
0
0
0
0
0
0
0
0
0
0
0
0
0
0
0
0
0
0
0
0
0
0
0
0
0
0
0
0
0
0
0
0
0
0
0
0
0
0
0
0
0
0
0
0
0
0
0
0
0
0
0
0
0
0
0
0
0
0
0
0
0
0
0
0
0
0
0
0
0
0
0
0
0
0
0
0
0
0
0
0
0
0
0
0
0
0
0
0
0
0
0
0
0
0
0
0
0
0
0
0
0
0
0
0
0
0
0
0
0
0
0
0
0
0
0
0
0
0
0
0
0
0
0
0
0
0
0
0
0
0
0
0
0
0
0
0
0
0
0
0
0
0
0
0
0
0
0
0
0
0
0
0
0
0
0
0
0
0
0
0
0
0
0
0
0
0
0
0
0
0
0
0
0
0
0
0
0
0
0
0
0
0
0
0
0
0
0
0
0
0
0
0
0
0
0
0
0
0
0
0
0
0
0
0
0
0
0
0
0
0
0
0
0
0
0
0
0
0
0
0
0
0
0
0
0
0
0
0
209
210
210
210
210
210
209
209
209
209
209
209
209
209
209
209
209
209
209
217
221
221
222
211
208
209
208
210
210
208
208
179
172
158
159
159
158
166
166
250
253
254
254
252
252
252
255
255
255
255
255
255
255
255
254
254
255
255
254
255
255
255
255
255
255
255
255
254
254
254
254
254
254
0
0
0
0
0
0
0
0
0
0
0
0
0
0
0
0
0
0
0
0
0
0
0
0
0
0
0
0
0
0
0
0
0
0
0
0
0
0
0
0
0
0
0
0
0
0
0
0
0
0
0
0
0
0
0
0
0
0
0
0
0
0
0
0
0
0
0
0
0
0
0
0
0
0
0
0
0
0
0
0
0
0
0
0
0
0
0
0
0
0
0
0
0
0
0
0
0
0
0
0
0
0
0
0
0
0
0
0
0
0
0
0
0
0
0
0
0
0
0
0
0
0
0
0
0
0
0
0
0
0
0
0
0
0
0
0
0
0
0
0
0
0
0
0
0
0
0
0
0
0
0
0
0
0
0
0
0
0
0
0
0
0
0
0
0
0
0
0
0
0
0
0
0
0
0
0
0
0
0
0
0
0
0
0
0
0
0
0
0
0
0
0
0
0
0
0
0
0
0
0
0
0
0
0
0
0
0
0
0
0
0
0
0
0
0
0
0
0
0
0
0
0
0
0
0
0
0
0
0
0
0
0
0
0
0
0
0
0
0
0
0
0
0
0
0
0
0
0
0
0
0
0
0
0
0
0
0
0
0
0
0
0
0
0
0
0
0
0
0
0
0
0
0
0
0
0
0
0
0
0
0
0
0
0
0
0
0
0
0
0
0
0
0
0
0
0
0
0
0
0
0
0
0
0
0
0
0
0
0
0
0
0
0
0
0
0
0
0
0
0
0
0
0
0
0
0
0
0
0
0
0
0
0
0
0
0
0
0
0
0
0
0
0
0
0
0
0
0
0
0
0
0
0
0
0
0
0
0
0
0
0
0
0
0
0
0
0
0
0
0
0
0
0
0
0
0
0
0
0
0
0
0
0
0
0
0
0
0
0
0
0
0
0
0
0
0
0
0
0
0
0
0
0
0
0
0
0
0
0
0
0
0
0
0
0
0
0
0
0
0
0
0
0
0
0
0
0
0
0
0
0
0
0
0
0
0
0
0
0
0
0
0
0
0
0
0
0
0
0
0
0
0
0
0
0
0
0
0
0
0
0
0
0
0
0
0
0
0
0
0
0
0
0
0
0
0
0
0
0
0
0
0
0
0
0
0
0
0
0
0
0
0
0
0
0
0
0
209
210
210
210
210
210
210
209
209
209
209
209
209
209
210
210
210
209
216
221
222
223
223
223
212
210
211
207
210
211
208
206
161
161
158
159
157
158
192
220
252
252
255
255
254
255
255
253
255
255
255
255
255
255
254
254
254
255
255
255
255
255
255
254
255
255
254
254
254
254
254
254
254
254
0
0
0
0
0
0
0
0
0
0
0
0
0
0
0
0
0
0
0
0
0
0
0
0
0
0
0
0
0
0
0
0
0
0
0
0
0
0
0
0
0
0
0
0
0
0
0
0
0
0
0
0
0
0
0
0
0
0
0
0
0
0
0
0
0
0
0
0
0
0
0
0
0
0
0
0
0
0
0
0
0
0
0
0
0
0
0
0
0
0
0
0
0
0
0
0
0
0
0
0
0
0
0
0
0
0
0
0
0
0
0
0
0
0
0
0
0
0
0
0
0
0
0
0
0
0
0
0
0
0
0
0
0
0
0
0
0
0
0
0
0
0
0
0
0
0
0
0
0
0
0
0
0
0
0
0
0
0
0
0
0
0
0
0
0
0
0
0
0
0
0
0
0
0
0
0
0
0
0
0
0
0
0
0
0
0
0
0
0
0
0
0
0
0
0
0
0
0
0
0
0
0
0
0
0
0
0
0
0
0
0
0
0
0
0
0
0
0
0
0
0
0
0
0
0
0
0
0
0
0
0
0
0
0
0
0
0
0
0
0
0
0
0
0
0
0
0
0
0
0
0
0
0
0
0
0
0
0
0
0
0
0
0
0
0
0
0
0
0
0
0
0
0
0
0
0
0
0
0
0
0
0
0
0
0
0
0
0
0
0
0
0
0
0
0
0
0
0
0
0
0
0
0
0
0
0
0
0
0
0
0
0
0
0
0
0
0
0
0
0
0
0
0
0
0
0
0
0
0
0
0
0
0
0
0
0
0
0
0
0
0
0
0
0
0
0
0
0
0
0
0
0
0
0
0
0
0
0
0
0
0
0
0
0
0
0
0
0
0
0
0
0
0
0
0
0
0
0
0
0
0
0
0
0
0
0
0
0
0
0
0
0
0
0
0
0
0
0
0
0
0
0
0
0
0
0
0
0
0
0
0
0
0
0
0
0
0
0
0
0
0
0
0
0
0
0
0
0
0
0
0
0
0
0
0
0
0
0
0
0
0
0
0
0
0
0
0
0
0
0
0
0
0
0
0
0
0
0
0
0
0
0
0
0
0
0
0
0
0
0
0
0
0
0
0
0
0
0
0
0
0
0
0
0
0
0
0
0
0
0
0
0
0
0
0
0
210
209
210
209
210
210
210
209
209
209
209
209
209
209
209
210
209
209
215
221
223
221
223
222
222
208
211
211
210
211
211
208
204
160
160
157
157
157
153
220
238
251
253
255
254
254
255
255
255
255
255
255
255
255
254
254
254
254
255
255
255
255
254
254
254
255
255
254
254
254
254
254
254
254
254
0
0
0
0
0
0
0
0
0
0
0
0
0
0
0
0
0
0
0
0
0
0
0
0
0
0
0
0
0
0
0
0
0
0
0
0
0
0
0
0
0
0
0
0
0
0
0
0
0
0
0
0
0
0
0
0
0
0
0
0
0
0
0
0
0
0
0
0
0
0
0
0
0
0
0
0
0
0
0
0
0
0
0
0
0
0
0
0
0
0
0
0
0
0
0
0
0
0
0
0
0
0
0
0
0
0
0
0
0
0
0
0
0
0
0
0
0
0
0
0
0
0
0
0
0
0
0
0
0
0
0
0
0
0
0
0
0
0
0
0
0
0
0
0
0
0
0
0
0
0
0
0
0
0
0
0
0
0
0
0
0
0
0
0
0
0
0
0
0
0
0
0
0
0
0
0
0
0
0
0
0
0
0
0
0
0
0
0
0
0
0
0
0
0
0
0
0
0
0
0
0
0
0
0
0
0
0
0
0
0
0
0
0
0
0
0
0
0
0
0
0
0
0
0
0
0
0
0
0
0
0
0
0
0
0
0
0
0
0
0
0
0
0
0
0
0
0
0
0
0
0
0
0
0
0
0
0
0
0
0
0
0
0
0
0
0
0
0
0
0
0
0
0
0
0
0
0
0
0
0
0
0
0
0
0
0
0
0
0
0
0
0
0
0
0
0
0
0
0
0
0
0
0
0
0
0
0
0
0
0
0
0
0
0
0
0
0
0
0
0
0
0
0
0
0
0
0
0
0
0
0
0
0
0
0
0
0
0
0
0
0
0
0
0
0
0
0
0
0
0
0
0
0
0
0
0
0
0
0
0
0
0
0
0
0
0
0
0
0
0
0
0
0
0
0
0
0
0
0
0
0
0
0
0
0
0
0
0
0
0
0
0
0
0
0
0
0
0
0
0
0
0
0
0
0
0
0
0
0
0
0
0
0
0
0
0
0
0
0
0
0
0
0
0
0
0
0
0
0
0
0
0
0
0
0
0
0
0
0
0
0
0
0
0
0
0
0
0
0
0
0
0
0
0
0
0
0
0
0
0
0
0
0
0
0
0
0
0
0
0
0
0
0
0
0
0
0
0
0
0
0
0
0
0
0
0
0
0
0
0
0
0
0
0
0
210
210
209
209
209
210
210
210
209
209
209
209
209
209
209
209
209
210
207
220
222
222
222
221
221
222
208
210
210
211
213
213
209
181
159
159
158
156
156
164
249
249
254
253
254
254
254
254
254
255
255
255
255
255
254
254
254
254
254
255
255
254
254
254
255
255
255
255
255
255
254
254
254
254
254
254
0
0
0
0
0
0
0
0
0
0
0
0
0
0
0
0
0
0
0
0
0
0
0
0
0
0
0
0
0
0
0
0
0
0
0
0
0
0
0
0
0
0
0
0
0
0
0
0
0
0
0
0
0
0
0
0
0
0
0
0
0
0
0
0
0
0
0
0
0
0
0
0
0
0
0
0
0
0
0
0
0
0
0
0
0
0
0
0
0
0
0
0
0
0
0
0
0
0
0
0
0
0
0
0
0
0
0
0
0
0
0
0
0
0
0
0
0
0
0
0
0
0
0
0
0
0
0
0
0
0
0
0
0
0
0
0
0
0
0
0
0
0
0
0
0
0
0
0
0
0
0
0
0
0
0
0
0
0
0
0
0
0
0
0
0
0
0
0
0
0
0
0
0
0
0
0
0
0
0
0
0
0
0
0
0
0
0
0
0
0
0
0
0
0
0
0
0
0
0
0
0
0
0
0
0
0
0
0
0
0
0
0
0
0
0
0
0
0
0
0
0
0
0
0
0
0
0
0
0
0
0
0
0
0
0
0
0
0
0
0
0
0
0
0
0
0
0
0
0
0
0
0
0
0
0
0
0
0
0
0
0
0
0
0
0
0
0
0
0
0
0
0
0
0
0
0
0
0
0
0
0
0
0
0
0
0
0
0
0
0
0
0
0
0
0
0
0
0
0
0
0
0
0
0
0
0
0
0
0
0
0
0
0
0
0
0
0
0
0
0
0
0
0
0
0
0
0
0
0
0
0
0
0
0
0
0
0
0
0
0
0
0
0
0
0
0
0
0
0
0
0
0
0
0
0
0
0
0
0
0
0
0
0
0
0
0
0
0
0
0
0
0
0
0
0
0
0
0
0
0
0
0
0
0
0
0
0
0
0
0
0
0
0
0
0
0
0
0
0
0
0
0
0
0
0
0
0
0
0
0
0
0
0
0
0
0
0
0
0
0
0
0
0
0
0
0
0
0
0
0
0
0
0
0
0
0
0
0
0
0
0
0
0
0
0
0
0
0
0
0
0
0
0
0
0
0
0
0
0
0
0
0
0
0
0
0
0
0
0
0
0
0
0
0
0
0
0
0
0
0
0
0
0
0
0
0
0
0
0
0
0
0
0
0
210
210
209
209
210
210
210
210
210
209
209
209
209
209
209
209
209
210
209
218
221
221
222
222
221
221
214
209
210
210
209
211
211
206
170
158
158
159
156
155
227
249
254
252
255
254
252
254
254
254
255
255
255
255
255
255
255
254
254
254
254
254
254
255
255
255
255
255
255
255
255
255
255
255
254
254
254
0
0
0
0
0
0
0
0
0
0
0
0
0
0
0
0
0
0
0
0
0
0
0
0
0
0
0
0
0
0
0
0
0
0
0
0
0
0
0
0
0
0
0
0
0
0
0
0
0
0
0
0
0
0
0
0
0
0
0
0
0
0
0
0
0
0
0
0
0
0
0
0
0
0
0
0
0
0
0
0
0
0
0
0
0
0
0
0
0
0
0
0
0
0
0
0
0
0
0
0
0
0
0
0
0
0
0
0
0
0
0
0
0
0
0
0
0
0
0
0
0
0
0
0
0
0
0
0
0
0
0
0
0
0
0
0
0
0
0
0
0
0
0
0
0
0
0
0
0
0
0
0
0
0
0
0
0
0
0
0
0
0
0
0
0
0
0
0
0
0
0
0
0
0
0
0
0
0
0
0
0
0
0
0
0
0
0
0
0
0
0
0
0
0
0
0
0
0
0
0
0
0
0
0
0
0
0
0
0
0
0
0
0
0
0
0
0
0
0
0
0
0
0
0
0
0
0
0
0
0
0
0
0
0
0
0
0
0
0
0
0
0
0
0
0
0
0
0
0
0
0
0
0
0
0
0
0
0
0
0
0
0
0
0
0
0
0
0
0
0
0
0
0
0
0
0
0
0
0
0
0
0
0
0
0
0
0
0
0
0
0
0
0
0
0
0
0
0
0
0
0
0
0
0
0
0
0
0
0
0
0
0
0
0
0
0
0
0
0
0
0
0
0
0
0
0
0
0
0
0
0
0
0
0
0
0
0
0
0
0
0
0
0
0
0
0
0
0
0
0
0
0
0
0
0
0
0
0
0
0
0
0
0
0
0
0
0
0
0
0
0
0
0
0
0
0
0
0
0
0
0
0
0
0
0
0
0
0
0
0
0
0
0
0
0
0
0
0
0
0
0
0
0
0
0
0
0
0
0
0
0
0
0
0
0
0
0
0
0
0
0
0
0
0
0
0
0
0
0
0
0
0
0
0
0
0
0
0
0
0
0
0
0
0
0
0
0
0
0
0
0
0
0
0
0
0
0
0
0
0
0
0
0
0
0
0
0
0
0
0
0
0
0
0
0
0
0
0
0
0
0
0
0
0
0
0
0
0
0
0
0
0
0
209
210
210
210
209
210
209
210
210
210
209
209
209
209
209
209
209
210
211
211
222
221
223
223
222
221
221
209
210
210
210
209
211
211
200
159
158
158
160
155
155
246
254
254
253
254
252
254
255
253
253
254
255
255
255
255
255
255
255
254
254
254
255
255
255
255
255
255
255
255
255
255
255
254
254
254
254
254
0
0
0
0
0
0
0
0
0
0
0
0
0
0
0
0
0
0
0
0
0
0
0
0
0
0
0
0
0
0
0
0
0
0
0
0
0
0
0
0
0
0
0
0
0
0
0
0
0
0
0
0
0
0
0
0
0
0
0
0
0
0
0
0
0
0
0
0
0
0
0
0
0
0
0
0
0
0
0
0
0
0
0
0
0
0
0
0
0
0
0
0
0
0
0
0
0
0
0
0
0
0
0
0
0
0
0
0
0
0
0
0
0
0
0
0
0
0
0
0
0
0
0
0
0
0
0
0
0
0
0
0
0
0
0
0
0
0
0
0
0
0
0
0
0
0
0
0
0
0
0
0
0
0
0
0
0
0
0
0
0
0
0
0
0
0
0
0
0
0
0
0
0
0
0
0
0
0
0
0
0
0
0
0
0
0
0
0
0
0
0
0
0
0
0
0
0
0
0
0
0
0
0
0
0
0
0
0
0
0
0
0
0
0
0
0
0
0
0
0
0
0
0
0
0
0
0
0
0
0
0
0
0
0
0
0
0
0
0
0
0
0
0
0
0
0
0
0
0
0
0
0
0
0
0
0
0
0
0
0
0
0
0
0
0
0
0
0
0
0
0
0
0
0
0
0
0
0
0
0
0
0
0
0
0
0
0
0
0
0
0
0
0
0
0
0
0
0
0
0
0
0
0
0
0
0
0
0
0
0
0
0
0
0
0
0
0
0
0
0
0
0
0
0
0
0
0
0
0
0
0
0
0
0
0
0
0
0
0
0
0
0
0
0
0
0
0
0
0
0
0
0
0
0
0
0
0
0
0
0
0
0
0
0
0
0
0
0
0
0
0
0
0
0
0
0
0
0
0
0
0
0
0
0
0
0
0
0
0
0
0
0
0
0
0
0
0
0
0
0
0
0
0
0
0
0
0
0
0
0
0
0
0
0
0
0
0
0
0
0
0
0
0
0
0
0
0
0
0
0
0
0
0
0
0
0
0
0
0
0
0
0
0
0
0
0
0
0
0
0
0
0
0
0
0
0
0
0
0
0
0
0
0
0
0
0
0
0
0
0
0
0
0
0
0
0
0
0
0
0
0
0
0
0
0
0
0
0
0
0
0
0
209
209
210
210
210
209
210
210
210
209
209
209
209
209
209
209
210
209
210
214
217
224
221
223
222
222
220
216
210
211
210
210
209
210
206
186
159
158
158
159
170
210
251
251
254
254
253
255
253
255
254
255
254
255
255
255
255
255
255
255
254
255
255
255
254
254
254
255
254
255
255
255
255
254
254
254
254
254
254
0
0
0
0
0
0
0
0
0
0
0
0
0
0
0
0
0
0
0
0
0
0
0
0
0
0
0
0
0
0
0
0
0
0
0
0
0
0
0
0
0
0
0
0
0
0
0
0
0
0
0
0
0
0
0
0
0
0
0
0
0
0
0
0
0
0
0
0
0
0
0
0
0
0
0
0
0
0
0
0
0
0
0
0
0
0
0
0
0
0
0
0
0
0
0
0
0
0
0
0
0
0
0
0
0
0
0
0
0
0
0
0
0
0
0
0
0
0
0
0
0
0
0
0
0
0
0
0
0
0
0
0
0
0
0
0
0
0
0
0
0
0
0
0
0
0
0
0
0
0
0
0
0
0
0
0
0
0
0
0
0
0
0
0
0
0
0
0
0
0
0
0
0
0
0
0
0
0
0
0
0
0
0
0
0
0
0
0
0
0
0
0
0
0
0
0
0
0
0
0
0
0
0
0
0
0
0
0
0
0
0
0
0
0
0
0
0
0
0
0
0
0
0
0
0
0
0
0
0
0
0
0
0
0
0
0
0
0
0
0
0
0
0
0
0
0
0
0
0
0
0
0
0
0
0
0
0
0
0
0
0
0
0
0
0
0
0
0
0
0
0
0
0
0
0
0
0
0
0
0
0
0
0
0
0
0
0
0
0
0
0
0
0
0
0
0
0
0
0
0
0
0
0
0
0
0
0
0
0
0
0
0
0
0
0
0
0
0
0
0
0
0
0
0
0
0
0
0
0
0
0
0
0
0
0
0
0
0
0
0
0
0
0
0
0
0
0
0
0
0
0
0
0
0
0
0
0
0
0
0
0
0
0
0
0
0
0
0
0
0
0
0
0
0
0
0
0
0
0
0
0
0
0
0
0
0
0
0
0
0
0
0
0
0
0
0
0
0
0
0
0
0
0
0
0
0
0
0
0
0
0
0
0
0
0
0
0
0
0
0
0
0
0
0
0
0
0
0
0
0
0
0
0
0
0
0
0
0
0
0
0
0
0
0
0
0
0
0
0
0
0
0
0
0
0
0
0
0
0
0
0
0
0
0
0
0
0
0
0
0
0
0
0
0
0
0
0
0
0
0
0
0
0
0
0
0
0
0
0
0
0
209
209
209
210
209
209
210
210
210
210
209
209
209
209
209
210
209
209
209
211
221
221
222
223
222
220
223
216
213
208
210
210
209
210
206
202
156
163
158
157
156
210
241
254
254
254
254
254
253
254
255
255
255
254
255
255
255
255
255
255
254
255
255
255
255
254
254
254
254
254
255
255
255
255
254
254
254
255
254
254
0
0
0
0
0
0
0
0
0
0
0
0
0
0
0
0
0
0
0
0
0
0
0
0
0
0
0
0
0
0
0
0
0
0
0
0
0
0
0
0
0
0
0
0
0
0
0
0
0
0
0
0
0
0
0
0
0
0
0
0
0
0
0
0
0
0
0
0
0
0
0
0
0
0
0
0
0
0
0
0
0
0
0
0
0
0
0
0
0
0
0
0
0
0
0
0
0
0
0
0
0
0
0
0
0
0
0
0
0
0
0
0
0
0
0
0
0
0
0
0
0
0
0
0
0
0
0
0
0
0
0
0
0
0
0
0
0
0
0
0
0
0
0
0
0
0
0
0
0
0
0
0
0
0
0
0
0
0
0
0
0
0
0
0
0
0
0
0
0
0
0
0
0
0
0
0
0
0
0
0
0
0
0
0
0
0
0
0
0
0
0
0
0
0
0
0
0
0
0
0
0
0
0
0
0
0
0
0
0
0
0
0
0
0
0
0
0
0
0
0
0
0
0
0
0
0
0
0
0
0
0
0
0
0
0
0
0
0
0
0
0
0
0
0
0
0
0
0
0
0
0
0
0
0
0
0
0
0
0
0
0
0
0
0
0
0
0
0
0
0
0
0
0
0
0
0
0
0
0
0
0
0
0
0
0
0
0
0
0
0
0
0
0
0
0
0
0
0
0
0
0
0
0
0
0
0
0
0
0
0
0
0
0
0
0
0
0
0
0
0
0
0
0
0
0
0
0
0
0
0
0
0
0
0
0
0
0
0
0
0
0
0
0
0
0
0
0
0
0
0
0
0
0
0
0
0
0
0
0
0
0
0
0
0
0
0
0
0
0
0
0
0
0
0
0
0
0
0
0
0
0
0
0
0
0
0
0
0
0
0
0
0
0
0
0
0
0
0
0
0
0
0
0
0
0
0
0
0
0
0
0
0
0
0
0
0
0
0
0
0
0
0
0
0
0
0
0
0
0
0
0
0
0
0
0
0
0
0
0
0
0
0
0
0
0
0
0
0
0
0
0
0
0
0
0
0
0
0
0
0
0
0
0
0
0
0
0
0
0
0
0
0
0
0
0
0
0
0
0
0
0
0
0
0
0
0
0
0
0
0
209
209
209
209
209
209
209
210
210
210
209
209
209
209
208
210
210
210
208
209
213
223
224
221
223
222
222
220
210
208
209
209
210
210
208
197
171
157
156
159
159
163
251
251
254
252
253
255
254
254
254
254
255
255
254
255
255
255
255
254
254
254
255
255
255
255
254
254
254
254
255
255
255
255
255
254
254
254
255
254
254
0
0
0
0
0
0
0
0
0
0
0
0
0
0
0
0
0
0
0
0
0
0
0
0
0
0
0
0
0
0
0
0
0
0
0
0
0
0
0
0
0
0
0
0
0
0
0
0
0
0
0
0
0
0
0
0
0
0
0
0
0
0
0
0
0
0
0
0
0
0
0
0
0
0
0
0
0
0
0
0
0
0
0
0
0
0
0
0
0
0
0
0
0
0
0
0
0
0
0
0
0
0
0
0
0
0
0
0
0
0
0
0
0
0
0
0
0
0
0
0
0
0
0
0
0
0
0
0
0
0
0
0
0
0
0
0
0
0
0
0
0
0
0
0
0
0
0
0
0
0
0
0
0
0
0
0
0
0
0
0
0
0
0
0
0
0
0
0
0
0
0
0
0
0
0
0
0
0
0
0
0
0
0
0
0
0
0
0
0
0
0
0
0
0
0
0
0
0
0
0
0
0
0
0
0
0
0
0
0
0
0
0
0
0
0
0
0
0
0
0
0
0
0
0
0
0
0
0
0
0
0
0
0
0
0
0
0
0
0
0
0
0
0
0
0
0
0
0
0
0
0
0
0
0
0
0
0
0
0
0
0
0
0
0
0
0
0
0
0
0
0
0
0
0
0
0
0
0
0
0
0
0
0
0
0
0
0
0
0
0
0
0
0
0
0
0
0
0
0
0
0
0
0
0
0
0
0
0
0
0
0
0
0
0
0
0
0
0
0
0
0
0
0
0
0
0
0
0
0
0
0
0
0
0
0
0
0
0
0
0
0
0
0
0
0
0
0
0
0
0
0
0
0
0
0
0
0
0
0
0
0
0
0
0
0
0
0
0
0
0
0
0
0
0
0
0
0
0
0
0
0
0
0
0
0
0
0
0
0
0
0
0
0
0
0
0
0
0
0
0
0
0
0
0
0
0
0
0
0
0
0
0
0
0
0
0
0
0
0
0
0
0
0
0
0
0
0
0
0
0
0
0
0
0
0
0
0
0
0
0
0
0
0
0
0
0
0
0
0
0
0
0
0
0
0
0
0
0
0
0
0
0
0
0
0
0
0
0
0
0
0
0
0
0
0
0
0
0
0
0
0
0
0
0
0
0
0
0
0
209
210
209
209
209
209
209
211
210
210
210
209
209
210
209
209
210
210
208
209
211
220
224
223
223
221
223
221
213
208
209
211
209
210
210
208
171
159
157
159
159
154
203
252
254
254
253
255
255
254
254
254
254
255
255
254
255
255
255
254
254
254
254
255
255
255
255
254
254
254
255
255
255
255
255
255
254
254
254
255
254
254
0
0
0
0
0
0
0
0
0
0
0
0
0
0
0
0
0
0
0
0
0
0
0
0
0
0
0
0
0
0
0
0
0
0
0
0
0
0
0
0
0
0
0
0
0
0
0
0
0
0
0
0
0
0
0
0
0
0
0
0
0
0
0
0
0
0
0
0
0
0
0
0
0
0
0
0
0
0
0
0
0
0
0
0
0
0
0
0
0
0
0
0
0
0
0
0
0
0
0
0
0
0
0
0
0
0
0
0
0
0
0
0
0
0
0
0
0
0
0
0
0
0
0
0
0
0
0
0
0
0
0
0
0
0
0
0
0
0
0
0
0
0
0
0
0
0
0
0
0
0
0
0
0
0
0
0
0
0
0
0
0
0
0
0
0
0
0
0
0
0
0
0
0
0
0
0
0
0
0
0
0
0
0
0
0
0
0
0
0
0
0
0
0
0
0
0
0
0
0
0
0
0
0
0
0
0
0
0
0
0
0
0
0
0
0
0
0
0
0
0
0
0
0
0
0
0
0
0
0
0
0
0
0
0
0
0
0
0
0
0
0
0
0
0
0
0
0
0
0
0
0
0
0
0
0
0
0
0
0
0
0
0
0
0
0
0
0
0
0
0
0
0
0
0
0
0
0
0
0
0
0
0
0
0
0
0
0
0
0
0
0
0
0
0
0
0
0
0
0
0
0
0
0
0
0
0
0
0
0
0
0
0
0
0
0
0
0
0
0
0
0
0
0
0
0
0
0
0
0
0
0
0
0
0
0
0
0
0
0
0
0
0
0
0
0
0
0
0
0
0
0
0
0
0
0
0
0
0
0
0
0
0
0
0
0
0
0
0
0
0
0
0
0
0
0
0
0
0
0
0
0
0
0
0
0
0
0
0
0
0
0
0
0
0
0
0
0
0
0
0
0
0
0
0
0
0
0
0
0
0
0
0
0
0
0
0
0
0
0
0
0
0
0
0
0
0
0
0
0
0
0
0
0
0
0
0
0
0
0
0
0
0
0
0
0
0
0
0
0
0
0
0
0
0
0
0
0
0
0
0
0
0
0
0
0
0
0
0
0
0
0
0
0
0
0
0
0
0
0
0
0
0
0
0
0
0
0
0
209
209
209
209
209
209
211
211
211
210
209
209
210
210
210
209
209
210
210
209
214
214
223
222
222
222
222
220
220
208
210
210
209
210
210
210
195
163
163
157
159
154
168
251
255
255
254
255
255
255
254
254
254
254
255
255
254
255
255
255
254
254
254
255
255
255
255
255
254
254
254
255
255
255
255
255
255
254
254
254
254
254
254
0
0
0
0
0
0
0
0
0
0
0
0
0
0
0
0
0
0
0
0
0
0
0
0
0
0
0
0
0
0
0
0
0
0
0
0
0
0
0
0
0
0
0
0
0
0
0
0
0
0
0
0
0
0
0
0
0
0
0
0
0
0
0
0
0
0
0
0
0
0
0
0
0
0
0
0
0
0
0
0
0
0
0
0
0
0
0
0
0
0
0
0
0
0
0
0
0
0
0
0
0
0
0
0
0
0
0
0
0
0
0
0
0
0
0
0
0
0
0
0
0
0
0
0
0
0
0
0
0
0
0
0
0
0
0
0
0
0
0
0
0
0
0
0
0
0
0
0
0
0
0
0
0
0
0
0
0
0
0
0
0
0
0
0
0
0
0
0
0
0
0
0
0
0
0
0
0
0
0
0
0
0
0
0
0
0
0
0
0
0
0
0
0
0
0
0
0
0
0
0
0
0
0
0
0
0
0
0
0
0
0
0
0
0
0
0
0
0
0
0
0
0
0
0
0
0
0
0
0
0
0
0
0
0
0
0
0
0
0
0
0
0
0
0
0
0
0
0
0
0
0
0
0
0
0
0
0
0
0
0
0
0
0
0
0
0
0
0
0
0
0
0
0
0
0
0
0
0
0
0
0
0
0
0
0
0
0
0
0
0
0
0
0
0
0
0
0
0
0
0
0
0
0
0
0
0
0
0
0
0
0
0
0
0
0
0
0
0
0
0
0
0
0
0
0
0
0
0
0
0
0
0
0
0
0
0
0
0
0
0
0
0
0
0
0
0
0
0
0
0
0
0
0
0
0
0
0
0
0
0
0
0
0
0
0
0
0
0
0
0
0
0
0
0
0
0
0
0
0
0
0
0
0
0
0
0
0
0
0
0
0
0
0
0
0
0
0
0
0
0
0
0
0
0
0
0
0
0
0
0
0
0
0
0
0
0
0
0
0
0
0
0
0
0
0
0
0
0
0
0
0
0
0
0
0
0
0
0
0
0
0
0
0
0
0
0
0
0
0
0
0
0
0
0
0
0
0
0
0
0
0
0
0
0
0
0
0
0
0
0
0
0
0
0
0
0
0
0
0
0
0
0
0
0
0
0
0
209
208
208
209
209
209
209
211
211
211
210
209
210
210
210
210
209
208
209
209
210
215
220
222
223
222
222
223
216
213
208
211
210
208
210
208
208
169
160
156
162
155
214
245
252
253
254
254
255
255
255
254
254
254
255
255
255
254
255
255
255
255
254
254
255
255
255
255
254
254
254
254
255
255
255
255
255
255
254
255
255
254
254
254
0
0
0
0
0
0
0
0
0
0
0
0
0
0
0
0
0
0
0
0
0
0
0
0
0
0
0
0
0
0
0
0
0
0
0
0
0
0
0
0
0
0
0
0
0
0
0
0
0
0
0
0
0
0
0
0
0
0
0
0
0
0
0
0
0
0
0
0
0
0
0
0
0
0
0
0
0
0
0
0
0
0
0
0
0
0
0
0
0
0
0
0
0
0
0
0
0
0
0
0
0
0
0
0
0
0
0
0
0
0
0
0
0
0
0
0
0
0
0
0
0
0
0
0
0
0
0
0
0
0
0
0
0
0
0
0
0
0
0
0
0
0
0
0
0
0
0
0
0
0
0
0
0
0
0
0
0
0
0
0
0
0
0
0
0
0
0
0
0
0
0
0
0
0
0
0
0
0
0
0
0
0
0
0
0
0
0
0
0
0
0
0
0
0
0
0
0
0
0
0
0
0
0
0
0
0
0
0
0
0
0
0
0
0
0
0
0
0
0
0
0
0
0
0
0
0
0
0
0
0
0
0
0
0
0
0
0
0
0
0
0
0
0
0
0
0
0
0
0
0
0
0
0
0
0
0
0
0
0
0
0
0
0
0
0
0
0
0
0
0
0
0
0
0
0
0
0
0
0
0
0
0
0
0
0
0
0
0
0
0
0
0
0
0
0
0
0
0
0
0
0
0
0
0
0
0
0
0
0
0
0
0
0
0
0
0
0
0
0
0
0
0
0
0
0
0
0
0
0
0
0
0
0
0
0
0
0
0
0
0
0
0
0
0
0
0
0
0
0
0
0
0
0
0
0
0
0
0
0
0
0
0
0
0
0
0
0
0
0
0
0
0
0
0
0
0
0
0
0
0
0
0
0
0
0
0
0
0
0
0
0
0
0
0
0
0
0
0
0
0
0
0
0
0
0
0
0
0
0
0
0
0
0
0
0
0
0
0
0
0
0
0
0
0
0
0
0
0
0
0
0
0
0
0
0
0
0
0
0
0
0
0
0
0
0
0
0
0
0
0
0
0
0
0
0
0
0
0
0
0
0
0
0
0
0
0
0
0
0
0
0
0
0
0
0
0
0
0
0
0
0
0
0
0
0
0
170
204
208
208
209
209
209
210
211
211
210
209
210
210
210
210
210
209
209
209
209
213
220
221
221
223
223
223
220
213
209
212
210
210
211
210
208
192
160
156
160
158
180
245
250
252
254
255
255
255
255
255
253
254
253
255
255
255
254
255
255
255
255
254
255
255
254
254
255
254
254
254
254
255
255
255
255
255
254
254
255
255
255
254
254
0
0
0
0
0
0
0
0
0
0
0
0
0
0
0
0
0
0
0
0
0
0
0
0
0
0
0
0
0
0
0
0
0
0
0
0
0
0
0
0
0
0
0
0
0
0
0
0
0
0
0
0
0
0
0
0
0
0
0
0
0
0
0
0
0
0
0
0
0
0
0
0
0
0
0
0
0
0
0
0
0
0
0
0
0
0
0
0
0
0
0
0
0
0
0
0
0
0
0
0
0
0
0
0
0
0
0
0
0
0
0
0
0
0
0
0
0
0
0
0
0
0
0
0
0
0
0
0
0
0
0
0
0
0
0
0
0
0
0
0
0
0
0
0
0
0
0
0
0
0
0
0
0
0
0
0
0
0
0
0
0
0
0
0
0
0
0
0
0
0
0
0
0
0
0
0
0
0
0
0
0
0
0
0
0
0
0
0
0
0
0
0
0
0
0
0
0
0
0
0
0
0
0
0
0
0
0
0
0
0
0
0
0
0
0
0
0
0
0
0
0
0
0
0
0
0
0
0
0
0
0
0
0
0
0
0
0
0
0
0
0
0
0
0
0
0
0
0
0
0
0
0
0
0
0
0
0
0
0
0
0
0
0
0
0
0
0
0
0
0
0
0
0
0
0
0
0
0
0
0
0
0
0
0
0
0
0
0
0
0
0
0
0
0
0
0
0
0
0
0
0
0
0
0
0
0
0
0
0
0
0
0
0
0
0
0
0
0
0
0
0
0
0
0
0
0
0
0
0
0
0
0
0
0
0
0
0
0
0
0
0
0
0
0
0
0
0
0
0
0
0
0
0
0
0
0
0
0
0
0
0
0
0
0
0
0
0
0
0
0
0
0
0
0
0
0
0
0
0
0
0
0
0
0
0
0
0
0
0
0
0
0
0
0
0
0
0
0
0
0
0
0
0
0
0
0
0
0
0
0
0
0
0
0
0
0
0
0
0
0
0
0
0
0
0
0
0
0
0
0
0
0
0
0
0
0
0
0
0
0
0
0
0
0
0
0
0
0
0
0
0
0
0
0
0
0
0
0
0
0
0
0
0
0
0
0
0
0
0
0
0
0
0
0
0
0
0
0
0
0
0
0
0
0
0
157
163
200
208
208
209
210
210
210
209
209
209
209
210
210
210
210
210
209
209
208
208
218
221
220
223
222
222
223
214
208
209
209
208
210
210
210
166
166
161
158
158
156
233
254
254
255
253
254
255
255
254
253
253
254
254
255
255
255
254
255
255
255
255
255
254
254
255
255
255
255
254
254
254
255
255
255
255
254
254
254
255
255
254
254
254
0
0
0
0
0
0
0
0
0
0
0
0
0
0
0
0
0
0
0
0
0
0
0
0
0
0
0
0
0
0
0
0
0
0
0
0
0
0
0
0
0
0
0
0
0
0
0
0
0
0
0
0
0
0
0
0
0
0
0
0
0
0
0
0
0
0
0
0
0
0
0
0
0
0
0
0
0
0
0
0
0
0
0
0
0
0
0
0
0
0
0
0
0
0
0
0
0
0
0
0
0
0
0
0
0
0
0
0
0
0
0
0
0
0
0
0
0
0
0
0
0
0
0
0
0
0
0
0
0
0
0
0
0
0
0
0
0
0
0
0
0
0
0
0
0
0
0
0
0
0
0
0
0
0
0
0
0
0
0
0
0
0
0
0
0
0
0
0
0
0
0
0
0
0
0
0
0
0
0
0
0
0
0
0
0
0
0
0
0
0
0
0
0
0
0
0
0
0
0
0
0
0
0
0
0
0
0
0
0
0
0
0
0
0
0
0
0
0
0
0
0
0
0
0
0
0
0
0
0
0
0
0
0
0
0
0
0
0
0
0
0
0
0
0
0
0
0
0
0
0
0
0
0
0
0
0
0
0
0
0
0
0
0
0
0
0
0
0
0
0
0
0
0
0
0
0
0
0
0
0
0
0
0
0
0
0
0
0
0
0
0
0
0
0
0
0
0
0
0
0
0
0
0
0
0
0
0
0
0
0
0
0
0
0
0
0
0
0
0
0
0
0
0
0
0
0
0
0
0
0
0
0
0
0
0
0
0
0
0
0
0
0
0
0
0
0
0
0
0
0
0
0
0
0
0
0
0
0
0
0
0
0
0
0
0
0
0
0
0
0
0
0
0
0
0
0
0
0
0
0
0
0
0
0
0
0
0
0
0
0
0
0
0
0
0
0
0
0
0
0
0
0
0
0
0
0
0
0
0
0
0
0
0
0
0
0
0
0
0
0
0
0
0
0
0
0
0
0
0
0
0
0
0
0
0
0
0
0
0
0
0
0
0
0
0
0
0
0
0
0
0
0
0
0
0
0
0
0
0
0
0
0
0
0
0
0
0
0
0
0
0
0
0
0
0
0
0
0
0
0
0
0
0
0
157
158
157
197
208
207
210
210
209
209
209
209
209
210
210
210
209
210
210
210
210
211
215
221
220
222
221
222
222
218
209
209
212
210
210
211
209
201
158
158
159
158
156
212
250
253
255
255
254
255
255
254
254
255
254
254
254
255
255
255
254
255
255
255
255
254
254
254
255
255
255
255
254
254
254
255
254
255
255
254
254
254
255
255
254
254
254
0
0
0
0
0
0
0
0
0
0
0
0
0
0
0
0
0
0
0
0
0
0
0
0
0
0
0
0
0
0
0
0
0
0
0
0
0
0
0
0
0
0
0
0
0
0
0
0
0
0
0
0
0
0
0
0
0
0
0
0
0
0
0
0
0
0
0
0
0
0
0
0
0
0
0
0
0
0
0
0
0
0
0
0
0
0
0
0
0
0
0
0
0
0
0
0
0
0
0
0
0
0
0
0
0
0
0
0
0
0
0
0
0
0
0
0
0
0
0
0
0
0
0
0
0
0
0
0
0
0
0
0
0
0
0
0
0
0
0
0
0
0
0
0
0
0
0
0
0
0
0
0
0
0
0
0
0
0
0
0
0
0
0
0
0
0
0
0
0
0
0
0
0
0
0
0
0
0
0
0
0
0
0
0
0
0
0
0
0
0
0
0
0
0
0
0
0
0
0
0
0
0
0
0
0
0
0
0
0
0
0
0
0
0
0
0
0
0
0
0
0
0
0
0
0
0
0
0
0
0
0
0
0
0
0
0
0
0
0
0
0
0
0
0
0
0
0
0
0
0
0
0
0
0
0
0
0
0
0
0
0
0
0
0
0
0
0
0
0
0
0
0
0
0
0
0
0
0
0
0
0
0
0
0
0
0
0
0
0
0
0
0
0
0
0
0
0
0
0
0
0
0
0
0
0
0
0
0
0
0
0
0
0
0
0
0
0
0
0
0
0
0
0
0
0
0
0
0
0
0
0
0
0
0
0
0
0
0
0
0
0
0
0
0
0
0
0
0
0
0
0
0
0
0
0
0
0
0
0
0
0
0
0
0
0
0
0
0
0
0
0
0
0
0
0
0
0
0
0
0
0
0
0
0
0
0
0
0
0
0
0
0
0
0
0
0
0
0
0
0
0
0
0
0
0
0
0
0
0
0
0
0
0
0
0
0
0
0
0
0
0
0
0
0
0
0
0
0
0
0
0
0
0
0
0
0
0
0
0
0
0
0
0
0
0
0
0
0
0
0
0
0
0
0
0
0
0
0
0
0
0
0
0
0
0
0
0
0
0
0
0
0
0
0
0
0
0
0
0
0
0
0
0
159
160
160
157
194
207
207
210
209
209
209
209
209
210
210
210
210
209
209
209
210
209
220
220
222
224
224
222
223
220
209
211
210
210
211
208
208
206
160
160
160
158
154
154
247
254
255
255
254
252
252
254
255
255
255
254
254
254
255
255
255
254
255
255
255
255
254
254
254
255
255
255
255
254
254
254
254
254
255
255
254
254
254
255
255
255
254
254
0
0
0
0
0
0
0
0
0
0
0
0
0
0
0
0
0
0
0
0
0
0
0
0
0
0
0
0
0
0
0
0
0
0
0
0
0
0
0
0
0
0
0
0
0
0
0
0
0
0
0
0
0
0
0
0
0
0
0
0
0
0
0
0
0
0
0
0
0
0
0
0
0
0
0
0
0
0
0
0
0
0
0
0
0
0
0
0
0
0
0
0
0
0
0
0
0
0
0
0
0
0
0
0
0
0
0
0
0
0
0
0
0
0
0
0
0
0
0
0
0
0
0
0
0
0
0
0
0
0
0
0
0
0
0
0
0
0
0
0
0
0
0
0
0
0
0
0
0
0
0
0
0
0
0
0
0
0
0
0
0
0
0
0
0
0
0
0
0
0
0
0
0
0
0
0
0
0
0
0
0
0
0
0
0
0
0
0
0
0
0
0
0
0
0
0
0
0
0
0
0
0
0
0
0
0
0
0
0
0
0
0
0
0
0
0
0
0
0
0
0
0
0
0
0
0
0
0
0
0
0
0
0
0
0
0
0
0
0
0
0
0
0
0
0
0
0
0
0
0
0
0
0
0
0
0
0
0
0
0
0
0
0
0
0
0
0
0
0
0
0
0
0
0
0
0
0
0
0
0
0
0
0
0
0
0
0
0
0
0
0
0
0
0
0
0
0
0
0
0
0
0
0
0
0
0
0
0
0
0
0
0
0
0
0
0
0
0
0
0
0
0
0
0
0
0
0
0
0
0
0
0
0
0
0
0
0
0
0
0
0
0
0
0
0
0
0
0
0
0
0
0
0
0
0
0
0
0
0
0
0
0
0
0
0
0
0
0
0
0
0
0
0
0
0
0
0
0
0
0
0
0
0
0
0
0
0
0
0
0
0
0
0
0
0
0
0
0
0
0
0
0
0
0
0
0
0
0
0
0
0
0
0
0
0
0
0
0
0
0
0
0
0
0
0
0
0
0
0
0
0
0
0
0
0
0
0
0
0
0
0
0
0
0
0
0
0
0
0
0
0
0
0
0
0
0
0
0
0
0
0
0
0
0
0
0
0
0
0
0
0
0
0
0
0
0
0
0
0
0
0
0
158
158
161
159
159
197
208
208
210
209
209
209
209
210
210
210
210
209
210
211
211
209
216
222
221
222
223
220
223
220
211
209
209
209
213
208
208
205
158
158
158
160
156
182
239
253
253
255
255
254
254
254
255
255
255
255
254
254
254
255
255
255
255
254
255
255
255
254
255
254
255
255
255
254
255
255
254
254
254
255
255
254
254
254
255
254
254
254
254
0
0
0
0
0
0
0
0
0
0
0
0
0
0
0
0
0
0
0
0
0
0
0
0
0
0
0
0
0
0
0
0
0
0
0
0
0
0
0
0
0
0
0
0
0
0
0
0
0
0
0
0
0
0
0
0
0
0
0
0
0
0
0
0
0
0
0
0
0
0
0
0
0
0
0
0
0
0
0
0
0
0
0
0
0
0
0
0
0
0
0
0
0
0
0
0
0
0
0
0
0
0
0
0
0
0
0
0
0
0
0
0
0
0
0
0
0
0
0
0
0
0
0
0
0
0
0
0
0
0
0
0
0
0
0
0
0
0
0
0
0
0
0
0
0
0
0
0
0
0
0
0
0
0
0
0
0
0
0
0
0
0
0
0
0
0
0
0
0
0
0
0
0
0
0
0
0
0
0
0
0
0
0
0
0
0
0
0
0
0
0
0
0
0
0
0
0
0
0
0
0
0
0
0
0
0
0
0
0
0
0
0
0
0
0
0
0
0
0
0
0
0
0
0
0
0
0
0
0
0
0
0
0
0
0
0
0
0
0
0
0
0
0
0
0
0
0
0
0
0
0
0
0
0
0
0
0
0
0
0
0
0
0
0
0
0
0
0
0
0
0
0
0
0
0
0
0
0
0
0
0
0
0
0
0
0
0
0
0
0
0
0
0
0
0
0
0
0
0
0
0
0
0
0
0
0
0
0
0
0
0
0
0
0
0
0
0
0
0
0
0
0
0
0
0
0
0
0
0
0
0
0
0
0
0
0
0
0
0
0
0
0
0
0
0
0
0
0
0
0
0
0
0
0
0
0
0
0
0
0
0
0
0
0
0
0
0
0
0
0
0
0
0
0
0
0
0
0
0
0
0
0
0
0
0
0
0
0
0
0
0
0
0
0
0
0
0
0
0
0
0
0
0
0
0
0
0
0
0
0
0
0
0
0
0
0
0
0
0
0
0
0
0
0
0
0
0
0
0
0
0
0
0
0
0
0
0
0
0
0
0
0
0
0
0
0
0
0
0
0
0
0
0
0
0
0
0
0
0
0
0
0
0
0
0
0
0
0
0
0
0
0
0
0
0
0
0
0
0
0
0
158
159
157
158
158
159
204
208
209
210
209
209
210
210
210
210
210
209
209
210
208
208
213
221
221
221
221
221
221
220
208
208
209
212
213
213
212
197
197
159
161
160
158
168
250
250
250
253
255
254
255
254
254
255
255
255
255
254
254
254
255
255
255
254
255
255
255
255
255
255
254
255
255
255
255
255
255
254
254
254
255
255
254
254
254
255
255
254
254
254
0
0
0
0
0
0
0
0
0
0
0
0
0
0
0
0
0
0
0
0
0
0
0
0
0
0
0
0
0
0
0
0
0
0
0
0
0
0
0
0
0
0
0
0
0
0
0
0
0
0
0
0
0
0
0
0
0
0
0
0
0
0
0
0
0
0
0
0
0
0
0
0
0
0
0
0
0
0
0
0
0
0
0
0
0
0
0
0
0
0
0
0
0
0
0
0
0
0
0
0
0
0
0
0
0
0
0
0
0
0
0
0
0
0
0
0
0
0
0
0
0
0
0
0
0
0
0
0
0
0
0
0
0
0
0
0
0
0
0
0
0
0
0
0
0
0
0
0
0
0
0
0
0
0
0
0
0
0
0
0
0
0
0
0
0
0
0
0
0
0
0
0
0
0
0
0
0
0
0
0
0
0
0
0
0
0
0
0
0
0
0
0
0
0
0
0
0
0
0
0
0
0
0
0
0
0
0
0
0
0
0
0
0
0
0
0
0
0
0
0
0
0
0
0
0
0
0
0
0
0
0
0
0
0
0
0
0
0
0
0
0
0
0
0
0
0
0
0
0
0
0
0
0
0
0
0
0
0
0
0
0
0
0
0
0
0
0
0
0
0
0
0
0
0
0
0
0
0
0
0
0
0
0
0
0
0
0
0
0
0
0
0
0
0
0
0
0
0
0
0
0
0
0
0
0
0
0
0
0
0
0
0
0
0
0
0
0
0
0
0
0
0
0
0
0
0
0
0
0
0
0
0
0
0
0
0
0
0
0
0
0
0
0
0
0
0
0
0
0
0
0
0
0
0
0
0
0
0
0
0
0
0
0
0
0
0
0
0
0
0
0
0
0
0
0
0
0
0
0
0
0
0
0
0
0
0
0
0
0
0
0
0
0
0
0
0
0
0
0
0
0
0
0
0
0
0
0
0
0
0
0
0
0
0
0
0
0
0
0
0
0
0
0
0
0
0
0
0
0
0
0
0
0
0
0
0
0
0
0
0
0
0
0
0
0
0
0
0
0
0
0
0
0
0
0
0
0
0
0
0
0
0
0
0
0
0
0
0
0
0
0
0
0
0
0
0
0
0
0
0
157
161
161
157
158
159
160
206
210
210
211
211
210
210
210
210
210
209
209
209
210
206
211
219
221
223
223
222
221
220
215
211
208
210
206
209
206
210
162
160
157
160
152
164
226
252
251
254
252
255
255
255
254
254
255
255
255
255
254
254
255
255
255
255
254
255
255
255
255
254
254
254
255
255
255
255
255
255
254
254
254
255
255
254
254
254
255
255
254
254
254
0
0
0
0
0
0
0
0
0
0
0
0
0
0
0
0
0
0
0
0
0
0
0
0
0
0
0
0
0
0
0
0
0
0
0
0
0
0
0
0
0
0
0
0
0
0
0
0
0
0
0
0
0
0
0
0
0
0
0
0
0
0
0
0
0
0
0
0
0
0
0
0
0
0
0
0
0
0
0
0
0
0
0
0
0
0
0
0
0
0
0
0
0
0
0
0
0
0
0
0
0
0
0
0
0
0
0
0
0
0
0
0
0
0
0
0
0
0
0
0
0
0
0
0
0
0
0
0
0
0
0
0
0
0
0
0
0
0
0
0
0
0
0
0
0
0
0
0
0
0
0
0
0
0
0
0
0
0
0
0
0
0
0
0
0
0
0
0
0
0
0
0
0
0
0
0
0
0
0
0
0
0
0
0
0
0
0
0
0
0
0
0
0
0
0
0
0
0
0
0
0
0
0
0
0
0
0
0
0
0
0
0
0
0
0
0
0
0
0
0
0
0
0
0
0
0
0
0
0
0
0
0
0
0
0
0
0
0
0
0
0
0
0
0
0
0
0
0
0
0
0
0
0
0
0
0
0
0
0
0
0
0
0
0
0
0
0
0
0
0
0
0
0
0
0
0
0
0
0
0
0
0
0
0
0
0
0
0
0
0
0
0
0
0
0
0
0
0
0
0
0
0
0
0
0
0
0
0
0
0
0
0
0
0
0
0
0
0
0
0
0
0
0
0
0
0
0
0
0
0
0
0
0
0
0
0
0
0
0
0
0
0
0
0
0
0
0
0
0
0
0
0
0
0
0
0
0
0
0
0
0
0
0
0
0
0
0
0
0
0
0
0
0
0
0
0
0
0
0
0
0
0
0
0
0
0
0
0
0
0
0
0
0
0
0
0
0
0
0
0
0
0
0
0
0
0
0
0
0
0
0
0
0
0
0
0
0
0
0
0
0
0
0
0
0
0
0
0
0
0
0
0
0
0
0
0
0
0
0
0
0
0
0
0
0
0
0
0
0
0
0
0
0
0
0
0
0
0
0
0
0
0
0
0
0
0
0
0
0
0
0
0
0
0
0
0
0
0
0
155
154
161
159
156
159
160
183
208
210
209
209
210
210
210
210
210
209
210
209
210
207
211
217
221
224
223
221
223
220
216
206
208
208
209
212
206
209
163
160
159
161
157
164
213
251
251
251
255
255
255
255
254
254
254
255
255
255
255
255
255
254
255
255
255
255
255
255
255
255
254
254
255
255
255
255
254
255
255
254
254
254
255
254
254
254
255
255
255
254
254
254
0
0
0
0
0
0
0
0
0
0
0
0
0
0
0
0
0
0
0
0
0
0
0
0
0
0
0
0
0
0
0
0
0
0
0
0
0
0
0
0
0
0
0
0
0
0
0
0
0
0
0
0
0
0
0
0
0
0
0
0
0
0
0
0
0
0
0
0
0
0
0
0
0
0
0
0
0
0
0
0
0
0
0
0
0
0
0
0
0
0
0
0
0
0
0
0
0
0
0
0
0
0
0
0
0
0
0
0
0
0
0
0
0
0
0
0
0
0
0
0
0
0
0
0
0
0
0
0
0
0
0
0
0
0
0
0
0
0
0
0
0
0
0
0
0
0
0
0
0
0
0
0
0
0
0
0
0
0
0
0
0
0
0
0
0
0
0
0
0
0
0
0
0
0
0
0
0
0
0
0
0
0
0
0
0
0
0
0
0
0
0
0
0
0
0
0
0
0
0
0
0
0
0
0
0
0
0
0
0
0
0
0
0
0
0
0
0
0
0
0
0
0
0
0
0
0
0
0
0
0
0
0
0
0
0
0
0
0
0
0
0
0
0
0
0
0
0
0
0
0
0
0
0
0
0
0
0
0
0
0
0
0
0
0
0
0
0
0
0
0
0
0
0
0
0
0
0
0
0
0
0
0
0
0
0
0
0
0
0
0
0
0
0
0
0
0
0
0
0
0
0
0
0
0
0
0
0
0
0
0
0
0
0
0
0
0
0
0
0
0
0
0
0
0
0
0
0
0
0
0
0
0
0
0
0
0
0
0
0
0
0
0
0
0
0
0
0
0
0
0
0
0
0
0
0
0
0
0
0
0
0
0
0
0
0
0
0
0
0
0
0
0
0
0
0
0
0
0
0
0
0
0
0
0
0
0
0
0
0
0
0
0
0
0
0
0
0
0
0
0
0
0
0
0
0
0
0
0
0
0
0
0
0
0
0
0
0
0
0
0
0
0
0
0
0
0
0
0
0
0
0
0
0
0
0
0
0
0
0
0
0
0
0
0
0
0
0
0
0
0
0
0
0
0
0
0
0
0
0
0
0
0
0
0
0
0
0
0
0
0
0
0
0
0
0
0
0
0
220
153
152
159
159
156
160
158
197
209
209
209
209
210
210
210
210
209
209
209
210
210
212
219
221
222
224
221
221
222
211
211
209
209
208
209
209
202
202
159
161
157
160
163
242
242
255
255
255
255
255
255
255
254
254
254
255
255
255
255
254
254
254
255
255
255
254
255
255
255
255
255
255
255
255
255
255
255
255
255
254
255
255
255
254
255
255
255
255
255
254
254
254
0
0
0
0
0
0
0
0
0
0
0
0
0
0
0
0
0
0
0
0
0
0
0
0
0
0
0
0
0
0
0
0
0
0
0
0
0
0
0
0
0
0
0
0
0
0
0
0
0
0
0
0
0
0
0
0
0
0
0
0
0
0
0
0
0
0
0
0
0
0
0
0
0
0
0
0
0
0
0
0
0
0
0
0
0
0
0
0
0
0
0
0
0
0
0
0
0
0
0
0
0
0
0
0
0
0
0
0
0
0
0
0
0
0
0
0
0
0
0
0
0
0
0
0
0
0
0
0
0
0
0
0
0
0
0
0
0
0
0
0
0
0
0
0
0
0
0
0
0
0
0
0
0
0
0
0
0
0
0
0
0
0
0
0
0
0
0
0
0
0
0
0
0
0
0
0
0
0
0
0
0
0
0
0
0
0
0
0
0
0
0
0
0
0
0
0
0
0
0
0
0
0
0
0
0
0
0
0
0
0
0
0
0
0
0
0
0
0
0
0
0
0
0
0
0
0
0
0
0
0
0
0
0
0
0
0
0
0
0
0
0
0
0
0
0
0
0
0
0
0
0
0
0
0
0
0
0
0
0
0
0
0
0
0
0
0
0
0
0
0
0
0
0
0
0
0
0
0
0
0
0
0
0
0
0
0
0
0
0
0
0
0
0
0
0
0
0
0
0
0
0
0
0
0
0
0
0
0
0
0
0
0
0
0
0
0
0
0
0
0
0
0
0
0
0
0
0
0
0
0
0
0
0
0
0
0
0
0
0
0
0
0
0
0
0
0
0
0
0
0
0
0
0
0
0
0
0
0
0
0
0
0
0
0
0
0
0
0
0
0
0
0
0
0
0
0
0
0
0
0
0
0
0
0
0
0
0
0
0
0
0
0
0
0
0
0
0
0
0
0
0
0
0
0
0
0
0
0
0
0
0
0
0
0
0
0
0
0
0
0
0
0
0
0
0
0
0
0
0
0
0
0
0
0
0
0
0
0
0
0
0
0
0
0
0
0
0
0
0
0
0
0
0
0
0
0
0
0
0
0
0
0
0
0
0
0
0
0
0
0
0
0
0
0
0
0
0
220
211
159
155
159
159
160
158
164
207
210
209
210
210
210
210
209
209
209
209
209
210
209
221
221
222
223
221
222
221
217
209
209
209
208
208
209
205
168
157
162
157
156
161
210
251
255
255
255
255
255
255
255
255
254
254
254
255
255
255
255
254
255
255
255
255
255
255
255
255
255
255
255
254
254
255
255
255
255
255
255
255
255
255
255
254
255
255
255
255
255
254
254
254
0
0
0
0
0
0
0
0
0
0
0
0
0
0
0
0
0
0
0
0
0
0
0
0
0
0
0
0
0
0
0
0
0
0
0
0
0
0
0
0
0
0
0
0
0
0
0
0
0
0
0
0
0
0
0
0
0
0
0
0
0
0
0
0
0
0
0
0
0
0
0
0
0
0
0
0
0
0
0
0
0
0
0
0
0
0
0
0
0
0
0
0
0
0
0
0
0
0
0
0
0
0
0
0
0
0
0
0
0
0
0
0
0
0
0
0
0
0
0
0
0
0
0
0
0
0
0
0
0
0
0
0
0
0
0
0
0
0
0
0
0
0
0
0
0
0
0
0
0
0
0
0
0
0
0
0
0
0
0
0
0
0
0
0
0
0
0
0
0
0
0
0
0
0
0
0
0
0
0
0
0
0
0
0
0
0
0
0
0
0
0
0
0
0
0
0
0
0
0
0
0
0
0
0
0
0
0
0
0
0
0
0
0
0
0
0
0
0
0
0
0
0
0
0
0
0
0
0
0
0
0
0
0
0
0
0
0
0
0
0
0
0
0
0
0
0
0
0
0
0
0
0
0
0
0
0
0
0
0
0
0
0
0
0
0
0
0
0
0
0
0
0
0
0
0
0
0
0
0
0
0
0
0
0
0
0
0
0
0
0
0
0
0
0
0
0
0
0
0
0
0
0
0
0
0
0
0
0
0
0
0
0
0
0
0
0
0
0
0
0
0
0
0
0
0
0
0
0
0
0
0
0
0
0
0
0
0
0
0
0
0
0
0
0
0
0
0
0
0
0
0
0
0
0
0
0
0
0
0
0
0
0
0
0
0
0
0
0
0
0
0
0
0
0
0
0
0
0
0
0
0
0
0
0
0
0
0
0
0
0
0
0
0
0
0
0
0
0
0
0
0
0
0
0
0
0
0
0
0
0
0
0
0
0
0
0
0
0
0
0
0
0
0
0
0
0
0
0
0
0
0
0
0
0
0
0
0
0
0
0
0
0
0
0
0
0
0
0
0
0
0
0
0
0
0
0
0
0
0
0
0
0
0
0
0
0
0
0
0
0
0
0
0
0
0
0
230
197
197
158
157
159
159
159
185
185
208
209
210
210
210
210
210
209
209
209
209
209
216
216
221
223
223
221
222
221
217
208
210
210
209
208
208
207
168
158
158
157
156
156
212
248
255
255
255
255
255
255
255
255
255
255
254
254
255
255
255
255
255
254
254
255
255
255
254
255
255
255
255
254
254
255
255
255
255
255
254
254
254
254
254
255
254
255
254
255
255
255
254
254
254
0
0
0
0
0
0
0
0
0
0
0
0
0
0
0
0
0
0
0
0
0
0
0
0
0
0
0
0
0
0
0
0
0
0
0
0
0
0
0
0
0
0
0
0
0
0
0
0
0
0
0
0
0
0
0
0
0
0
0
0
0
0
0
0
0
0
0
0
0
0
0
0
0
0
0
0
0
0
0
0
0
0
0
0
0
0
0
0
0
0
0
0
0
0
0
0
0
0
0
0
0
0
0
0
0
0
0
0
0
0
0
0
0
0
0
0
0
0
0
0
0
0
0
0
0
0
0
0
0
0
0
0
0
0
0
0
0
0
0
0
0
0
0
0
0
0
0
0
0
0
0
0
0
0
0
0
0
0
0
0
0
0
0
0
0
0
0
0
0
0
0
0
0
0
0
0
0
0
0
0
0
0
0
0
0
0
0
0
0
0
0
0
0
0
0
0
0
0
0
0
0
0
0
0
0
0
0
0
0
0
0
0
0
0
0
0
0
0
0
0
0
0
0
0
0
0
0
0
0
0
0
0
0
0
0
0
0
0
0
0
0
0
0
0
0
0
0
0
0
0
0
0
0
0
0
0
0
0
0
0
0
0
0
0
0
0
0
0
0
0
0
0
0
0
0
0
0
0
0
0
0
0
0
0
0
0
0
0
0
0
0
0
0
0
0
0
0
0
0
0
0
0
0
0
0
0
0
0
0
0
0
0
0
0
0
0
0
0
0
0
0
0
0
0
0
0
0
0
0
0
0
0
0
0
0
0
0
0
0
0
0
0
0
0
0
0
0
0
0
0
0
0
0
0
0
0
0
0
0
0
0
0
0
0
0
0
0
0
0
0
0
0
0
0
0
0
0
0
0
0
0
0
0
0
0
0
0
0
0
0
0
0
0
0
0
0
0
0
0
0
0
0
0
0
0
0
0
0
0
0
0
0
0
0
0
0
0
0
0
0
0
0
0
0
0
0
0
0
0
0
0
0
0
0
0
0
0
0
0
0
0
0
0
0
0
0
0
0
0
0
0
0
0
0
0
0
0
0
0
0
0
0
0
0
0
0
0
0
0
0
0
0
0
0
0
230
229
176
161
157
158
158
159
161
203
208
211
209
210
210
210
209
209
209
209
209
208
211
221
223
221
222
222
222
221
210
207
208
208
208
205
209
208
158
158
161
159
157
161
220
232
254
255
255
255
255
255
255
255
255
254
254
254
254
255
255
255
255
254
254
255
255
254
254
254
255
255
255
255
255
255
255
255
255
255
255
254
254
254
254
254
255
254
254
255
255
255
255
254
254
254
0
0
0
0
0
0
0
0
0
0
0
0
0
0
0
0
0
0
0
0
0
0
0
0
0
0
0
0
0
0
0
0
0
0
0
0
0
0
0
0
0
0
0
0
0
0
0
0
0
0
0
0
0
0
0
0
0
0
0
0
0
0
0
0
0
0
0
0
0
0
0
0
0
0
0
0
0
0
0
0
0
0
0
0
0
0
0
0
0
0
0
0
0
0
0
0
0
0
0
0
0
0
0
0
0
0
0
0
0
0
0
0
0
0
0
0
0
0
0
0
0
0
0
0
0
0
0
0
0
0
0
0
0
0
0
0
0
0
0
0
0
0
0
0
0
0
0
0
0
0
0
0
0
0
0
0
0
0
0
0
0
0
0
0
0
0
0
0
0
0
0
0
0
0
0
0
0
0
0
0
0
0
0
0
0
0
0
0
0
0
0
0
0
0
0
0
0
0
0
0
0
0
0
0
0
0
0
0
0
0
0
0
0
0
0
0
0
0
0
0
0
0
0
0
0
0
0
0
0
0
0
0
0
0
0
0
0
0
0
0
0
0
0
0
0
0
0
0
0
0
0
0
0
0
0
0
0
0
0
0
0
0
0
0
0
0
0
0
0
0
0
0
0
0
0
0
0
0
0
0
0
0
0
0
0
0
0
0
0
0
0
0
0
0
0
0
0
0
0
0
0
0
0
0
0
0
0
0
0
0
0
0
0
0
0
0
0
0
0
0
0
0
0
0
0
0
0
0
0
0
0
0
0
0
0
0
0
0
0
0
0
0
0
0
0
0
0
0
0
0
0
0
0
0
0
0
0
0
0
0
0
0
0
0
0
0
0
0
0
0
0
0
0
0
0
0
0
0
0
0
0
0
0
0
0
0
0
0
0
0
0
0
0
0
0
0
0
0
0
0
0
0
0
0
0
0
0
0
0
0
0
0
0
0
0
0
0
0
0
0
0
0
0
0
0
0
0
0
0
0
0
0
0
0
0
0
0
0
0
0
0
0
0
0
0
0
0
0
0
0
0
0
0
0
0
0
0
0
0
0
0
0
0
0
0
0
0
0
0
0
0
0
0
0
230
229
222
156
156
159
159
159
160
182
208
207
208
210
210
210
210
209
209
209
209
209
210
221
223
221
223
222
222
221
211
207
210
210
208
209
208
198
198
159
158
159
158
164
220
226
251
254
255
254
255
255
255
255
255
254
255
255
254
255
255
255
255
255
255
255
255
254
254
254
254
255
255
255
255
255
254
255
255
255
255
254
254
254
254
254
255
255
255
255
255
254
255
254
254
254
254
0
0
0
0
0
0
0
0
0
0
0
0
0
0
0
0
0
0
0
0
0
0
0
0
0
0
0
0
0
0
0
0
0
0
0
0
0
0
0
0
0
0
0
0
0
0
0
0
0
0
0
0
0
0
0
0
0
0
0
0
0
0
0
0
0
0
0
0
0
0
0
0
0
0
0
0
0
0
0
0
0
0
0
0
0
0
0
0
0
0
0
0
0
0
0
0
0
0
0
0
0
0
0
0
0
0
0
0
0
0
0
0
0
0
0
0
0
0
0
0
0
0
0
0
0
0
0
0
0
0
0
0
0
0
0
0
0
0
0
0
0
0
0
0
0
0
0
0
0
0
0
0
0
0
0
0
0
0
0
0
0
0
0
0
0
0
0
0
0
0
0
0
0
0
0
0
0
0
0
0
0
0
0
0
0
0
0
0
0
0
0
0
0
0
0
0
0
0
0
0
0
0
0
0
0
0
0
0
0
0
0
0
0
0
0
0
0
0
0
0
0
0
0
0
0
0
0
0
0
0
0
0
0
0
0
0
0
0
0
0
0
0
0
0
0
0
0
0
0
0
0
0
0
0
0
0
0
0
0
0
0
0
0
0
0
0
0
0
0
0
0
0
0
0
0
0
0
0
0
0
0
0
0
0
0
0
0
0
0
0
0
0
0
0
0
0
0
0
0
0
0
0
0
0
0
0
0
0
0
0
0
0
0
0
0
0
0
0
0
0
0
0
0
0
0
0
0
0
0
0
0
0
0
0
0
0
0
0
0
0
0
0
0
0
0
0
0
0
0
0
0
0
0
0
0
0
0
0
0
0
0
0
0
0
0
0
0
0
0
0
0
0
0
0
0
0
0
0
0
0
0
0
0
0
0
0
0
0
0
0
0
0
0
0
0
0
0
0
0
0
0
0
0
0
0
0
0
0
0
0
0
0
0
0
0
0
0
0
0
0
0
0
0
0
0
0
0
0
0
0
0
0
0
0
0
0
0
0
0
0
0
0
0
0
0
0
0
0
0
0
0
0
0
0
0
0
0
0
0
0
0
0
0
0
0
0
0
0
0
0
0
0
0
230
230
232
193
157
159
160
157
160
160
204
210
209
212
209
210
210
210
209
209
210
210
213
218
222
220
220
223
221
221
217
209
209
209
207
210
210
207
158
155
161
159
154
154
229
242
254
252
253
255
255
255
255
255
255
255
255
255
255
255
255
255
255
255
255
255
255
255
254
254
255
254
255
255
255
255
255
254
254
254
254
254
254
254
254
254
255
255
255
255
254
254
254
254
255
254
254
254
0
0
0
0
0
0
0
0
0
0
0
0
0
0
0
0
0
0
0
0
0
0
0
0
0
0
0
0
0
0
0
0
0
0
0
0
0
0
0
0
0
0
0
0
0
0
0
0
0
0
0
0
0
0
0
0
0
0
0
0
0
0
0
0
0
0
0
0
0
0
0
0
0
0
0
0
0
0
0
0
0
0
0
0
0
0
0
0
0
0
0
0
0
0
0
0
0
0
0
0
0
0
0
0
0
0
0
0
0
0
0
0
0
0
0
0
0
0
0
0
0
0
0
0
0
0
0
0
0
0
0
0
0
0
0
0
0
0
0
0
0
0
0
0
0
0
0
0
0
0
0
0
0
0
0
0
0
0
0
0
0
0
0
0
0
0
0
0
0
0
0
0
0
0
0
0
0
0
0
0
0
0
0
0
0
0
0
0
0
0
0
0
0
0
0
0
0
0
0
0
0
0
0
0
0
0
0
0
0
0
0
0
0
0
0
0
0
0
0
0
0
0
0
0
0
0
0
0
0
0
0
0
0
0
0
0
0
0
0
0
0
0
0
0
0
0
0
0
0
0
0
0
0
0
0
0
0
0
0
0
0
0
0
0
0
0
0
0
0
0
0
0
0
0
0
0
0
0
0
0
0
0
0
0
0
0
0
0
0
0
0
0
0
0
0
0
0
0
0
0
0
0
0
0
0
0
0
0
0
0
0
0
0
0
0
0
0
0
0
0
0
0
0
0
0
0
0
0
0
0
0
0
0
0
0
0
0
0
0
0
0
0
0
0
0
0
0
0
0
0
0
0
0
0
0
0
0
0
0
0
0
0
0
0
0
0
0
0
0
0
0
0
0
0
0
0
0
0
0
0
0
0
0
0
0
0
0
0
0
0
0
0
0
0
0
0
0
0
0
0
0
0
0
0
0
0
0
0
0
0
0
0
0
0
0
0
0
0
0
0
0
0
0
0
0
0
0
0
0
0
0
0
0
0
0
0
0
0
0
0
0
0
0
0
0
0
0
0
0
0
0
0
0
0
0
0
0
0
0
0
0
0
0
0
0
0
0
0
0
0
0
0
255
232
232
220
153
159
158
159
157
172
196
207
209
210
208
209
210
209
209
209
209
209
213
219
223
222
223
224
222
221
215
209
209
208
211
211
210
202
160
155
159
159
160
176
226
238
254
248
255
255
255
255
255
255
255
255
255
255
255
255
255
254
255
255
255
255
255
255
254
255
255
255
255
255
255
255
255
254
254
254
254
254
254
254
254
254
254
255
255
255
254
254
254
254
255
255
254
254
254
0
0
0
0
0
0
0
0
0
0
0
0
0
0
0
0
0
0
0
0
0
0
0
0
0
0
0
0
0
0
0
0
0
0
0
0
0
0
0
0
0
0
0
0
0
0
0
0
0
0
0
0
0
0
0
0
0
0
0
0
0
0
0
0
0
0
0
0
0
0
0
0
0
0
0
0
0
0
0
0
0
0
0
0
0
0
0
0
0
0
0
0
0
0
0
0
0
0
0
0
0
0
0
0
0
0
0
0
0
0
0
0
0
0
0
0
0
0
0
0
0
0
0
0
0
0
0
0
0
0
0
0
0
0
0
0
0
0
0
0
0
0
0
0
0
0
0
0
0
0
0
0
0
0
0
0
0
0
0
0
0
0
0
0
0
0
0
0
0
0
0
0
0
0
0
0
0
0
0
0
0
0
0
0
0
0
0
0
0
0
0
0
0
0
0
0
0
0
0
0
0
0
0
0
0
0
0
0
0
0
0
0
0
0
0
0
0
0
0
0
0
0
0
0
0
0
0
0
0
0
0
0
0
0
0
0
0
0
0
0
0
0
0
0
0
0
0
0
0
0
0
0
0
0
0
0
0
0
0
0
0
0
0
0
0
0
0
0
0
0
0
0
0
0
0
0
0
0
0
0
0
0
0
0
0
0
0
0
0
0
0
0
0
0
0
0
0
0
0
0
0
0
0
0
0
0
0
0
0
0
0
0
0
0
0
0
0
0
0
0
0
0
0
0
0
0
0
0
0
0
0
0
0
0
0
0
0
0
0
0
0
0
0
0
0
0
0
0
0
0
0
0
0
0
0
0
0
0
0
0
0
0
0
0
0
0
0
0
0
0
0
0
0
0
0
0
0
0
0
0
0
0
0
0
0
0
0
0
0
0
0
0
0
0
0
0
0
0
0
0
0
0
0
0
0
0
0
0
0
0
0
0
0
0
0
0
0
0
0
0
0
0
0
0
0
0
0
0
0
0
0
0
0
0
0
0
0
0
0
0
0
0
0
0
0
0
0
0
0
0
0
0
0
0
0
0
0
0
0
0
0
0
0
0
0
0
0
0
0
0
0
253
254
234
188
188
158
159
159
160
164
206
206
210
211
211
213
209
210
210
209
208
208
214
222
222
222
222
221
221
222
212
212
210
211
209
209
209
180
180
157
158
158
154
196
227
227
254
254
254
252
255
255
255
255
255
255
255
255
255
255
255
254
254
255
255
255
254
254
254
254
255
255
255
255
255
255
255
255
254
254
254
255
255
255
255
254
254
254
255
255
254
254
254
254
254
255
255
254
254
254
0
0
0
0
0
0
0
0
0
0
0
0
0
0
0
0
0
0
0
0
0
0
0
0
0
0
0
0
0
0
0
0
0
0
0
0
0
0
0
0
0
0
0
0
0
0
0
0
0
0
0
0
0
0
0
0
0
0
0
0
0
0
0
0
0
0
0
0
0
0
0
0
0
0
0
0
0
0
0
0
0
0
0
0
0
0
0
0
0
0
0
0
0
0
0
0
0
0
0
0
0
0
0
0
0
0
0
0
0
0
0
0
0
0
0
0
0
0
0
0
0
0
0
0
0
0
0
0
0
0
0
0
0
0
0
0
0
0
0
0
0
0
0
0
0
0
0
0
0
0
0
0
0
0
0
0
0
0
0
0
0
0
0
0
0
0
0
0
0
0
0
0
0
0
0
0
0
0
0
0
0
0
0
0
0
0
0
0
0
0
0
0
0
0
0
0
0
0
0
0
0
0
0
0
0
0
0
0
0
0
0
0
0
0
0
0
0
0
0
0
0
0
0
0
0
0
0
0
0
0
0
0
0
0
0
0
0
0
0
0
0
0
0
0
0
0
0
0
0
0
0
0
0
0
0
0
0
0
0
0
0
0
0
0
0
0
0
0
0
0
0
0
0
0
0
0
0
0
0
0
0
0
0
0
0
0
0
0
0
0
0
0
0
0
0
0
0
0
0
0
0
0
0
0
0
0
0
0
0
0
0
0
0
0
0
0
0
0
0
0
0
0
0
0
0
0
0
0
0
0
0
0
0
0
0
0
0
0
0
0
0
0
0
0
0
0
0
0
0
0
0
0
0
0
0
0
0
0
0
0
0
0
0
0
0
0
0
0
0
0
0
0
0
0
0
0
0
0
0
0
0
0
0
0
0
0
0
0
0
0
0
0
0
0
0
0
0
0
0
0
0
0
0
0
0
0
0
0
0
0
0
0
0
0
0
0
0
0
0
0
0
0
0
0
0
0
0
0
0
0
0
0
0
0
0
0
0
0
0
0
0
0
0
0
0
0
0
0
0
0
0
0
0
0
0
0
0
0
0
0
0
0
0
0
0
0
0
0
0
0
253
255
251
223
156
155
160
158
157
160
191
208
210
209
206
212
209
208
210
211
209
210
216
219
222
221
222
221
221
221
214
210
208
210
208
209
208
199
157
159
159
157
155
213
225
242
253
252
254
255
254
254
255
255
255
255
255
255
255
255
255
255
254
254
255
255
255
254
254
254
254
255
255
255
254
255
255
255
255
255
255
255
255
255
254
254
254
254
254
255
255
254
254
254
254
255
254
254
254
254
254
0
0
0
0
0
0
0
0
0
0
0
0
0
0
0
0
0
0
0
0
0
0
0
0
0
0
0
0
0
0
0
0
0
0
0
0
0
0
0
0
0
0
0
0
0
0
0
0
0
0
0
0
0
0
0
0
0
0
0
0
0
0
0
0
0
0
0
0
0
0
0
0
0
0
0
0
0
0
0
0
0
0
0
0
0
0
0
0
0
0
0
0
0
0
0
0
0
0
0
0
0
0
0
0
0
0
0
0
0
0
0
0
0
0
0
0
0
0
0
0
0
0
0
0
0
0
0
0
0
0
0
0
0
0
0
0
0
0
0
0
0
0
0
0
0
0
0
0
0
0
0
0
0
0
0
0
0
0
0
0
0
0
0
0
0
0
0
0
0
0
0
0
0
0
0
0
0
0
0
0
0
0
0
0
0
0
0
0
0
0
0
0
0
0
0
0
0
0
0
0
0
0
0
0
0
0
0
0
0
0
0
0
0
0
0
0
0
0
0
0
0
0
0
0
0
0
0
0
0
0
0
0
0
0
0
0
0
0
0
0
0
0
0
0
0
0
0
0
0
0
0
0
0
0
0
0
0
0
0
0
0
0
0
0
0
0
0
0
0
0
0
0
0
0
0
0
0
0
0
0
0
0
0
0
0
0
0
0
0
0
0
0
0
0
0
0
0
0
0
0
0
0
0
0
0
0
0
0
0
0
0
0
0
0
0
0
0
0
0
0
0
0
0
0
0
0
0
0
0
0
0
0
0
0
0
0
0
0
0
0
0
0
0
0
0
0
0
0
0
0
0
0
0
0
0
0
0
0
0
0
0
0
0
0
0
0
0
0
0
0
0
0
0
0
0
0
0
0
0
0
0
0
0
0
0
0
0
0
0
0
0
0
0
0
0
0
0
0
0
0
0
0
0
0
0
0
0
0
0
0
0
0
0
0
0
0
0
0
0
0
0
0
0
0
0
0
0
0
0
0
0
0
0
0
0
0
0
0
0
0
0
0
0
0
0
0
0
0
0
0
0
0
0
0
0
0
0
0
0
0
0
0
0
0
0
0
0
0
0
253
254
254
245
159
155
161
159
156
156
183
207
210
207
209
210
210
208
209
211
208
213
216
221
223
223
223
223
221
221
214
210
210
210
210
210
208
193
159
159
161
159
166
166
232
239
253
252
252
255
255
255
255
255
254
255
255
255
255
255
255
255
255
254
255
255
255
255
254
254
254
254
255
255
255
255
255
255
255
255
255
255
255
255
255
254
254
254
254
254
255
255
255
254
254
254
254
254
254
254
254
254
0
0
0
0
0
0
0
0
0
0
0
0
0
0
0
0
0
0
0
0
0
0
0
0
0
0
0
0
0
0
0
0
0
0
0
0
0
0
0
0
0
0
0
0
0
0
0
0
0
0
0
0
0
0
0
0
0
0
0
0
0
0
0
0
0
0
0
0
0
0
0
0
0
0
0
0
0
0
0
0
0
0
0
0
0
0
0
0
0
0
0
0
0
0
0
0
0
0
0
0
0
0
0
0
0
0
0
0
0
0
0
0
0
0
0
0
0
0
0
0
0
0
0
0
0
0
0
0
0
0
0
0
0
0
0
0
0
0
0
0
0
0
0
0
0
0
0
0
0
0
0
0
0
0
0
0
0
0
0
0
0
0
0
0
0
0
0
0
0
0
0
0
0
0
0
0
0
0
0
0
0
0
0
0
0
0
0
0
0
0
0
0
0
0
0
0
0
0
0
0
0
0
0
0
0
0
0
0
0
0
0
0
0
0
0
0
0
0
0
0
0
0
0
0
0
0
0
0
0
0
0
0
0
0
0
0
0
0
0
0
0
0
0
0
0
0
0
0
0
0
0
0
0
0
0
0
0
0
0
0
0
0
0
0
0
0
0
0
0
0
0
0
0
0
0
0
0
0
0
0
0
0
0
0
0
0
0
0
0
0
0
0
0
0
0
0
0
0
0
0
0
0
0
0
0
0
0
0
0
0
0
0
0
0
0
0
0
0
0
0
0
0
0
0
0
0
0
0
0
0
0
0
0
0
0
0
0
0
0
0
0
0
0
0
0
0
0
0
0
0
0
0
0
0
0
0
0
0
0
0
0
0
0
0
0
0
0
0
0
0
0
0
0
0
0
0
0
0
0
0
0
0
0
0
0
0
0
0
0
0
0
0
0
0
0
0
0
0
0
0
0
0
0
0
0
0
0
0
0
0
0
0
0
0
0
0
0
0
0
0
0
0
0
0
0
0
0
0
0
0
0
0
0
0
0
0
0
0
0
0
0
0
0
0
0
0
0
0
0
0
0
0
0
0
0
0
0
0
0
0
0
0
0
0
0
0
0
0
255
254
249
248
217
156
159
156
159
163
187
208
210
211
210
210
209
210
210
210
209
209
217
222
221
221
223
221
222
219
208
209
209
210
207
206
208
156
156
158
158
157
157
223
231
226
254
254
255
254
255
254
255
255
255
255
255
255
255
255
255
255
255
255
255
255
255
255
255
254
254
254
254
255
255
255
255
255
255
255
255
255
255
255
255
255
254
254
254
255
255
255
255
255
254
254
254
254
254
255
254
254
254
0
0
0
0
0
0
0
0
0
0
0
0
0
0
0
0
0
0
0
0
0
0
0
0
0
0
0
0
0
0
0
0
0
0
0
0
0
0
0
0
0
0
0
0
0
0
0
0
0
0
0
0
0
0
0
0
0
0
0
0
0
0
0
0
0
0
0
0
0
0
0
0
0
0
0
0
0
0
0
0
0
0
0
0
0
0
0
0
0
0
0
0
0
0
0
0
0
0
0
0
0
0
0
0
0
0
0
0
0
0
0
0
0
0
0
0
0
0
0
0
0
0
0
0
0
0
0
0
0
0
0
0
0
0
0
0
0
0
0
0
0
0
0
0
0
0
0
0
0
0
0
0
0
0
0
0
0
0
0
0
0
0
0
0
0
0
0
0
0
0
0
0
0
0
0
0
0
0
0
0
0
0
0
0
0
0
0
0
0
0
0
0
0
0
0
0
0
0
0
0
0
0
0
0
0
0
0
0
0
0
0
0
0
0
0
0
0
0
0
0
0
0
0
0
0
0
0
0
0
0
0
0
0
0
0
0
0
0
0
0
0
0
0
0
0
0
0
0
0
0
0
0
0
0
0
0
0
0
0
0
0
0
0
0
0
0
0
0
0
0
0
0
0
0
0
0
0
0
0
0
0
0
0
0
0
0
0
0
0
0
0
0
0
0
0
0
0
0
0
0
0
0
0
0
0
0
0
0
0
0
0
0
0
0
0
0
0
0
0
0
0
0
0
0
0
0
0
0
0
0
0
0
0
0
0
0
0
0
0
0
0
0
0
0
0
0
0
0
0
0
0
0
0
0
0
0
0
0
0
0
0
0
0
0
0
0
0
0
0
0
0
0
0
0
0
0
0
0
0
0
0
0
0
0
0
0
0
0
0
0
0
0
0
0
0
0
0
0
0
0
0
0
0
0
0
0
0
0
0
0
0
0
0
0
0
0
0
0
0
0
0
0
0
0
0
0
0
0
0
0
0
0
0
0
0
0
0
0
0
0
0
0
0
0
0
0
0
0
0
0
0
0
0
0
0
0
0
0
0
0
0
0
0
0
0
0
0
255
255
253
248
214
155
162
156
158
162
187
208
208
210
210
209
210
210
210
209
209
213
220
222
221
222
223
221
223
218
209
209
210
210
207
208
204
178
160
159
159
157
155
229
231
230
253
255
255
254
255
254
255
255
254
255
255
255
255
255
255
255
255
255
255
255
255
255
255
255
255
255
254
254
255
255
255
255
255
255
255
255
255
255
255
255
255
255
255
255
255
255
255
255
255
254
254
254
254
255
255
254
254
254
0
0
0
0
0
0
0
0
0
0
0
0
0
0
0
0
0
0
0
0
0
0
0
0
0
0
0
0
0
0
0
0
0
0
0
0
0
0
0
0
0
0
0
0
0
0
0
0
0
0
0
0
0
0
0
0
0
0
0
0
0
0
0
0
0
0
0
0
0
0
0
0
0
0
0
0
0
0
0
0
0
0
0
0
0
0
0
0
0
0
0
0
0
0
0
0
0
0
0
0
0
0
0
0
0
0
0
0
0
0
0
0
0
0
0
0
0
0
0
0
0
0
0
0
0
0
0
0
0
0
0
0
0
0
0
0
0
0
0
0
0
0
0
0
0
0
0
0
0
0
0
0
0
0
0
0
0
0
0
0
0
0
0
0
0
0
0
0
0
0
0
0
0
0
0
0
0
0
0
0
0
0
0
0
0
0
0
0
0
0
0
0
0
0
0
0
0
0
0
0
0
0
0
0
0
0
0
0
0
0
0
0
0
0
0
0
0
0
0
0
0
0
0
0
0
0
0
0
0
0
0
0
0
0
0
0
0
0
0
0
0
0
0
0
0
0
0
0
0
0
0
0
0
0
0
0
0
0
0
0
0
0
0
0
0
0
0
0
0
0
0
0
0
0
0
0
0
0
0
0
0
0
0
0
0
0
0
0
0
0
0
0
0
0
0
0
0
0
0
0
0
0
0
0
0
0
0
0
0
0
0
0
0
0
0
0
0
0
0
0
0
0
0
0
0
0
0
0
0
0
0
0
0
0
0
0
0
0
0
0
0
0
0
0
0
0
0
0
0
0
0
0
0
0
0
0
0
0
0
0
0
0
0
0
0
0
0
0
0
0
0
0
0
0
0
0
0
0
0
0
0
0
0
0
0
0
0
0
0
0
0
0
0
0
0
0
0
0
0
0
0
0
0
0
0
0
0
0
0
0
0
0
0
0
0
0
0
0
0
0
0
0
0
0
0
0
0
0
0
0
0
0
0
0
0
0
0
0
0
0
0
0
0
0
0
0
0
0
0
0
0
0
0
0
0
0
0
0
0
0
0
0
0
0
0
0
254
254
254
248
157
157
161
156
158
158
192
209
210
211
209
210
210
210
210
210
210
216
224
224
222
224
224
221
221
215
210
209
208
208
210
206
206
162
157
161
161
159
212
212
230
245
254
254
254
255
255
255
255
255
254
254
255
255
255
255
255
255
255
255
255
255
255
255
255
255
254
255
255
254
254
255
255
255
255
255
255
255
255
255
255
255
255
255
255
255
255
255
254
255
255
255
255
254
254
254
255
255
254
254
254
0
0
0
0
0
0
0
0
0
0
0
0
0
0
0
0
0
0
0
0
0
0
0
0
0
0
0
0
0
0
0
0
0
0
0
0
0
0
0
0
0
0
0
0
0
0
0
0
0
0
0
0
0
0
0
0
0
0
0
0
0
0
0
0
0
0
0
0
0
0
0
0
0
0
0
0
0
0
0
0
0
0
0
0
0
0
0
0
0
0
0
0
0
0
0
0
0
0
0
0
0
0
0
0
0
0
0
0
0
0
0
0
0
0
0
0
0
0
0
0
0
0
0
0
0
0
0
0
0
0
0
0
0
0
0
0
0
0
0
0
0
0
0
0
0
0
0
0
0
0
0
0
0
0
0
0
0
0
0
0
0
0
0
0
0
0
0
0
0
0
0
0
0
0
0
0
0
0
0
0
0
0
0
0
0
0
0
0
0
0
0
0
0
0
0
0
0
0
0
0
0
0
0
0
0
0
0
0
0
0
0
0
0
0
0
0
0
0
0
0
0
0
0
0
0
0
0
0
0
0
0
0
0
0
0
0
0
0
0
0
0
0
0
0
0
0
0
0
0
0
0
0
0
0
0
0
0
0
0
0
0
0
0
0
0
0
0
0
0
0
0
0
0
0
0
0
0
0
0
0
0
0
0
0
0
0
0
0
0
0
0
0
0
0
0
0
0
0
0
0
0
0
0
0
0
0
0
0
0
0
0
0
0
0
0
0
0
0
0
0
0
0
0
0
0
0
0
0
0
0
0
0
0
0
0
0
0
0
0
0
0
0
0
0
0
0
0
0
0
0
0
0
0
0
0
0
0
0
0
0
0
0
0
0
0
0
0
0
0
0
0
0
0
0
0
0
0
0
0
0
0
0
0
0
0
0
0
0
0
0
0
0
0
0
0
0
0
0
0
0
0
0
0
0
0
0
0
0
0
0
0
0
0
0
0
0
0
0
0
0
0
0
0
0
0
0
0
0
0
0
0
0
0
0
0
0
0
0
0
0
0
0
0
0
0
0
0
0
0
0
0
0
0
0
0
0
0
0
0
0
0
0
0
0
0
255
253
254
244
156
157
158
155
158
166
200
206
210
211
210
209
210
210
211
210
212
220
223
221
221
222
222
221
218
215
209
211
210
210
210
209
187
159
160
161
157
155
170
228
229
248
254
254
254
255
255
255
255
255
255
255
254
255
255
255
255
255
255
255
255
255
255
255
254
255
254
254
255
255
254
254
255
255
255
254
255
255
255
255
255
255
255
255
255
255
255
254
254
254
255
255
255
255
254
255
255
255
255
254
254
254
0
0
0
0
0
0
0
0
0
0
0
0
0
0
0
0
0
0
0
0
0
0
0
0
0
0
0
0
0
0
0
0
0
0
0
0
0
0
0
0
0
0
0
0
0
0
0
0
0
0
0
0
0
0
0
0
0
0
0
0
0
0
0
0
0
0
0
0
0
0
0
0
0
0
0
0
0
0
0
0
0
0
0
0
0
0
0
0
0
0
0
0
0
0
0
0
0
0
0
0
0
0
0
0
0
0
0
0
0
0
0
0
0
0
0
0
0
0
0
0
0
0
0
0
0
0
0
0
0
0
0
0
0
0
0
0
0
0
0
0
0
0
0
0
0
0
0
0
0
0
0
0
0
0
0
0
0
0
0
0
0
0
0
0
0
0
0
0
0
0
0
0
0
0
0
0
0
0
0
0
0
0
0
0
0
0
0
0
0
0
0
0
0
0
0
0
0
0
0
0
0
0
0
0
0
0
0
0
0
0
0
0
0
0
0
0
0
0
0
0
0
0
0
0
0
0
0
0
0
0
0
0
0
0
0
0
0
0
0
0
0
0
0
0
0
0
0
0
0
0
0
0
0
0
0
0
0
0
0
0
0
0
0
0
0
0
0
0
0
0
0
0
0
0
0
0
0
0
0
0
0
0
0
0
0
0
0
0
0
0
0
0
0
0
0
0
0
0
0
0
0
0
0
0
0
0
0
0
0
0
0
0
0
0
0
0
0
0
0
0
0
0
0
0
0
0
0
0
0
0
0
0
0
0
0
0
0
0
0
0
0
0
0
0
0
0
0
0
0
0
0
0
0
0
0
0
0
0
0
0
0
0
0
0
0
0
0
0
0
0
0
0
0
0
0
0
0
0
0
0
0
0
0
0
0
0
0
0
0
0
0
0
0
0
0
0
0
0
0
0
0
0
0
0
0
0
0
0
0
0
0
0
0
0
0
0
0
0
0
0
0
0
0
0
0
0
0
0
0
0
0
0
0
0
0
0
0
0
0
0
0
0
0
0
0
0
0
0
0
0
0
0
0
0
0
0
0
0
0
0
0
0
0
0
255
252
250
163
163
161
161
161
158
173
209
209
212
210
210
210
210
210
209
210
216
216
223
222
221
223
222
222
222
212
210
210
208
211
210
206
168
158
158
162
159
155
200
231
235
235
255
254
254
254
255
255
255
254
254
254
255
255
255
255
255
255
255
255
255
255
255
254
254
254
255
254
254
255
255
254
254
254
255
255
255
255
255
255
255
255
255
255
255
255
255
254
254
254
254
255
255
255
255
255
255
255
255
255
255
254
254
0
0
0
0
0
0
0
0
0
0
0
0
0
0
0
0
0
0
0
0
0
0
0
0
0
0
0
0
0
0
0
0
0
0
0
0
0
0
0
0
0
0
0
0
0
0
0
0
0
0
0
0
0
0
0
0
0
0
0
0
0
0
0
0
0
0
0
0
0
0
0
0
0
0
0
0
0
0
0
0
0
0
0
0
0
0
0
0
0
0
0
0
0
0
0
0
0
0
0
0
0
0
0
0
0
0
0
0
0
0
0
0
0
0
0
0
0
0
0
0
0
0
0
0
0
0
0
0
0
0
0
0
0
0
0
0
0
0
0
0
0
0
0
0
0
0
0
0
0
0
0
0
0
0
0
0
0
0
0
0
0
0
0
0
0
0
0
0
0
0
0
0
0
0
0
0
0
0
0
0
0
0
0
0
0
0
0
0
0
0
0
0
0
0
0
0
0
0
0
0
0
0
0
0
0
0
0
0
0
0
0
0
0
0
0
0
0
0
0
0
0
0
0
0
0
0
0
0
0
0
0
0
0
0
0
0
0
0
0
0
0
0
0
0
0
0
0
0
0
0
0
0
0
0
0
0
0
0
0
0
0
0
0
0
0
0
0
0
0
0
0
0
0
0
0
0
0
0
0
0
0
0
0
0
0
0
0
0
0
0
0
0
0
0
0
0
0
0
0
0
0
0
0
0
0
0
0
0
0
0
0
0
0
0
0
0
0
0
0
0
0
0
0
0
0
0
0
0
0
0
0
0
0
0
0
0
0
0
0
0
0
0
0
0
0
0
0
0
0
0
0
0
0
0
0
0
0
0
0
0
0
0
0
0
0
0
0
0
0
0
0
0
0
0
0
0
0
0
0
0
0
0
0
0
0
0
0
0
0
0
0
0
0
0
0
0
0
0
0
0
0
0
0
0
0
0
0
0
0
0
0
0
0
0
0
0
0
0
0
0
0
0
0
0
0
0
0
0
0
0
0
0
0
0
0
0
0
0
0
0
0
0
0
0
0
0
0
0
0
0
0
0
0
0
0
0
0
0
0
0
0
0
0
254
251
248
218
153
159
158
159
157
190
206
208
213
211
210
209
210
209
209
209
213
223
221
222
222
221
220
222
216
209
208
209
209
210
208
189
156
157
157
157
156
166
229
228
231
248
255
255
254
255
254
255
255
255
254
254
254
255
255
255
254
255
255
255
255
255
255
255
254
254
254
255
254
254
255
255
254
254
254
255
255
255
255
255
255
255
255
255
255
255
255
255
254
254
254
255
255
255
255
255
255
255
255
255
255
255
254
254
0
0
0
0
0
0
0
0
0
0
0
0
0
0
0
0
0
0
0
0
0
0
0
0
0
0
0
0
0
0
0
0
0
0
0
0
0
0
0
0
0
0
0
0
0
0
0
0
0
0
0
0
0
0
0
0
0
0
0
0
0
0
0
0
0
0
0
0
0
0
0
0
0
0
0
0
0
0
0
0
0
0
0
0
0
0
0
0
0
0
0
0
0
0
0
0
0
0
0
0
0
0
0
0
0
0
0
0
0
0
0
0
0
0
0
0
0
0
0
0
0
0
0
0
0
0
0
0
0
0
0
0
0
0
0
0
0
0
0
0
0
0
0
0
0
0
0
0
0
0
0
0
0
0
0
0
0
0
0
0
0
0
0
0
0
0
0
0
0
0
0
0
0
0
0
0
0
0
0
0
0
0
0
0
0
0
0
0
0
0
0
0
0
0
0
0
0
0
0
0
0
0
0
0
0
0
0
0
0
0
0
0
0
0
0
0
0
0
0
0
0
0
0
0
0
0
0
0
0
0
0
0
0
0
0
0
0
0
0
0
0
0
0
0
0
0
0
0
0
0
0
0
0
0
0
0
0
0
0
0
0
0
0
0
0
0
0
0
0
0
0
0
0
0
0
0
0
0
0
0
0
0
0
0
0
0
0
0
0
0
0
0
0
0
0
0
0
0
0
0
0
0
0
0
0
0
0
0
0
0
0
0
0
0
0
0
0
0
0
0
0
0
0
0
0
0
0
0
0
0
0
0
0
0
0
0
0
0
0
0
0
0
0
0
0
0
0
0
0
0
0
0
0
0
0
0
0
0
0
0
0
0
0
0
0
0
0
0
0
0
0
0
0
0
0
0
0
0
0
0
0
0
0
0
0
0
0
0
0
0
0
0
0
0
0
0
0
0
0
0
0
0
0
0
0
0
0
0
0
0
0
0
0
0
0
0
0
0
0
0
0
0
0
0
0
0
0
0
0
0
0
0
0
0
0
0
0
0
0
0
0
0
0
0
0
0
0
0
0
0
0
0
0
0
0
0
0
0
0
0
0
0
254
250
248
170
161
159
161
159
168
168
208
211
213
208
209
209
209
210
210
209
218
221
221
221
222
221
220
223
216
209
212
209
209
210
209
169
156
161
159
157
157
198
225
228
233
254
255
255
254
254
254
254
255
255
255
254
254
253
255
253
254
255
255
255
255
255
255
255
255
255
254
254
255
254
255
255
253
254
254
254
255
255
254
255
255
255
255
255
254
254
255
255
255
255
254
254
255
255
255
255
255
255
255
255
255
254
254
254
254
0
0
0
0
0
0
0
0
0
0
0
0
0
0
0
0
0
0
0
0
0
0
0
0
0
0
0
0
0
0
0
0
0
0
0
0
0
0
0
0
0
0
0
0
0
0
0
0
0
0
0
0
0
0
0
0
0
0
0
0
0
0
0
0
0
0
0
0
0
0
0
0
0
0
0
0
0
0
0
0
0
0
0
0
0
0
0
0
0
0
0
0
0
0
0
0
0
0
0
0
0
0
0
0
0
0
0
0
0
0
0
0
0
0
0
0
0
0
0
0
0
0
0
0
0
0
0
0
0
0
0
0
0
0
0
0
0
0
0
0
0
0
0
0
0
0
0
0
0
0
0
0
0
0
0
0
0
0
0
0
0
0
0
0
0
0
0
0
0
0
0
0
0
0
0
0
0
0
0
0
0
0
0
0
0
0
0
0
0
0
0
0
0
0
0
0
0
0
0
0
0
0
0
0
0
0
0
0
0
0
0
0
0
0
0
0
0
0
0
0
0
0
0
0
0
0
0
0
0
0
0
0
0
0
0
0
0
0
0
0
0
0
0
0
0
0
0
0
0
0
0
0
0
0
0
0
0
0
0
0
0
0
0
0
0
0
0
0
0
0
0
0
0
0
0
0
0
0
0
0
0
0
0
0
0
0
0
0
0
0
0
0
0
0
0
0
0
0
0
0
0
0
0
0
0
0
0
0
0
0
0
0
0
0
0
0
0
0
0
0
0
0
0
0
0
0
0
0
0
0
0
0
0
0
0
0
0
0
0
0
0
0
0
0
0
0
0
0
0
0
0
0
0
0
0
0
0
0
0
0
0
0
0
0
0
0
0
0
0
0
0
0
0
0
0
0
0
0
0
0
0
0
0
0
0
0
0
0
0
0
0
0
0
0
0
0
0
0
0
0
0
0
0
0
0
0
0
0
0
0
0
0
0
0
0
0
0
0
0
0
0
0
0
0
0
0
0
0
0
0
0
0
0
0
0
0
0
0
0
0
0
0
0
0
0
0
0
0
0
0
0
0
0
0
0
0
0
0
0
0
0
251
248
211
156
156
155
158
158
159
202
207
207
209
209
209
208
210
210
209
214
221
221
222
223
223
222
223
220
220
211
209
209
210
209
202
187
159
158
158
156
163
225
233
229
245
245
253
253
254
255
254
254
254
255
255
255
254
254
254
254
254
255
255
255
255
255
255
255
255
255
255
254
254
255
255
254
253
253
255
255
254
255
255
254
255
255
255
255
254
254
254
255
255
255
255
254
254
255
255
255
255
255
255
255
254
254
254
254
254
254
0
0
0
0
0
0
0
0
0
0
0
0
0
0
0
0
0
0
0
0
0
0
0
0
0
0
0
0
0
0
0
0
0
0
0
0
0
0
0
0
0
0
0
0
0
0
0
0
0
0
0
0
0
0
0
0
0
0
0
0
0
0
0
0
0
0
0
0
0
0
0
0
0
0
0
0
0
0
0
0
0
0
0
0
0
0
0
0
0
0
0
0
0
0
0
0
0
0
0
0
0
0
0
0
0
0
0
0
0
0
0
0
0
0
0
0
0
0
0
0
0
0
0
0
0
0
0
0
0
0
0
0
0
0
0
0
0
0
0
0
0
0
0
0
0
0
0
0
0
0
0
0
0
0
0
0
0
0
0
0
0
0
0
0
0
0
0
0
0
0
0
0
0
0
0
0
0
0
0
0
0
0
0
0
0
0
0
0
0
0
0
0
0
0
0
0
0
0
0
0
0
0
0
0
0
0
0
0
0
0
0
0
0
0
0
0
0
0
0
0
0
0
0
0
0
0
0
0
0
0
0
0
0
0
0
0
0
0
0
0
0
0
0
0
0
0
0
0
0
0
0
0
0
0
0
0
0
0
0
0
0
0
0
0
0
0
0
0
0
0
0
0
0
0
0
0
0
0
0
0
0
0
0
0
0
0
0
0
0
0
0
0
0
0
0
0
0
0
0
0
0
0
0
0
0
0
0
0
0
0
0
0
0
0
0
0
0
0
0
0
0
0
0
0
0
0
0
0
0
0
0
0
0
0
0
0
0
0
0
0
0
0
0
0
0
0
0
0
0
0
0
0
0
0
0
0
0
0
0
0
0
0
0
0
0
0
0
0
0
0
0
0
0
0
0
0
0
0
0
0
0
0
0
0
0
0
0
0
0
0
0
0
0
0
0
0
0
0
0
0
0
0
0
0
0
0
0
0
0
0
0
0
0
0
0
0
0
0
0
0
0
0
0
0
0
0
0
0
0
0
0
0
0
0
0
0
0
0
0
0
0
0
0
0
0
0
0
0
0
0
0
0
0
0
0
0
0
0
0
0
251
248
161
154
160
158
159
158
170
209
207
212
209
210
208
210
210
210
208
220
221
223
222
222
223
223
222
221
209
210
209
210
210
209
202
163
156
156
156
155
199
225
229
229
233
253
254
252
254
254
255
254
254
254
255
254
254
254
254
252
254
255
255
255
255
255
255
255
255
255
255
255
254
255
255
254
255
255
255
254
254
254
255
255
255
255
255
255
255
254
254
254
255
255
255
255
254
255
255
255
255
255
255
254
254
254
254
254
254
254
254
0
0
0
0
0
0
0
0
0
0
0
0
0
0
0
0
0
0
0
0
0
0
0
0
0
0
0
0
0
0
0
0
0
0
0
0
0
0
0
0
0
0
0
0
0
0
0
0
0
0
0
0
0
0
0
0
0
0
0
0
0
0
0
0
0
0
0
0
0
0
0
0
0
0
0
0
0
0
0
0
0
0
0
0
0
0
0
0
0
0
0
0
0
0
0
0
0
0
0
0
0
0
0
0
0
0
0
0
0
0
0
0
0
0
0
0
0
0
0
0
0
0
0
0
0
0
0
0
0
0
0
0
0
0
0
0
0
0
0
0
0
0
0
0
0
0
0
0
0
0
0
0
0
0
0
0
0
0
0
0
0
0
0
0
0
0
0
0
0
0
0
0
0
0
0
0
0
0
0
0
0
0
0
0
0
0
0
0
0
0
0
0
0
0
0
0
0
0
0
0
0
0
0
0
0
0
0
0
0
0
0
0
0
0
0
0
0
0
0
0
0
0
0
0
0
0
0
0
0
0
0
0
0
0
0
0
0
0
0
0
0
0
0
0
0
0
0
0
0
0
0
0
0
0
0
0
0
0
0
0
0
0
0
0
0
0
0
0
0
0
0
0
0
0
0
0
0
0
0
0
0
0
0
0
0
0
0
0
0
0
0
0
0
0
0
0
0
0
0
0
0
0
0
0
0
0
0
0
0
0
0
0
0
0
0
0
0
0
0
0
0
0
0
0
0
0
0
0
0
0
0
0
0
0
0
0
0
0
0
0
0
0
0
0
0
0
0
0
0
0
0
0
0
0
0
0
0
0
0
0
0
0
0
0
0
0
0
0
0
0
0
0
0
0
0
0
0
0
0
0
0
0
0
0
0
0
0
0
0
0
0
0
0
0
0
0
0
0
0
0
0
0
0
0
0
0
0
0
0
0
0
0
0
0
0
0
0
0
0
0
0
0
0
0
0
0
0
0
0
0
0
0
0
0
0
0
0
0
0
0
0
0
0
0
0
0
0
0
0
0
0
0
0
0
0
0
0
0
0
250
186
186
154
159
158
158
160
203
203
209
208
208
210
210
209
209
211
218
218
223
222
222
222
222
222
222
218
209
210
207
211
210
210
180
159
159
160
156
164
164
227
231
231
239
253
253
253
255
254
254
254
254
254
253
254
254
254
253
253
253
255
254
255
255
255
255
255
255
255
255
255
255
254
254
255
254
254
254
254
254
254
254
255
255
254
255
255
255
255
254
254
255
255
255
255
255
255
255
255
255
255
254
254
254
254
254
255
255
254
254
254
0
0
0
0
0
0
0
0
0
0
0
0
0
0
0
0
0
0
0
0
0
0
0
0
0
0
0
0
0
0
0
0
0
0
0
0
0
0
0
0
0
0
0
0
0
0
0
0
0
0
0
0
0
0
0
0
0
0
0
0
0
0
0
0
0
0
0
0
0
0
0
0
0
0
0
0
0
0
0
0
0
0
0
0
0
0
0
0
0
0
0
0
0
0
0
0
0
0
0
0
0
0
0
0
0
0
0
0
0
0
0
0
0
0
0
0
0
0
0
0
0
0
0
0
0
0
0
0
0
0
0
0
0
0
0
0
0
0
0
0
0
0
0
0
0
0
0
0
0
0
0
0
0
0
0
0
0
0
0
0
0
0
0
0
0
0
0
0
0
0
0
0
0
0
0
0
0
0
0
0
0
0
0
0
0
0
0
0
0
0
0
0
0
0
0
0
0
0
0
0
0
0
0
0
0
0
0
0
0
0
0
0
0
0
0
0
0
0
0
0
0
0
0
0
0
0
0
0
0
0
0
0
0
0
0
0
0
0
0
0
0
0
0
0
0
0
0
0
0
0
0
0
0
0
0
0
0
0
0
0
0
0
0
0
0
0
0
0
0
0
0
0
0
0
0
0
0
0
0
0
0
0
0
0
0
0
0
0
0
0
0
0
0
0
0
0
0
0
0
0
0
0
0
0
0
0
0
0
0
0
0
0
0
0
0
0
0
0
0
0
0
0
0
0
0
0
0
0
0
0
0
0
0
0
0
0
0
0
0
0
0
0
0
0
0
0
0
0
0
0
0
0
0
0
0
0
0
0
0
0
0
0
0
0
0
0
0
0
0
0
0
0
0
0
0
0
0
0
0
0
0
0
0
0
0
0
0
0
0
0
0
0
0
0
0
0
0
0
0
0
0
0
0
0
0
0
0
0
0
0
0
0
0
0
0
0
0
0
0
0
0
0
0
0
0
0
0
0
0
0
0
0
0
0
0
0
0
0
0
0
0
0
0
0
0
0
0
0
0
0
0
0
0
0
0
0
0
0
236
217
155
159
158
158
160
168
190
208
210
210
210
209
209
209
210
212
212
223
222
223
223
222
222
221
221
211
210
209
210
209
208
198
159
158
159
157
154
157
227
232
229
226
250
255
255
254
254
254
254
254
254
253
253
254
254
254
254
252
253
255
254
254
255
255
255
255
255
255
255
255
255
254
254
254
255
254
254
254
254
254
254
255
255
254
253
255
255
255
255
255
255
255
254
254
255
255
255
255
255
254
254
254
254
254
255
255
255
255
254
254
254
0
0
0
0
0
0
0
0
0
0
0
0
0
0
0
0
0
0
0
0
0
0
0
0
0
0
0
0
0
0
0
0
0
0
0
0
0
0
0
0
0
0
0
0
0
0
0
0
0
0
0
0
0
0
0
0
0
0
0
0
0
0
0
0
0
0
0
0
0
0
0
0
0
0
0
0
0
0
0
0
0
0
0
0
0
0
0
0
0
0
0
0
0
0
0
0
0
0
0
0
0
0
0
0
0
0
0
0
0
0
0
0
0
0
0
0
0
0
0
0
0
0
0
0
0
0
0
0
0
0
0
0
0
0
0
0
0
0
0
0
0
0
0
0
0
0
0
0
0
0
0
0
0
0
0
0
0
0
0
0
0
0
0
0
0
0
0
0
0
0
0
0
0
0
0
0
0
0
0
0
0
0
0
0
0
0
0
0
0
0
0
0
0
0
0
0
0
0
0
0
0
0
0
0
0
0
0
0
0
0
0
0
0
0
0
0
0
0
0
0
0
0
0
0
0
0
0
0
0
0
0
0
0
0
0
0
0
0
0
0
0
0
0
0
0
0
0
0
0
0
0
0
0
0
0
0
0
0
0
0
0
0
0
0
0
0
0
0
0
0
0
0
0
0
0
0
0
0
0
0
0
0
0
0
0
0
0
0
0
0
0
0
0
0
0
0
0
0
0
0
0
0
0
0
0
0
0
0
0
0
0
0
0
0
0
0
0
0
0
0
0
0
0
0
0
0
0
0
0
0
0
0
0
0
0
0
0
0
0
0
0
0
0
0
0
0
0
0
0
0
0
0
0
0
0
0
0
0
0
0
0
0
0
0
0
0
0
0
0
0
0
0
0
0
0
0
0
0
0
0
0
0
0
0
0
0
0
0
0
0
0
0
0
0
0
0
0
0
0
0
0
0
0
0
0
0
0
0
0
0
0
0
0
0
0
0
0
0
0
0
0
0
0
0
0
0
0
0
0
0
0
0
0
0
0
0
0
0
0
0
0
0
0
0
0
0
0
0
0
0
0
0
0
0
0
0
0
236
158
159
159
159
159
163
168
208
208
210
211
208
209
209
210
210
212
222
222
222
222
224
223
222
221
215
211
209
212
208
209
208
170
159
157
159
156
156
178
229
232
228
236
254
254
254
254
254
254
254
254
254
253
254
254
253
254
254
253
255
254
254
254
255
255
255
255
255
255
255
255
255
255
254
254
254
255
253
253
255
255
254
254
255
254
254
253
255
255
255
255
255
255
254
254
254
255
255
255
254
254
254
254
254
255
255
254
254
255
255
254
254
254
0
0
0
0
0
0
0
0
0
0
0
0
0
0
0
0
0
0
0
0
0
0
0
0
0
0
0
0
0
0
0
0
0
0
0
0
0
0
0
0
0
0
0
0
0
0
0
0
0
0
0
0
0
0
0
0
0
0
0
0
0
0
0
0
0
0
0
0
0
0
0
0
0
0
0
0
0
0
0
0
0
0
0
0
0
0
0
0
0
0
0
0
0
0
0
0
0
0
0
0
0
0
0
0
0
0
0
0
0
0
0
0
0
0
0
0
0
0
0
0
0
0
0
0
0
0
0
0
0
0
0
0
0
0
0
0
0
0
0
0
0
0
0
0
0
0
0
0
0
0
0
0
0
0
0
0
0
0
0
0
0
0
0
0
0
0
0
0
0
0
0
0
0
0
0
0
0
0
0
0
0
0
0
0
0
0
0
0
0
0
0
0
0
0
0
0
0
0
0
0
0
0
0
0
0
0
0
0
0
0
0
0
0
0
0
0
0
0
0
0
0
0
0
0
0
0
0
0
0
0
0
0
0
0
0
0
0
0
0
0
0
0
0
0
0
0
0
0
0
0
0
0
0
0
0
0
0
0
0
0
0
0
0
0
0
0
0
0
0
0
0
0
0
0
0
0
0
0
0
0
0
0
0
0
0
0
0
0
0
0
0
0
0
0
0
0
0
0
0
0
0
0
0
0
0
0
0
0
0
0
0
0
0
0
0
0
0
0
0
0
0
0
0
0
0
0
0
0
0
0
0
0
0
0
0
0
0
0
0
0
0
0
0
0
0
0
0
0
0
0
0
0
0
0
0
0
0
0
0
0
0
0
0
0
0
0
0
0
0
0
0
0
0
0
0
0
0
0
0
0
0
0
0
0
0
0
0
0
0
0
0
0
0
0
0
0
0
0
0
0
0
0
0
0
0
0
0
0
0
0
0
0
0
0
0
0
0
0
0
0
0
0
0
0
0
0
0
0
0
0
0
0
0
0
0
0
0
0
0
0
0
0
0
0
0
0
0
0
0
0
0
0
0
0
0
0
171
158
159
159
159
159
160
200
210
210
209
210
211
211
210
211
210
220
221
221
222
223
221
223
222
219
219
209
211
208
209
209
186
186
158
159
160
159
159
217
227
232
231
246
254
255
253
255
254
254
254
254
253
254
254
253
254
254
254
255
254
254
253
255
255
253
255
255
255
255
255
255
255
255
255
254
254
254
255
254
254
254
254
254
254
255
254
254
254
255
255
255
255
254
254
254
254
255
255
255
254
254
254
254
255
255
254
254
254
255
255
255
254
254
254
0
0
0
0
0
0
0
0
0
0
0
0
0
0
0
0
0
0
0
0
0
0
0
0
0
0
0
0
0
0
0
0
0
0
0
0
0
0
0
0
0
0
0
0
0
0
0
0
0
0
0
0
0
0
0
0
0
0
0
0
0
0
0
0
0
0
0
0
0
0
0
0
0
0
0
0
0
0
0
0
0
0
0
0
0
0
0
0
0
0
0
0
0
0
0
0
0
0
0
0
0
0
0
0
0
0
0
0
0
0
0
0
0
0
0
0
0
0
0
0
0
0
0
0
0
0
0
0
0
0
0
0
0
0
0
0
0
0
0
0
0
0
0
0
0
0
0
0
0
0
0
0
0
0
0
0
0
0
0
0
0
0
0
0
0
0
0
0
0
0
0
0
0
0
0
0
0
0
0
0
0
0
0
0
0
0
0
0
0
0
0
0
0
0
0
0
0
0
0
0
0
0
0
0
0
0
0
0
0
0
0
0
0
0
0
0
0
0
0
0
0
0
0
0
0
0
0
0
0
0
0
0
0
0
0
0
0
0
0
0
0
0
0
0
0
0
0
0
0
0
0
0
0
0
0
0
0
0
0
0
0
0
0
0
0
0
0
0
0
0
0
0
0
0
0
0
0
0
0
0
0
0
0
0
0
0
0
0
0
0
0
0
0
0
0
0
0
0
0
0
0
0
0
0
0
0
0
0
0
0
0
0
0
0
0
0
0
0
0
0
0
0
0
0
0
0
0
0
0
0
0
0
0
0
0
0
0
0
0
0
0
0
0
0
0
0
0
0
0
0
0
0
0
0
0
0
0
0
0
0
0
0
0
0
0
0
0
0
0
0
0
0
0
0
0
0
0
0
0
0
0
0
0
0
0
0
0
0
0
0
0
0
0
0
0
0
0
0
0
0
0
0
0
0
0
0
0
0
0
0
0
0
0
0
0
0
0
0
0
0
0
0
0
0
0
0
0
0
0
0
0
0
0
0
0
0
0
0
0
0
0
0
0
0
0
0
0
0
0
0
0
0
0
0
0
156
159
159
157
159
159
174
207
209
208
211
209
211
210
209
211
215
221
221
221
221
223
221
222
223
222
210
210
209
208
209
206
203
160
158
158
160
156
193
217
228
228
238
246
252
255
253
254
255
254
253
253
254
254
255
254
254
254
254
255
254
254
255
255
255
255
255
255
255
255
255
255
254
255
255
255
254
254
254
254
254
254
255
254
254
254
255
254
254
254
255
255
255
255
254
255
255
255
255
255
255
254
254
255
255
255
255
254
255
254
254
255
255
254
254
254
0
0
0
0
0
0
0
0
0
0
0
0
0
0
0
0
0
0
0
0
0
0
0
0
0
0
0
0
0
0
0
0
0
0
0
0
0
0
0
0
0
0
0
0
0
0
0
0
0
0
0
0
0
0
0
0
0
0
0
0
0
0
0
0
0
0
0
0
0
0
0
0
0
0
0
0
0
0
0
0
0
0
0
0
0
0
0
0
0
0
0
0
0
0
0
0
0
0
0
0
0
0
0
0
0
0
0
0
0
0
0
0
0
0
0
0
0
0
0
0
0
0
0
0
0
0
0
0
0
0
0
0
0
0
0
0
0
0
0
0
0
0
0
0
0
0
0
0
0
0
0
0
0
0
0
0
0
0
0
0
0
0
0
0
0
0
0
0
0
0
0
0
0
0
0
0
0
0
0
0
0
0
0
0
0
0
0
0
0
0
0
0
0
0
0
0
0
0
0
0
0
0
0
0
0
0
0
0
0
0
0
0
0
0
0
0
0
0
0
0
0
0
0
0
0
0
0
0
0
0
0
0
0
0
0
0
0
0
0
0
0
0
0
0
0
0
0
0
0
0
0
0
0
0
0
0
0
0
0
0
0
0
0
0
0
0
0
0
0
0
0
0
0
0
0
0
0
0
0
0
0
0
0
0
0
0
0
0
0
0
0
0
0
0
0
0
0
0
0
0
0
0
0
0
0
0
0
0
0
0
0
0
0
0
0
0
0
0
0
0
0
0
0
0
0
0
0
0
0
0
0
0
0
0
0
0
0
0
0
0
0
0
0
0
0
0
0
0
0
0
0
0
0
0
0
0
0
0
0
0
0
0
0
0
0
0
0
0
0
0
0
0
0
0
0
0
0
0
0
0
0
0
0
0
0
0
0
0
0
0
0
0
0
0
0
0
0
0
0
0
0
0
0
0
0
0
0
0
0
0
0
0
0
0
0
0
0
0
0
0
0
0
0
0
0
0
0
0
0
0
0
0
0
0
0
0
0
0
0
0
0
0
0
0
0
0
0
0
0
0
0
0
0
0
157
157
158
159
159
163
207
207
210
210
210
210
210
210
210
212
221
221
221
221
222
222
223
223
223
217
209
211
211
209
210
210
171
160
157
157
157
166
166
230
231
228
230
254
255
255
254
254
254
255
255
254
254
254
254
254
253
254
254
254
255
255
255
255
255
255
255
255
255
255
255
254
254
255
254
255
255
254
254
254
254
254
255
254
254
254
254
254
255
255
254
255
255
255
255
255
255
255
255
255
255
255
254
254
254
255
255
255
255
254
254
254
255
255
254
254
254
0
0
0
0
0
0
0
0
0
0
0
0
0
0
0
0
0
0
0
0
0
0
0
0
0
0
0
0
0
0
0
0
0
0
0
0
0
0
0
0
0
0
0
0
0
0
0
0
0
0
0
0
0
0
0
0
0
0
0
0
0
0
0
0
0
0
0
0
0
0
0
0
0
0
0
0
0
0
0
0
0
0
0
0
0
0
0
0
0
0
0
0
0
0
0
0
0
0
0
0
0
0
0
0
0
0
0
0
0
0
0
0
0
0
0
0
0
0
0
0
0
0
0
0
0
0
0
0
0
0
0
0
0
0
0
0
0
0
0
0
0
0
0
0
0
0
0
0
0
0
0
0
0
0
0
0
0
0
0
0
0
0
0
0
0
0
0
0
0
0
0
0
0
0
0
0
0
0
0
0
0
0
0
0
0
0
0
0
0
0
0
0
0
0
0
0
0
0
0
0
0
0
0
0
0
0
0
0
0
0
0
0
0
0
0
0
0
0
0
0
0
0
0
0
0
0
0
0
0
0
0
0
0
0
0
0
0
0
0
0
0
0
0
0
0
0
0
0
0
0
0
0
0
0
0
0
0
0
0
0
0
0
0
0
0
0
0
0
0
0
0
0
0
0
0
0
0
0
0
0
0
0
0
0
0
0
0
0
0
0
0
0
0
0
0
0
0
0
0
0
0
0
0
0
0
0
0
0
0
0
0
0
0
0
0
0
0
0
0
0
0
0
0
0
0
0
0
0
0
0
0
0
0
0
0
0
0
0
0
0
0
0
0
0
0
0
0
0
0
0
0
0
0
0
0
0
0
0
0
0
0
0
0
0
0
0
0
0
0
0
0
0
0
0
0
0
0
0
0
0
0
0
0
0
0
0
0
0
0
0
0
0
0
0
0
0
0
0
0
0
0
0
0
0
0
0
0
0
0
0
0
0
0
0
0
0
0
0
0
0
0
0
0
0
0
0
0
0
0
0
0
0
0
0
0
0
0
0
0
0
0
0
0
0
0
0
0
0
0
0
0
0
0
157
161
158
159
159
200
204
209
209
210
210
211
209
210
210
222
222
221
222
223
222
222
222
222
220
210
209
210
210
210
210
186
157
158
159
158
156
154
230
227
230
228
236
253
252
255
254
254
255
255
255
255
254
254
254
254
254
254
254
254
254
255
255
254
254
255
255
254
252
255
254
255
255
255
254
254
255
255
254
253
251
254
255
255
255
254
254
254
254
254
255
255
255
255
255
255
255
255
255
255
255
255
255
254
254
254
255
255
254
254
254
254
255
255
255
254
254
254
0
0
0
0
0
0
0
0
0
0
0
0
0
0
0
0
0
0
0
0
0
0
0
0
0
0
0
0
0
0
0
0
0
0
0
0
0
0
0
0
0
0
0
0
0
0
0
0
0
0
0
0
0
0
0
0
0
0
0
0
0
0
0
0
0
0
0
0
0
0
0
0
0
0
0
0
0
0
0
0
0
0
0
0
0
0
0
0
0
0
0
0
0
0
0
0
0
0
0
0
0
0
0
0
0
0
0
0
0
0
0
0
0
0
0
0
0
0
0
0
0
0
0
0
0
0
0
0
0
0
0
0
0
0
0
0
0
0
0
0
0
0
0
0
0
0
0
0
0
0
0
0
0
0
0
0
0
0
0
0
0
0
0
0
0
0
0
0
0
0
0
0
0
0
0
0
0
0
0
0
0
0
0
0
0
0
0
0
0
0
0
0
0
0
0
0
0
0
0
0
0
0
0
0
0
0
0
0
0
0
0
0
0
0
0
0
0
0
0
0
0
0
0
0
0
0
0
0
0
0
0
0
0
0
0
0
0
0
0
0
0
0
0
0
0
0
0
0
0
0
0
0
0
0
0
0
0
0
0
0
0
0
0
0
0
0
0
0
0
0
0
0
0
0
0
0
0
0
0
0
0
0
0
0
0
0
0
0
0
0
0
0
0
0
0
0
0
0
0
0
0
0
0
0
0
0
0
0
0
0
0
0
0
0
0
0
0
0
0
0
0
0
0
0
0
0
0
0
0
0
0
0
0
0
0
0
0
0
0
0
0
0
0
0
0
0
0
0
0
0
0
0
0
0
0
0
0
0
0
0
0
0
0
0
0
0
0
0
0
0
0
0
0
0
0
0
0
0
0
0
0
0
0
0
0
0
0
0
0
0
0
0
0
0
0
0
0
0
0
0
0
0
0
0
0
0
0
0
0
0
0
0
0
0
0
0
0
0
0
0
0
0
0
0
0
0
0
0
0
0
0
0
0
0
0
0
0
0
0
0
0
0
0
0
0
0
0
0
0
0
0
0
160
159
159
160
192
200
208
209
210
210
210
209
209
210
223
222
222
221
223
223
223
222
222
223
212
209
209
210
209
210
204
159
158
158
158
157
156
190
228
230
230
229
254
254
253
253
254
254
255
255
255
255
254
254
254
254
254
254
255
253
253
255
255
254
254
254
254
254
255
254
254
254
255
254
254
254
255
255
251
254
254
254
255
254
254
255
254
254
254
253
255
255
254
255
255
255
255
255
255
255
255
255
255
255
254
254
255
254
254
254
254
254
254
255
255
255
254
254
254
0
0
0
0
0
0
0
0
0
0
0
0
0
0
0
0
0
0
0
0
0
0
0
0
0
0
0
0
0
0
0
0
0
0
0
0
0
0
0
0
0
0
0
0
0
0
0
0
0
0
0
0
0
0
0
0
0
0
0
0
0
0
0
0
0
0
0
0
0
0
0
0
0
0
0
0
0
0
0
0
0
0
0
0
0
0
0
0
0
0
0
0
0
0
0
0
0
0
0
0
0
0
0
0
0
0
0
0
0
0
0
0
0
0
0
0
0
0
0
0
0
0
0
0
0
0
0
0
0
0
0
0
0
0
0
0
0
0
0
0
0
0
0
0
0
0
0
0
0
0
0
0
0
0
0
0
0
0
0
0
0
0
0
0
0
0
0
0
0
0
0
0
0
0
0
0
0
0
0
0
0
0
0
0
0
0
0
0
0
0
0
0
0
0
0
0
0
0
0
0
0
0
0
0
0
0
0
0
0
0
0
0
0
0
0
0
0
0
0
0
0
0
0
0
0
0
0
0
0
0
0
0
0
0
0
0
0
0
0
0
0
0
0
0
0
0
0
0
0
0
0
0
0
0
0
0
0
0
0
0
0
0
0
0
0
0
0
0
0
0
0
0
0
0
0
0
0
0
0
0
0
0
0
0
0
0
0
0
0
0
0
0
0
0
0
0
0
0
0
0
0
0
0
0
0
0
0
0
0
0
0
0
0
0
0
0
0
0
0
0
0
0
0
0
0
0
0
0
0
0
0
0
0
0
0
0
0
0
0
0
0
0
0
0
0
0
0
0
0
0
0
0
0
0
0
0
0
0
0
0
0
0
0
0
0
0
0
0
0
0
0
0
0
0
0
0
0
0
0
0
0
0
0
0
0
0
0
0
0
0
0
0
0
0
0
0
0
0
0
0
0
0
0
0
0
0
0
0
0
0
0
0
0
0
0
0
0
0
0
0
0
0
0
0
0
0
0
0
0
0
0
0
0
0
0
0
0
0
0
0
0
0
0
0
0
0
0
0
0
0
0
158
158
159
175
183
208
210
209
208
210
209
209
209
221
223
222
221
223
223
223
223
222
223
214
210
209
210
209
208
207
167
159
159
158
159
157
165
232
229
230
232
237
248
254
254
253
254
254
254
254
255
254
255
254
252
255
252
255
252
254
254
254
255
254
254
252
255
252
254
255
253
254
255
255
254
254
253
255
255
254
253
254
255
254
254
254
254
254
254
255
253
251
255
252
255
255
255
255
255
254
254
255
255
255
255
254
254
254
254
255
255
255
254
254
255
254
254
254
254
254
0
0
0
0
0
0
0
0
0
0
0
0
0
0
0
0
0
0
0
0
0
0
0
0
0
0
0
0
0
0
0
0
0
0
0
0
0
0
0
0
0
0
0
0
0
0
0
0
0
0
0
0
0
0
0
0
0
0
0
0
0
0
0
0
0
0
0
0
0
0
0
0
0
0
0
0
0
0
0
0
0
0
0
0
0
0
0
0
0
0
0
0
0
0
0
0
0
0
0
0
0
0
0
0
0
0
0
0
0
0
0
0
0
0
0
0
0
0
0
0
0
0
0
0
0
0
0
0
0
0
0
0
0
0
0
0
0
0
0
0
0
0
0
0
0
0
0
0
0
0
0
0
0
0
0
0
0
0
0
0
0
0
0
0
0
0
0
0
0
0
0
0
0
0
0
0
0
0
0
0
0
0
0
0
0
0
0
0
0
0
0
0
0
0
0
0
0
0
0
0
0
0
0
0
0
0
0
0
0
0
0
0
0
0
0
0
0
0
0
0
0
0
0
0
0
0
0
0
0
0
0
0
0
0
0
0
0
0
0
0
0
0
0
0
0
0
0
0
0
0
0
0
0
0
0
0
0
0
0
0
0
0
0
0
0
0
0
0
0
0
0
0
0
0
0
0
0
0
0
0
0
0
0
0
0
0
0
0
0
0
0
0
0
0
0
0
0
0
0
0
0
0
0
0
0
0
0
0
0
0
0
0
0
0
0
0
0
0
0
0
0
0
0
0
0
0
0
0
0
0
0
0
0
0
0
0
0
0
0
0
0
0
0
0
0
0
0
0
0
0
0
0
0
0
0
0
0
0
0
0
0
0
0
0
0
0
0
0
0
0
0
0
0
0
0
0
0
0
0
0
0
0
0
0
0
0
0
0
0
0
0
0
0
0
0
0
0
0
0
0
0
0
0
0
0
0
0
0
0
0
0
0
0
0
0
0
0
0
0
0
0
0
0
0
0
0
0
0
0
0
0
0
0
0
0
0
0
0
0
0
0
0
0
0
0
0
0
0
0
0
158
159
172
175
208
208
209
209
210
209
209
210
220
223
223
222
223
223
223
223
223
222
219
211
210
210
209
209
210
191
158
159
159
159
159
155
218
229
229
228
230
237
254
255
254
255
255
254
254
254
255
254
255
255
252
255
254
254
252
255
253
254
251
251
252
252
253
253
254
253
254
253
255
254
254
254
254
254
251
254
255
255
255
255
254
254
254
255
252
255
253
253
255
255
254
255
255
255
255
254
254
254
255
255
255
254
254
254
255
255
254
254
254
254
254
254
254
254
255
254
253
0
0
0
0
0
0
0
0
0
0
0
0
0
0
0
0
0
0
0
0
0
0
0
0
0
0
0
0
0
0
0
0
0
0
0
0
0
0
0
0
0
0
0
0
0
0
0
0
0
0
0
0
0
0
0
0
0
0
0
0
0
0
0
0
0
0
0
0
0
0
0
0
0
0
0
0
0
0
0
0
0
0
0
0
0
0
0
0
0
0
0
0
0
0
0
0
0
0
0
0
0
0
0
0
0
0
0
0
0
0
0
0
0
0
0
0
0
0
0
0
0
0
0
0
0
0
0
0
0
0
0
0
0
0
0
0
0
0
0
0
0
0
0
0
0
0
0
0
0
0
0
0
0
0
0
0
0
0
0
0
0
0
0
0
0
0
0
0
0
0
0
0
0
0
0
0
0
0
0
0
0
0
0
0
0
0
0
0
0
0
0
0
0
0
0
0
0
0
0
0
0
0
0
0
0
0
0
0
0
0
0
0
0
0
0
0
0
0
0
0
0
0
0
0
0
0
0
0
0
0
0
0
0
0
0
0
0
0
0
0
0
0
0
0
0
0
0
0
0
0
0
0
0
0
0
0
0
0
0
0
0
0
0
0
0
0
0
0
0
0
0
0
0
0
0
0
0
0
0
0
0
0
0
0
0
0
0
0
0
0
0
0
0
0
0
0
0
0
0
0
0
0
0
0
0
0
0
0
0
0
0
0
0
0
0
0
0
0
0
0
0
0
0
0
0
0
0
0
0
0
0
0
0
0
0
0
0
0
0
0
0
0
0
0
0
0
0
0
0
0
0
0
0
0
0
0
0
0
0
0
0
0
0
0
0
0
0
0
0
0
0
0
0
0
0
0
0
0
0
0
0
0
0
0
0
0
0
0
0
0
0
0
0
0
0
0
0
0
0
0
0
0
0
0
0
0
0
0
0
0
0
0
0
0
0
0
0
0
0
0
0
0
0
0
0
0
0
0
0
0
0
0
0
0
0
0
0
0
0
0
0
0
0
0
0
0
0
0
0
159
168
168
206
208
209
208
210
209
209
209
220
222
222
222
222
222
223
221
221
222
220
209
211
210
210
210
210
200
159
158
159
156
156
154
198
229
229
228
229
229
251
255
255
254
254
254
254
254
254
254
254
254
253
253
254
251
251
252
250
250
248
247
151
245
245
247
247
250
249
216
252
252
252
252
253
253
252
255
254
254
254
251
255
255
254
254
255
254
255
253
253
251
254
255
254
255
255
255
255
254
254
254
255
255
255
254
255
255
255
254
255
254
253
254
254
254
255
255
255
253
254
0
0
0
0
0
0
0
0
0
0
0
0
0
0
0
0
0
0
0
0
0
0
0
0
0
0
0
0
0
0
0
0
0
0
0
0
0
0
0
0
0
0
0
0
0
0
0
0
0
0
0
0
0
0
0
0
0
0
0
0
0
0
0
0
0
0
0
0
0
0
0
0
0
0
0
0
0
0
0
0
0
0
0
0
0
0
0
0
0
0
0
0
0
0
0
0
0
0
0
0
0
0
0
0
0
0
0
0
0
0
0
0
0
0
0
0
0
0
0
0
0
0
0
0
0
0
0
0
0
0
0
0
0
0
0
0
0
0
0
0
0
0
0
0
0
0
0
0
0
0
0
0
0
0
0
0
0
0
0
0
0
0
0
0
0
0
0
0
0
0
0
0
0
0
0
0
0
0
0
0
0
0
0
0
0
0
0
0
0
0
0
0
0
0
0
0
0
0
0
0
0
0
0
0
0
0
0
0
0
0
0
0
0
0
0
0
0
0
0
0
0
0
0
0
0
0
0
0
0
0
0
0
0
0
0
0
0
0
0
0
0
0
0
0
0
0
0
0
0
0
0
0
0
0
0
0
0
0
0
0
0
0
0
0
0
0
0
0
0
0
0
0
0
0
0
0
0
0
0
0
0
0
0
0
0
0
0
0
0
0
0
0
0
0
0
0
0
0
0
0
0
0
0
0
0
0
0
0
0
0
0
0
0
0
0
0
0
0
0
0
0
0
0
0
0
0
0
0
0
0
0
0
0
0
0
0
0
0
0
0
0
0
0
0
0
0
0
0
0
0
0
0
0
0
0
0
0
0
0
0
0
0
0
0
0
0
0
0
0
0
0
0
0
0
0
0
0
0
0
0
0
0
0
0
0
0
0
0
0
0
0
0
0
0
0
0
0
0
0
0
0
0
0
0
0
0
0
0
0
0
0
0
0
0
0
0
0
0
0
0
0
0
0
0
0
0
0
0
0
0
0
0
0
0
0
0
0
0
0
0
0
0
0
0
0
0
0
0
162
164
206
208
209
209
208
209
209
209
218
221
222
222
222
222
223
222
222
221
222
209
209
210
209
209
211
207
165
159
158
160
158
155
163
230
229
230
230
230
246
251
254
255
254
254
254
255
255
254
254
254
251
253
246
205
250
232
124
201
179
123
124
151
126
123
157
174
118
124
216
131
151
248
250
216
244
252
250
251
253
254
254
254
254
254
253
255
252
255
255
254
254
252
255
255
253
255
255
255
255
254
254
254
255
255
255
254
254
254
254
255
254
254
254
254
255
255
255
255
254
254
254
0
0
0
0
0
0
0
0
0
0
0
0
0
0
0
0
0
0
0
0
0
0
0
0
0
0
0
0
0
0
0
0
0
0
0
0
0
0
0
0
0
0
0
0
0
0
0
0
0
0
0
0
0
0
0
0
0
0
0
0
0
0
0
0
0
0
0
0
0
0
0
0
0
0
0
0
0
0
0
0
0
0
0
0
0
0
0
0
0
0
0
0
0
0
0
0
0
0
0
0
0
0
0
0
0
0
0
0
0
0
0
0
0
0
0
0
0
0
0
0
0
0
0
0
0
0
0
0
0
0
0
0
0
0
0
0
0
0
0
0
0
0
0
0
0
0
0
0
0
0
0
0
0
0
0
0
0
0
0
0
0
0
0
0
0
0
0
0
0
0
0
0
0
0
0
0
0
0
0
0
0
0
0
0
0
0
0
0
0
0
0
0
0
0
0
0
0
0
0
0
0
0
0
0
0
0
0
0
0
0
0
0
0
0
0
0
0
0
0
0
0
0
0
0
0
0
0
0
0
0
0
0
0
0
0
0
0
0
0
0
0
0
0
0
0
0
0
0
0
0
0
0
0
0
0
0
0
0
0
0
0
0
0
0
0
0
0
0
0
0
0
0
0
0
0
0
0
0
0
0
0
0
0
0
0
0
0
0
0
0
0
0
0
0
0
0
0
0
0
0
0
0
0
0
0
0
0
0
0
0
0
0
0
0
0
0
0
0
0
0
0
0
0
0
0
0
0
0
0
0
0
0
0
0
0
0
0
0
0
0
0
0
0
0
0
0
0
0
0
0
0
0
0
0
0
0
0
0
0
0
0
0
0
0
0
0
0
0
0
0
0
0
0
0
0
0
0
0
0
0
0
0
0
0
0
0
0
0
0
0
0
0
0
0
0
0
0
0
0
0
0
0
0
0
0
0
0
0
0
0
0
0
0
0
0
0
0
0
0
0
0
0
0
0
0
0
0
0
0
0
0
0
0
0
0
0
0
0
0
0
0
0
0
0
0
0
0
162
203
209
209
209
209
212
212
208
218
221
221
221
222
222
223
222
222
221
223
209
209
210
209
209
211
208
174
174
158
161
161
158
158
226
226
231
230
230
232
253
251
255
255
254
254
255
255
255
254
253
250
250
208
139
139
124
124
124
128
125
127
127
129
126
126
126
128
126
126
125
121
121
123
126
138
138
169
212
212
246
250
254
251
252
254
254
253
254
254
254
254
254
254
254
255
255
255
255
255
255
255
254
254
254
255
255
254
254
254
254
254
254
254
254
255
255
255
254
255
255
254
254
254
0
0
0
0
0
0
0
0
0
0
0
0
0
0
0
0
0
0
0
0
0
0
0
0
0
0
0
0
0
0
0
0
0
0
0
0
0
0
0
0
0
0
0
0
0
0
0
0
0
0
0
0
0
0
0
0
0
0
0
0
0
0
0
0
0
0
0
0
0
0
0
0
0
0
0
0
0
0
0
0
0
0
0
0
0
0
0
0
0
0
0
0
0
0
0
0
0
0
0
0
0
0
0
0
0
0
0
0
0
0
0
0
0
0
0
0
0
0
0
0
0
0
0
0
0
0
0
0
0
0
0
0
0
0
0
0
0
0
0
0
0
0
0
0
0
0
0
0
0
0
0
0
0
0
0
0
0
0
0
0
0
0
0
0
0
0
0
0
0
0
0
0
0
0
0
0
0
0
0
0
0
0
0
0
0
0
0
0
0
0
0
0
0
0
0
0
0
0
0
0
0
0
0
0
0
0
0
0
0
0
0
0
0
0
0
0
0
0
0
0
0
0
0
0
0
0
0
0
0
0
0
0
0
0
0
0
0
0
0
0
0
0
0
0
0
0
0
0
0
0
0
0
0
0
0
0
0
0
0
0
0
0
0
0
0
0
0
0
0
0
0
0
0
0
0
0
0
0
0
0
0
0
0
0
0
0
0
0
0
0
0
0
0
0
0
0
0
0
0
0
0
0
0
0
0
0
0
0
0
0
0
0
0
0
0
0
0
0
0
0
0
0
0
0
0
0
0
0
0
0
0
0
0
0
0
0
0
0
0
0
0
0
0
0
0
0
0
0
0
0
0
0
0
0
0
0
0
0
0
0
0
0
0
0
0
0
0
0
0
0
0
0
0
0
0
0
0
0
0
0
0
0
0
0
0
0
0
0
0
0
0
0
0
0
0
0
0
0
0
0
0
0
0
0
0
0
0
0
0
0
0
0
0
0
0
0
0
0
0
0
0
0
0
0
0
0
0
0
0
0
0
0
0
0
0
0
0
0
0
0
0
0
0
0
0
0
204
210
210
209
209
211
212
207
218
221
221
222
222
222
222
223
223
221
221
215
210
210
209
208
211
210
194
184
160
158
158
157
156
199
216
231
228
229
230
241
248
254
254
254
254
255
254
254
253
251
195
232
147
123
121
123
128
125
124
129
128
127
129
130
126
132
126
128
132
129
132
128
128
123
132
124
122
125
126
133
127
166
214
244
177
250
251
243
251
252
251
252
255
254
253
254
252
255
252
255
255
255
255
254
254
254
253
254
255
254
254
254
254
254
254
254
255
254
254
254
255
255
254
254
254
0
0
0
0
0
0
0
0
0
0
0
0
0
0
0
0
0
0
0
0
0
0
0
0
0
0
0
0
0
0
0
0
0
0
0
0
0
0
0
0
0
0
0
0
0
0
0
0
0
0
0
0
0
0
0
0
0
0
0
0
0
0
0
0
0
0
0
0
0
0
0
0
0
0
0
0
0
0
0
0
0
0
0
0
0
0
0
0
0
0
0
0
0
0
0
0
0
0
0
0
0
0
0
0
0
0
0
0
0
0
0
0
0
0
0
0
0
0
0
0
0
0
0
0
0
0
0
0
0
0
0
0
0
0
0
0
0
0
0
0
0
0
0
0
0
0
0
0
0
0
0
0
0
0
0
0
0
0
0
0
0
0
0
0
0
0
0
0
0
0
0
0
0
0
0
0
0
0
0
0
0
0
0
0
0
0
0
0
0
0
0
0
0
0
0
0
0
0
0
0
0
0
0
0
0
0
0
0
0
0
0
0
0
0
0
0
0
0
0
0
0
0
0
0
0
0
0
0
0
0
0
0
0
0
0
0
0
0
0
0
0
0
0
0
0
0
0
0
0
0
0
0
0
0
0
0
0
0
0
0
0
0
0
0
0
0
0
0
0
0
0
0
0
0
0
0
0
0
0
0
0
0
0
0
0
0
0
0
0
0
0
0
0
0
0
0
0
0
0
0
0
0
0
0
0
0
0
0
0
0
0
0
0
0
0
0
0
0
0
0
0
0
0
0
0
0
0
0
0
0
0
0
0
0
0
0
0
0
0
0
0
0
0
0
0
0
0
0
0
0
0
0
0
0
0
0
0
0
0
0
0
0
0
0
0
0
0
0
0
0
0
0
0
0
0
0
0
0
0
0
0
0
0
0
0
0
0
0
0
0
0
0
0
0
0
0
0
0
0
0
0
0
0
0
0
0
0
0
0
0
0
0
0
0
0
0
0
0
0
0
0
0
0
0
0
0
0
0
0
0
0
0
0
0
0
0
0
0
0
0
0
0
0
0
0
208
210
210
209
212
211
208
217
221
221
223
222
222
222
223
223
222
222
215
215
208
210
209
209
210
200
200
158
158
158
159
158
186
186
230
230
228
229
234
241
255
254
254
254
254
254
254
252
249
156
156
119
128
123
128
132
128
130
129
128
128
131
129
130
129
129
127
127
130
128
132
124
132
125
125
130
124
125
130
124
127
125
125
117
177
122
139
243
172
218
246
246
250
252
253
254
252
255
252
253
254
255
255
255
254
254
254
253
253
253
253
254
254
254
254
255
255
254
254
253
254
255
255
254
254
254
0
0
0
0
0
0
0
0
0
0
0
0
0
0
0
0
0
0
0
0
0
0
0
0
0
0
0
0
0
0
0
0
0
0
0
0
0
0
0
0
0
0
0
0
0
0
0
0
0
0
0
0
0
0
0
0
0
0
0
0
0
0
0
0
0
0
0
0
0
0
0
0
0
0
0
0
0
0
0
0
0
0
0
0
0
0
0
0
0
0
0
0
0
0
0
0
0
0
0
0
0
0
0
0
0
0
0
0
0
0
0
0
0
0
0
0
0
0
0
0
0
0
0
0
0
0
0
0
0
0
0
0
0
0
0
0
0
0
0
0
0
0
0
0
0
0
0
0
0
0
0
0
0
0
0
0
0
0
0
0
0
0
0
0
0
0
0
0
0
0
0
0
0
0
0
0
0
0
0
0
0
0
0
0
0
0
0
0
0
0
0
0
0
0
0
0
0
0
0
0
0
0
0
0
0
0
0
0
0
0
0
0
0
0
0
0
0
0
0
0
0
0
0
0
0
0
0
0
0
0
0
0
0
0
0
0
0
0
0
0
0
0
0
0
0
0
0
0
0
0
0
0
0
0
0
0
0
0
0
0
0
0
0
0
0
0
0
0
0
0
0
0
0
0
0
0
0
0
0
0
0
0
0
0
0
0
0
0
0
0
0
0
0
0
0
0
0
0
0
0
0
0
0
0
0
0
0
0
0
0
0
0
0
0
0
0
0
0
0
0
0
0
0
0
0
0
0
0
0
0
0
0
0
0
0
0
0
0
0
0
0
0
0
0
0
0
0
0
0
0
0
0
0
0
0
0
0
0
0
0
0
0
0
0
0
0
0
0
0
0
0
0
0
0
0
0
0
0
0
0
0
0
0
0
0
0
0
0
0
0
0
0
0
0
0
0
0
0
0
0
0
0
0
0
0
0
0
0
0
0
0
0
0
0
0
0
0
0
0
0
0
0
0
0
0
0
0
0
0
0
0
0
0
0
0
0
0
0
0
0
0
0
0
0
209
209
209
211
211
209
217
221
221
221
222
224
221
223
223
222
221
214
215
208
210
210
210
209
206
204
160
158
158
159
158
162
167
228
229
230
230
231
231
254
255
254
254
255
254
254
252
243
122
127
125
127
130
129
132
132
127
128
128
127
127
128
128
129
129
134
126
131
130
133
135
131
132
126
131
128
130
132
129
129
130
125
129
128
126
122
122
125
123
124
139
186
128
233
249
252
252
253
253
252
254
254
255
255
251
249
254
253
255
254
254
254
254
254
254
254
254
255
253
254
254
255
255
255
254
254
254
0
0
0
0
0
0
0
0
0
0
0
0
0
0
0
0
0
0
0
0
0
0
0
0
0
0
0
0
0
0
0
0
0
0
0
0
0
0
0
0
0
0
0
0
0
0
0
0
0
0
0
0
0
0
0
0
0
0
0
0
0
0
0
0
0
0
0
0
0
0
0
0
0
0
0
0
0
0
0
0
0
0
0
0
0
0
0
0
0
0
0
0
0
0
0
0
0
0
0
0
0
0
0
0
0
0
0
0
0
0
0
0
0
0
0
0
0
0
0
0
0
0
0
0
0
0
0
0
0
0
0
0
0
0
0
0
0
0
0
0
0
0
0
0
0
0
0
0
0
0
0
0
0
0
0
0
0
0
0
0
0
0
0
0
0
0
0
0
0
0
0
0
0
0
0
0
0
0
0
0
0
0
0
0
0
0
0
0
0
0
0
0
0
0
0
0
0
0
0
0
0
0
0
0
0
0
0
0
0
0
0
0
0
0
0
0
0
0
0
0
0
0
0
0
0
0
0
0
0
0
0
0
0
0
0
0
0
0
0
0
0
0
0
0
0
0
0
0
0
0
0
0
0
0
0
0
0
0
0
0
0
0
0
0
0
0
0
0
0
0
0
0
0
0
0
0
0
0
0
0
0
0
0
0
0
0
0
0
0
0
0
0
0
0
0
0
0
0
0
0
0
0
0
0
0
0
0
0
0
0
0
0
0
0
0
0
0
0
0
0
0
0
0
0
0
0
0
0
0
0
0
0
0
0
0
0
0
0
0
0
0
0
0
0
0
0
0
0
0
0
0
0
0
0
0
0
0
0
0
0
0
0
0
0
0
0
0
0
0
0
0
0
0
0
0
0
0
0
0
0
0
0
0
0
0
0
0
0
0
0
0
0
0
0
0
0
0
0
0
0
0
0
0
0
0
0
0
0
0
0
0
0
0
0
0
0
0
0
0
0
0
0
0
0
0
0
0
0
0
0
0
0
0
0
0
0
0
0
0
0
0
0
0
209
209
208
209
210
215
221
221
222
222
222
223
223
223
223
222
215
214
208
210
210
210
210
208
206
168
158
158
159
157
157
162
224
230
229
230
230
230
250
255
254
254
255
254
254
252
230
126
122
125
127
127
128
129
128
129
132
132
128
131
140
132
131
148
146
134
148
151
130
149
147
142
132
139
137
128
133
129
130
130
131
133
129
127
126
130
124
129
131
124
128
128
128
124
123
206
248
187
237
252
250
251
253
255
253
253
254
253
254
254
254
255
255
254
254
254
254
254
254
253
254
254
255
255
255
255
254
254
0
0
0
0
0
0
0
0
0
0
0
0
0
0
0
0
0
0
0
0
0
0
0
0
0
0
0
0
0
0
0
0
0
0
0
0
0
0
0
0
0
0
0
0
0
0
0
0
0
0
0
0
0
0
0
0
0
0
0
0
0
0
0
0
0
0
0
0
0
0
0
0
0
0
0
0
0
0
0
0
0
0
0
0
0
0
0
0
0
0
0
0
0
0
0
0
0
0
0
0
0
0
0
0
0
0
0
0
0
0
0
0
0
0
0
0
0
0
0
0
0
0
0
0
0
0
0
0
0
0
0
0
0
0
0
0
0
0
0
0
0
0
0
0
0
0
0
0
0
0
0
0
0
0
0
0
0
0
0
0
0
0
0
0
0
0
0
0
0
0
0
0
0
0
0
0
0
0
0
0
0
0
0
0
0
0
0
0
0
0
0
0
0
0
0
0
0
0
0
0
0
0
0
0
0
0
0
0
0
0
0
0
0
0
0
0
0
0
0
0
0
0
0
0
0
0
0
0
0
0
0
0
0
0
0
0
0
0
0
0
0
0
0
0
0
0
0
0
0
0
0
0
0
0
0
0
0
0
0
0
0
0
0
0
0
0
0
0
0
0
0
0
0
0
0
0
0
0
0
0
0
0
0
0
0
0
0
0
0
0
0
0
0
0
0
0
0
0
0
0
0
0
0
0
0
0
0
0
0
0
0
0
0
0
0
0
0
0
0
0
0
0
0
0
0
0
0
0
0
0
0
0
0
0
0
0
0
0
0
0
0
0
0
0
0
0
0
0
0
0
0
0
0
0
0
0
0
0
0
0
0
0
0
0
0
0
0
0
0
0
0
0
0
0
0
0
0
0
0
0
0
0
0
0
0
0
0
0
0
0
0
0
0
0
0
0
0
0
0
0
0
0
0
0
0
0
0
0
0
0
0
0
0
0
0
0
0
0
0
0
0
0
0
0
0
0
0
0
0
0
0
0
0
0
0
0
0
0
0
0
0
0
208
208
208
210
213
221
221
222
222
222
223
222
222
223
223
215
215
208
210
210
210
210
208
208
174
159
159
158
159
154
155
216
228
228
230
230
230
237
254
255
255
255
254
254
252
230
124
124
126
130
130
131
130
130
130
130
135
135
142
149
149
157
159
158
158
160
159
159
162
161
161
159
157
156
156
150
149
149
144
139
133
133
132
129
129
131
135
126
126
128
128
128
128
127
127
128
123
128
128
161
206
206
239
249
249
249
251
250
250
253
254
254
251
254
254
254
254
254
254
254
254
254
254
255
255
255
254
254
254
0
0
0
0
0
0
0
0
0
0
0
0
0
0
0
0
0
0
0
0
0
0
0
0
0
0
0
0
0
0
0
0
0
0
0
0
0
0
0
0
0
0
0
0
0
0
0
0
0
0
0
0
0
0
0
0
0
0
0
0
0
0
0
0
0
0
0
0
0
0
0
0
0
0
0
0
0
0
0
0
0
0
0
0
0
0
0
0
0
0
0
0
0
0
0
0
0
0
0
0
0
0
0
0
0
0
0
0
0
0
0
0
0
0
0
0
0
0
0
0
0
0
0
0
0
0
0
0
0
0
0
0
0
0
0
0
0
0
0
0
0
0
0
0
0
0
0
0
0
0
0
0
0
0
0
0
0
0
0
0
0
0
0
0
0
0
0
0
0
0
0
0
0
0
0
0
0
0
0
0
0
0
0
0
0
0
0
0
0
0
0
0
0
0
0
0
0
0
0
0
0
0
0
0
0
0
0
0
0
0
0
0
0
0
0
0
0
0
0
0
0
0
0
0
0
0
0
0
0
0
0
0
0
0
0
0
0
0
0
0
0
0
0
0
0
0
0
0
0
0
0
0
0
0
0
0
0
0
0
0
0
0
0
0
0
0
0
0
0
0
0
0
0
0
0
0
0
0
0
0
0
0
0
0
0
0
0
0
0
0
0
0
0
0
0
0
0
0
0
0
0
0
0
0
0
0
0
0
0
0
0
0
0
0
0
0
0
0
0
0
0
0
0
0
0
0
0
0
0
0
0
0
0
0
0
0
0
0
0
0
0
0
0
0
0
0
0
0
0
0
0
0
0
0
0
0
0
0
0
0
0
0
0
0
0
0
0
0
0
0
0
0
0
0
0
0
0
0
0
0
0
0
0
0
0
0
0
0
0
0
0
0
0
0
0
0
0
0
0
0
0
0
0
0
0
0
0
0
0
0
0
0
0
0
0
0
0
0
0
0
0
0
0
0
0
0
0
0
0
0
0
0
0
0
0
0
0
0
0
0
0
209
209
210
208
219
221
223
222
222
223
223
222
222
222
216
216
208
210
210
209
209
209
209
183
159
160
158
161
156
154
192
230
229
230
229
229
233
251
254
255
254
254
254
253
246
120
125
125
128
129
128
130
131
130
133
150
141
152
161
155
163
162
164
164
162
164
163
163
165
164
161
163
161
160
163
161
162
155
162
160
154
148
160
145
136
155
148
132
132
135
130
130
132
131
126
126
130
124
122
125
122
134
122
120
188
211
126
239
250
212
252
255
253
255
254
254
254
254
254
254
254
254
254
253
255
255
254
254
254
254
0
0
0
0
0
0
0
0
0
0
0
0
0
0
0
0
0
0
0
0
0
0
0
0
0
0
0
0
0
0
0
0
0
0
0
0
0
0
0
0
0
0
0
0
0
0
0
0
0
0
0
0
0
0
0
0
0
0
0
0
0
0
0
0
0
0
0
0
0
0
0
0
0
0
0
0
0
0
0
0
0
0
0
0
0
0
0
0
0
0
0
0
0
0
0
0
0
0
0
0
0
0
0
0
0
0
0
0
0
0
0
0
0
0
0
0
0
0
0
0
0
0
0
0
0
0
0
0
0
0
0
0
0
0
0
0
0
0
0
0
0
0
0
0
0
0
0
0
0
0
0
0
0
0
0
0
0
0
0
0
0
0
0
0
0
0
0
0
0
0
0
0
0
0
0
0
0
0
0
0
0
0
0
0
0
0
0
0
0
0
0
0
0
0
0
0
0
0
0
0
0
0
0
0
0
0
0
0
0
0
0
0
0
0
0
0
0
0
0
0
0
0
0
0
0
0
0
0
0
0
0
0
0
0
0
0
0
0
0
0
0
0
0
0
0
0
0
0
0
0
0
0
0
0
0
0
0
0
0
0
0
0
0
0
0
0
0
0
0
0
0
0
0
0
0
0
0
0
0
0
0
0
0
0
0
0
0
0
0
0
0
0
0
0
0
0
0
0
0
0
0
0
0
0
0
0
0
0
0
0
0
0
0
0
0
0
0
0
0
0
0
0
0
0
0
0
0
0
0
0
0
0
0
0
0
0
0
0
0
0
0
0
0
0
0
0
0
0
0
0
0
0
0
0
0
0
0
0
0
0
0
0
0
0
0
0
0
0
0
0
0
0
0
0
0
0
0
0
0
0
0
0
0
0
0
0
0
0
0
0
0
0
0
0
0
0
0
0
0
0
0
0
0
0
0
0
0
0
0
0
0
0
0
0
0
0
0
0
0
0
0
0
0
0
0
0
0
0
0
0
0
0
0
0
0
0
0
0
0
0
209
208
209
217
217
222
223
222
222
222
223
222
221
216
216
208
210
210
209
209
208
208
197
160
159
159
161
157
157
179
229
229
230
229
229
230
247
254
254
254
255
254
253
249
124
124
130
129
128
129
129
130
131
136
157
157
161
162
161
161
165
162
162
165
163
164
164
166
163
163
163
166
166
164
165
161
165
163
164
164
164
162
160
164
158
160
160
160
153
135
147
141
132
138
133
132
132
128
129
125
126
126
126
126
124
126
126
125
122
212
160
248
254
254
254
254
254
254
255
254
254
254
254
253
253
254
254
254
254
254
254
0
0
0
0
0
0
0
0
0
0
0
0
0
0
0
0
0
0
0
0
0
0
0
0
0
0
0
0
0
0
0
0
0
0
0
0
0
0
0
0
0
0
0
0
0
0
0
0
0
0
0
0
0
0
0
0
0
0
0
0
0
0
0
0
0
0
0
0
0
0
0
0
0
0
0
0
0
0
0
0
0
0
0
0
0
0
0
0
0
0
0
0
0
0
0
0
0
0
0
0
0
0
0
0
0
0
0
0
0
0
0
0
0
0
0
0
0
0
0
0
0
0
0
0
0
0
0
0
0
0
0
0
0
0
0
0
0
0
0
0
0
0
0
0
0
0
0
0
0
0
0
0
0
0
0
0
0
0
0
0
0
0
0
0
0
0
0
0
0
0
0
0
0
0
0
0
0
0
0
0
0
0
0
0
0
0
0
0
0
0
0
0
0
0
0
0
0
0
0
0
0
0
0
0
0
0
0
0
0
0
0
0
0
0
0
0
0
0
0
0
0
0
0
0
0
0
0
0
0
0
0
0
0
0
0
0
0
0
0
0
0
0
0
0
0
0
0
0
0
0
0
0
0
0
0
0
0
0
0
0
0
0
0
0
0
0
0
0
0
0
0
0
0
0
0
0
0
0
0
0
0
0
0
0
0
0
0
0
0
0
0
0
0
0
0
0
0
0
0
0
0
0
0
0
0
0
0
0
0
0
0
0
0
0
0
0
0
0
0
0
0
0
0
0
0
0
0
0
0
0
0
0
0
0
0
0
0
0
0
0
0
0
0
0
0
0
0
0
0
0
0
0
0
0
0
0
0
0
0
0
0
0
0
0
0
0
0
0
0
0
0
0
0
0
0
0
0
0
0
0
0
0
0
0
0
0
0
0
0
0
0
0
0
0
0
0
0
0
0
0
0
0
0
0
0
0
0
0
0
0
0
0
0
0
0
0
0
0
0
0
0
0
0
0
0
0
0
0
0
0
0
0
0
0
0
0
0
0
0
209
208
209
212
220
222
223
220
220
220
223
220
215
216
208
207
210
209
209
209
208
201
158
160
159
160
156
156
168
230
229
230
229
229
231
243
254
255
255
255
255
253
250
167
139
124
129
127
129
129
129
133
140
162
160
163
163
163
162
165
166
165
166
165
163
164
165
166
163
164
168
162
165
172
168
167
167
173
167
166
173
168
164
165
167
162
162
166
163
157
159
159
154
149
161
141
137
144
133
132
129
130
127
132
128
128
127
125
125
122
137
130
239
254
253
254
254
254
254
254
254
255
254
254
254
254
254
254
255
254
254
254
0
0
0
0
0
0
0
0
0
0
0
0
0
0
0
0
0
0
0
0
0
0
0
0
0
0
0
0
0
0
0
0
0
0
0
0
0
0
0
0
0
0
0
0
0
0
0
0
0
0
0
0
0
0
0
0
0
0
0
0
0
0
0
0
0
0
0
0
0
0
0
0
0
0
0
0
0
0
0
0
0
0
0
0
0
0
0
0
0
0
0
0
0
0
0
0
0
0
0
0
0
0
0
0
0
0
0
0
0
0
0
0
0
0
0
0
0
0
0
0
0
0
0
0
0
0
0
0
0
0
0
0
0
0
0
0
0
0
0
0
0
0
0
0
0
0
0
0
0
0
0
0
0
0
0
0
0
0
0
0
0
0
0
0
0
0
0
0
0
0
0
0
0
0
0
0
0
0
0
0
0
0
0
0
0
0
0
0
0
0
0
0
0
0
0
0
0
0
0
0
0
0
0
0
0
0
0
0
0
0
0
0
0
0
0
0
0
0
0
0
0
0
0
0
0
0
0
0
0
0
0
0
0
0
0
0
0
0
0
0
0
0
0
0
0
0
0
0
0
0
0
0
0
0
0
0
0
0
0
0
0
0
0
0
0
0
0
0
0
0
0
0
0
0
0
0
0
0
0
0
0
0
0
0
0
0
0
0
0
0
0
0
0
0
0
0
0
0
0
0
0
0
0
0
0
0
0
0
0
0
0
0
0
0
0
0
0
0
0
0
0
0
0
0
0
0
0
0
0
0
0
0
0
0
0
0
0
0
0
0
0
0
0
0
0
0
0
0
0
0
0
0
0
0
0
0
0
0
0
0
0
0
0
0
0
0
0
0
0
0
0
0
0
0
0
0
0
0
0
0
0
0
0
0
0
0
0
0
0
0
0
0
0
0
0
0
0
0
0
0
0
0
0
0
0
0
0
0
0
0
0
0
0
0
0
0
0
0
0
0
0
0
0
0
0
0
0
0
0
0
0
0
0
0
0
0
0
0
210
211
209
210
221
222
222
223
222
224
221
214
215
210
208
207
209
209
209
209
204
159
158
159
158
156
156
156
228
230
229
229
229
231
234
255
254
254
255
255
254
253
211
167
125
130
129
125
131
129
130
141
161
162
165
164
163
164
165
166
166
163
165
165
166
167
171
166
171
176
168
176
181
172
184
183
182
173
180
180
173
180
180
180
167
172
166
166
166
165
163
160
160
162
161
164
159
144
156
139
134
130
130
130
128
129
129
128
128
130
127
130
126
245
253
251
255
255
254
254
255
255
255
255
254
254
254
254
255
254
254
254
254
0
0
0
0
0
0
0
0
0
0
0
0
0
0
0
0
0
0
0
0
0
0
0
0
0
0
0
0
0
0
0
0
0
0
0
0
0
0
0
0
0
0
0
0
0
0
0
0
0
0
0
0
0
0
0
0
0
0
0
0
0
0
0
0
0
0
0
0
0
0
0
0
0
0
0
0
0
0
0
0
0
0
0
0
0
0
0
0
0
0
0
0
0
0
0
0
0
0
0
0
0
0
0
0
0
0
0
0
0
0
0
0
0
0
0
0
0
0
0
0
0
0
0
0
0
0
0
0
0
0
0
0
0
0
0
0
0
0
0
0
0
0
0
0
0
0
0
0
0
0
0
0
0
0
0
0
0
0
0
0
0
0
0
0
0
0
0
0
0
0
0
0
0
0
0
0
0
0
0
0
0
0
0
0
0
0
0
0
0
0
0
0
0
0
0
0
0
0
0
0
0
0
0
0
0
0
0
0
0
0
0
0
0
0
0
0
0
0
0
0
0
0
0
0
0
0
0
0
0
0
0
0
0
0
0
0
0
0
0
0
0
0
0
0
0
0
0
0
0
0
0
0
0
0
0
0
0
0
0
0
0
0
0
0
0
0
0
0
0
0
0
0
0
0
0
0
0
0
0
0
0
0
0
0
0
0
0
0
0
0
0
0
0
0
0
0
0
0
0
0
0
0
0
0
0
0
0
0
0
0
0
0
0
0
0
0
0
0
0
0
0
0
0
0
0
0
0
0
0
0
0
0
0
0
0
0
0
0
0
0
0
0
0
0
0
0
0
0
0
0
0
0
0
0
0
0
0
0
0
0
0
0
0
0
0
0
0
0
0
0
0
0
0
0
0
0
0
0
0
0
0
0
0
0
0
0
0
0
0
0
0
0
0
0
0
0
0
0
0
0
0
0
0
0
0
0
0
0
0
0
0
0
0
0
0
0
0
0
0
0
0
0
0
0
0
0
0
0
0
0
0
0
0
0
0
0
0
207
209
210
210
210
222
223
223
222
220
212
212
210
209
209
210
209
207
209
206
161
161
159
158
158
158
155
226
226
230
229
229
230
230
253
254
254
255
255
254
254
250
245
117
125
125
128
129
129
129
139
161
161
165
165
165
165
166
165
166
164
164
164
167
175
183
176
179
180
180
183
182
182
184
184
183
184
185
185
185
184
185
184
184
183
181
181
177
172
172
167
164
162
162
163
164
164
161
160
159
150
139
133
133
131
130
130
128
128
129
129
130
131
131
251
251
254
255
254
255
255
255
254
254
254
254
254
254
254
254
254
254
254
255
0
0
0
0
0
0
0
0
0
0
0
0
0
0
0
0
0
0
0
0
0
0
0
0
0
0
0
0
0
0
0
0
0
0
0
0
0
0
0
0
0
0
0
0
0
0
0
0
0
0
0
0
0
0
0
0
0
0
0
0
0
0
0
0
0
0
0
0
0
0
0
0
0
0
0
0
0
0
0
0
0
0
0
0
0
0
0
0
0
0
0
0
0
0
0
0
0
0
0
0
0
0
0
0
0
0
0
0
0
0
0
0
0
0
0
0
0
0
0
0
0
0
0
0
0
0
0
0
0
0
0
0
0
0
0
0
0
0
0
0
0
0
0
0
0
0
0
0
0
0
0
0
0
0
0
0
0
0
0
0
0
0
0
0
0
0
0
0
0
0
0
0
0
0
0
0
0
0
0
0
0
0
0
0
0
0
0
0
0
0
0
0
0
0
0
0
0
0
0
0
0
0
0
0
0
0
0
0
0
0
0
0
0
0
0
0
0
0
0
0
0
0
0
0
0
0
0
0
0
0
0
0
0
0
0
0
0
0
0
0
0
0
0
0
0
0
0
0
0
0
0
0
0
0
0
0
0
0
0
0
0
0
0
0
0
0
0
0
0
0
0
0
0
0
0
0
0
0
0
0
0
0
0
0
0
0
0
0
0
0
0
0
0
0
0
0
0
0
0
0
0
0
0
0
0
0
0
0
0
0
0
0
0
0
0
0
0
0
0
0
0
0
0
0
0
0
0
0
0
0
0
0
0
0
0
0
0
0
0
0
0
0
0
0
0
0
0
0
0
0
0
0
0
0
0
0
0
0
0
0
0
0
0
0
0
0
0
0
0
0
0
0
0
0
0
0
0
0
0
0
0
0
0
0
0
0
0
0
0
0
0
0
0
0
0
0
0
0
0
0
0
0
0
0
0
0
0
0
0
0
0
0
0
0
0
0
0
0
0
0
0
0
0
0
0
0
0
0
0
0
0
0
0
0
0
0
207
208
207
209
210
211
220
220
212
209
212
209
210
210
210
210
209
207
207
171
167
159
159
158
158
154
210
219
230
230
229
229
229
247
253
255
254
255
254
254
251
250
173
128
126
129
129
128
130
134
159
161
165
164
164
164
164
164
165
164
165
164
171
177
185
183
184
183
181
183
182
183
185
185
185
183
183
182
184
184
183
183
184
184
182
184
181
181
184
180
183
179
164
163
164
166
166
165
160
159
162
163
149
136
143
131
130
132
128
129
128
129
131
144
174
252
254
255
253
254
255
255
255
254
254
254
254
254
254
254
254
254
255
255
254
0
0
0
0
0
0
0
0
0
0
0
0
0
0
0
0
0
0
0
0
0
0
0
0
0
0
0
0
0
0
0
0
0
0
0
0
0
0
0
0
0
0
0
0
0
0
0
0
0
0
0
0
0
0
0
0
0
0
0
0
0
0
0
0
0
0
0
0
0
0
0
0
0
0
0
0
0
0
0
0
0
0
0
0
0
0
0
0
0
0
0
0
0
0
0
0
0
0
0
0
0
0
0
0
0
0
0
0
0
0
0
0
0
0
0
0
0
0
0
0
0
0
0
0
0
0
0
0
0
0
0
0
0
0
0
0
0
0
0
0
0
0
0
0
0
0
0
0
0
0
0
0
0
0
0
0
0
0
0
0
0
0
0
0
0
0
0
0
0
0
0
0
0
0
0
0
0
0
0
0
0
0
0
0
0
0
0
0
0
0
0
0
0
0
0
0
0
0
0
0
0
0
0
0
0
0
0
0
0
0
0
0
0
0
0
0
0
0
0
0
0
0
0
0
0
0
0
0
0
0
0
0
0
0
0
0
0
0
0
0
0
0
0
0
0
0
0
0
0
0
0
0
0
0
0
0
0
0
0
0
0
0
0
0
0
0
0
0
0
0
0
0
0
0
0
0
0
0
0
0
0
0
0
0
0
0
0
0
0
0
0
0
0
0
0
0
0
0
0
0
0
0
0
0
0
0
0
0
0
0
0
0
0
0
0
0
0
0
0
0
0
0
0
0
0
0
0
0
0
0
0
0
0
0
0
0
0
0
0
0
0
0
0
0
0
0
0
0
0
0
0
0
0
0
0
0
0
0
0
0
0
0
0
0
0
0
0
0
0
0
0
0
0
0
0
0
0
0
0
0
0
0
0
0
0
0
0
0
0
0
0
0
0
0
0
0
0
0
0
0
0
0
0
0
0
0
0
0
0
0
0
0
0
0
0
0
0
0
0
0
0
0
0
0
0
0
0
0
0
0
0
0
0
0
0
214
209
209
208
208
211
208
209
208
208
209
211
210
211
209
210
210
208
171
171
158
158
158
158
155
204
204
229
229
230
230
228
242
242
255
254
254
254
253
253
253
234
123
123
127
128
129
128
133
155
155
163
164
164
162
162
163
163
164
165
165
162
174
183
183
181
183
183
183
184
182
183
183
182
182
184
183
183
183
184
183
183
183
183
183
182
182
181
184
182
182
182
182
174
164
168
165
162
162
159
163
163
163
161
143
153
138
132
132
129
127
129
128
119
219
219
252
255
255
250
252
254
254
255
255
255
254
254
254
254
253
255
255
254
254
254
0
0
0
0
0
0
0
0
0
0
0
0
0
0
0
0
0
0
0
0
0
0
0
0
0
0
0
0
0
0
0
0
0
0
0
0
0
0
0
0
0
0
0
0
0
0
0
0
0
0
0
0
0
0
0
0
0
0
0
0
0
0
0
0
0
0
0
0
0
0
0
0
0
0
0
0
0
0
0
0
0
0
0
0
0
0
0
0
0
0
0
0
0
0
0
0
0
0
0
0
0
0
0
0
0
0
0
0
0
0
0
0
0
0
0
0
0
0
0
0
0
0
0
0
0
0
0
0
0
0
0
0
0
0
0
0
0
0
0
0
0
0
0
0
0
0
0
0
0
0
0
0
0
0
0
0
0
0
0
0
0
0
0
0
0
0
0
0
0
0
0
0
0
0
0
0
0
0
0
0
0
0
0
0
0
0
0
0
0
0
0
0
0
0
0
0
0
0
0
0
0
0
0
0
0
0
0
0
0
0
0
0
0
0
0
0
0
0
0
0
0
0
0
0
0
0
0
0
0
0
0
0
0
0
0
0
0
0
0
0
0
0
0
0
0
0
0
0
0
0
0
0
0
0
0
0
0
0
0
0
0
0
0
0
0
0
0
0
0
0
0
0
0
0
0
0
0
0
0
0
0
0
0
0
0
0
0
0
0
0
0
0
0
0
0
0
0
0
0
0
0
0
0
0
0
0
0
0
0
0
0
0
0
0
0
0
0
0
0
0
0
0
0
0
0
0
0
0
0
0
0
0
0
0
0
0
0
0
0
0
0
0
0
0
0
0
0
0
0
0
0
0
0
0
0
0
0
0
0
0
0
0
0
0
0
0
0
0
0
0
0
0
0
0
0
0
0
0
0
0
0
0
0
0
0
0
0
0
0
0
0
0
0
0
0
0
0
0
0
0
0
0
0
0
0
0
0
0
0
0
0
0
0
0
0
0
0
0
0
0
0
0
0
0
0
0
0
0
0
0
0
0
0
0
219
218
212
213
209
209
209
209
210
210
209
210
210
209
209
210
209
176
173
159
160
160
158
154
193
198
230
229
229
230
231
233
238
254
255
254
252
254
254
253
249
176
124
131
130
126
129
131
136
146
161
163
162
162
162
162
162
163
163
163
164
162
170
181
183
182
183
184
183
185
183
181
185
182
181
183
182
182
183
183
184
184
183
184
183
183
182
182
186
185
185
183
185
182
179
172
174
164
161
161
164
161
164
164
160
157
160
139
130
129
129
128
126
126
127
249
252
254
251
255
254
254
253
254
254
254
254
254
253
254
254
254
255
255
254
254
254
0
0
0
0
0
0
0
0
0
0
0
0
0
0
0
0
0
0
0
0
0
0
0
0
0
0
0
0
0
0
0
0
0
0
0
0
0
0
0
0
0
0
0
0
0
0
0
0
0
0
0
0
0
0
0
0
0
0
0
0
0
0
0
0
0
0
0
0
0
0
0
0
0
0
0
0
0
0
0
0
0
0
0
0
0
0
0
0
0
0
0
0
0
0
0
0
0
0
0
0
0
0
0
0
0
0
0
0
0
0
0
0
0
0
0
0
0
0
0
0
0
0
0
0
0
0
0
0
0
0
0
0
0
0
0
0
0
0
0
0
0
0
0
0
0
0
0
0
0
0
0
0
0
0
0
0
0
0
0
0
0
0
0
0
0
0
0
0
0
0
0
0
0
0
0
0
0
0
0
0
0
0
0
0
0
0
0
0
0
0
0
0
0
0
0
0
0
0
0
0
0
0
0
0
0
0
0
0
0
0
0
0
0
0
0
0
0
0
0
0
0
0
0
0
0
0
0
0
0
0
0
0
0
0
0
0
0
0
0
0
0
0
0
0
0
0
0
0
0
0
0
0
0
0
0
0
0
0
0
0
0
0
0
0
0
0
0
0
0
0
0
0
0
0
0
0
0
0
0
0
0
0
0
0
0
0
0
0
0
0
0
0
0
0
0
0
0
0
0
0
0
0
0
0
0
0
0
0
0
0
0
0
0
0
0
0
0
0
0
0
0
0
0
0
0
0
0
0
0
0
0
0
0
0
0
0
0
0
0
0
0
0
0
0
0
0
0
0
0
0
0
0
0
0
0
0
0
0
0
0
0
0
0
0
0
0
0
0
0
0
0
0
0
0
0
0
0
0
0
0
0
0
0
0
0
0
0
0
0
0
0
0
0
0
0
0
0
0
0
0
0
0
0
0
0
0
0
0
0
0
0
0
0
0
0
0
0
0
0
0
0
0
0
0
0
0
0
0
0
0
0
0
0
219
219
220
213
213
207
211
209
207
210
209
207
210
210
209
208
178
176
160
160
159
159
157
187
193
230
230
229
231
231
232
233
254
255
255
254
253
255
255
250
243
176
124
129
130
127
130
131
136
154
162
163
162
162
162
162
163
162
163
163
164
163
163
170
173
182
179
178
183
179
181
180
185
183
182
183
184
184
183
183
182
183
183
183
183
183
183
184
184
185
183
180
185
183
183
183
174
178
165
161
163
164
164
168
162
163
160
160
136
129
129
129
130
126
126
201
252
254
253
254
254
252
254
254
254
254
254
254
254
254
254
254
254
255
255
254
255
254
0
0
0
0
0
0
0
0
0
0
0
0
0
0
0
0
0
0
0
0
0
0
0
0
0
0
0
0
0
0
0
0
0
0
0
0
0
0
0
0
0
0
0
0
0
0
0
0
0
0
0
0
0
0
0
0
0
0
0
0
0
0
0
0
0
0
0
0
0
0
0
0
0
0
0
0
0
0
0
0
0
0
0
0
0
0
0
0
0
0
0
0
0
0
0
0
0
0
0
0
0
0
0
0
0
0
0
0
0
0
0
0
0
0
0
0
0
0
0
0
0
0
0
0
0
0
0
0
0
0
0
0
0
0
0
0
0
0
0
0
0
0
0
0
0
0
0
0
0
0
0
0
0
0
0
0
0
0
0
0
0
0
0
0
0
0
0
0
0
0
0
0
0
0
0
0
0
0
0
0
0
0
0
0
0
0
0
0
0
0
0
0
0
0
0
0
0
0
0
0
0
0
0
0
0
0
0
0
0
0
0
0
0
0
0
0
0
0
0
0
0
0
0
0
0
0
0
0
0
0
0
0
0
0
0
0
0
0
0
0
0
0
0
0
0
0
0
0
0
0
0
0
0
0
0
0
0
0
0
0
0
0
0
0
0
0
0
0
0
0
0
0
0
0
0
0
0
0
0
0
0
0
0
0
0
0
0
0
0
0
0
0
0
0
0
0
0
0
0
0
0
0
0
0
0
0
0
0
0
0
0
0
0
0
0
0
0
0
0
0
0
0
0
0
0
0
0
0
0
0
0
0
0
0
0
0
0
0
0
0
0
0
0
0
0
0
0
0
0
0
0
0
0
0
0
0
0
0
0
0
0
0
0
0
0
0
0
0
0
0
0
0
0
0
0
0
0
0
0
0
0
0
0
0
0
0
0
0
0
0
0
0
0
0
0
0
0
0
0
0
0
0
0
0
0
0
0
0
0
0
0
0
0
0
0
0
0
0
0
0
0
0
0
0
0
0
0
0
0
0
0
0
221
222
222
220
209
208
207
210
207
207
210
210
210
210
207
181
181
159
159
158
158
157
179
184
230
229
229
230
229
231
231
254
255
255
255
254
255
254
254
253
252
137
130
130
129
131
129
130
146
163
163
162
165
165
163
163
162
162
162
164
165
164
165
165
166
170
171
171
173
172
168
173
174
175
175
178
180
173
182
184
179
182
184
183
183
183
183
183
184
184
184
184
184
183
183
183
184
179
179
165
165
165
165
164
165
162
163
157
157
132
130
130
129
130
123
123
249
255
253
252
254
253
254
255
254
254
254
254
254
254
254
254
254
254
255
255
255
254
254
0
0
0
0
0
0
0
0
0
0
0
0
0
0
0
0
0
0
0
0
0
0
0
0
0
0
0
0
0
0
0
0
0
0
0
0
0
0
0
0
0
0
0
0
0
0
0
0
0
0
0
0
0
0
0
0
0
0
0
0
0
0
0
0
0
0
0
0
0
0
0
0
0
0
0
0
0
0
0
0
0
0
0
0
0
0
0
0
0
0
0
0
0
0
0
0
0
0
0
0
0
0
0
0
0
0
0
0
0
0
0
0
0
0
0
0
0
0
0
0
0
0
0
0
0
0
0
0
0
0
0
0
0
0
0
0
0
0
0
0
0
0
0
0
0
0
0
0
0
0
0
0
0
0
0
0
0
0
0
0
0
0
0
0
0
0
0
0
0
0
0
0
0
0
0
0
0
0
0
0
0
0
0
0
0
0
0
0
0
0
0
0
0
0
0
0
0
0
0
0
0
0
0
0
0
0
0
0
0
0
0
0
0
0
0
0
0
0
0
0
0
0
0
0
0
0
0
0
0
0
0
0
0
0
0
0
0
0
0
0
0
0
0
0
0
0
0
0
0
0
0
0
0
0
0
0
0
0
0
0
0
0
0
0
0
0
0
0
0
0
0
0
0
0
0
0
0
0
0
0
0
0
0
0
0
0
0
0
0
0
0
0
0
0
0
0
0
0
0
0
0
0
0
0
0
0
0
0
0
0
0
0
0
0
0
0
0
0
0
0
0
0
0
0
0
0
0
0
0
0
0
0
0
0
0
0
0
0
0
0
0
0
0
0
0
0
0
0
0
0
0
0
0
0
0
0
0
0
0
0
0
0
0
0
0
0
0
0
0
0
0
0
0
0
0
0
0
0
0
0
0
0
0
0
0
0
0
0
0
0
0
0
0
0
0
0
0
0
0
0
0
0
0
0
0
0
0
0
0
0
0
0
0
0
0
0
0
0
0
0
0
0
0
0
0
0
0
0
0
0
0
224
221
222
223
214
208
209
209
209
209
208
209
210
207
184
183
159
160
159
158
156
177
179
228
230
229
230
229
231
231
249
255
254
253
254
254
255
252
254
253
250
126
122
126
131
128
129
129
147
157
162
164
165
165
164
164
162
164
165
163
165
165
165
165
165
164
166
164
165
165
168
165
165
168
168
165
165
173
167
166
179
173
177
183
183
182
182
183
183
181
184
184
183
184
183
183
182
185
180
178
165
165
163
164
165
165
163
162
149
141
128
130
130
132
129
138
206
253
253
252
251
253
254
255
255
254
254
254
254
254
254
254
254
253
254
255
255
255
254
254
0
0
0
0
0
0
0
0
0
0
0
0
0
0
0
0
0
0
0
0
0
0
0
0
0
0
0
0
0
0
0
0
0
0
0
0
0
0
0
0
0
0
0
0
0
0
0
0
0
0
0
0
0
0
0
0
0
0
0
0
0
0
0
0
0
0
0
0
0
0
0
0
0
0
0
0
0
0
0
0
0
0
0
0
0
0
0
0
0
0
0
0
0
0
0
0
0
0
0
0
0
0
0
0
0
0
0
0
0
0
0
0
0
0
0
0
0
0
0
0
0
0
0
0
0
0
0
0
0
0
0
0
0
0
0
0
0
0
0
0
0
0
0
0
0
0
0
0
0
0
0
0
0
0
0
0
0
0
0
0
0
0
0
0
0
0
0
0
0
0
0
0
0
0
0
0
0
0
0
0
0
0
0
0
0
0
0
0
0
0
0
0
0
0
0
0
0
0
0
0
0
0
0
0
0
0
0
0
0
0
0
0
0
0
0
0
0
0
0
0
0
0
0
0
0
0
0
0
0
0
0
0
0
0
0
0
0
0
0
0
0
0
0
0
0
0
0
0
0
0
0
0
0
0
0
0
0
0
0
0
0
0
0
0
0
0
0
0
0
0
0
0
0
0
0
0
0
0
0
0
0
0
0
0
0
0
0
0
0
0
0
0
0
0
0
0
0
0
0
0
0
0
0
0
0
0
0
0
0
0
0
0
0
0
0
0
0
0
0
0
0
0
0
0
0
0
0
0
0
0
0
0
0
0
0
0
0
0
0
0
0
0
0
0
0
0
0
0
0
0
0
0
0
0
0
0
0
0
0
0
0
0
0
0
0
0
0
0
0
0
0
0
0
0
0
0
0
0
0
0
0
0
0
0
0
0
0
0
0
0
0
0
0
0
0
0
0
0
0
0
0
0
0
0
0
0
0
0
0
0
0
0
0
0
0
0
0
0
0
0
0
0
0
0
0
0
0
0
0
0
224
219
223
218
218
209
210
210
207
210
209
209
208
184
184
158
158
159
159
156
174
174
228
229
229
230
229
231
231
246
254
254
254
253
254
254
254
253
253
254
198
198
126
129
129
129
132
137
137
157
164
165
165
162
165
165
164
165
166
166
164
164
164
163
163
163
164
164
165
165
164
165
165
164
164
165
165
164
165
165
165
166
166
171
174
179
179
182
184
184
183
184
183
183
183
184
184
183
184
178
176
163
164
164
165
164
164
167
155
134
134
127
128
128
127
122
247
247
254
254
254
253
255
255
255
255
254
254
254
254
254
254
253
253
253
254
255
255
255
254
254
0
0
0
0
0
0
0
0
0
0
0
0
0
0
0
0
0
0
0
0
0
0
0
0
0
0
0
0
0
0
0
0
0
0
0
0
0
0
0
0
0
0
0
0
0
0
0
0
0
0
0
0
0
0
0
0
0
0
0
0
0
0
0
0
0
0
0
0
0
0
0
0
0
0
0
0
0
0
0
0
0
0
0
0
0
0
0
0
0
0
0
0
0
0
0
0
0
0
0
0
0
0
0
0
0
0
0
0
0
0
0
0
0
0
0
0
0
0
0
0
0
0
0
0
0
0
0
0
0
0
0
0
0
0
0
0
0
0
0
0
0
0
0
0
0
0
0
0
0
0
0
0
0
0
0
0
0
0
0
0
0
0
0
0
0
0
0
0
0
0
0
0
0
0
0
0
0
0
0
0
0
0
0
0
0
0
0
0
0
0
0
0
0
0
0
0
0
0
0
0
0
0
0
0
0
0
0
0
0
0
0
0
0
0
0
0
0
0
0
0
0
0
0
0
0
0
0
0
0
0
0
0
0
0
0
0
0
0
0
0
0
0
0
0
0
0
0
0
0
0
0
0
0
0
0
0
0
0
0
0
0
0
0
0
0
0
0
0
0
0
0
0
0
0
0
0
0
0
0
0
0
0
0
0
0
0
0
0
0
0
0
0
0
0
0
0
0
0
0
0
0
0
0
0
0
0
0
0
0
0
0
0
0
0
0
0
0
0
0
0
0
0
0
0
0
0
0
0
0
0
0
0
0
0
0
0
0
0
0
0
0
0
0
0
0
0
0
0
0
0
0
0
0
0
0
0
0
0
0
0
0
0
0
0
0
0
0
0
0
0
0
0
0
0
0
0
0
0
0
0
0
0
0
0
0
0
0
0
0
0
0
0
0
0
0
0
0
0
0
0
0
0
0
0
0
0
0
0
0
0
0
0
0
0
0
0
0
0
0
0
0
0
0
0
0
0
0
0
0
220
223
223
220
210
207
209
209
209
209
209
208
181
181
158
158
159
159
158
171
173
229
230
229
231
229
230
231
243
254
254
254
255
254
253
254
254
254
254
252
252
122
123
130
130
128
128
130
152
162
165
165
163
164
165
164
164
165
165
165
164
165
162
163
162
162
162
162
163
164
164
163
163
162
161
164
164
164
165
165
165
165
164
165
163
169
174
170
181
184
182
184
184
183
182
182
184
186
185
183
169
165
162
165
164
164
164
162
162
147
129
126
129
130
131
125
148
251
254
250
252
255
254
255
255
255
254
254
254
254
254
254
254
253
254
254
254
255
255
255
254
254
0
0
0
0
0
0
0
0
0
0
0
0
0
0
0
0
0
0
0
0
0
0
0
0
0
0
0
0
0
0
0
0
0
0
0
0
0
0
0
0
0
0
0
0
0
0
0
0
0
0
0
0
0
0
0
0
0
0
0
0
0
0
0
0
0
0
0
0
0
0
0
0
0
0
0
0
0
0
0
0
0
0
0
0
0
0
0
0
0
0
0
0
0
0
0
0
0
0
0
0
0
0
0
0
0
0
0
0
0
0
0
0
0
0
0
0
0
0
0
0
0
0
0
0
0
0
0
0
0
0
0
0
0
0
0
0
0
0
0
0
0
0
0
0
0
0
0
0
0
0
0
0
0
0
0
0
0
0
0
0
0
0
0
0
0
0
0
0
0
0
0
0
0
0
0
0
0
0
0
0
0
0
0
0
0
0
0
0
0
0
0
0
0
0
0
0
0
0
0
0
0
0
0
0
0
0
0
0
0
0
0
0
0
0
0
0
0
0
0
0
0
0
0
0
0
0
0
0
0
0
0
0
0
0
0
0
0
0
0
0
0
0
0
0
0
0
0
0
0
0
0
0
0
0
0
0
0
0
0
0
0
0
0
0
0
0
0
0
0
0
0
0
0
0
0
0
0
0
0
0
0
0
0
0
0
0
0
0
0
0
0
0
0
0
0
0
0
0
0
0
0
0
0
0
0
0
0
0
0
0
0
0
0
0
0
0
0
0
0
0
0
0
0
0
0
0
0
0
0
0
0
0
0
0
0
0
0
0
0
0
0
0
0
0
0
0
0
0
0
0
0
0
0
0
0
0
0
0
0
0
0
0
0
0
0
0
0
0
0
0
0
0
0
0
0
0
0
0
0
0
0
0
0
0
0
0
0
0
0
0
0
0
0
0
0
0
0
0
0
0
0
0
0
0
0
0
0
0
0
0
0
0
0
0
0
0
0
0
0
0
0
0
0
0
0
0
0
0
224
222
223
214
211
207
210
211
209
209
207
179
181
159
160
160
160
157
168
171
230
230
230
230
229
230
230
240
254
254
255
254
255
255
254
254
254
254
254
252
250
123
124
124
130
128
128
131
149
162
162
164
163
164
163
163
164
164
165
165
164
164
165
163
164
163
162
162
162
164
164
163
163
162
162
163
163
164
163
164
165
164
164
166
166
165
165
170
167
173
181
181
184
183
182
182
182
186
187
187
174
165
162
164
164
164
165
162
162
155
130
126
127
127
129
129
121
250
254
254
251
255
255
254
255
255
255
254
254
254
253
254
254
255
255
254
254
254
255
255
254
254
254
0
0
0
0
0
0
0
0
0
0
0
0
0
0
0
0
0
0
0
0
0
0
0
0
0
0
0
0
0
0
0
0
0
0
0
0
0
0
0
0
0
0
0
0
0
0
0
0
0
0
0
0
0
0
0
0
0
0
0
0
0
0
0
0
0
0
0
0
0
0
0
0
0
0
0
0
0
0
0
0
0
0
0
0
0
0
0
0
0
0
0
0
0
0
0
0
0
0
0
0
0
0
0
0
0
0
0
0
0
0
0
0
0
0
0
0
0
0
0
0
0
0
0
0
0
0
0
0
0
0
0
0
0
0
0
0
0
0
0
0
0
0
0
0
0
0
0
0
0
0
0
0
0
0
0
0
0
0
0
0
0
0
0
0
0
0
0
0
0
0
0
0
0
0
0
0
0
0
0
0
0
0
0
0
0
0
0
0
0
0
0
0
0
0
0
0
0
0
0
0
0
0
0
0
0
0
0
0
0
0
0
0
0
0
0
0
0
0
0
0
0
0
0
0
0
0
0
0
0
0
0
0
0
0
0
0
0
0
0
0
0
0
0
0
0
0
0
0
0
0
0
0
0
0
0
0
0
0
0
0
0
0
0
0
0
0
0
0
0
0
0
0
0
0
0
0
0
0
0
0
0
0
0
0
0
0
0
0
0
0
0
0
0
0
0
0
0
0
0
0
0
0
0
0
0
0
0
0
0
0
0
0
0
0
0
0
0
0
0
0
0
0
0
0
0
0
0
0
0
0
0
0
0
0
0
0
0
0
0
0
0
0
0
0
0
0
0
0
0
0
0
0
0
0
0
0
0
0
0
0
0
0
0
0
0
0
0
0
0
0
0
0
0
0
0
0
0
0
0
0
0
0
0
0
0
0
0
0
0
0
0
0
0
0
0
0
0
0
0
0
0
0
0
0
0
0
0
0
0
0
0
0
0
0
0
0
0
0
0
0
0
0
0
0
0
0
0
214
219
214
208
208
212
208
210
210
207
176
178
158
159
157
159
158
167
168
230
231
231
229
229
229
230
237
254
253
255
255
254
254
255
255
255
254
254
254
253
214
131
125
128
126
129
130
135
140
159
162
163
163
162
163
163
163
164
163
164
165
164
164
164
164
165
163
162
163
163
163
163
163
163
163
162
162
163
163
163
163
163
162
163
165
162
166
166
165
163
170
180
178
183
183
183
183
182
185
187
184
168
163
163
166
165
165
163
161
158
141
131
126
130
126
128
117
166
252
255
255
254
254
255
254
254
254
255
254
253
253
253
254
254
255
254
254
254
254
255
255
254
254
254
0
0
0
0
0
0
0
0
0
0
0
0
0
0
0
0
0
0
0
0
0
0
0
0
0
0
0
0
0
0
0
0
0
0
0
0
0
0
0
0
0
0
0
0
0
0
0
0
0
0
0
0
0
0
0
0
0
0
0
0
0
0
0
0
0
0
0
0
0
0
0
0
0
0
0
0
0
0
0
0
0
0
0
0
0
0
0
0
0
0
0
0
0
0
0
0
0
0
0
0
0
0
0
0
0
0
0
0
0
0
0
0
0
0
0
0
0
0
0
0
0
0
0
0
0
0
0
0
0
0
0
0
0
0
0
0
0
0
0
0
0
0
0
0
0
0
0
0
0
0
0
0
0
0
0
0
0
0
0
0
0
0
0
0
0
0
0
0
0
0
0
0
0
0
0
0
0
0
0
0
0
0
0
0
0
0
0
0
0
0
0
0
0
0
0
0
0
0
0
0
0
0
0
0
0
0
0
0
0
0
0
0
0
0
0
0
0
0
0
0
0
0
0
0
0
0
0
0
0
0
0
0
0
0
0
0
0
0
0
0
0
0
0
0
0
0
0
0
0
0
0
0
0
0
0
0
0
0
0
0
0
0
0
0
0
0
0
0
0
0
0
0
0
0
0
0
0
0
0
0
0
0
0
0
0
0
0
0
0
0
0
0
0
0
0
0
0
0
0
0
0
0
0
0
0
0
0
0
0
0
0
0
0
0
0
0
0
0
0
0
0
0
0
0
0
0
0
0
0
0
0
0
0
0
0
0
0
0
0
0
0
0
0
0
0
0
0
0
0
0
0
0
0
0
0
0
0
0
0
0
0
0
0
0
0
0
0
0
0
0
0
0
0
0
0
0
0
0
0
0
0
0
0
0
0
0
0
0
0
0
0
0
0
0
0
0
0
0
0
0
0
0
0
0
0
0
0
0
0
0
0
0
0
0
0
0
0
0
0
0
0
0
0
0
0
0
214
208
210
210
209
209
210
210
206
174
176
159
158
157
157
156
173
167
230
231
231
228
229
229
229
235
254
254
254
254
255
254
254
255
255
255
254
254
254
253
235
131
122
129
126
128
127
130
140
150
164
163
162
162
163
163
163
163
163
163
164
165
164
165
165
165
164
164
163
162
163
163
163
163
162
162
163
163
163
163
163
162
162
162
162
162
163
163
163
163
163
168
178
177
181
182
183
183
185
187
182
168
165
164
164
164
165
163
160
158
153
130
126
130
129
127
117
127
250
253
255
254
254
255
254
254
254
254
255
254
253
254
254
254
254
255
254
254
254
254
255
255
254
254
254
0
0
0
0
0
0
0
0
0
0
0
0
0
0
0
0
0
0
0
0
0
0
0
0
0
0
0
0
0
0
0
0
0
0
0
0
0
0
0
0
0
0
0
0
0
0
0
0
0
0
0
0
0
0
0
0
0
0
0
0
0
0
0
0
0
0
0
0
0
0
0
0
0
0
0
0
0
0
0
0
0
0
0
0
0
0
0
0
0
0
0
0
0
0
0
0
0
0
0
0
0
0
0
0
0
0
0
0
0
0
0
0
0
0
0
0
0
0
0
0
0
0
0
0
0
0
0
0
0
0
0
0
0
0
0
0
0
0
0
0
0
0
0
0
0
0
0
0
0
0
0
0
0
0
0
0
0
0
0
0
0
0
0
0
0
0
0
0
0
0
0
0
0
0
0
0
0
0
0
0
0
0
0
0
0
0
0
0
0
0
0
0
0
0
0
0
0
0
0
0
0
0
0
0
0
0
0
0
0
0
0
0
0
0
0
0
0
0
0
0
0
0
0
0
0
0
0
0
0
0
0
0
0
0
0
0
0
0
0
0
0
0
0
0
0
0
0
0
0
0
0
0
0
0
0
0
0
0
0
0
0
0
0
0
0
0
0
0
0
0
0
0
0
0
0
0
0
0
0
0
0
0
0
0
0
0
0
0
0
0
0
0
0
0
0
0
0
0
0
0
0
0
0
0
0
0
0
0
0
0
0
0
0
0
0
0
0
0
0
0
0
0
0
0
0
0
0
0
0
0
0
0
0
0
0
0
0
0
0
0
0
0
0
0
0
0
0
0
0
0
0
0
0
0
0
0
0
0
0
0
0
0
0
0
0
0
0
0
0
0
0
0
0
0
0
0
0
0
0
0
0
0
0
0
0
0
0
0
0
0
0
0
0
0
0
0
0
0
0
0
0
0
0
0
0
0
0
0
0
0
0
0
0
0
0
0
0
0
0
0
0
0
0
0
0
208
209
209
212
209
210
210
205
171
171
159
159
158
159
156
173
173
230
232
232
227
229
228
228
234
254
254
254
254
254
254
254
255
255
254
255
255
255
254
252
252
162
123
123
127
130
128
126
133
163
163
163
163
164
164
164
163
163
163
163
163
164
162
165
165
165
165
165
163
163
162
162
164
163
163
163
163
163
164
164
162
162
162
162
162
163
163
163
163
165
163
163
167
175
175
180
186
184
184
182
172
172
163
164
163
163
164
162
162
158
138
134
131
129
124
124
124
179
179
252
254
254
254
255
254
254
254
254
254
255
254
255
255
254
254
254
255
255
254
254
254
254
254
254
254
254
0
0
0
0
0
0
0
0
0
0
0
0
0
0
0
0
0
0
0
0
0
0
0
0
0
0
0
0
0
0
0
0
0
0
0
0
0
0
0
0
0
0
0
0
0
0
0
0
0
0
0
0
0
0
0
0
0
0
0
0
0
0
0
0
0
0
0
0
0
0
0
0
0
0
0
0
0
0
0
0
0
0
0
0
0
0
0
0
0
0
0
0
0
0
0
0
0
0
0
0
0
0
0
0
0
0
0
0
0
0
0
0
0
0
0
0
0
0
0
0
0
0
0
0
0
0
0
0
0
0
0
0
0
0
0
0
0
0
0
0
0
0
0
0
0
0
0
0
0
0
0
0
0
0
0
0
0
0
0
0
0
0
0
0
0
0
0
0
0
0
0
0
0
0
0
0
0
0
0
0
0
0
0
0
0
0
0
0
0
0
0
0
0
0
0
0
0
0
0
0
0
0
0
0
0
0
0
0
0
0
0
0
0
0
0
0
0
0
0
0
0
0
0
0
0
0
0
0
0
0
0
0
0
0
0
0
0
0
0
0
0
0
0
0
0
0
0
0
0
0
0
0
0
0
0
0
0
0
0
0
0
0
0
0
0
0
0
0
0
0
0
0
0
0
0
0
0
0
0
0
0
0
0
0
0
0
0
0
0
0
0
0
0
0
0
0
0
0
0
0
0
0
0
0
0
0
0
0
0
0
0
0
0
0
0
0
0
0
0
0
0
0
0
0
0
0
0
0
0
0
0
0
0
0
0
0
0
0
0
0
0
0
0
0
0
0
0
0
0
0
0
0
0
0
0
0
0
0
0
0
0
0
0
0
0
0
0
0
0
0
0
0
0
0
0
0
0
0
0
0
0
0
0
0
0
0
0
0
0
0
0
0
0
0
0
0
0
0
0
0
0
0
0
0
0
0
0
0
0
0
0
0
0
0
0
0
0
0
0
0
0
0
0
0
209
209
211
209
210
210
207
160
168
158
159
158
158
156
178
174
230
229
229
227
230
229
229
232
254
254
254
255
255
254
254
255
255
254
255
253
255
255
254
253
249
214
121
130
129
128
128
126
130
138
163
163
165
164
165
165
164
163
163
162
163
162
163
163
165
165
165
164
164
163
162
163
163
164
164
164
164
164
165
164
163
162
163
162
164
164
163
163
163
162
164
164
165
165
173
169
174
180
180
173
173
165
165
167
164
163
164
167
161
163
148
134
133
129
133
128
127
122
241
251
254
255
255
254
255
254
254
254
254
254
254
254
255
254
254
254
254
255
255
254
254
254
254
254
254
254
254
0
0
0
0
0
0
0
0
0
0
0
0
0
0
0
0
0
0
0
0
0
0
0
0
0
0
0
0
0
0
0
0
0
0
0
0
0
0
0
0
0
0
0
0
0
0
0
0
0
0
0
0
0
0
0
0
0
0
0
0
0
0
0
0
0
0
0
0
0
0
0
0
0
0
0
0
0
0
0
0
0
0
0
0
0
0
0
0
0
0
0
0
0
0
0
0
0
0
0
0
0
0
0
0
0
0
0
0
0
0
0
0
0
0
0
0
0
0
0
0
0
0
0
0
0
0
0
0
0
0
0
0
0
0
0
0
0
0
0
0
0
0
0
0
0
0
0
0
0
0
0
0
0
0
0
0
0
0
0
0
0
0
0
0
0
0
0
0
0
0
0
0
0
0
0
0
0
0
0
0
0
0
0
0
0
0
0
0
0
0
0
0
0
0
0
0
0
0
0
0
0
0
0
0
0
0
0
0
0
0
0
0
0
0
0
0
0
0
0
0
0
0
0
0
0
0
0
0
0
0
0
0
0
0
0
0
0
0
0
0
0
0
0
0
0
0
0
0
0
0
0
0
0
0
0
0
0
0
0
0
0
0
0
0
0
0
0
0
0
0
0
0
0
0
0
0
0
0
0
0
0
0
0
0
0
0
0
0
0
0
0
0
0
0
0
0
0
0
0
0
0
0
0
0
0
0
0
0
0
0
0
0
0
0
0
0
0
0
0
0
0
0
0
0
0
0
0
0
0
0
0
0
0
0
0
0
0
0
0
0
0
0
0
0
0
0
0
0
0
0
0
0
0
0
0
0
0
0
0
0
0
0
0
0
0
0
0
0
0
0
0
0
0
0
0
0
0
0
0
0
0
0
0
0
0
0
0
0
0
0
0
0
0
0
0
0
0
0
0
0
0
0
0
0
0
0
0
0
0
0
0
0
0
0
0
0
0
0
0
0
0
0
0
209
209
210
210
210
201
160
160
161
159
158
158
155
180
180
230
230
229
230
229
229
229
231
254
254
254
255
255
255
255
254
254
254
254
255
253
254
254
254
255
252
214
153
127
130
130
129
128
128
131
150
162
162
164
165
165
165
163
163
163
161
162
162
163
164
165
165
165
164
164
164
163
163
163
164
164
164
165
165
165
164
163
163
164
165
164
164
164
162
162
163
164
165
164
165
166
166
170
169
173
165
163
167
167
166
163
164
165
162
162
162
135
128
128
130
126
127
128
198
252
252
251
254
254
254
254
254
254
254
254
254
255
255
254
254
254
255
255
255
254
254
254
254
255
255
255
254
254
0
0
0
0
0
0
0
0
0
0
0
0
0
0
0
0
0
0
0
0
0
0
0
0
0
0
0
0
0
0
0
0
0
0
0
0
0
0
0
0
0
0
0
0
0
0
0
0
0
0
0
0
0
0
0
0
0
0
0
0
0
0
0
0
0
0
0
0
0
0
0
0
0
0
0
0
0
0
0
0
0
0
0
0
0
0
0
0
0
0
0
0
0
0
0
0
0
0
0
0
0
0
0
0
0
0
0
0
0
0
0
0
0
0
0
0
0
0
0
0
0
0
0
0
0
0
0
0
0
0
0
0
0
0
0
0
0
0
0
0
0
0
0
0
0
0
0
0
0
0
0
0
0
0
0
0
0
0
0
0
0
0
0
0
0
0
0
0
0
0
0
0
0
0
0
0
0
0
0
0
0
0
0
0
0
0
0
0
0
0
0
0
0
0
0
0
0
0
0
0
0
0
0
0
0
0
0
0
0
0
0
0
0
0
0
0
0
0
0
0
0
0
0
0
0
0
0
0
0
0
0
0
0
0
0
0
0
0
0
0
0
0
0
0
0
0
0
0
0
0
0
0
0
0
0
0
0
0
0
0
0
0
0
0
0
0
0
0
0
0
0
0
0
0
0
0
0
0
0
0
0
0
0
0
0
0
0
0
0
0
0
0
0
0
0
0
0
0
0
0
0
0
0
0
0
0
0
0
0
0
0
0
0
0
0
0
0
0
0
0
0
0
0
0
0
0
0
0
0
0
0
0
0
0
0
0
0
0
0
0
0
0
0
0
0
0
0
0
0
0
0
0
0
0
0
0
0
0
0
0
0
0
0
0
0
0
0
0
0
0
0
0
0
0
0
0
0
0
0
0
0
0
0
0
0
0
0
0
0
0
0
0
0
0
0
0
0
0
0
0
0
0
0
0
0
0
0
0
0
0
0
0
0
0
0
0
0
0
0
0
0
0
208
210
208
209
198
160
160
159
158
158
158
156
190
185
230
229
230
230
229
229
229
230
253
253
254
254
254
255
255
255
255
254
254
254
254
254
255
255
253
254
253
249
123
122
126
132
129
128
125
128
131
154
160
160
165
165
165
164
163
163
165
163
163
162
162
164
165
165
165
164
164
164
163
163
163
164
164
164
165
165
164
164
164
165
165
165
164
164
163
162
163
161
164
164
164
164
165
164
166
165
161
162
164
165
166
166
166
164
163
162
156
145
132
130
128
129
125
118
147
248
254
255
254
255
254
254
254
254
254
254
255
255
255
255
254
254
254
255
255
255
254
254
254
254
255
255
255
254
254
0
0
0
0
0
0
0
0
0
0
0
0
0
0
0
0
0
0
0
0
0
0
0
0
0
0
0
0
0
0
0
0
0
0
0
0
0
0
0
0
0
0
0
0
0
0
0
0
0
0
0
0
0
0
0
0
0
0
0
0
0
0
0
0
0
0
0
0
0
0
0
0
0
0
0
0
0
0
0
0
0
0
0
0
0
0
0
0
0
0
0
0
0
0
0
0
0
0
0
0
0
0
0
0
0
0
0
0
0
0
0
0
0
0
0
0
0
0
0
0
0
0
0
0
0
0
0
0
0
0
0
0
0
0
0
0
0
0
0
0
0
0
0
0
0
0
0
0
0
0
0
0
0
0
0
0
0
0
0
0
0
0
0
0
0
0
0
0
0
0
0
0
0
0
0
0
0
0
0
0
0
0
0
0
0
0
0
0
0
0
0
0
0
0
0
0
0
0
0
0
0
0
0
0
0
0
0
0
0
0
0
0
0
0
0
0
0
0
0
0
0
0
0
0
0
0
0
0
0
0
0
0
0
0
0
0
0
0
0
0
0
0
0
0
0
0
0
0
0
0
0
0
0
0
0
0
0
0
0
0
0
0
0
0
0
0
0
0
0
0
0
0
0
0
0
0
0
0
0
0
0
0
0
0
0
0
0
0
0
0
0
0
0
0
0
0
0
0
0
0
0
0
0
0
0
0
0
0
0
0
0
0
0
0
0
0
0
0
0
0
0
0
0
0
0
0
0
0
0
0
0
0
0
0
0
0
0
0
0
0
0
0
0
0
0
0
0
0
0
0
0
0
0
0
0
0
0
0
0
0
0
0
0
0
0
0
0
0
0
0
0
0
0
0
0
0
0
0
0
0
0
0
0
0
0
0
0
0
0
0
0
0
0
0
0
0
0
0
0
0
0
0
0
0
0
0
0
0
0
0
0
0
0
0
0
0
0
0
0
0
0
210
207
208
184
160
160
159
158
159
158
154
195
190
229
229
229
230
229
229
229
230
252
253
253
254
254
254
254
255
255
255
255
254
254
254
254
255
252
254
254
254
251
182
122
127
128
129
128
129
129
129
130
153
160
161
164
165
164
164
166
165
165
164
162
164
164
164
165
165
164
164
164
164
163
163
163
164
164
164
164
164
163
164
164
165
165
165
164
164
163
163
163
162
163
164
164
163
164
164
165
164
162
165
164
166
164
163
165
163
165
159
145
133
129
128
126
132
126
147
224
254
255
255
254
255
254
254
254
254
255
255
255
255
255
254
254
255
255
255
255
255
254
254
254
254
255
255
255
254
254
0
0
0
0
0
0
0
0
0
0
0
0
0
0
0
0
0
0
0
0
0
0
0
0
0
0
0
0
0
0
0
0
0
0
0
0
0
0
0
0
0
0
0
0
0
0
0
0
0
0
0
0
0
0
0
0
0
0
0
0
0
0
0
0
0
0
0
0
0
0
0
0
0
0
0
0
0
0
0
0
0
0
0
0
0
0
0
0
0
0
0
0
0
0
0
0
0
0
0
0
0
0
0
0
0
0
0
0
0
0
0
0
0
0
0
0
0
0
0
0
0
0
0
0
0
0
0
0
0
0
0
0
0
0
0
0
0
0
0
0
0
0
0
0
0
0
0
0
0
0
0
0
0
0
0
0
0
0
0
0
0
0
0
0
0
0
0
0
0
0
0
0
0
0
0
0
0
0
0
0
0
0
0
0
0
0
0
0
0
0
0
0
0
0
0
0
0
0
0
0
0
0
0
0
0
0
0
0
0
0
0
0
0
0
0
0
0
0
0
0
0
0
0
0
0
0
0
0
0
0
0
0
0
0
0
0
0
0
0
0
0
0
0
0
0
0
0
0
0
0
0
0
0
0
0
0
0
0
0
0
0
0
0
0
0
0
0
0
0
0
0
0
0
0
0
0
0
0
0
0
0
0
0
0
0
0
0
0
0
0
0
0
0
0
0
0
0
0
0
0
0
0
0
0
0
0
0
0
0
0
0
0
0
0
0
0
0
0
0
0
0
0
0
0
0
0
0
0
0
0
0
0
0
0
0
0
0
0
0
0
0
0
0
0
0
0
0
0
0
0
0
0
0
0
0
0
0
0
0
0
0
0
0
0
0
0
0
0
0
0
0
0
0
0
0
0
0
0
0
0
0
0
0
0
0
0
0
0
0
0
0
0
0
0
0
0
0
0
0
0
0
0
0
0
0
0
0
0
0
0
0
0
0
0
0
0
0
0
0
0
206
206
177
160
160
159
158
157
158
154
201
201
229
229
229
230
229
230
230
230
252
252
254
254
255
254
254
254
254
255
255
255
254
254
254
255
255
254
254
255
255
254
250
141
129
129
130
129
129
128
130
131
129
148
162
162
163
164
163
164
166
164
164
164
165
165
164
164
164
164
164
164
164
164
163
163
163
164
164
164
163
163
163
163
164
165
165
165
163
163
163
162
162
162
163
163
163
164
164
164
164
165
167
167
168
164
165
163
163
165
165
149
128
128
130
127
129
130
123
250
250
254
251
254
253
254
254
254
255
255
255
255
255
254
254
254
255
255
255
255
255
255
254
254
254
254
255
255
255
254
254
0
0
0
0
0
0
0
0
0
0
0
0
0
0
0
0
0
0
0
0
0
0
0
0
0
0
0
0
0
0
0
0
0
0
0
0
0
0
0
0
0
0
0
0
0
0
0
0
0
0
0
0
0
0
0
0
0
0
0
0
0
0
0
0
0
0
0
0
0
0
0
0
0
0
0
0
0
0
0
0
0
0
0
0
0
0
0
0
0
0
0
0
0
0
0
0
0
0
0
0
0
0
0
0
0
0
0
0
0
0
0
0
0
0
0
0
0
0
0
0
0
0
0
0
0
0
0
0
0
0
0
0
0
0
0
0
0
0
0
0
0
0
0
0
0
0
0
0
0
0
0
0
0
0
0
0
0
0
0
0
0
0
0
0
0
0
0
0
0
0
0
0
0
0
0
0
0
0
0
0
0
0
0
0
0
0
0
0
0
0
0
0
0
0
0
0
0
0
0
0
0
0
0
0
0
0
0
0
0
0
0
0
0
0
0
0
0
0
0
0
0
0
0
0
0
0
0
0
0
0
0
0
0
0
0
0
0
0
0
0
0
0
0
0
0
0
0
0
0
0
0
0
0
0
0
0
0
0
0
0
0
0
0
0
0
0
0
0
0
0
0
0
0
0
0
0
0
0
0
0
0
0
0
0
0
0
0
0
0
0
0
0
0
0
0
0
0
0
0
0
0
0
0
0
0
0
0
0
0
0
0
0
0
0
0
0
0
0
0
0
0
0
0
0
0
0
0
0
0
0
0
0
0
0
0
0
0
0
0
0
0
0
0
0
0
0
0
0
0
0
0
0
0
0
0
0
0
0
0
0
0
0
0
0
0
0
0
0
0
0
0
0
0
0
0
0
0
0
0
0
0
0
0
0
0
0
0
0
0
0
0
0
0
0
0
0
0
0
0
0
0
0
0
0
0
0
0
0
0
0
0
0
0
0
0
0
0
0
0
206
163
159
160
159
159
156
157
154
218
208
229
230
229
229
229
230
230
230
252
252
253
254
254
255
255
255
254
254
254
255
255
255
254
254
254
254
254
254
253
254
254
252
226
127
128
130
130
129
129
128
131
131
130
142
161
159
162
163
162
163
164
163
163
164
165
165
166
164
164
163
163
164
164
164
163
163
163
164
163
163
163
163
163
163
164
165
164
164
163
163
163
162
163
163
163
163
163
164
164
165
171
171
175
184
173
165
165
163
163
162
156
139
128
127
130
129
128
121
175
251
255
253
254
255
255
254
255
255
255
255
255
254
254
254
255
255
255
255
255
255
255
255
254
254
254
254
255
255
255
254
254
0
0
0
0
0
0
0
0
0
0
0
0
0
0
0
0
0
0
0
0
0
0
0
0
0
0
0
0
0
0
0
0
0
0
0
0
0
0
0
0
0
0
0
0
0
0
0
0
0
0
0
0
0
0
0
0
0
0
0
0
0
0
0
0
0
0
0
0
0
0
0
0
0
0
0
0
0
0
0
0
0
0
0
0
0
0
0
0
0
0
0
0
0
0
0
0
0
0
0
0
0
0
0
0
0
0
0
0
0
0
0
0
0
0
0
0
0
0
0
0
0
0
0
0
0
0
0
0
0
0
0
0
0
0
0
0
0
0
0
0
0
0
0
0
0
0
0
0
0
0
0
0
0
0
0
0
0
0
0
0
0
0
0
0
0
0
0
0
0
0
0
0
0
0
0
0
0
0
0
0
0
0
0
0
0
0
0
0
0
0
0
0
0
0
0
0
0
0
0
0
0
0
0
0
0
0
0
0
0
0
0
0
0
0
0
0
0
0
0
0
0
0
0
0
0
0
0
0
0
0
0
0
0
0
0
0
0
0
0
0
0
0
0
0
0
0
0
0
0
0
0
0
0
0
0
0
0
0
0
0
0
0
0
0
0
0
0
0
0
0
0
0
0
0
0
0
0
0
0
0
0
0
0
0
0
0
0
0
0
0
0
0
0
0
0
0
0
0
0
0
0
0
0
0
0
0
0
0
0
0
0
0
0
0
0
0
0
0
0
0
0
0
0
0
0
0
0
0
0
0
0
0
0
0
0
0
0
0
0
0
0
0
0
0
0
0
0
0
0
0
0
0
0
0
0
0
0
0
0
0
0
0
0
0
0
0
0
0
0
0
0
0
0
0
0
0
0
0
0
0
0
0
0
0
0
0
0
0
0
0
0
0
0
0
0
0
0
0
0
0
0
0
0
0
0
0
0
0
0
0
0
0
0
0
0
0
0
0
160
159
159
158
159
156
156
158
224
224
230
230
230
231
229
230
230
231
253
253
254
254
254
254
254
255
255
255
254
254
254
254
254
254
255
255
255
254
252
253
253
254
245
245
216
122
131
131
129
129
129
129
130
130
130
130
150
150
161
161
161
163
163
163
163
163
163
163
165
163
163
163
163
163
163
163
163
163
164
163
163
163
163
162
162
164
164
164
164
164
163
163
163
163
163
163
163
163
163
165
169
169
181
183
184
184
170
164
164
163
163
156
145
128
129
129
129
128
128
137
251
254
254
254
255
255
255
255
255
255
255
254
254
254
255
255
255
254
254
254
255
255
255
255
254
254
254
254
255
255
255
254
254
0
0
0
0
0
0
0
0
0
0
0
0
0
0
0
0
0
0
0
0
0
0
0
0
0
0
0
0
0
0
0
0
0
0
0
0
0
0
0
0
0
0
0
0
0
0
0
0
0
0
0
0
0
0
0
0
0
0
0
0
0
0
0
0
0
0
0
0
0
0
0
0
0
0
0
0
0
0
0
0
0
0
0
0
0
0
0
0
0
0
0
0
0
0
0
0
0
0
0
0
0
0
0
0
0
0
0
0
0
0
0
0
0
0
0
0
0
0
0
0
0
0
0
0
0
0
0
0
0
0
0
0
0
0
0
0
0
0
0
0
0
0
0
0
0
0
0
0
0
0
0
0
0
0
0
0
0
0
0
0
0
0
0
0
0
0
0
0
0
0
0
0
0
0
0
0
0
0
0
0
0
0
0
0
0
0
0
0
0
0
0
0
0
0
0
0
0
0
0
0
0
0
0
0
0
0
0
0
0
0
0
0
0
0
0
0
0
0
0
0
0
0
0
0
0
0
0
0
0
0
0
0
0
0
0
0
0
0
0
0
0
0
0
0
0
0
0
0
0
0
0
0
0
0
0
0
0
0
0
0
0
0
0
0
0
0
0
0
0
0
0
0
0
0
0
0
0
0
0
0
0
0
0
0
0
0
0
0
0
0
0
0
0
0
0
0
0
0
0
0
0
0
0
0
0
0
0
0
0
0
0
0
0
0
0
0
0
0
0
0
0
0
0
0
0
0
0
0
0
0
0
0
0
0
0
0
0
0
0
0
0
0
0
0
0
0
0
0
0
0
0
0
0
0
0
0
0
0
0
0
0
0
0
0
0
0
0
0
0
0
0
0
0
0
0
0
0
0
0
0
0
0
0
0
0
0
0
0
0
0
0
0
0
0
0
0
0
0
0
0
0
0
0
0
0
0
0
0
0
0
0
0
0
0
0
0
0
158
158
159
160
156
156
166
229
227
229
230
230
230
230
229
230
231
253
253
254
254
254
254
254
254
254
255
255
255
254
254
254
254
255
255
255
254
254
253
254
254
254
254
230
231
207
123
129
127
127
130
132
128
129
130
127
130
142
136
155
159
156
160
164
162
164
164
164
165
164
163
163
163
163
163
163
163
164
164
164
164
164
164
163
163
162
163
164
164
164
164
163
163
163
163
163
163
163
164
164
165
176
180
184
181
177
171
166
162
164
164
160
134
127
131
130
128
128
125
121
251
253
255
253
254
255
254
254
255
255
254
254
254
255
255
255
255
254
254
254
254
255
255
255
255
254
254
254
254
255
255
255
254
254
0
0
0
0
0
0
0
0
0
0
0
0
0
0
0
0
0
0
0
0
0
0
0
0
0
0
0
0
0
0
0
0
0
0
0
0
0
0
0
0
0
0
0
0
0
0
0
0
0
0
0
0
0
0
0
0
0
0
0
0
0
0
0
0
0
0
0
0
0
0
0
0
0
0
0
0
0
0
0
0
0
0
0
0
0
0
0
0
0
0
0
0
0
0
0
0
0
0
0
0
0
0
0
0
0
0
0
0
0
0
0
0
0
0
0
0
0
0
0
0
0
0
0
0
0
0
0
0
0
0
0
0
0
0
0
0
0
0
0
0
0
0
0
0
0
0
0
0
0
0
0
0
0
0
0
0
0
0
0
0
0
0
0
0
0
0
0
0
0
0
0
0
0
0
0
0
0
0
0
0
0
0
0
0
0
0
0
0
0
0
0
0
0
0
0
0
0
0
0
0
0
0
0
0
0
0
0
0
0
0
0
0
0
0
0
0
0
0
0
0
0
0
0
0
0
0
0
0
0
0
0
0
0
0
0
0
0
0
0
0
0
0
0
0
0
0
0
0
0
0
0
0
0
0
0
0
0
0
0
0
0
0
0
0
0
0
0
0
0
0
0
0
0
0
0
0
0
0
0
0
0
0
0
0
0
0
0
0
0
0
0
0
0
0
0
0
0
0
0
0
0
0
0
0
0
0
0
0
0
0
0
0
0
0
0
0
0
0
0
0
0
0
0
0
0
0
0
0
0
0
0
0
0
0
0
0
0
0
0
0
0
0
0
0
0
0
0
0
0
0
0
0
0
0
0
0
0
0
0
0
0
0
0
0
0
0
0
0
0
0
0
0
0
0
0
0
0
0
0
0
0
0
0
0
0
0
0
0
0
0
0
0
0
0
0
0
0
0
0
0
0
0
0
0
0
0
0
0
0
0
0
0
0
0
0
0
158
159
160
153
153
185
230
229
229
229
230
229
230
230
229
232
253
253
255
254
254
254
254
254
254
254
254
255
255
254
254
254
254
254
255
255
255
254
254
253
253
254
254
245
230
230
211
126
127
127
128
132
131
127
129
129
129
131
136
131
135
149
149
157
161
164
163
163
165
165
162
163
163
163
163
163
163
163
164
164
164
165
164
164
163
162
162
163
163
164
163
163
163
163
163
163
163
163
164
164
163
172
180
180
183
173
171
165
164
164
164
164
135
127
128
126
128
130
128
180
180
254
253
253
251
255
254
251
254
254
254
254
255
255
255
255
255
255
254
254
254
254
255
255
255
254
254
254
254
254
255
255
255
254
254
0
0
0
0
0
0
0
0
0
0
0
0
0
0
0
0
0
0
0
0
0
0
0
0
0
0
0
0
0
0
0
0
0
0
0
0
0
0
0
0
0
0
0
0
0
0
0
0
0
0
0
0
0
0
0
0
0
0
0
0
0
0
0
0
0
0
0
0
0
0
0
0
0
0
0
0
0
0
0
0
0
0
0
0
0
0
0
0
0
0
0
0
0
0
0
0
0
0
0
0
0
0
0
0
0
0
0
0
0
0
0
0
0
0
0
0
0
0
0
0
0
0
0
0
0
0
0
0
0
0
0
0
0
0
0
0
0
0
0
0
0
0
0
0
0
0
0
0
0
0
0
0
0
0
0
0
0
0
0
0
0
0
0
0
0
0
0
0
0
0
0
0
0
0
0
0
0
0
0
0
0
0
0
0
0
0
0
0
0
0
0
0
0
0
0
0
0
0
0
0
0
0
0
0
0
0
0
0
0
0
0
0
0
0
0
0
0
0
0
0
0
0
0
0
0
0
0
0
0
0
0
0
0
0
0
0
0
0
0
0
0
0
0
0
0
0
0
0
0
0
0
0
0
0
0
0
0
0
0
0
0
0
0
0
0
0
0
0
0
0
0
0
0
0
0
0
0
0
0
0
0
0
0
0
0
0
0
0
0
0
0
0
0
0
0
0
0
0
0
0
0
0
0
0
0
0
0
0
0
0
0
0
0
0
0
0
0
0
0
0
0
0
0
0
0
0
0
0
0
0
0
0
0
0
0
0
0
0
0
0
0
0
0
0
0
0
0
0
0
0
0
0
0
0
0
0
0
0
0
0
0
0
0
0
0
0
0
0
0
0
0
0
0
0
0
0
0
0
0
0
0
0
0
0
0
0
0
0
0
0
0
0
0
0
0
0
0
0
0
0
0
0
0
0
0
0
0
0
0
0
0
0
0
0
0
159
159
159
156
200
229
230
230
230
230
230
229
229
230
234
254
254
255
254
254
254
254
254
254
254
254
254
254
255
255
254
254
254
254
254
255
255
255
254
255
254
252
253
252
234
228
229
220
136
125
125
126
128
130
130
128
128
131
129
126
127
129
143
133
153
158
163
163
162
164
164
163
162
163
163
162
163
163
163
164
164
165
165
164
164
162
162
162
163
163
163
163
163
163
163
163
163
163
162
162
165
165
172
177
169
174
164
162
162
164
165
163
156
130
129
129
127
130
125
123
243
253
249
255
253
253
253
254
255
252
254
255
255
255
255
255
255
255
255
254
254
254
254
255
255
254
254
254
254
254
254
255
255
255
254
254
0
0
0
0
0
0
0
0
0
0
0
0
0
0
0
0
0
0
0
0
0
0
0
0
0
0
0
0
0
0
0
0
0
0
0
0
0
0
0
0
0
0
0
0
0
0
0
0
0
0
0
0
0
0
0
0
0
0
0
0
0
0
0
0
0
0
0
0
0
0
0
0
0
0
0
0
0
0
0
0
0
0
0
0
0
0
0
0
0
0
0
0
0
0
0
0
0
0
0
0
0
0
0
0
0
0
0
0
0
0
0
0
0
0
0
0
0
0
0
0
0
0
0
0
0
0
0
0
0
0
0
0
0
0
0
0
0
0
0
0
0
0
0
0
0
0
0
0
0
0
0
0
0
0
0
0
0
0
0
0
0
0
0
0
0
0
0
0
0
0
0
0
0
0
0
0
0
0
0
0
0
0
0
0
0
0
0
0
0
0
0
0
0
0
0
0
0
0
0
0
0
0
0
0
0
0
0
0
0
0
0
0
0
0
0
0
0
0
0
0
0
0
0
0
0
0
0
0
0
0
0
0
0
0
0
0
0
0
0
0
0
0
0
0
0
0
0
0
0
0
0
0
0
0
0
0
0
0
0
0
0
0
0
0
0
0
0
0
0
0
0
0
0
0
0
0
0
0
0
0
0
0
0
0
0
0
0
0
0
0
0
0
0
0
0
0
0
0
0
0
0
0
0
0
0
0
0
0
0
0
0
0
0
0
0
0
0
0
0
0
0
0
0
0
0
0
0
0
0
0
0
0
0
0
0
0
0
0
0
0
0
0
0
0
0
0
0
0
0
0
0
0
0
0
0
0
0
0
0
0
0
0
0
0
0
0
0
0
0
0
0
0
0
0
0
0
0
0
0
0
0
0
0
0
0
0
0
0
0
0
0
0
0
0
0
0
0
0
0
0
0
0
0
0
0
0
0
0
0
0
0
0
0
0
156
164
159
219
232
229
231
230
230
230
230
228
229
238
254
254
255
255
255
254
254
254
254
254
254
254
254
254
255
255
255
254
254
254
254
255
255
255
255
255
254
254
255
252
249
229
229
231
229
162
123
126
124
130
126
127
128
130
129
130
127
131
132
133
132
140
157
163
162
163
164
163
164
162
163
163
162
163
163
163
164
165
165
164
163
162
162
162
163
163
163
163
163
163
163
163
163
163
164
163
164
165
164
165
169
164
165
165
162
164
162
163
157
132
130
128
129
130
125
125
230
253
254
255
255
254
253
254
255
253
255
255
255
255
254
255
255
255
255
255
255
254
254
254
254
254
254
254
254
254
254
254
255
255
255
254
254
0
0
0
0
0
0
0
0
0
0
0
0
0
0
0
0
0
0
0
0
0
0
0
0
0
0
0
0
0
0
0
0
0
0
0
0
0
0
0
0
0
0
0
0
0
0
0
0
0
0
0
0
0
0
0
0
0
0
0
0
0
0
0
0
0
0
0
0
0
0
0
0
0
0
0
0
0
0
0
0
0
0
0
0
0
0
0
0
0
0
0
0
0
0
0
0
0
0
0
0
0
0
0
0
0
0
0
0
0
0
0
0
0
0
0
0
0
0
0
0
0
0
0
0
0
0
0
0
0
0
0
0
0
0
0
0
0
0
0
0
0
0
0
0
0
0
0
0
0
0
0
0
0
0
0
0
0
0
0
0
0
0
0
0
0
0
0
0
0
0
0
0
0
0
0
0
0
0
0
0
0
0
0
0
0
0
0
0
0
0
0
0
0
0
0
0
0
0
0
0
0
0
0
0
0
0
0
0
0
0
0
0
0
0
0
0
0
0
0
0
0
0
0
0
0
0
0
0
0
0
0
0
0
0
0
0
0
0
0
0
0
0
0
0
0
0
0
0
0
0
0
0
0
0
0
0
0
0
0
0
0
0
0
0
0
0
0
0
0
0
0
0
0
0
0
0
0
0
0
0
0
0
0
0
0
0
0
0
0
0
0
0
0
0
0
0
0
0
0
0
0
0
0
0
0
0
0
0
0
0
0
0
0
0
0
0
0
0
0
0
0
0
0
0
0
0
0
0
0
0
0
0
0
0
0
0
0
0
0
0
0
0
0
0
0
0
0
0
0
0
0
0
0
0
0
0
0
0
0
0
0
0
0
0
0
0
0
0
0
0
0
0
0
0
0
0
0
0
0
0
0
0
0
0
0
0
0
0
0
0
0
0
0
0
0
0
0
0
0
0
0
0
0
0
0
0
0
0
0
0
0
0
0
191
175
227
231
231
230
228
228
229
230
228
228
240
254
254
255
254
255
255
255
254
254
254
254
254
254
254
255
255
255
254
254
254
254
254
254
255
255
255
255
254
254
254
255
243
243
228
231
231
229
223
155
155
120
124
124
126
130
130
130
127
127
127
129
131
131
135
149
160
160
164
162
162
165
166
162
162
162
162
162
164
165
165
164
163
162
162
163
163
163
163
163
163
163
163
164
164
164
162
162
163
164
163
163
164
164
164
165
163
163
163
163
144
144
129
130
129
129
130
135
135
251
254
254
251
255
252
252
255
255
255
255
255
255
255
254
255
255
255
255
254
254
254
254
254
254
254
254
255
255
254
254
255
255
255
255
254
254
0
0
0
0
0
0
0
0
0
0
0
0
0
0
0
0
0
0
0
0
0
0
0
0
0
0
0
0
0
0
0
0
0
0
0
0
0
0
0
0
0
0
0
0
0
0
0
0
0
0
0
0
0
0
0
0
0
0
0
0
0
0
0
0
0
0
0
0
0
0
0
0
0
0
0
0
0
0
0
0
0
0
0
0
0
0
0
0
0
0
0
0
0
0
0
0
0
0
0
0
0
0
0
0
0
0
0
0
0
0
0
0
0
0
0
0
0
0
0
0
0
0
0
0
0
0
0
0
0
0
0
0
0
0
0
0
0
0
0
0
0
0
0
0
0
0
0
0
0
0
0
0
0
0
0
0
0
0
0
0
0
0
0
0
0
0
0
0
0
0
0
0
0
0
0
0
0
0
0
0
0
0
0
0
0
0
0
0
0
0
0
0
0
0
0
0
0
0
0
0
0
0
0
0
0
0
0
0
0
0
0
0
0
0
0
0
0
0
0
0
0
0
0
0
0
0
0
0
0
0
0
0
0
0
0
0
0
0
0
0
0
0
0
0
0
0
0
0
0
0
0
0
0
0
0
0
0
0
0
0
0
0
0
0
0
0
0
0
0
0
0
0
0
0
0
0
0
0
0
0
0
0
0
0
0
0
0
0
0
0
0
0
0
0
0
0
0
0
0
0
0
0
0
0
0
0
0
0
0
0
0
0
0
0
0
0
0
0
0
0
0
0
0
0
0
0
0
0
0
0
0
0
0
0
0
0
0
0
0
0
0
0
0
0
0
0
0
0
0
0
0
0
0
0
0
0
0
0
0
0
0
0
0
0
0
0
0
0
0
0
0
0
0
0
0
0
0
0
0
0
0
0
0
0
0
0
0
0
0
0
0
0
0
0
0
0
0
0
0
0
0
0
0
0
0
0
0
0
0
0
0
0
191
230
230
229
230
229
228
230
227
229
228
242
254
254
254
254
255
255
255
255
255
254
254
254
254
254
255
255
255
254
254
254
254
254
254
254
254
255
255
255
255
254
254
255
254
237
234
228
230
228
230
227
196
224
138
122
131
124
130
126
123
133
129
130
132
130
130
128
145
158
158
166
165
165
165
163
162
162
162
163
163
164
165
164
163
163
163
163
163
163
163
163
163
163
164
164
164
164
164
162
163
164
163
163
163
163
164
164
163
163
161
162
158
131
126
128
127
126
133
123
219
247
253
254
254
255
253
255
254
254
255
255
255
255
255
255
255
255
255
254
254
254
254
254
254
254
254
255
255
255
255
254
254
255
255
255
255
254
254
0
0
0
0
0
0
0
0
0
0
0
0
0
0
0
0
0
0
0
0
0
0
0
0
0
0
0
0
0
0
0
0
0
0
0
0
0
0
0
0
0
0
0
0
0
0
0
0
0
0
0
0
0
0
0
0
0
0
0
0
0
0
0
0
0
0
0
0
0
0
0
0
0
0
0
0
0
0
0
0
0
0
0
0
0
0
0
0
0
0
0
0
0
0
0
0
0
0
0
0
0
0
0
0
0
0
0
0
0
0
0
0
0
0
0
0
0
0
0
0
0
0
0
0
0
0
0
0
0
0
0
0
0
0
0
0
0
0
0
0
0
0
0
0
0
0
0
0
0
0
0
0
0
0
0
0
0
0
0
0
0
0
0
0
0
0
0
0
0
0
0
0
0
0
0
0
0
0
0
0
0
0
0
0
0
0
0
0
0
0
0
0
0
0
0
0
0
0
0
0
0
0
0
0
0
0
0
0
0
0
0
0
0
0
0
0
0
0
0
0
0
0
0
0
0
0
0
0
0
0
0
0
0
0
0
0
0
0
0
0
0
0
0
0
0
0
0
0
0
0
0
0
0
0
0
0
0
0
0
0
0
0
0
0
0
0
0
0
0
0
0
0
0
0
0
0
0
0
0
0
0
0
0
0
0
0
0
0
0
0
0
0
0
0
0
0
0
0
0
0
0
0
0
0
0
0
0
0
0
0
0
0
0
0
0
0
0
0
0
0
0
0
0
0
0
0
0
0
0
0
0
0
0
0
0
0
0
0
0
0
0
0
0
0
0
0
0
0
0
0
0
0
0
0
0
0
0
0
0
0
0
0
0
0
0
0
0
0
0
0
0
0
0
0
0
0
0
0
0
0
0
0
0
0
0
0
0
0
0
0
0
0
0
0
0
0
0
0
0
0
0
0
0
0
0
0
0
0
0
0
0
228
229
229
230
230
229
231
228
231
231
247
254
254
255
254
255
255
255
254
255
255
255
254
254
254
254
254
254
254
254
254
254
255
255
255
254
254
255
254
255
255
255
254
254
254
255
234
232
230
229
229
230
232
224
233
225
173
173
128
125
125
127
129
130
125
128
129
129
130
141
158
161
164
164
164
165
161
162
162
163
163
164
165
164
164
163
163
163
164
164
163
163
163
164
164
165
165
164
164
164
163
163
162
162
163
162
165
162
162
162
164
162
154
128
129
129
125
127
133
120
218
247
252
251
255
255
255
254
254
254
255
255
255
255
255
255
255
255
254
254
254
255
255
254
254
254
254
255
255
255
254
254
254
254
254
255
255
255
254
254
0
0
0
0
0
0
0
0
0
0
0
0
0
0
0
0
0
0
0
0
0
0
0
0
0
0
0
0
0
0
0
0
0
0
0
0
0
0
0
0
0
0
0
0
0
0
0
0
0
0
0
0
0
0
0
0
0
0
0
0
0
0
0
0
0
0
0
0
0
0
0
0
0
0
0
0
0
0
0
0
0
0
0
0
0
0
0
0
0
0
0
0
0
0
0
0
0
0
0
0
0
0
0
0
0
0
0
0
0
0
0
0
0
0
0
0
0
0
0
0
0
0
0
0
0
0
0
0
0
0
0
0
0
0
0
0
0
0
0
0
0
0
0
0
0
0
0
0
0
0
0
0
0
0
0
0
0
0
0
0
0
0
0
0
0
0
0
0
0
0
0
0
0
0
0
0
0
0
0
0
0
0
0
0
0
0
0
0
0
0
0
0
0
0
0
0
0
0
0
0
0
0
0
0
0
0
0
0
0
0
0
0
0
0
0
0
0
0
0
0
0
0
0
0
0
0
0
0
0
0
0
0
0
0
0
0
0
0
0
0
0
0
0
0
0
0
0
0
0
0
0
0
0
0
0
0
0
0
0
0
0
0
0
0
0
0
0
0
0
0
0
0
0
0
0
0
0
0
0
0
0
0
0
0
0
0
0
0
0
0
0
0
0
0
0
0
0
0
0
0
0
0
0
0
0
0
0
0
0
0
0
0
0
0
0
0
0
0
0
0
0
0
0
0
0
0
0
0
0
0
0
0
0
0
0
0
0
0
0
0
0
0
0
0
0
0
0
0
0
0
0
0
0
0
0
0
0
0
0
0
0
0
0
0
0
0
0
0
0
0
0
0
0
0
0
0
0
0
0
0
0
0
0
0
0
0
0
0
0
0
0
0
0
0
0
0
0
0
0
0
0
0
0
0
0
0
0
0
0
0
231
228
230
230
230
231
228
234
232
251
252
255
254
254
254
255
255
254
254
254
255
255
255
254
255
254
254
254
254
254
254
254
254
255
255
255
254
255
255
254
255
255
255
254
254
254
251
231
232
230
231
232
229
230
231
229
231
225
232
173
128
159
124
129
128
129
124
128
128
131
147
161
165
164
166
166
164
163
162
162
164
165
165
165
163
163
163
164
165
165
164
163
163
164
164
165
165
165
164
164
163
162
162
162
162
165
162
162
163
163
164
159
138
129
130
128
128
127
130
150
150
241
254
252
254
253
254
254
255
255
255
255
254
254
255
255
255
255
254
254
254
254
255
255
254
254
255
255
255
255
255
254
254
254
254
254
255
255
255
254
254
0
0
0
0
0
0
0
0
0
0
0
0
0
0
0
0
0
0
0
0
0
0
0
0
0
0
0
0
0
0
0
0
0
0
0
0
0
0
0
0
0
0
0
0
0
0
0
0
0
0
0
0
0
0
0
0
0
0
0
0
0
0
0
0
0
0
0
0
0
0
0
0
0
0
0
0
0
0
0
0
0
0
0
0
0
0
0
0
0
0
0
0
0
0
0
0
0
0
0
0
0
0
0
0
0
0
0
0
0
0
0
0
0
0
0
0
0
0
0
0
0
0
0
0
0
0
0
0
0
0
0
0
0
0
0
0
0
0
0
0
0
0
0
0
0
0
0
0
0
0
0
0
0
0
0
0
0
0
0
0
0
0
0
0
0
0
0
0
0
0
0
0
0
0
0
0
0
0
0
0
0
0
0
0
0
0
0
0
0
0
0
0
0
0
0
0
0
0
0
0
0
0
0
0
0
0
0
0
0
0
0
0
0
0
0
0
0
0
0
0
0
0
0
0
0
0
0
0
0
0
0
0
0
0
0
0
0
0
0
0
0
0
0
0
0
0
0
0
0
0
0
0
0
0
0
0
0
0
0
0
0
0
0
0
0
0
0
0
0
0
0
0
0
0
0
0
0
0
0
0
0
0
0
0
0
0
0
0
0
0
0
0
0
0
0
0
0
0
0
0
0
0
0
0
0
0
0
0
0
0
0
0
0
0
0
0
0
0
0
0
0
0
0
0
0
0
0
0
0
0
0
0
0
0
0
0
0
0
0
0
0
0
0
0
0
0
0
0
0
0
0
0
0
0
0
0
0
0
0
0
0
0
0
0
0
0
0
0
0
0
0
0
0
0
0
0
0
0
0
0
0
0
0
0
0
0
0
0
0
0
0
0
0
0
0
0
0
0
0
0
0
0
0
0
0
0
0
0
0
231
230
230
230
230
228
237
234
253
252
252
255
254
254
254
254
254
254
254
255
255
255
255
255
255
255
254
254
254
254
255
254
255
255
255
255
254
254
255
254
254
255
255
255
254
254
254
254
232
234
228
232
231
229
230
229
229
229
232
231
234
159
211
149
129
129
130
129
128
129
141
161
165
162
165
166
164
162
165
163
164
165
165
165
163
163
162
163
165
165
165
163
163
163
164
164
165
164
164
164
163
163
162
164
166
163
162
164
163
163
161
149
132
129
131
127
128
129
125
122
227
236
254
252
254
254
254
254
254
255
255
254
254
254
255
255
255
255
255
254
254
254
255
255
255
254
254
255
255
255
255
255
255
254
254
254
255
255
255
254
254
254
0
0
0
0
0
0
0
0
0
0
0
0
0
0
0
0
0
0
0
0
0
0
0
0
0
0
0
0
0
0
0
0
0
0
0
0
0
0
0
0
0
0
0
0
0
0
0
0
0
0
0
0
0
0
0
0
0
0
0
0
0
0
0
0
0
0
0
0
0
0
0
0
0
0
0
0
0
0
0
0
0
0
0
0
0
0
0
0
0
0
0
0
0
0
0
0
0
0
0
0
0
0
0
0
0
0
0
0
0
0
0
0
0
0
0
0
0
0
0
0
0
0
0
0
0
0
0
0
0
0
0
0
0
0
0
0
0
0
0
0
0
0
0
0
0
0
0
0
0
0
0
0
0
0
0
0
0
0
0
0
0
0
0
0
0
0
0
0
0
0
0
0
0
0
0
0
0
0
0
0
0
0
0
0
0
0
0
0
0
0
0
0
0
0
0
0
0
0
0
0
0
0
0
0
0
0
0
0
0
0
0
0
0
0
0
0
0
0
0
0
0
0
0
0
0
0
0
0
0
0
0
0
0
0
0
0
0
0
0
0
0
0
0
0
0
0
0
0
0
0
0
0
0
0
0
0
0
0
0
0
0
0
0
0
0
0
0
0
0
0
0
0
0
0
0
0
0
0
0
0
0
0
0
0
0
0
0
0
0
0
0
0
0
0
0
0
0
0
0
0
0
0
0
0
0
0
0
0
0
0
0
0
0
0
0
0
0
0
0
0
0
0
0
0
0
0
0
0
0
0
0
0
0
0
0
0
0
0
0
0
0
0
0
0
0
0
0
0
0
0
0
0
0
0
0
0
0
0
0
0
0
0
0
0
0
0
0
0
0
0
0
0
0
0
0
0
0
0
0
0
0
0
0
0
0
0
0
0
0
0
0
0
0
0
0
0
0
0
0
0
0
0
0
0
0
0
0
0
230
229
229
230
229
243
240
254
253
253
255
255
255
255
254
254
254
254
255
255
255
254
255
255
255
255
255
254
254
254
255
255
255
255
255
255
255
254
254
254
254
254
255
255
255
254
254
255
253
237
237
228
230
230
229
234
231
231
232
228
228
229
232
182
146
128
128
128
129
137
154
156
162
164
164
165
162
162
161
163
165
165
165
164
164
162
162
163
163
165
164
164
163
163
162
163
163
164
164
163
163
163
165
165
165
165
165
163
163
161
153
134
134
130
128
128
131
130
130
131
230
244
244
253
254
254
255
255
254
254
254
253
253
254
255
255
255
255
255
255
254
254
254
255
255
255
254
255
255
255
254
255
255
255
254
254
254
255
255
255
254
254
254
0
0
0
0
0
0
0
0
0
0
0
0
0
0
0
0
0
0
0
0
0
0
0
0
0
0
0
0
0
0
0
0
0
0
0
0
0
0
0
0
0
0
0
0
0
0
0
0
0
0
0
0
0
0
0
0
0
0
0
0
0
0
0
0
0
0
0
0
0
0
0
0
0
0
0
0
0
0
0
0
0
0
0
0
0
0
0
0
0
0
0
0
0
0
0
0
0
0
0
0
0
0
0
0
0
0
0
0
0
0
0
0
0
0
0
0
0
0
0
0
0
0
0
0
0
0
0
0
0
0
0
0
0
0
0
0
0
0
0
0
0
0
0
0
0
0
0
0
0
0
0
0
0
0
0
0
0
0
0
0
0
0
0
0
0
0
0
0
0
0
0
0
0
0
0
0
0
0
0
0
0
0
0
0
0
0
0
0
0
0
0
0
0
0
0
0
0
0
0
0
0
0
0
0
0
0
0
0
0
0
0
0
0
0
0
0
0
0
0
0
0
0
0
0
0
0
0
0
0
0
0
0
0
0
0
0
0
0
0
0
0
0
0
0
0
0
0
0
0
0
0
0
0
0
0
0
0
0
0
0
0
0
0
0
0
0
0
0
0
0
0
0
0
0
0
0
0
0
0
0
0
0
0
0
0
0
0
0
0
0
0
0
0
0
0
0
0
0
0
0
0
0
0
0
0
0
0
0
0
0
0
0
0
0
0
0
0
0
0
0
0
0
0
0
0
0
0
0
0
0
0
0
0
0
0
0
0
0
0
0
0
0
0
0
0
0
0
0
0
0
0
0
0
0
0
0
0
0
0
0
0
0
0
0
0
0
0
0
0
0
0
0
0
0
0
0
0
0
0
0
0
0
0
0
0
0
0
0
0
0
0
0
0
0
0
0
0
0
0
0
0
0
0
0
0
0
0
229
229
230
232
247
243
254
255
254
254
255
254
255
255
254
254
254
254
255
255
254
254
254
255
254
255
255
254
254
254
255
255
255
254
254
254
255
255
254
254
255
255
254
255
254
255
254
254
255
254
242
248
235
230
230
228
233
230
232
230
230
234
185
182
124
131
126
129
133
151
154
160
162
163
166
165
164
163
162
163
164
165
165
165
163
162
162
163
163
164
163
164
162
162
162
162
163
163
163
164
164
165
165
164
165
163
164
164
161
155
132
134
128
129
131
129
130
127
125
189
232
229
253
253
253
253
254
255
254
255
254
254
253
254
255
255
255
255
255
255
255
254
255
255
255
255
255
255
255
254
254
254
255
255
254
254
254
254
255
255
255
254
254
255
0
0
0
0
0
0
0
0
0
0
0
0
0
0
0
0
0
0
0
0
0
0
0
0
0
0
0
0
0
0
0
0
0
0
0
0
0
0
0
0
0
0
0
0
0
0
0
0
0
0
0
0
0
0
0
0
0
0
0
0
0
0
0
0
0
0
0
0
0
0
0
0
0
0
0
0
0
0
0
0
0
0
0
0
0
0
0
0
0
0
0
0
0
0
0
0
0
0
0
0
0
0
0
0
0
0
0
0
0
0
0
0
0
0
0
0
0
0
0
0
0
0
0
0
0
0
0
0
0
0
0
0
0
0
0
0
0
0
0
0
0
0
0
0
0
0
0
0
0
0
0
0
0
0
0
0
0
0
0
0
0
0
0
0
0
0
0
0
0
0
0
0
0
0
0
0
0
0
0
0
0
0
0
0
0
0
0
0
0
0
0
0
0
0
0
0
0
0
0
0
0
0
0
0
0
0
0
0
0
0
0
0
0
0
0
0
0
0
0
0
0
0
0
0
0
0
0
0
0
0
0
0
0
0
0
0
0
0
0
0
0
0
0
0
0
0
0
0
0
0
0
0
0
0
0
0
0
0
0
0
0
0
0
0
0
0
0
0
0
0
0
0
0
0
0
0
0
0
0
0
0
0
0
0
0
0
0
0
0
0
0
0
0
0
0
0
0
0
0
0
0
0
0
0
0
0
0
0
0
0
0
0
0
0
0
0
0
0
0
0
0
0
0
0
0
0
0
0
0
0
0
0
0
0
0
0
0
0
0
0
0
0
0
0
0
0
0
0
0
0
0
0
0
0
0
0
0
0
0
0
0
0
0
0
0
0
0
0
0
0
0
0
0
0
0
0
0
0
0
0
0
0
0
0
0
0
0
0
0
0
0
0
0
0
0
0
0
0
0
0
0
0
0
0
0
0
229
230
232
250
250
254
255
255
255
255
255
255
254
255
255
254
254
254
254
254
254
254
254
254
254
255
255
254
254
254
255
255
255
254
254
254
254
255
255
254
254
255
255
254
254
254
254
255
255
255
254
252
252
238
232
232
231
226
232
232
229
190
190
122
129
129
128
132
151
151
162
162
162
167
164
165
165
163
162
162
164
165
165
165
164
162
162
162
164
164
162
163
162
162
162
162
162
162
163
164
166
164
164
164
163
164
164
162
154
132
132
130
128
128
128
126
130
130
157
229
229
227
251
253
255
255
255
255
255
255
255
254
254
254
254
254
254
254
254
255
255
255
255
255
255
255
255
255
254
254
254
254
254
255
255
254
254
254
254
254
255
255
254
255
254
0
0
0
0
0
0
0
0
0
0
0
0
0
0
0
0
0
0
0
0
0
0
0
0
0
0
0
0
0
0
0
0
0
0
0
0
0
0
0
0
0
0
0
0
0
0
0
0
0
0
0
0
0
0
0
0
0
0
0
0
0
0
0
0
0
0
0
0
0
0
0
0
0
0
0
0
0
0
0
0
0
0
0
0
0
0
0
0
0
0
0
0
0
0
0
0
0
0
0
0
0
0
0
0
0
0
0
0
0
0
0
0
0
0
0
0
0
0
0
0
0
0
0
0
0
0
0
0
0
0
0
0
0
0
0
0
0
0
0
0
0
0
0
0
0
0
0
0
0
0
0
0
0
0
0
0
0
0
0
0
0
0
0
0
0
0
0
0
0
0
0
0
0
0
0
0
0
0
0
0
0
0
0
0
0
0
0
0
0
0
0
0
0
0
0
0
0
0
0
0
0
0
0
0
0
0
0
0
0
0
0
0
0
0
0
0
0
0
0
0
0
0
0
0
0
0
0
0
0
0
0
0
0
0
0
0
0
0
0
0
0
0
0
0
0
0
0
0
0
0
0
0
0
0
0
0
0
0
0
0
0
0
0
0
0
0
0
0
0
0
0
0
0
0
0
0
0
0
0
0
0
0
0
0
0
0
0
0
0
0
0
0
0
0
0
0
0
0
0
0
0
0
0
0
0
0
0
0
0
0
0
0
0
0
0
0
0
0
0
0
0
0
0
0
0
0
0
0
0
0
0
0
0
0
0
0
0
0
0
0
0
0
0
0
0
0
0
0
0
0
0
0
0
0
0
0
0
0
0
0
0
0
0
0
0
0
0
0
0
0
0
0
0
0
0
0
0
0
0
0
0
0
0
0
0
0
0
0
0
0
0
0
0
0
0
0
0
0
0
0
0
0
0
0
0
228
236
255
254
254
254
255
255
255
255
255
255
255
254
255
255
255
254
254
254
254
255
255
255
254
255
255
255
254
254
254
255
254
255
254
255
255
254
255
255
254
254
254
255
254
255
255
255
255
254
253
254
254
255
250
238
245
231
227
229
184
186
124
128
130
128
131
149
150
162
161
161
164
162
163
165
163
162
162
162
162
164
165
165
164
163
162
162
163
162
165
165
164
163
163
162
162
162
163
166
164
164
164
162
163
165
162
147
134
133
130
128
128
129
130
129
127
127
226
232
230
231
243
255
255
254
255
253
254
255
255
255
255
254
254
254
254
254
254
255
255
255
255
255
255
255
255
254
254
254
254
254
255
255
255
255
255
254
254
254
254
255
255
254
254
254
0
0
0
0
0
0
0
0
0
0
0
0
0
0
0
0
0
0
0
0
0
0
0
0
0
0
0
0
0
0
0
0
0
0
0
0
0
0
0
0
0
0
0
0
0
0
0
0
0
0
0
0
0
0
0
0
0
0
0
0
0
0
0
0
0
0
0
0
0
0
0
0
0
0
0
0
0
0
0
0
0
0
0
0
0
0
0
0
0
0
0
0
0
0
0
0
0
0
0
0
0
0
0
0
0
0
0
0
0
0
0
0
0
0
0
0
0
0
0
0
0
0
0
0
0
0
0
0
0
0
0
0
0
0
0
0
0
0
0
0
0
0
0
0
0
0
0
0
0
0
0
0
0
0
0
0
0
0
0
0
0
0
0
0
0
0
0
0
0
0
0
0
0
0
0
0
0
0
0
0
0
0
0
0
0
0
0
0
0
0
0
0
0
0
0
0
0
0
0
0
0
0
0
0
0
0
0
0
0
0
0
0
0
0
0
0
0
0
0
0
0
0
0
0
0
0
0
0
0
0
0
0
0
0
0
0
0
0
0
0
0
0
0
0
0
0
0
0
0
0
0
0
0
0
0
0
0
0
0
0
0
0
0
0
0
0
0
0
0
0
0
0
0
0
0
0
0
0
0
0
0
0
0
0
0
0
0
0
0
0
0
0
0
0
0
0
0
0
0
0
0
0
0
0
0
0
0
0
0
0
0
0
0
0
0
0
0
0
0
0
0
0
0
0
0
0
0
0
0
0
0
0
0
0
0
0
0
0
0
0
0
0
0
0
0
0
0
0
0
0
0
0
0
0
0
0
0
0
0
0
0
0
0
0
0
0
0
0
0
0
0
0
0
0
0
0
0
0
0
0
0
0
0
0
0
0
0
0
0
0
0
0
0
0
0
0
0
0
0
0
0
0
0
0
247
255
255
254
253
254
254
255
255
255
255
255
255
255
254
255
255
254
255
254
254
255
255
255
254
254
255
255
254
254
255
254
254
254
255
255
255
254
254
255
255
254
255
255
255
255
255
255
254
255
255
253
253
255
253
255
245
253
243
179
184
121
130
128
130
131
149
149
161
161
161
164
165
162
167
165
163
162
162
162
162
163
164
165
164
163
163
162
163
164
165
165
163
163
163
162
163
162
165
165
164
164
164
161
163
161
145
133
133
129
128
128
128
129
130
130
120
211
226
231
227
231
243
254
253
254
255
254
254
255
255
255
255
255
254
254
254
254
254
255
255
255
255
255
255
255
254
254
255
255
255
255
255
255
255
255
255
255
254
254
254
254
255
255
254
254
254
0
0
0
0
0
0
0
0
0
0
0
0
0
0
0
0
0
0
0
0
0
0
0
0
0
0
0
0
0
0
0
0
0
0
0
0
0
0
0
0
0
0
0
0
0
0
0
0
0
0
0
0
0
0
0
0
0
0
0
0
0
0
0
0
0
0
0
0
0
0
0
0
0
0
0
0
0
0
0
0
0
0
0
0
0
0
0
0
0
0
0
0
0
0
0
0
0
0
0
0
0
0
0
0
0
0
0
0
0
0
0
0
0
0
0
0
0
0
0
0
0
0
0
0
0
0
0
0
0
0
0
0
0
0
0
0
0
0
0
0
0
0
0
0
0
0
0
0
0
0
0
0
0
0
0
0
0
0
0
0
0
0
0
0
0
0
0
0
0
0
0
0
0
0
0
0
0
0
0
0
0
0
0
0
0
0
0
0
0
0
0
0
0
0
0
0
0
0
0
0
0
0
0
0
0
0
0
0
0
0
0
0
0
0
0
0
0
0
0
0
0
0
0
0
0
0
0
0
0
0
0
0
0
0
0
0
0
0
0
0
0
0
0
0
0
0
0
0
0
0
0
0
0
0
0
0
0
0
0
0
0
0
0
0
0
0
0
0
0
0
0
0
0
0
0
0
0
0
0
0
0
0
0
0
0
0
0
0
0
0
0
0
0
0
0
0
0
0
0
0
0
0
0
0
0
0
0
0
0
0
0
0
0
0
0
0
0
0
0
0
0
0
0
0
0
0
0
0
0
0
0
0
0
0
0
0
0
0
0
0
0
0
0
0
0
0
0
0
0
0
0
0
0
0
0
0
0
0
0
0
0
0
0
0
0
0
0
0
0
0
0
0
0
0
0
0
0
0
0
0
0
0
0
0
0
0
0
0
0
0
0
0
0
0
0
0
0
0
0
0
0
0
0
255
254
255
253
253
254
255
255
255
255
255
255
255
255
255
254
255
254
255
254
254
254
254
255
255
254
254
255
255
255
254
254
254
255
255
255
255
254
254
254
254
255
255
255
255
255
255
254
254
254
255
254
254
253
255
255
253
251
160
174
122
130
130
130
131
149
149
161
162
161
164
164
164
163
165
164
164
162
162
162
162
163
163
164
164
163
163
164
164
165
164
163
166
164
165
163
163
164
165
163
164
164
160
160
160
142
131
131
129
129
129
128
129
129
130
121
192
203
231
233
233
233
253
254
253
254
255
255
254
253
255
255
255
255
255
254
254
254
254
255
255
255
255
255
255
254
254
255
255
255
255
255
255
254
254
255
255
255
255
254
254
254
254
255
254
254
254
254
0
0
0
0
0
0
0
0
0
0
0
0
0
0
0
0
0
0
0
0
0
0
0
0
0
0
0
0
0
0
0
0
0
0
0
0
0
0
0
0
0
0
0
0
0
0
0
0
0
0
0
0
0
0
0
0
0
0
0
0
0
0
0
0
0
0
0
0
0
0
0
0
0
0
0
0
0
0
0
0
0
0
0
0
0
0
0
0
0
0
0
0
0
0
0
0
0
0
0
0
0
0
0
0
0
0
0
0
0
0
0
0
0
0
0
0
0
0
0
0
0
0
0
0
0
0
0
0
0
0
0
0
0
0
0
0
0
0
0
0
0
0
0
0
0
0
0
0
0
0
0
0
0
0
0
0
0
0
0
0
0
0
0
0
0
0
0
0
0
0
0
0
0
0
0
0
0
0
0
0
0
0
0
0
0
0
0
0
0
0
0
0
0
0
0
0
0
0
0
0
0
0
0
0
0
0
0
0
0
0
0
0
0
0
0
0
0
0
0
0
0
0
0
0
0
0
0
0
0
0
0
0
0
0
0
0
0
0
0
0
0
0
0
0
0
0
0
0
0
0
0
0
0
0
0
0
0
0
0
0
0
0
0
0
0
0
0
0
0
0
0
0
0
0
0
0
0
0
0
0
0
0
0
0
0
0
0
0
0
0
0
0
0
0
0
0
0
0
0
0
0
0
0
0
0
0
0
0
0
0
0
0
0
0
0
0
0
0
0
0
0
0
0
0
0
0
0
0
0
0
0
0
0
0
0
0
0
0
0
0
0
0
0
0
0
0
0
0
0
0
0
0
0
0
0
0
0
0
0
0
0
0
0
0
0
0
0
0
0
0
0
0
0
0
0
0
0
0
0
0
0
0
0
0
0
0
0
0
0
0
0
0
0
0
0
0
0
0
0
0
0
0
255
254
255
254
254
254
255
255
255
255
255
255
255
255
255
255
254
254
255
254
254
254
254
254
255
255
255
254
254
255
255
254
255
255
255
254
254
255
255
254
254
255
255
255
255
255
254
255
254
255
254
254
253
254
254
253
248
139
160
124
127
130
130
132
149
149
161
162
162
164
164
164
163
165
164
164
163
162
162
162
162
163
163
163
162
163
163
164
165
165
169
175
166
169
163
165
161
164
163
163
163
162
161
159
134
130
131
128
129
129
127
129
129
129
121
187
192
229
230
229
228
237
254
254
254
254
255
254
254
255
255
255
255
255
255
255
254
254
255
255
255
255
255
255
255
255
255
255
255
255
255
255
255
255
254
254
255
255
255
255
254
254
254
254
254
255
254
254
254
0
0
0
0
0
0
0
0
0
0
0
0
0
0
0
0
0
0
0
0
0
0
0
0
0
0
0
0
0
0
0
0
0
0
0
0
0
0
0
0
0
0
0
0
0
0
0
0
0
0
0
0
0
0
0
0
0
0
0
0
0
0
0
0
0
0
0
0
0
0
0
0
0
0
0
0
0
0
0
0
0
0
0
0
0
0
0
0
0
0
0
0
0
0
0
0
0
0
0
0
0
0
0
0
0
0
0
0
0
0
0
0
0
0
0
0
0
0
0
0
0
0
0
0
0
0
0
0
0
0
0
0
0
0
0
0
0
0
0
0
0
0
0
0
0
0
0
0
0
0
0
0
0
0
0
0
0
0
0
0
0
0
0
0
0
0
0
0
0
0
0
0
0
0
0
0
0
0
0
0
0
0
0
0
0
0
0
0
0
0
0
0
0
0
0
0
0
0
0
0
0
0
0
0
0
0
0
0
0
0
0
0
0
0
0
0
0
0
0
0
0
0
0
0
0
0
0
0
0
0
0
0
0
0
0
0
0
0
0
0
0
0
0
0
0
0
0
0
0
0
0
0
0
0
0
0
0
0
0
0
0
0
0
0
0
0
0
0
0
0
0
0
0
0
0
0
0
0
0
0
0
0
0
0
0
0
0
0
0
0
0
0
0
0
0
0
0
0
0
0
0
0
0
0
0
0
0
0
0
0
0
0
0
0
0
0
0
0
0
0
0
0
0
0
0
0
0
0
0
0
0
0
0
0
0
0
0
0
0
0
0
0
0
0
0
0
0
0
0
0
0
0
0
0
0
0
0
0
0
0
0
0
0
0
0
0
0
0
0
0
0
0
0
0
0
0
0
0
0
0
0
0
0
0
0
0
0
0
0
0
0
0
0
0
0
0
0
0
0
0
0
254
255
255
254
255
255
255
254
255
255
255
255
255
255
255
254
254
254
255
255
255
255
254
254
254
255
255
254
254
255
255
255
255
255
254
254
254
254
254
254
254
254
255
255
255
254
254
254
254
254
254
255
254
254
251
244
129
129
124
128
128
128
132
149
149
161
162
162
164
164
164
163
165
165
165
163
163
163
163
163
163
163
163
162
162
165
165
168
168
172
179
179
177
163
163
163
162
164
164
162
162
162
155
132
129
129
129
131
131
128
128
128
130
122
187
187
232
231
231
229
231
250
250
255
254
254
255
254
255
255
255
254
254
255
255
255
255
255
255
255
254
255
255
255
255
255
255
255
255
255
255
255
255
255
254
254
254
255
255
255
255
255
254
254
254
255
255
254
254
254
0
0
0
0
0
0
0
0
0
0
0
0
0
0
0
0
0
0
0
0
0
0
0
0
0
0
0
0
0
0
0
0
0
0
0
0
0
0
0
0
0
0
0
0
0
0
0
0
0
0
0
0
0
0
0
0
0
0
0
0
0
0
0
0
0
0
0
0
0
0
0
0
0
0
0
0
0
0
0
0
0
0
0
0
0
0
0
0
0
0
0
0
0
0
0
0
0
0
0
0
0
0
0
0
0
0
0
0
0
0
0
0
0
0
0
0
0
0
0
0
0
0
0
0
0
0
0
0
0
0
0
0
0
0
0
0
0
0
0
0
0
0
0
0
0
0
0
0
0
0
0
0
0
0
0
0
0
0
0
0
0
0
0
0
0
0
0
0
0
0
0
0
0
0
0
0
0
0
0
0
0
0
0
0
0
0
0
0
0
0
0
0
0
0
0
0
0
0
0
0
0
0
0
0
0
0
0
0
0
0
0
0
0
0
0
0
0
0
0
0
0
0
0
0
0
0
0
0
0
0
0
0
0
0
0
0
0
0
0
0
0
0
0
0
0
0
0
0
0
0
0
0
0
0
0
0
0
0
0
0
0
0
0
0
0
0
0
0
0
0
0
0
0
0
0
0
0
0
0
0
0
0
0
0
0
0
0
0
0
0
0
0
0
0
0
0
0
0
0
0
0
0
0
0
0
0
0
0
0
0
0
0
0
0
0
0
0
0
0
0
0
0
0
0
0
0
0
0
0
0
0
0
0
0
0
0
0
0
0
0
0
0
0
0
0
0
0
0
0
0
0
0
0
0
0
0
0
0
0
0
0
0
0
0
0
0
0
0
0
0
0
0
0
0
0
0
0
0
0
0
0
0
0
0
0
0
0
0
0
0
0
0
0
0
0
0
0
0
0
0
255
255
254
254
254
251
253
254
254
255
255
255
255
255
255
255
254
255
255
255
255
255
255
254
254
255
254
254
254
254
255
255
255
255
255
254
254
254
255
254
254
254
254
255
255
254
254
254
254
254
255
254
254
251
220
121
125
125
129
131
128
131
149
149
161
162
162
164
164
164
164
165
165
165
163
164
163
164
165
165
164
164
164
163
165
165
169
166
177
182
181
181
172
168
163
162
165
164
162
162
162
151
130
129
129
131
126
128
128
128
126
129
123
204
193
232
229
231
228
231
237
244
254
254
253
254
254
255
255
255
255
255
254
254
255
255
255
255
255
254
254
254
255
255
255
255
255
255
255
255
254
254
255
255
255
254
254
254
255
255
255
255
254
254
254
254
255
255
254
254
254
0
0
0
0
0
0
0
0
0
0
0
0
0
0
0
0
0
0
0
0
0
0
0
0
0
0
0
0
0
0
0
0
0
0
0
0
0
0
0
0
0
0
0
0
0
0
0
0
0
0
0
0
0
0
0
0
0
0
0
0
0
0
0
0
0
0
0
0
0
0
0
0
0
0
0
0
0
0
0
0
0
0
0
0
0
0
0
0
0
0
0
0
0
0
0
0
0
0
0
0
0
0
0
0
0
0
0
0
0
0
0
0
0
0
0
0
0
0
0
0
0
0
0
0
0
0
0
0
0
0
0
0
0
0
0
0
0
0
0
0
0
0
0
0
0
0
0
0
0
0
0
0
0
0
0
0
0
0
0
0
0
0
0
0
0
0
0
0
0
0
0
0
0
0
0
0
0
0
0
0
0
0
0
0
0
0
0
0
0
0
0
0
0
0
0
0
0
0
0
0
0
0
0
0
0
0
0
0
0
0
0
0
0
0
0
0
0
0
0
0
0
0
0
0
0
0
0
0
0
0
0
0
0
0
0
0
0
0
0
0
0
0
0
0
0
0
0
0
0
0
0
0
0
0
0
0
0
0
0
0
0
0
0
0
0
0
0
0
0
0
0
0
0
0
0
0
0
0
0
0
0
0
0
0
0
0
0
0
0
0
0
0
0
0
0
0
0
0
0
0
0
0
0
0
0
0
0
0
0
0
0
0
0
0
0
0
0
0
0
0
0
0
0
0
0
0
0
0
0
0
0
0
0
0
0
0
0
0
0
0
0
0
0
0
0
0
0
0
0
0
0
0
0
0
0
0
0
0
0
0
0
0
0
0
0
0
0
0
0
0
0
0
0
0
0
0
0
0
0
0
0
0
0
0
0
0
0
0
0
0
0
0
0
0
0
0
0
0
0
255
254
254
255
255
254
253
254
254
254
255
255
255
255
255
255
255
255
255
255
255
255
255
255
254
254
254
254
254
254
255
255
255
254
255
255
254
254
254
255
254
254
254
254
255
255
254
254
254
253
255
254
251
205
119
119
126
126
129
129
131
149
149
161
162
162
164
164
164
164
165
165
165
163
164
164
164
165
165
165
165
164
164
164
165
171
171
183
183
182
182
176
172
165
162
165
165
161
161
162
143
131
129
129
128
128
126
129
128
128
126
125
212
212
229
228
229
230
231
232
232
253
254
254
253
254
255
255
255
255
255
255
254
254
254
255
255
255
255
255
254
254
254
255
255
255
255
255
255
255
254
254
254
254
254
254
254
254
254
254
254
254
255
254
254
254
254
255
255
254
254
254
0
0
0
0
0
0
0
0
0
0
0
0
0
0
0
0
0
0
0
0
0
0
0
0
0
0
0
0
0
0
0
0
0
0
0
0
0
0
0
0
0
0
0
0
0
0
0
0
0
0
0
0
0
0
0
0
0
0
0
0
0
0
0
0
0
0
0
0
0
0
0
0
0
0
0
0
0
0
0
0
0
0
0
0
0
0
0
0
0
0
0
0
0
0
0
0
0
0
0
0
0
0
0
0
0
0
0
0
0
0
0
0
0
0
0
0
0
0
0
0
0
0
0
0
0
0
0
0
0
0
0
0
0
0
0
0
0
0
0
0
0
0
0
0
0
0
0
0
0
0
0
0
0
0
0
0
0
0
0
0
0
0
0
0
0
0
0
0
0
0
0
0
0
0
0
0
0
0
0
0
0
0
0
0
0
0
0
0
0
0
0
0
0
0
0
0
0
0
0
0
0
0
0
0
0
0
0
0
0
0
0
0
0
0
0
0
0
0
0
0
0
0
0
0
0
0
0
0
0
0
0
0
0
0
0
0
0
0
0
0
0
0
0
0
0
0
0
0
0
0
0
0
0
0
0
0
0
0
0
0
0
0
0
0
0
0
0
0
0
0
0
0
0
0
0
0
0
0
0
0
0
0
0
0
0
0
0
0
0
0
0
0
0
0
0
0
0
0
0
0
0
0
0
0
0
0
0
0
0
0
0
0
0
0
0
0
0
0
0
0
0
0
0
0
0
0
0
0
0
0
0
0
0
0
0
0
0
0
0
0
0
0
0
0
0
0
0
0
0
0
0
0
0
0
0
0
0
0
0
0
0
0
0
0
0
0
0
0
0
0
0
0
0
0
0
0
0
0
0
0
0
0
0
0
0
0
0
0
0
0
0
0
0
0
0
0
0
0
254
254
251
254
255
255
252
253
252
252
255
255
255
255
255
255
255
255
255
255
255
255
254
255
254
254
254
254
254
254
254
255
255
255
255
254
254
254
254
253
254
254
254
254
254
255
254
254
254
254
254
251
185
124
123
124
130
129
129
132
149
149
161
162
162
164
164
164
164
165
165
165
163
164
164
164
165
163
164
165
164
165
164
165
175
172
183
183
183
184
180
180
165
163
164
165
161
158
159
141
130
129
129
128
130
131
128
127
127
125
140
228
225
230
230
229
230
230
230
229
251
253
254
253
254
255
255
255
255
255
255
255
255
254
254
254
255
255
255
255
255
254
254
254
255
255
255
255
255
255
255
254
254
254
254
254
255
254
254
255
254
254
254
255
254
254
254
254
255
254
254
254
254
0
0
0
0
0
0
0
0
0
0
0
0
0
0
0
0
0
0
0
0
0
0
0
0
0
0
0
0
0
0
0
0
0
0
0
0
0
0
0
0
0
0
0
0
0
0
0
0
0
0
0
0
0
0
0
0
0
0
0
0
0
0
0
0
0
0
0
0
0
0
0
0
0
0
0
0
0
0
0
0
0
0
0
0
0
0
0
0
0
0
0
0
0
0
0
0
0
0
0
0
0
0
0
0
0
0
0
0
0
0
0
0
0
0
0
0
0
0
0
0
0
0
0
0
0
0
0
0
0
0
0
0
0
0
0
0
0
0
0
0
0
0
0
0
0
0
0
0
0
0
0
0
0
0
0
0
0
0
0
0
0
0
0
0
0
0
0
0
0
0
0
0
0
0
0
0
0
0
0
0
0
0
0
0
0
0
0
0
0
0
0
0
0
0
0
0
0
0
0
0
0
0
0
0
0
0
0
0
0
0
0
0
0
0
0
0
0
0
0
0
0
0
0
0
0
0
0
0
0
0
0
0
0
0
0
0
0
0
0
0
0
0
0
0
0
0
0
0
0
0
0
0
0
0
0
0
0
0
0
0
0
0
0
0
0
0
0
0
0
0
0
0
0
0
0
0
0
0
0
0
0
0
0
0
0
0
0
0
0
0
0
0
0
0
0
0
0
0
0
0
0
0
0
0
0
0
0
0
0
0
0
0
0
0
0
0
0
0
0
0
0
0
0
0
0
0
0
0
0
0
0
0
0
0
0
0
0
0
0
0
0
0
0
0
0
0
0
0
0
0
0
0
0
0
0
0
0
0
0
0
0
0
0
0
0
0
0
0
0
0
0
0
0
0
0
0
0
0
0
0
0
0
0
0
0
0
0
0
0
0
0
0
0
0
0
0
0
254
253
251
254
251
255
254
250
254
254
255
255
255
255
255
255
255
255
255
255
254
254
254
255
255
254
254
254
254
254
254
255
255
255
254
255
254
254
253
253
254
255
254
254
254
253
254
254
251
253
251
154
123
124
125
130
130
129
132
150
149
162
162
162
164
164
164
163
165
165
165
163
164
164
164
165
163
163
163
164
164
163
165
177
175
183
184
183
183
181
181
165
165
163
164
161
155
158
135
130
129
129
130
127
130
127
126
126
124
176
230
228
230
229
230
230
228
230
230
243
254
253
255
255
255
255
255
255
255
255
255
255
255
255
255
254
255
255
255
255
255
255
254
254
254
255
255
254
255
255
255
255
254
254
254
254
255
255
255
255
254
254
254
254
255
254
254
254
254
254
255
255
254
254
0
0
0
0
0
0
0
0
0
0
0
0
0
0
0
0
0
0
0
0
0
0
0
0
0
0
0
0
0
0
0
0
0
0
0
0
0
0
0
0
0
0
0
0
0
0
0
0
0
0
0
0
0
0
0
0
0
0
0
0
0
0
0
0
0
0
0
0
0
0
0
0
0
0
0
0
0
0
0
0
0
0
0
0
0
0
0
0
0
0
0
0
0
0
0
0
0
0
0
0
0
0
0
0
0
0
0
0
0
0
0
0
0
0
0
0
0
0
0
0
0
0
0
0
0
0
0
0
0
0
0
0
0
0
0
0
0
0
0
0
0
0
0
0
0
0
0
0
0
0
0
0
0
0
0
0
0
0
0
0
0
0
0
0
0
0
0
0
0
0
0
0
0
0
0
0
0
0
0
0
0
0
0
0
0
0
0
0
0
0
0
0
0
0
0
0
0
0
0
0
0
0
0
0
0
0
0
0
0
0
0
0
0
0
0
0
0
0
0
0
0
0
0
0
0
0
0
0
0
0
0
0
0
0
0
0
0
0
0
0
0
0
0
0
0
0
0
0
0
0
0
0
0
0
0
0
0
0
0
0
0
0
0
0
0
0
0
0
0
0
0
0
0
0
0
0
0
0
0
0
0
0
0
0
0
0
0
0
0
0
0
0
0
0
0
0
0
0
0
0
0
0
0
0
0
0
0
0
0
0
0
0
0
0
0
0
0
0
0
0
0
0
0
0
0
0
0
0
0
0
0
0
0
0
0
0
0
0
0
0
0
0
0
0
0
0
0
0
0
0
0
0
0
0
0
0
0
0
0
0
0
0
0
0
0
0
0
0
0
0
0
0
0
0
0
0
0
0
0
0
0
0
0
0
0
0
0
0
0
0
0
0
0
0
0
0
253
252
254
254
254
254
254
254
252
250
253
253
255
255
255
255
255
255
255
255
254
254
255
255
255
255
255
254
254
254
254
254
255
254
255
255
255
253
253
254
254
254
255
254
254
254
254
253
253
244
140
124
124
128
129
129
129
131
154
150
162
162
162
164
164
164
164
165
165
165
163
164
164
164
165
163
163
163
163
163
163
165
179
178
183
184
184
183
182
182
166
165
163
163
161
150
150
133
129
130
129
129
131
131
130
126
126
121
197
231
231
229
229
229
229
228
229
230
239
255
255
255
253
255
255
255
255
255
255
255
255
255
255
255
255
255
255
255
255
255
255
255
255
254
254
254
254
254
254
255
255
255
255
254
254
254
255
254
255
255
254
254
254
254
254
255
254
254
254
254
255
255
254
254
254
0
0
0
0
0
0
0
0
0
0
0
0
0
0
0
0
0
0
0
0
0
0
0
0
0
0
0
0
0
0
0
0
0
0
0
0
0
0
0
0
0
0
0
0
0
0
0
0
0
0
0
0
0
0
0
0
0
0
0
0
0
0
0
0
0
0
0
0
0
0
0
0
0
0
0
0
0
0
0
0
0
0
0
0
0
0
0
0
0
0
0
0
0
0
0
0
0
0
0
0
0
0
0
0
0
0
0
0
0
0
0
0
0
0
0
0
0
0
0
0
0
0
0
0
0
0
0
0
0
0
0
0
0
0
0
0
0
0
0
0
0
0
0
0
0
0
0
0
0
0
0
0
0
0
0
0
0
0
0
0
0
0
0
0
0
0
0
0
0
0
0
0
0
0
0
0
0
0
0
0
0
0
0
0
0
0
0
0
0
0
0
0
0
0
0
0
0
0
0
0
0
0
0
0
0
0
0
0
0
0
0
0
0
0
0
0
0
0
0
0
0
0
0
0
0
0
0
0
0
0
0
0
0
0
0
0
0
0
0
0
0
0
0
0
0
0
0
0
0
0
0
0
0
0
0
0
0
0
0
0
0
0
0
0
0
0
0
0
0
0
0
0
0
0
0
0
0
0
0
0
0
0
0
0
0
0
0
0
0
0
0
0
0
0
0
0
0
0
0
0
0
0
0
0
0
0
0
0
0
0
0
0
0
0
0
0
0
0
0
0
0
0
0
0
0
0
0
0
0
0
0
0
0
0
0
0
0
0
0
0
0
0
0
0
0
0
0
0
0
0
0
0
0
0
0
0
0
0
0
0
0
0
0
0
0
0
0
0
0
0
0
0
0
0
0
0
0
0
0
0
0
0
0
0
0
0
0
0
0
0
0
0
0
0
0
253
253
254
253
251
251
252
250
252
253
254
255
255
254
255
255
255
255
255
255
255
255
255
255
255
255
255
255
255
255
254
255
255
254
254
255
254
254
254
254
254
254
254
253
254
253
252
253
235
127
128
127
127
127
128
129
133
155
154
162
162
162
164
164
164
164
165
165
165
163
164
164
164
165
163
163
163
163
163
163
167
181
179
183
184
184
183
182
182
168
165
162
163
161
144
146
134
129
128
130
129
128
130
127
122
126
136
230
231
232
230
230
229
229
231
229
229
239
254
255
255
254
255
255
255
255
255
255
255
255
255
255
255
255
255
255
255
255
254
255
255
255
255
255
254
254
255
255
255
253
254
255
255
255
254
254
254
254
254
255
255
254
254
254
254
254
255
254
254
254
254
254
254
254
254
254
0
0
0
0
0
0
0
0
0
0
0
0
0
0
0
0
0
0
0
0
0
0
0
0
0
0
0
0
0
0
0
0
0
0
0
0
0
0
0
0
0
0
0
0
0
0
0
0
0
0
0
0
0
0
0
0
0
0
0
0
0
0
0
0
0
0
0
0
0
0
0
0
0
0
0
0
0
0
0
0
0
0
0
0
0
0
0
0
0
0
0
0
0
0
0
0
0
0
0
0
0
0
0
0
0
0
0
0
0
0
0
0
0
0
0
0
0
0
0
0
0
0
0
0
0
0
0
0
0
0
0
0
0
0
0
0
0
0
0
0
0
0
0
0
0
0
0
0
0
0
0
0
0
0
0
0
0
0
0
0
0
0
0
0
0
0
0
0
0
0
0
0
0
0
0
0
0
0
0
0
0
0
0
0
0
0
0
0
0
0
0
0
0
0
0
0
0
0
0
0
0
0
0
0
0
0
0
0
0
0
0
0
0
0
0
0
0
0
0
0
0
0
0
0
0
0
0
0
0
0
0
0
0
0
0
0
0
0
0
0
0
0
0
0
0
0
0
0
0
0
0
0
0
0
0
0
0
0
0
0
0
0
0
0
0
0
0
0
0
0
0
0
0
0
0
0
0
0
0
0
0
0
0
0
0
0
0
0
0
0
0
0
0
0
0
0
0
0
0
0
0
0
0
0
0
0
0
0
0
0
0
0
0
0
0
0
0
0
0
0
0
0
0
0
0
0
0
0
0
0
0
0
0
0
0
0
0
0
0
0
0
0
0
0
0
0
0
0
0
0
0
0
0
0
0
0
0
0
0
0
0
0
0
0
0
0
0
0
0
0
0
0
0
0
0
0
0
0
0
0
0
0
0
0
0
0
0
0
0
0
0
0
0
0
253
252
252
249
237
251
229
244
250
250
252
254
255
254
255
255
255
255
255
255
255
255
255
255
254
255
255
255
255
255
255
255
255
255
254
254
254
254
254
254
254
254
252
252
253
251
252
206
124
126
126
128
129
127
129
134
156
156
163
162
162
164
164
164
164
165
165
165
163
164
164
164
165
163
163
163
163
163
165
167
181
181
184
184
184
183
182
182
170
165
163
163
162
140
144
133
128
128
128
130
127
127
128
122
122
178
232
230
230
229
230
230
229
230
229
229
239
254
254
252
255
255
255
255
255
255
255
255
255
255
255
254
254
255
255
255
255
255
254
254
255
255
255
255
254
254
254
255
254
254
254
254
255
255
255
254
254
254
255
255
255
255
254
254
254
254
254
255
254
254
254
254
254
254
254
254
254
0
0
0
0
0
0
0
0
0
0
0
0
0
0
0
0
0
0
0
0
0
0
0
0
0
0
0
0
0
0
0
0
0
0
0
0
0
0
0
0
0
0
0
0
0
0
0
0
0
0
0
0
0
0
0
0
0
0
0
0
0
0
0
0
0
0
0
0
0
0
0
0
0
0
0
0
0
0
0
0
0
0
0
0
0
0
0
0
0
0
0
0
0
0
0
0
0
0
0
0
0
0
0
0
0
0
0
0
0
0
0
0
0
0
0
0
0
0
0
0
0
0
0
0
0
0
0
0
0
0
0
0
0
0
0
0
0
0
0
0
0
0
0
0
0
0
0
0
0
0
0
0
0
0
0
0
0
0
0
0
0
0
0
0
0
0
0
0
0
0
0
0
0
0
0
0
0
0
0
0
0
0
0
0
0
0
0
0
0
0
0
0
0
0
0
0
0
0
0
0
0
0
0
0
0
0
0
0
0
0
0
0
0
0
0
0
0
0
0
0
0
0
0
0
0
0
0
0
0
0
0
0
0
0
0
0
0
0
0
0
0
0
0
0
0
0
0
0
0
0
0
0
0
0
0
0
0
0
0
0
0
0
0
0
0
0
0
0
0
0
0
0
0
0
0
0
0
0
0
0
0
0
0
0
0
0
0
0
0
0
0
0
0
0
0
0
0
0
0
0
0
0
0
0
0
0
0
0
0
0
0
0
0
0
0
0
0
0
0
0
0
0
0
0
0
0
0
0
0
0
0
0
0
0
0
0
0
0
0
0
0
0
0
0
0
0
0
0
0
0
0
0
0
0
0
0
0
0
0
0
0
0
0
0
0
0
0
0
0
0
0
0
0
0
0
0
0
0
0
0
0
0
0
0
0
0
0
0
0
0
0
0
0
249
252
220
127
157
133
136
123
167
237
186
250
253
255
254
255
255
255
255
255
255
255
255
254
254
254
255
255
255
255
255
254
255
255
255
254
254
253
254
255
254
254
253
253
249
250
184
123
129
129
131
129
130
129
134
157
156
163
162
162
164
164
164
164
165
165
165
163
164
164
164
165
163
163
163
162
162
165
169
181
181
184
184
184
183
181
182
170
165
163
163
159
136
138
131
128
127
128
130
125
125
126
134
125
195
229
230
229
229
229
229
230
229
229
229
240
255
255
252
255
255
255
255
255
255
255
255
255
255
255
255
254
255
255
255
255
255
255
255
254
254
255
255
254
254
254
254
254
254
255
255
254
255
255
255
255
254
254
255
255
255
255
255
254
255
254
255
255
255
254
254
254
254
254
255
254
254
254
0
0
0
0
0
0
0
0
0
0
0
0
0
0
0
0
0
0
0
0
0
0
0
0
0
0
0
0
0
0
0
0
0
0
0
0
0
0
0
0
0
0
0
0
0
0
0
0
0
0
0
0
0
0
0
0
0
0
0
0
0
0
0
0
0
0
0
0
0
0
0
0
0
0
0
0
0
0
0
0
0
0
0
0
0
0
0
0
0
0
0
0
0
0
0
0
0
0
0
0
0
0
0
0
0
0
0
0
0
0
0
0
0
0
0
0
0
0
0
0
0
0
0
0
0
0
0
0
0
0
0
0
0
0
0
0
0
0
0
0
0
0
0
0
0
0
0
0
0
0
0
0
0
0
0
0
0
0
0
0
0
0
0
0
0
0
0
0
0
0
0
0
0
0
0
0
0
0
0
0
0
0
0
0
0
0
0
0
0
0
0
0
0
0
0
0
0
0
0
0
0
0
0
0
0
0
0
0
0
0
0
0
0
0
0
0
0
0
0
0
0
0
0
0
0
0
0
0
0
0
0
0
0
0
0
0
0
0
0
0
0
0
0
0
0
0
0
0
0
0
0
0
0
0
0
0
0
0
0
0
0
0
0
0
0
0
0
0
0
0
0
0
0
0
0
0
0
0
0
0
0
0
0
0
0
0
0
0
0
0
0
0
0
0
0
0
0
0
0
0
0
0
0
0
0
0
0
0
0
0
0
0
0
0
0
0
0
0
0
0
0
0
0
0
0
0
0
0
0
0
0
0
0
0
0
0
0
0
0
0
0
0
0
0
0
0
0
0
0
0
0
0
0
0
0
0
0
0
0
0
0
0
0
0
0
0
0
0
0
0
0
0
0
0
0
0
0
0
0
0
0
0
0
0
0
0
0
0
0
0
0
0
249
135
119
127
127
129
127
123
127
120
186
141
237
252
254
250
255
255
254
255
255
255
255
255
254
254
254
255
255
255
254
254
254
255
255
254
253
253
254
255
254
254
253
246
249
146
124
131
129
128
129
129
130
136
157
157
164
163
162
164
164
164
164
165
165
165
163
164
164
164
165
163
163
163
162
162
166
170
182
182
183
184
184
183
183
181
170
165
162
163
156
134
136
129
129
128
127
129
125
125
122
150
134
231
231
229
230
228
230
229
230
229
230
229
245
255
255
254
255
254
254
254
254
255
254
255
255
255
255
255
255
255
255
255
255
255
255
255
255
254
254
254
254
254
254
254
253
254
253
254
255
254
254
255
255
255
255
254
255
255
255
255
255
255
255
254
254
255
255
254
254
254
254
254
255
255
255
254
254
0
0
0
0
0
0
0
0
0
0
0
0
0
0
0
0
0
0
0
0
0
0
0
0
0
0
0
0
0
0
0
0
0
0
0
0
0
0
0
0
0
0
0
0
0
0
0
0
0
0
0
0
0
0
0
0
0
0
0
0
0
0
0
0
0
0
0
0
0
0
0
0
0
0
0
0
0
0
0
0
0
0
0
0
0
0
0
0
0
0
0
0
0
0
0
0
0
0
0
0
0
0
0
0
0
0
0
0
0
0
0
0
0
0
0
0
0
0
0
0
0
0
0
0
0
0
0
0
0
0
0
0
0
0
0
0
0
0
0
0
0
0
0
0
0
0
0
0
0
0
0
0
0
0
0
0
0
0
0
0
0
0
0
0
0
0
0
0
0
0
0
0
0
0
0
0
0
0
0
0
0
0
0
0
0
0
0
0
0
0
0
0
0
0
0
0
0
0
0
0
0
0
0
0
0
0
0
0
0
0
0
0
0
0
0
0
0
0
0
0
0
0
0
0
0
0
0
0
0
0
0
0
0
0
0
0
0
0
0
0
0
0
0
0
0
0
0
0
0
0
0
0
0
0
0
0
0
0
0
0
0
0
0
0
0
0
0
0
0
0
0
0
0
0
0
0
0
0
0
0
0
0
0
0
0
0
0
0
0
0
0
0
0
0
0
0
0
0
0
0
0
0
0
0
0
0
0
0
0
0
0
0
0
0
0
0
0
0
0
0
0
0
0
0
0
0
0
0
0
0
0
0
0
0
0
0
0
0
0
0
0
0
0
0
0
0
0
0
0
0
0
0
0
0
0
0
0
0
0
0
0
0
0
0
0
0
0
0
0
0
0
0
0
0
0
0
0
0
0
0
0
0
0
0
0
0
0
0
0
0
0
123
130
130
128
130
127
129
126
129
129
127
123
120
204
251
253
253
254
254
254
255
255
255
255
255
254
254
254
254
255
255
254
254
254
255
255
255
254
255
254
254
252
236
236
134
125
130
132
128
128
128
130
136
160
158
164
163
163
163
164
164
164
164
164
164
163
164
164
164
165
163
163
163
163
163
166
172
184
182
183
184
184
183
183
183
170
165
161
162
155
133
133
128
129
128
128
127
126
126
122
169
169
231
230
229
229
230
230
230
231
229
233
231
248
254
254
254
255
254
255
254
254
254
254
254
254
255
255
255
255
255
255
255
255
255
255
255
255
255
255
254
254
254
254
255
254
254
253
253
253
254
254
254
253
255
255
255
255
255
254
255
254
254
255
255
254
254
254
254
254
254
254
254
254
254
255
255
255
254
254
0
0
0
0
0
0
0
0
0
0
0
0
0
0
0
0
0
0
0
0
0
0
0
0
0
0
0
0
0
0
0
0
0
0
0
0
0
0
0
0
0
0
0
0
0
0
0
0
0
0
0
0
0
0
0
0
0
0
0
0
0
0
0
0
0
0
0
0
0
0
0
0
0
0
0
0
0
0
0
0
0
0
0
0
0
0
0
0
0
0
0
0
0
0
0
0
0
0
0
0
0
0
0
0
0
0
0
0
0
0
0
0
0
0
0
0
0
0
0
0
0
0
0
0
0
0
0
0
0
0
0
0
0
0
0
0
0
0
0
0
0
0
0
0
0
0
0
0
0
0
0
0
0
0
0
0
0
0
0
0
0
0
0
0
0
0
0
0
0
0
0
0
0
0
0
0
0
0
0
0
0
0
0
0
0
0
0
0
0
0
0
0
0
0
0
0
0
0
0
0
0
0
0
0
0
0
0
0
0
0
0
0
0
0
0
0
0
0
0
0
0
0
0
0
0
0
0
0
0
0
0
0
0
0
0
0
0
0
0
0
0
0
0
0
0
0
0
0
0
0
0
0
0
0
0
0
0
0
0
0
0
0
0
0
0
0
0
0
0
0
0
0
0
0
0
0
0
0
0
0
0
0
0
0
0
0
0
0
0
0
0
0
0
0
0
0
0
0
0
0
0
0
0
0
0
0
0
0
0
0
0
0
0
0
0
0
0
0
0
0
0
0
0
0
0
0
0
0
0
0
0
0
0
0
0
0
0
0
0
0
0
0
0
0
0
0
0
0
0
0
0
0
0
0
0
0
0
0
0
0
0
0
0
0
0
0
0
0
0
0
0
0
0
0
0
0
0
0
0
0
0
0
0
0
0
0
0
0
0
0
128
131
127
129
130
127
130
127
127
124
128
131
120
121
145
249
252
251
254
254
254
255
255
255
255
254
254
254
255
255
254
254
254
254
254
255
255
255
254
254
251
200
226
124
126
128
130
127
131
130
131
140
159
160
165
161
163
163
164
164
164
164
164
164
164
164
164
164
165
163
163
163
163
163
165
173
184
184
183
184
184
183
183
183
170
164
162
161
153
131
132
129
130
128
128
128
126
125
122
198
187
229
229
230
229
230
229
229
227
230
234
233
255
255
255
254
254
254
254
254
255
254
253
254
254
255
255
255
255
254
254
255
255
255
255
255
255
255
255
254
254
255
254
254
255
254
254
254
253
253
254
254
254
254
254
255
255
255
255
254
254
254
254
255
255
255
254
254
254
254
255
255
254
254
254
254
255
255
255
254
254
0
0
0
0
0
0
0
0
0
0
0
0
0
0
0
0
0
0
0
0
0
0
0
0
0
0
0
0
0
0
0
0
0
0
0
0
0
0
0
0
0
0
0
0
0
0
0
0
0
0
0
0
0
0
0
0
0
0
0
0
0
0
0
0
0
0
0
0
0
0
0
0
0
0
0
0
0
0
0
0
0
0
0
0
0
0
0
0
0
0
0
0
0
0
0
0
0
0
0
0
0
0
0
0
0
0
0
0
0
0
0
0
0
0
0
0
0
0
0
0
0
0
0
0
0
0
0
0
0
0
0
0
0
0
0
0
0
0
0
0
0
0
0
0
0
0
0
0
0
0
0
0
0
0
0
0
0
0
0
0
0
0
0
0
0
0
0
0
0
0
0
0
0
0
0
0
0
0
0
0
0
0
0
0
0
0
0
0
0
0
0
0
0
0
0
0
0
0
0
0
0
0
0
0
0
0
0
0
0
0
0
0
0
0
0
0
0
0
0
0
0
0
0
0
0
0
0
0
0
0
0
0
0
0
0
0
0
0
0
0
0
0
0
0
0
0
0
0
0
0
0
0
0
0
0
0
0
0
0
0
0
0
0
0
0
0
0
0
0
0
0
0
0
0
0
0
0
0
0
0
0
0
0
0
0
0
0
0
0
0
0
0
0
0
0
0
0
0
0
0
0
0
0
0
0
0
0
0
0
0
0
0
0
0
0
0
0
0
0
0
0
0
0
0
0
0
0
0
0
0
0
0
0
0
0
0
0
0
0
0
0
0
0
0
0
0
0
0
0
0
0
0
0
0
0
0
0
0
0
0
0
0
0
0
0
0
0
0
0
0
0
0
0
0
0
0
0
0
0
0
0
0
0
0
0
0
0
0
0
128
126
128
127
127
127
131
131
130
129
132
132
127
123
123
129
240
251
251
255
255
255
255
255
255
255
254
254
254
254
253
253
255
255
254
254
254
254
254
250
185
200
122
126
128
128
126
130
130
131
142
161
161
163
161
161
162
164
164
164
164
164
164
164
164
164
164
165
163
163
163
164
164
165
174
184
184
183
184
184
183
183
183
169
164
161
161
149
131
131
130
130
130
130
129
125
125
125
215
198
233
229
232
232
229
230
230
230
230
243
243
255
254
254
255
255
255
255
254
254
254
255
253
253
254
255
255
255
255
254
254
254
255
255
255
255
255
255
255
254
254
254
255
254
254
255
254
254
255
254
254
254
254
255
255
254
255
255
255
255
254
254
254
254
254
255
254
254
254
254
255
255
255
254
254
254
254
255
255
255
254
254
0
0
0
0
0
0
0
0
0
0
0
0
0
0
0
0
0
0
0
0
0
0
0
0
0
0
0
0
0
0
0
0
0
0
0
0
0
0
0
0
0
0
0
0
0
0
0
0
0
0
0
0
0
0
0
0
0
0
0
0
0
0
0
0
0
0
0
0
0
0
0
0
0
0
0
0
0
0
0
0
0
0
0
0
0
0
0
0
0
0
0
0
0
0
0
0
0
0
0
0
0
0
0
0
0
0
0
0
0
0
0
0
0
0
0
0
0
0
0
0
0
0
0
0
0
0
0
0
0
0
0
0
0
0
0
0
0
0
0
0
0
0
0
0
0
0
0
0
0
0
0
0
0
0
0
0
0
0
0
0
0
0
0
0
0
0
0
0
0
0
0
0
0
0
0
0
0
0
0
0
0
0
0
0
0
0
0
0
0
0
0
0
0
0
0
0
0
0
0
0
0
0
0
0
0
0
0
0
0
0
0
0
0
0
0
0
0
0
0
0
0
0
0
0
0
0
0
0
0
0
0
0
0
0
0
0
0
0
0
0
0
0
0
0
0
0
0
0
0
0
0
0
0
0
0
0
0
0
0
0
0
0
0
0
0
0
0
0
0
0
0
0
0
0
0
0
0
0
0
0
0
0
0
0
0
0
0
0
0
0
0
0
0
0
0
0
0
0
0
0
0
0
0
0
0
0
0
0
0
0
0
0
0
0
0
0
0
0
0
0
0
0
0
0
0
0
0
0
0
0
0
0
0
0
0
0
0
0
0
0
0
0
0
0
0
0
0
0
0
0
0
0
0
0
0
0
0
0
0
0
0
0
0
0
0
0
0
0
0
0
0
0
0
0
0
0
0
0
0
0
0
0
0
0
0
0
0
0
130
128
132
129
128
145
133
132
133
128
126
126
132
126
123
123
121
224
251
252
254
254
255
255
255
254
255
255
253
254
254
254
254
254
254
253
253
253
249
139
161
123
127
126
128
128
128
129
131
149
161
161
163
163
163
161
163
164
164
163
163
164
164
164
164
163
163
164
163
164
164
164
165
176
184
184
183
182
184
183
183
183
169
164
161
161
149
131
131
130
128
130
130
129
123
124
130
232
224
229
230
228
230
229
229
230
231
232
251
247
251
254
254
254
255
255
254
255
255
254
254
254
255
254
254
255
255
255
255
255
254
254
254
255
255
255
255
255
255
255
254
254
254
254
254
254
255
255
255
254
254
254
254
254
255
255
254
255
255
255
255
254
254
254
254
254
254
254
254
254
254
255
255
255
254
254
254
254
255
255
254
254
254
0
0
0
0
0
0
0
0
0
0
0
0
0
0
0
0
0
0
0
0
0
0
0
0
0
0
0
0
0
0
0
0
0
0
0
0
0
0
0
0
0
0
0
0
0
0
0
0
0
0
0
0
0
0
0
0
0
0
0
0
0
0
0
0
0
0
0
0
0
0
0
0
0
0
0
0
0
0
0
0
0
0
0
0
0
0
0
0
0
0
0
0
0
0
0
0
0
0
0
0
0
0
0
0
0
0
0
0
0
0
0
0
0
0
0
0
0
0
0
0
0
0
0
0
0
0
0
0
0
0
0
0
0
0
0
0
0
0
0
0
0
0
0
0
0
0
0
0
0
0
0
0
0
0
0
0
0
0
0
0
0
0
0
0
0
0
0
0
0
0
0
0
0
0
0
0
0
0
0
0
0
0
0
0
0
0
0
0
0
0
0
0
0
0
0
0
0
0
0
0
0
0
0
0
0
0
0
0
0
0
0
0
0
0
0
0
0
0
0
0
0
0
0
0
0
0
0
0
0
0
0
0
0
0
0
0
0
0
0
0
0
0
0
0
0
0
0
0
0
0
0
0
0
0
0
0
0
0
0
0
0
0
0
0
0
0
0
0
0
0
0
0
0
0
0
0
0
0
0
0
0
0
0
0
0
0
0
0
0
0
0
0
0
0
0
0
0
0
0
0
0
0
0
0
0
0
0
0
0
0
0
0
0
0
0
0
0
0
0
0
0
0
0
0
0
0
0
0
0
0
0
0
0
0
0
0
0
0
0
0
0
0
0
0
0
0
0
0
0
0
0
0
0
0
0
0
0
0
0
0
0
0
0
0
0
0
0
0
0
0
0
0
0
0
0
0
0
0
0
0
0
0
0
0
0
0
0
129
130
132
144
155
145
156
152
133
133
129
127
132
128
128
124
124
120
194
252
252
254
255
255
255
255
255
255
254
254
254
255
254
254
253
252
253
230
125
139
125
126
127
126
130
129
128
132
151
161
161
165
163
163
162
163
163
164
163
163
163
164
164
164
162
163
164
164
164
164
164
165
177
183
183
183
183
182
184
183
183
169
164
161
161
149
131
131
128
129
129
129
129
122
123
153
235
232
231
231
231
228
230
229
229
229
236
255
255
254
254
254
253
254
255
255
255
254
255
255
254
254
254
255
254
254
254
254
255
255
255
254
254
254
255
255
255
254
255
255
253
254
254
255
255
254
254
255
255
255
255
254
254
254
255
255
255
254
255
255
255
255
254
254
254
254
254
255
255
254
254
255
255
255
255
254
254
254
254
255
255
254
254
254
0
0
0
0
0
0
0
0
0
0
0
0
0
0
0
0
0
0
0
0
0
0
0
0
0
0
0
0
0
0
0
0
0
0
0
0
0
0
0
0
0
0
0
0
0
0
0
0
0
0
0
0
0
0
0
0
0
0
0
0
0
0
0
0
0
0
0
0
0
0
0
0
0
0
0
0
0
0
0
0
0
0
0
0
0
0
0
0
0
0
0
0
0
0
0
0
0
0
0
0
0
0
0
0
0
0
0
0
0
0
0
0
0
0
0
0
0
0
0
0
0
0
0
0
0
0
0
0
0
0
0
0
0
0
0
0
0
0
0
0
0
0
0
0
0
0
0
0
0
0
0
0
0
0
0
0
0
0
0
0
0
0
0
0
0
0
0
0
0
0
0
0
0
0
0
0
0
0
0
0
0
0
0
0
0
0
0
0
0
0
0
0
0
0
0
0
0
0
0
0
0
0
0
0
0
0
0
0
0
0
0
0
0
0
0
0
0
0
0
0
0
0
0
0
0
0
0
0
0
0
0
0
0
0
0
0
0
0
0
0
0
0
0
0
0
0
0
0
0
0
0
0
0
0
0
0
0
0
0
0
0
0
0
0
0
0
0
0
0
0
0
0
0
0
0
0
0
0
0
0
0
0
0
0
0
0
0
0
0
0
0
0
0
0
0
0
0
0
0
0
0
0
0
0
0
0
0
0
0
0
0
0
0
0
0
0
0
0
0
0
0
0
0
0
0
0
0
0
0
0
0
0
0
0
0
0
0
0
0
0
0
0
0
0
0
0
0
0
0
0
0
0
0
0
0
0
0
0
0
0
0
0
0
0
0
0
0
0
0
0
0
0
0
0
0
0
0
0
0
0
0
0
0
0
0
0
140
136
148
159
159
162
163
167
159
138
146
130
129
128
129
126
126
129
121
185
251
251
254
255
255
254
255
255
254
253
255
255
255
253
250
251
203
120
120
124
128
131
130
129
131
131
132
154
161
161
165
163
163
162
163
163
163
163
163
163
164
164
164
162
163
164
164
164
164
164
165
178
183
183
183
184
183
183
183
183
169
164
160
160
147
131
131
128
129
129
129
129
124
123
166
233
233
231
230
228
230
228
230
230
228
241
254
254
254
254
254
254
254
254
254
255
255
255
254
254
254
254
254
254
255
254
254
254
254
255
255
255
254
255
255
255
255
255
255
254
254
254
255
255
255
255
254
254
255
255
254
255
254
254
254
255
254
254
254
254
255
255
255
254
254
254
254
255
255
255
255
255
255
255
255
255
254
254
254
254
255
255
255
254
254
0
0
0
0
0
0
0
0
0
0
0
0
0
0
0
0
0
0
0
0
0
0
0
0
0
0
0
0
0
0
0
0
0
0
0
0
0
0
0
0
0
0
0
0
0
0
0
0
0
0
0
0
0
0
0
0
0
0
0
0
0
0
0
0
0
0
0
0
0
0
0
0
0
0
0
0
0
0
0
0
0
0
0
0
0
0
0
0
0
0
0
0
0
0
0
0
0
0
0
0
0
0
0
0
0
0
0
0
0
0
0
0
0
0
0
0
0
0
0
0
0
0
0
0
0
0
0
0
0
0
0
0
0
0
0
0
0
0
0
0
0
0
0
0
0
0
0
0
0
0
0
0
0
0
0
0
0
0
0
0
0
0
0
0
0
0
0
0
0
0
0
0
0
0
0
0
0
0
0
0
0
0
0
0
0
0
0
0
0
0
0
0
0
0
0
0
0
0
0
0
0
0
0
0
0
0
0
0
0
0
0
0
0
0
0
0
0
0
0
0
0
0
0
0
0
0
0
0
0
0
0
0
0
0
0
0
0
0
0
0
0
0
0
0
0
0
0
0
0
0
0
0
0
0
0
0
0
0
0
0
0
0
0
0
0
0
0
0
0
0
0
0
0
0
0
0
0
0
0
0
0
0
0
0
0
0
0
0
0
0
0
0
0
0
0
0
0
0
0
0
0
0
0
0
0
0
0
0
0
0
0
0
0
0
0
0
0
0
0
0
0
0
0
0
0
0
0
0
0
0
0
0
0
0
0
0
0
0
0
0
0
0
0
0
0
0
0
0
0
0
0
0
0
0
0
0
0
0
0
0
0
0
0
0
0
0
0
0
0
0
0
0
0
0
0
0
0
0
0
0
0
0
0
0
0
140
158
162
162
163
164
163
167
163
158
146
152
134
130
129
130
127
129
129
123
178
251
252
251
255
254
255
255
255
254
254
255
252
249
250
158
123
121
126
131
130
131
127
131
130
135
156
161
161
165
162
163
162
163
163
163
163
163
163
164
164
164
162
163
164
164
165
163
164
166
179
183
183
183
184
184
183
183
183
169
165
160
160
147
131
131
128
130
129
129
129
122
124
185
230
230
231
228
229
228
230
229
228
229
252
255
254
254
254
254
254
255
254
254
254
254
255
255
255
254
254
254
254
254
255
255
254
254
254
254
255
255
255
255
255
254
255
255
255
254
254
255
255
255
255
255
255
254
255
254
254
254
255
254
254
254
255
254
254
254
254
255
255
255
254
254
254
255
255
254
255
255
255
255
255
255
255
254
254
254
255
255
255
255
254
254
0
0
0
0
0
0
0
0
0
0
0
0
0
0
0
0
0
0
0
0
0
0
0
0
0
0
0
0
0
0
0
0
0
0
0
0
0
0
0
0
0
0
0
0
0
0
0
0
0
0
0
0
0
0
0
0
0
0
0
0
0
0
0
0
0
0
0
0
0
0
0
0
0
0
0
0
0
0
0
0
0
0
0
0
0
0
0
0
0
0
0
0
0
0
0
0
0
0
0
0
0
0
0
0
0
0
0
0
0
0
0
0
0
0
0
0
0
0
0
0
0
0
0
0
0
0
0
0
0
0
0
0
0
0
0
0
0
0
0
0
0
0
0
0
0
0
0
0
0
0
0
0
0
0
0
0
0
0
0
0
0
0
0
0
0
0
0
0
0
0
0
0
0
0
0
0
0
0
0
0
0
0
0
0
0
0
0
0
0
0
0
0
0
0
0
0
0
0
0
0
0
0
0
0
0
0
0
0
0
0
0
0
0
0
0
0
0
0
0
0
0
0
0
0
0
0
0
0
0
0
0
0
0
0
0
0
0
0
0
0
0
0
0
0
0
0
0
0
0
0
0
0
0
0
0
0
0
0
0
0
0
0
0
0
0
0
0
0
0
0
0
0
0
0
0
0
0
0
0
0
0
0
0
0
0
0
0
0
0
0
0
0
0
0
0
0
0
0
0
0
0
0
0
0
0
0
0
0
0
0
0
0
0
0
0
0
0
0
0
0
0
0
0
0
0
0
0
0
0
0
0
0
0
0
0
0
0
0
0
0
0
0
0
0
0
0
0
0
0
0
0
0
0
0
0
0
0
0
0
0
0
0
0
0
0
0
0
0
0
0
0
0
0
0
0
0
0
0
0
0
0
0
0
0
161
161
161
161
164
166
166
161
163
163
159
155
157
136
131
130
130
128
129
129
123
176
251
251
255
254
254
254
255
254
254
251
246
246
133
125
125
129
129
128
128
127
132
132
140
158
161
161
165
162
162
162
163
163
163
163
163
163
164
164
164
162
163
164
164
165
163
163
167
180
183
183
183
185
185
182
182
182
168
165
160
160
147
131
131
129
130
128
128
130
123
123
195
232
232
230
229
232
232
229
229
229
236
252
255
255
254
254
254
254
253
254
254
254
254
254
254
255
255
255
254
254
254
254
255
255
255
254
254
254
254
255
255
255
254
254
254
254
254
254
255
255
255
254
255
254
254
253
253
253
254
254
255
255
254
254
254
254
253
253
254
254
255
255
255
254
254
254
254
254
254
255
254
254
255
255
255
255
255
254
254
255
255
255
255
254
254
0
0
0
0
0
0
0
0
0
0
0
0
0
0
0
0
0
0
0
0
0
0
0
0
0
0
0
0
0
0
0
0
0
0
0
0
0
0
0
0
0
0
0
0
0
0
0
0
0
0
0
0
0
0
0
0
0
0
0
0
0
0
0
0
0
0
0
0
0
0
0
0
0
0
0
0
0
0
0
0
0
0
0
0
0
0
0
0
0
0
0
0
0
0
0
0
0
0
0
0
0
0
0
0
0
0
0
0
0
0
0
0
0
0
0
0
0
0
0
0
0
0
0
0
0
0
0
0
0
0
0
0
0
0
0
0
0
0
0
0
0
0
0
0
0
0
0
0
0
0
0
0
0
0
0
0
0
0
0
0
0
0
0
0
0
0
0
0
0
0
0
0
0
0
0
0
0
0
0
0
0
0
0
0
0
0
0
0
0
0
0
0
0
0
0
0
0
0
0
0
0
0
0
0
0
0
0
0
0
0
0
0
0
0
0
0
0
0
0
0
0
0
0
0
0
0
0
0
0
0
0
0
0
0
0
0
0
0
0
0
0
0
0
0
0
0
0
0
0
0
0
0
0
0
0
0
0
0
0
0
0
0
0
0
0
0
0
0
0
0
0
0
0
0
0
0
0
0
0
0
0
0
0
0
0
0
0
0
0
0
0
0
0
0
0
0
0
0
0
0
0
0
0
0
0
0
0
0
0
0
0
0
0
0
0
0
0
0
0
0
0
0
0
0
0
0
0
0
0
0
0
0
0
0
0
0
0
0
0
0
0
0
0
0
0
0
0
0
0
0
0
0
0
0
0
0
0
0
0
0
0
0
0
0
0
0
0
0
0
0
0
0
0
0
0
0
0
0
0
0
0
0
0
162
162
162
164
163
163
162
162
162
165
165
161
157
158
136
130
129
130
131
129
127
124
176
251
251
255
255
255
254
254
251
193
221
116
127
126
128
130
129
129
128
132
132
143
159
162
162
162
164
162
162
163
163
163
164
164
163
164
164
164
162
163
164
164
165
164
164
167
181
183
183
184
186
185
182
182
182
167
163
160
160
146
131
131
129
130
128
128
129
122
123
199
230
230
230
231
229
232
229
229
229
240
254
254
254
255
255
255
254
254
254
254
254
255
254
254
254
254
255
255
255
254
254
254
254
255
255
255
254
254
254
255
255
255
254
254
254
254
254
255
255
255
255
255
254
253
254
255
254
253
254
255
255
255
254
254
254
254
254
255
255
254
254
255
255
255
254
255
255
254
255
255
255
254
254
255
255
255
255
254
254
254
255
254
254
254
254
254
0
0
0
0
0
0
0
0
0
0
0
0
0
0
0
0
0
0
0
0
0
0
0
0
0
0
0
0
0
0
0
0
0
0
0
0
0
0
0
0
0
0
0
0
0
0
0
0
0
0
0
0
0
0
0
0
0
0
0
0
0
0
0
0
0
0
0
0
0
0
0
0
0
0
0
0
0
0
0
0
0
0
0
0
0
0
0
0
0
0
0
0
0
0
0
0
0
0
0
0
0
0
0
0
0
0
0
0
0
0
0
0
0
0
0
0
0
0
0
0
0
0
0
0
0
0
0
0
0
0
0
0
0
0
0
0
0
0
0
0
0
0
0
0
0
0
0
0
0
0
0
0
0
0
0
0
0
0
0
0
0
0
0
0
0
0
0
0
0
0
0
0
0
0
0
0
0
0
0
0
0
0
0
0
0
0
0
0
0
0
0
0
0
0
0
0
0
0
0
0
0
0
0
0
0
0
0
0
0
0
0
0
0
0
0
0
0
0
0
0
0
0
0
0
0
0
0
0
0
0
0
0
0
0
0
0
0
0
0
0
0
0
0
0
0
0
0
0
0
0
0
0
0
0
0
0
0
0
0
0
0
0
0
0
0
0
0
0
0
0
0
0
0
0
0
0
0
0
0
0
0
0
0
0
0
0
0
0
0
0
0
0
0
0
0
0
0
0
0
0
0
0
0
0
0
0
0
0
0
0
0
0
0
0
0
0
0
0
0
0
0
0
0
0
0
0
0
0
0
0
0
0
0
0
0
0
0
0
0
0
0
0
0
0
0
0
0
0
0
0
0
0
0
0
0
0
0
0
0
0
0
0
0
0
0
0
0
0
0
0
0
0
0
0
0
0
0
0
0
0
0
0
162
162
163
162
162
165
163
162
162
161
164
164
162
157
157
135
130
130
131
128
130
130
125
179
251
251
254
251
251
250
170
170
125
127
127
130
127
127
127
129
133
132
149
160
162
162
162
165
164
166
163
163
163
164
164
164
165
164
164
163
163
163
163
164
165
164
168
181
183
183
184
183
183
181
182
182
166
163
161
161
146
131
131
128
131
128
128
127
122
122
216
231
230
230
227
227
227
229
230
229
246
255
254
254
255
253
255
254
254
254
254
254
255
255
255
255
254
254
254
255
255
255
254
254
254
254
255
255
255
254
254
254
255
255
255
254
254
254
255
255
255
255
255
253
253
249
254
255
254
254
252
252
254
254
254
254
254
254
254
254
253
253
255
254
255
255
254
255
255
255
255
255
255
254
254
254
254
255
255
255
254
254
254
254
254
254
254
254
254
0
0
0
0
0
0
0
0
0
0
0
0
0
0
0
0
0
0
0
0
0
0
0
0
0
0
0
0
0
0
0
0
0
0
0
0
0
0
0
0
0
0
0
0
0
0
0
0
0
0
0
0
0
0
0
0
0
0
0
0
0
0
0
0
0
0
0
0
0
0
0
0
0
0
0
0
0
0
0
0
0
0
0
0
0
0
0
0
0
0
0
0
0
0
0
0
0
0
0
0
0
0
0
0
0
0
0
0
0
0
0
0
0
0
0
0
0
0
0
0
0
0
0
0
0
0
0
0
0
0
0
0
0
0
0
0
0
0
0
0
0
0
0
0
0
0
0
0
0
0
0
0
0
0
0
0
0
0
0
0
0
0
0
0
0
0
0
0
0
0
0
0
0
0
0
0
0
0
0
0
0
0
0
0
0
0
0
0
0
0
0
0
0
0
0
0
0
0
0
0
0
0
0
0
0
0
0
0
0
0
0
0
0
0
0
0
0
0
0
0
0
0
0
0
0
0
0
0
0
0
0
0
0
0
0
0
0
0
0
0
0
0
0
0
0
0
0
0
0
0
0
0
0
0
0
0
0
0
0
0
0
0
0
0
0
0
0
0
0
0
0
0
0
0
0
0
0
0
0
0
0
0
0
0
0
0
0
0
0
0
0
0
0
0
0
0
0
0
0
0
0
0
0
0
0
0
0
0
0
0
0
0
0
0
0
0
0
0
0
0
0
0
0
0
0
0
0
0
0
0
0
0
0
0
0
0
0
0
0
0
0
0
0
0
0
0
0
0
0
0
0
0
0
0
0
0
0
0
0
0
0
0
0
0
0
0
0
0
0
0
0
0
0
0
0
0
0
0
0
0
0
163
164
163
162
164
163
162
162
162
163
163
164
163
161
158
157
135
131
128
128
131
132
126
124
184
251
249
252
248
126
145
122
128
128
128
126
130
130
129
136
132
152
161
162
162
163
164
165
166
164
164
164
164
165
165
165
165
165
163
163
163
163
164
165
165
170
182
183
183
184
183
183
183
180
182
165
163
161
161
147
131
131
128
129
127
127
129
125
122
222
231
231
230
228
232
233
231
231
231
249
254
254
254
255
255
254
254
254
255
254
254
255
255
255
255
255
255
254
254
254
255
255
255
254
254
254
254
255
255
255
254
254
254
255
255
255
254
254
254
255
254
255
254
254
254
252
254
254
255
254
253
254
253
254
255
252
254
254
254
254
254
255
254
254
254
254
254
254
255
255
255
255
255
255
254
254
254
254
255
255
255
254
254
254
254
254
254
254
254
254
0
0
0
0
0
0
0
0
0
0
0
0
0
0
0
0
0
0
0
0
0
0
0
0
0
0
0
0
0
0
0
0
0
0
0
0
0
0
0
0
0
0
0
0
0
0
0
0
0
0
0
0
0
0
0
0
0
0
0
0
0
0
0
0
0
0
0
0
0
0
0
0
0
0
0
0
0
0
0
0
0
0
0
0
0
0
0
0
0
0
0
0
0
0
0
0
0
0
0
0
0
0
0
0
0
0
0
0
0
0
0
0
0
0
0
0
0
0
0
0
0
0
0
0
0
0
0
0
0
0
0
0
0
0
0
0
0
0
0
0
0
0
0
0
0
0
0
0
0
0
0
0
0
0
0
0
0
0
0
0
0
0
0
0
0
0
0
0
0
0
0
0
0
0
0
0
0
0
0
0
0
0
0
0
0
0
0
0
0
0
0
0
0
0
0
0
0
0
0
0
0
0
0
0
0
0
0
0
0
0
0
0
0
0
0
0
0
0
0
0
0
0
0
0
0
0
0
0
0
0
0
0
0
0
0
0
0
0
0
0
0
0
0
0
0
0
0
0
0
0
0
0
0
0
0
0
0
0
0
0
0
0
0
0
0
0
0
0
0
0
0
0
0
0
0
0
0
0
0
0
0
0
0
0
0
0
0
0
0
0
0
0
0
0
0
0
0
0
0
0
0
0
0
0
0
0
0
0
0
0
0
0
0
0
0
0
0
0
0
0
0
0
0
0
0
0
0
0
0
0
0
0
0
0
0
0
0
0
0
0
0
0
0
0
0
0
0
0
0
0
0
0
0
0
0
0
0
0
0
0
0
0
0
0
0
0
0
0
0
0
0
0
0
0
0
0
0
0
0
0
164
164
163
165
163
163
163
163
164
163
163
163
163
162
160
157
157
132
127
128
130
127
126
127
120
209
249
196
125
126
129
129
128
130
128
127
130
129
136
136
159
162
161
162
164
163
164
165
164
164
164
164
164
165
165
165
165
163
163
163
163
165
165
165
170
183
183
183
182
184
183
183
180
180
164
163
161
161
147
131
131
128
129
128
127
128
125
125
230
230
231
229
230
230
232
230
232
231
251
254
254
254
253
255
255
255
254
255
255
255
255
255
255
255
255
255
255
254
254
254
254
255
255
255
254
254
254
254
255
255
255
254
254
254
255
255
254
254
254
254
254
255
254
255
252
252
255
251
252
254
252
252
253
252
255
252
254
255
254
254
254
251
254
254
255
255
254
254
254
255
254
254
255
255
255
254
254
254
254
255
255
255
254
254
254
254
254
255
255
254
254
0
0
0
0
0
0
0
0
0
0
0
0
0
0
0
0
0
0
0
0
0
0
0
0
0
0
0
0
0
0
0
0
0
0
0
0
0
0
0
0
0
0
0
0
0
0
0
0
0
0
0
0
0
0
0
0
0
0
0
0
0
0
0
0
0
0
0
0
0
0
0
0
0
0
0
0
0
0
0
0
0
0
0
0
0
0
0
0
0
0
0
0
0
0
0
0
0
0
0
0
0
0
0
0
0
0
0
0
0
0
0
0
0
0
0
0
0
0
0
0
0
0
0
0
0
0
0
0
0
0
0
0
0
0
0
0
0
0
0
0
0
0
0
0
0
0
0
0
0
0
0
0
0
0
0
0
0
0
0
0
0
0
0
0
0
0
0
0
0
0
0
0
0
0
0
0
0
0
0
0
0
0
0
0
0
0
0
0
0
0
0
0
0
0
0
0
0
0
0
0
0
0
0
0
0
0
0
0
0
0
0
0
0
0
0
0
0
0
0
0
0
0
0
0
0
0
0
0
0
0
0
0
0
0
0
0
0
0
0
0
0
0
0
0
0
0
0
0
0
0
0
0
0
0
0
0
0
0
0
0
0
0
0
0
0
0
0
0
0
0
0
0
0
0
0
0
0
0
0
0
0
0
0
0
0
0
0
0
0
0
0
0
0
0
0
0
0
0
0
0
0
0
0
0
0
0
0
0
0
0
0
0
0
0
0
0
0
0
0
0
0
0
0
0
0
0
0
0
0
0
0
0
0
0
0
0
0
0
0
0
0
0
0
0
0
0
0
0
0
0
0
0
0
0
0
0
0
0
0
0
0
0
0
0
0
0
0
0
0
0
0
0
0
0
0
0
0
0
0
166
165
165
164
164
163
163
163
164
164
163
163
163
162
162
161
156
155
132
130
133
133
124
126
122
127
161
126
126
131
132
132
129
127
130
128
131
137
137
160
162
164
162
165
163
163
165
164
164
165
163
164
164
165
165
165
164
163
164
164
165
165
165
173
183
183
183
182
183
183
183
179
179
164
163
161
161
148
131
131
128
129
128
128
128
132
132
231
230
230
229
230
228
228
230
233
233
254
254
254
254
253
255
255
255
254
255
254
255
255
255
255
255
255
254
255
254
255
255
254
254
254
255
255
255
254
254
254
254
255
255
255
254
254
254
254
255
255
254
254
255
254
255
254
254
254
248
242
248
247
246
246
249
251
251
250
255
252
254
255
254
254
254
254
255
254
255
255
255
255
254
254
254
255
255
253
253
254
254
254
255
255
255
254
254
254
255
255
255
255
254
254
0
0
0
0
0
0
0
0
0
0
0
0
0
0
0
0
0
0
0
0
0
0
0
0
0
0
0
0
0
0
0
0
0
0
0
0
0
0
0
0
0
0
0
0
0
0
0
0
0
0
0
0
0
0
0
0
0
0
0
0
0
0
0
0
0
0
0
0
0
0
0
0
0
0
0
0
0
0
0
0
0
0
0
0
0
0
0
0
0
0
0
0
0
0
0
0
0
0
0
0
0
0
0
0
0
0
0
0
0
0
0
0
0
0
0
0
0
0
0
0
0
0
0
0
0
0
0
0
0
0
0
0
0
0
0
0
0
0
0
0
0
0
0
0
0
0
0
0
0
0
0
0
0
0
0
0
0
0
0
0
0
0
0
0
0
0
0
0
0
0
0
0
0
0
0
0
0
0
0
0
0
0
0
0
0
0
0
0
0
0
0
0
0
0
0
0
0
0
0
0
0
0
0
0
0
0
0
0
0
0
0
0
0
0
0
0
0
0
0
0
0
0
0
0
0
0
0
0
0
0
0
0
0
0
0
0
0
0
0
0
0
0
0
0
0
0
0
0
0
0
0
0
0
0
0
0
0
0
0
0
0
0
0
0
0
0
0
0
0
0
0
0
0
0
0
0
0
0
0
0
0
0
0
0
0
0
0
0
0
0
0
0
0
0
0
0
0
0
0
0
0
0
0
0
0
0
0
0
0
0
0
0
0
0
0
0
0
0
0
0
0
0
0
0
0
0
0
0
0
0
0
0
0
0
0
0
0
0
0
0
0
0
0
0
0
0
0
0
0
0
0
0
0
0
0
0
0
0
0
0
0
0
0
0
0
0
0
0
0
0
0
0
0
0
0
0
0
0
166
166
165
164
164
164
163
163
163
164
164
163
164
163
163
166
162
155
153
133
129
128
128
130
122
130
127
127
132
129
127
126
129
130
130
131
146
142
161
164
164
164
164
163
163
165
164
164
164
163
163
163
165
165
165
164
163
164
164
165
165
165
172
182
183
183
182
183
183
183
178
179
164
163
162
161
148
131
131
128
129
128
128
128
131
132
232
229
230
229
230
228
228
231
238
235
254
254
254
254
254
255
255
255
254
255
255
255
254
254
255
255
255
254
254
254
254
255
255
255
254
254
254
255
255
255
254
254
254
255
255
255
255
254
254
254
254
255
255
255
255
254
254
255
249
233
175
242
136
125
201
200
125
216
236
174
226
252
246
249
254
251
252
254
255
253
254
255
255
255
254
254
254
255
255
255
254
253
255
255
254
255
255
255
254
254
254
255
255
255
254
254
254
0
0
0
0
0
0
0
0
0
0
0
0
0
0
0
0
0
0
0
0
0
0
0
0
0
0
0
0
0
0
0
0
0
0
0
0
0
0
0
0
0
0
0
0
0
0
0
0
0
0
0
0
0
0
0
0
0
0
0
0
0
0
0
0
0
0
0
0
0
0
0
0
0
0
0
0
0
0
0
0
0
0
0
0
0
0
0
0
0
0
0
0
0
0
0
0
0
0
0
0
0
0
0
0
0
0
0
0
0
0
0
0
0
0
0
0
0
0
0
0
0
0
0
0
0
0
0
0
0
0
0
0
0
0
0
0
0
0
0
0
0
0
0
0
0
0
0
0
0
0
0
0
0
0
0
0
0
0
0
0
0
0
0
0
0
0
0
0
0
0
0
0
0
0
0
0
0
0
0
0
0
0
0
0
0
0
0
0
0
0
0
0
0
0
0
0
0
0
0
0
0
0
0
0
0
0
0
0
0
0
0
0
0
0
0
0
0
0
0
0
0
0
0
0
0
0
0
0
0
0
0
0
0
0
0
0
0
0
0
0
0
0
0
0
0
0
0
0
0
0
0
0
0
0
0
0
0
0
0
0
0
0
0
0
0
0
0
0
0
0
0
0
0
0
0
0
0
0
0
0
0
0
0
0
0
0
0
0
0
0
0
0
0
0
0
0
0
0
0
0
0
0
0
0
0
0
0
0
0
0
0
0
0
0
0
0
0
0
0
0
0
0
0
0
0
0
0
0
0
0
0
0
0
0
0
0
0
0
0
0
0
0
0
0
0
0
0
0
0
0
0
0
0
0
0
0
0
0
0
0
0
0
0
0
0
0
0
0
0
0
0
0
0
0
0
0
0
166
165
165
164
164
163
163
163
163
163
164
162
164
164
163
166
166
160
149
149
131
128
131
131
131
129
129
129
128
129
127
129
128
128
133
149
149
161
164
164
164
164
164
164
165
164
164
164
163
163
163
164
165
165
165
164
164
164
165
165
165
176
181
183
183
183
183
183
183
178
178
165
162
162
162
150
132
132
128
129
128
128
128
131
131
232
229
229
230
230
230
230
231
240
240
255
254
254
254
255
255
255
254
254
254
254
255
255
255
254
254
255
255
254
254
254
254
255
255
255
255
254
254
254
255
255
255
254
254
254
255
255
255
254
254
254
254
255
254
254
253
251
251
246
185
131
131
127
119
119
126
121
125
123
120
126
126
158
215
215
243
246
251
251
253
255
255
255
254
255
255
254
255
255
254
255
255
254
255
254
254
254
255
255
254
254
254
254
255
254
254
254
254
254
0
0
0
0
0
0
0
0
0
0
0
0
0
0
0
0
0
0
0
0
0
0
0
0
0
0
0
0
0
0
0
0
0
0
0
0
0
0
0
0
0
0
0
0
0
0
0
0
0
0
0
0
0
0
0
0
0
0
0
0
0
0
0
0
0
0
0
0
0
0
0
0
0
0
0
0
0
0
0
0
0
0
0
0
0
0
0
0
0
0
0
0
0
0
0
0
0
0
0
0
0
0
0
0
0
0
0
0
0
0
0
0
0
0
0
0
0
0
0
0
0
0
0
0
0
0
0
0
0
0
0
0
0
0
0
0
0
0
0
0
0
0
0
0
0
0
0
0
0
0
0
0
0
0
0
0
0
0
0
0
0
0
0
0
0
0
0
0
0
0
0
0
0
0
0
0
0
0
0
0
0
0
0
0
0
0
0
0
0
0
0
0
0
0
0
0
0
0
0
0
0
0
0
0
0
0
0
0
0
0
0
0
0
0
0
0
0
0
0
0
0
0
0
0
0
0
0
0
0
0
0
0
0
0
0
0
0
0
0
0
0
0
0
0
0
0
0
0
0
0
0
0
0
0
0
0
0
0
0
0
0
0
0
0
0
0
0
0
0
0
0
0
0
0
0
0
0
0
0
0
0
0
0
0
0
0
0
0
0
0
0
0
0
0
0
0
0
0
0
0
0
0
0
0
0
0
0
0
0
0
0
0
0
0
0
0
0
0
0
0
0
0
0
0
0
0
0
0
0
0
0
0
0
0
0
0
0
0
0
0
0
0
0
0
0
0
0
0
0
0
0
0
0
0
0
0
0
0
0
0
0
0
0
0
0
0
0
0
0
0
0
0
0
0
0
0
164
165
164
164
164
163
163
164
163
163
164
164
162
165
164
162
164
163
160
144
140
130
129
128
129
129
129
129
128
127
129
129
129
136
155
151
162
164
163
163
163
163
164
164
164
164
164
163
163
163
164
164
164
165
164
163
163
165
165
165
177
182
183
183
182
183
184
183
177
177
165
162
162
162
151
132
132
129
128
128
128
128
131
131
232
229
229
230
230
229
230
230
244
242
255
254
255
255
255
255
255
254
254
255
254
254
254
255
255
254
254
254
255
254
254
254
254
254
255
255
255
254
254
254
254
255
254
255
254
254
254
255
254
254
254
254
254
255
254
253
248
250
234
120
124
124
122
127
126
123
125
124
128
128
126
122
122
124
119
148
121
148
240
251
247
255
254
251
254
254
254
251
255
253
253
254
255
254
254
255
254
254
254
255
255
254
254
254
254
255
254
254
254
254
254
0
0
0
0
0
0
0
0
0
0
0
0
0
0
0
0
0
0
0
0
0
0
0
0
0
0
0
0
0
0
0
0
0
0
0
0
0
0
0
0
0
0
0
0
0
0
0
0
0
0
0
0
0
0
0
0
0
0
0
0
0
0
0
0
0
0
0
0
0
0
0
0
0
0
0
0
0
0
0
0
0
0
0
0
0
0
0
0
0
0
0
0
0
0
0
0
0
0
0
0
0
0
0
0
0
0
0
0
0
0
0
0
0
0
0
0
0
0
0
0
0
0
0
0
0
0
0
0
0
0
0
0
0
0
0
0
0
0
0
0
0
0
0
0
0
0
0
0
0
0
0
0
0
0
0
0
0
0
0
0
0
0
0
0
0
0
0
0
0
0
0
0
0
0
0
0
0
0
0
0
0
0
0
0
0
0
0
0
0
0
0
0
0
0
0
0
0
0
0
0
0
0
0
0
0
0
0
0
0
0
0
0
0
0
0
0
0
0
0
0
0
0
0
0
0
0
0
0
0
0
0
0
0
0
0
0
0
0
0
0
0
0
0
0
0
0
0
0
0
0
0
0
0
0
0
0
0
0
0
0
0
0
0
0
0
0
0
0
0
0
0
0
0
0
0
0
0
0
0
0
0
0
0
0
0
0
0
0
0
0
0
0
0
0
0
0
0
0
0
0
0
0
0
0
0
0
0
0
0
0
0
0
0
0
0
0
0
0
0
0
0
0
0
0
0
0
0
0
0
0
0
0
0
0
0
0
0
0
0
0
0
0
0
0
0
0
0
0
0
0
0
0
0
0
0
0
0
0
0
0
0
0
0
0
0
0
0
0
0
0
0
0
0
0
0
164
164
164
164
164
164
164
164
164
164
164
164
163
163
164
164
162
163
163
159
137
137
129
130
129
127
130
129
128
128
129
129
140
160
155
162
164
163
163
162
163
163
163
164
164
164
163
163
163
164
164
164
165
164
163
163
164
165
165
178
182
184
184
183
183
183
181
178
177
165
163
162
162
155
131
132
130
127
129
129
128
131
131
232
229
229
230
230
229
229
230
245
244
255
254
255
255
255
255
255
254
254
255
255
255
255
254
254
255
254
254
254
254
254
255
254
254
254
254
254
254
255
254
254
254
254
254
254
255
254
254
254
254
254
255
255
254
254
251
248
248
182
119
124
124
126
128
127
127
128
125
129
125
126
126
127
124
124
125
127
122
122
122
152
247
221
247
251
250
253
254
251
253
255
253
254
254
254
254
255
254
254
254
255
255
255
255
254
254
254
254
254
254
254
254
254
0
0
0
0
0
0
0
0
0
0
0
0
0
0
0
0
0
0
0
0
0
0
0
0
0
0
0
0
0
0
0
0
0
0
0
0
0
0
0
0
0
0
0
0
0
0
0
0
0
0
0
0
0
0
0
0
0
0
0
0
0
0
0
0
0
0
0
0
0
0
0
0
0
0
0
0
0
0
0
0
0
0
0
0
0
0
0
0
0
0
0
0
0
0
0
0
0
0
0
0
0
0
0
0
0
0
0
0
0
0
0
0
0
0
0
0
0
0
0
0
0
0
0
0
0
0
0
0
0
0
0
0
0
0
0
0
0
0
0
0
0
0
0
0
0
0
0
0
0
0
0
0
0
0
0
0
0
0
0
0
0
0
0
0
0
0
0
0
0
0
0
0
0
0
0
0
0
0
0
0
0
0
0
0
0
0
0
0
0
0
0
0
0
0
0
0
0
0
0
0
0
0
0
0
0
0
0
0
0
0
0
0
0
0
0
0
0
0
0
0
0
0
0
0
0
0
0
0
0
0
0
0
0
0
0
0
0
0
0
0
0
0
0
0
0
0
0
0
0
0
0
0
0
0
0
0
0
0
0
0
0
0
0
0
0
0
0
0
0
0
0
0
0
0
0
0
0
0
0
0
0
0
0
0
0
0
0
0
0
0
0
0
0
0
0
0
0
0
0
0
0
0
0
0
0
0
0
0
0
0
0
0
0
0
0
0
0
0
0
0
0
0
0
0
0
0
0
0
0
0
0
0
0
0
0
0
0
0
0
0
0
0
0
0
0
0
0
0
0
0
0
0
0
0
0
0
0
0
0
0
0
0
0
0
0
0
0
0
0
0
0
0
0
0
163
163
163
163
164
164
164
164
164
164
164
164
164
163
163
162
162
163
162
162
157
135
132
126
128
130
130
128
127
129
129
142
161
161
162
164
162
162
162
162
162
163
164
164
164
163
163
163
163
164
164
164
164
164
163
164
167
167
179
182
183
183
183
183
183
181
177
177
165
162
162
162
157
131
131
131
127
129
129
129
132
132
232
229
229
230
229
229
229
230
246
246
255
253
255
255
254
255
255
254
254
254
254
255
255
255
255
254
254
255
255
255
254
255
255
255
255
254
254
254
254
254
255
254
255
255
254
254
254
255
254
254
254
255
255
254
254
250
244
247
166
124
125
124
128
124
124
125
125
125
125
127
132
127
127
128
128
127
126
128
125
126
125
121
122
163
163
229
248
243
252
254
254
254
255
255
254
254
254
254
255
254
254
254
255
255
255
255
254
253
253
254
254
254
254
254
254
0
0
0
0
0
0
0
0
0
0
0
0
0
0
0
0
0
0
0
0
0
0
0
0
0
0
0
0
0
0
0
0
0
0
0
0
0
0
0
0
0
0
0
0
0
0
0
0
0
0
0
0
0
0
0
0
0
0
0
0
0
0
0
0
0
0
0
0
0
0
0
0
0
0
0
0
0
0
0
0
0
0
0
0
0
0
0
0
0
0
0
0
0
0
0
0
0
0
0
0
0
0
0
0
0
0
0
0
0
0
0
0
0
0
0
0
0
0
0
0
0
0
0
0
0
0
0
0
0
0
0
0
0
0
0
0
0
0
0
0
0
0
0
0
0
0
0
0
0
0
0
0
0
0
0
0
0
0
0
0
0
0
0
0
0
0
0
0
0
0
0
0
0
0
0
0
0
0
0
0
0
0
0
0
0
0
0
0
0
0
0
0
0
0
0
0
0
0
0
0
0
0
0
0
0
0
0
0
0
0
0
0
0
0
0
0
0
0
0
0
0
0
0
0
0
0
0
0
0
0
0
0
0
0
0
0
0
0
0
0
0
0
0
0
0
0
0
0
0
0
0
0
0
0
0
0
0
0
0
0
0
0
0
0
0
0
0
0
0
0
0
0
0
0
0
0
0
0
0
0
0
0
0
0
0
0
0
0
0
0
0
0
0
0
0
0
0
0
0
0
0
0
0
0
0
0
0
0
0
0
0
0
0
0
0
0
0
0
0
0
0
0
0
0
0
0
0
0
0
0
0
0
0
0
0
0
0
0
0
0
0
0
0
0
0
0
0
0
0
0
0
0
0
0
0
0
0
0
0
0
0
0
0
0
0
0
0
0
0
0
0
0
0
162
162
163
163
163
164
164
165
164
164
164
164
164
164
164
163
164
163
164
162
161
150
132
131
129
130
129
130
132
129
150
160
160
162
164
163
162
162
162
162
163
164
164
164
164
163
163
163
163
163
164
164
164
164
165
167
167
179
183
184
183
182
182
183
183
176
176
164
164
161
162
159
130
131
131
127
129
129
128
129
132
230
230
229
230
230
229
229
230
248
247
255
254
255
255
253
254
255
255
254
254
254
255
255
255
255
255
254
254
254
255
255
255
254
254
255
255
255
254
254
254
254
254
254
255
254
254
254
254
255
255
254
254
254
254
254
252
244
244
158
119
125
125
125
127
124
125
132
124
127
159
163
132
161
152
126
124
130
124
128
126
127
125
125
130
122
125
120
134
243
217
248
253
254
255
253
254
252
254
254
254
254
254
254
254
254
255
255
255
254
254
254
254
254
255
255
254
254
0
0
0
0
0
0
0
0
0
0
0
0
0
0
0
0
0
0
0
0
0
0
0
0
0
0
0
0
0
0
0
0
0
0
0
0
0
0
0
0
0
0
0
0
0
0
0
0
0
0
0
0
0
0
0
0
0
0
0
0
0
0
0
0
0
0
0
0
0
0
0
0
0
0
0
0
0
0
0
0
0
0
0
0
0
0
0
0
0
0
0
0
0
0
0
0
0
0
0
0
0
0
0
0
0
0
0
0
0
0
0
0
0
0
0
0
0
0
0
0
0
0
0
0
0
0
0
0
0
0
0
0
0
0
0
0
0
0
0
0
0
0
0
0
0
0
0
0
0
0
0
0
0
0
0
0
0
0
0
0
0
0
0
0
0
0
0
0
0
0
0
0
0
0
0
0
0
0
0
0
0
0
0
0
0
0
0
0
0
0
0
0
0
0
0
0
0
0
0
0
0
0
0
0
0
0
0
0
0
0
0
0
0
0
0
0
0
0
0
0
0
0
0
0
0
0
0
0
0
0
0
0
0
0
0
0
0
0
0
0
0
0
0
0
0
0
0
0
0
0
0
0
0
0
0
0
0
0
0
0
0
0
0
0
0
0
0
0
0
0
0
0
0
0
0
0
0
0
0
0
0
0
0
0
0
0
0
0
0
0
0
0
0
0
0
0
0
0
0
0
0
0
0
0
0
0
0
0
0
0
0
0
0
0
0
0
0
0
0
0
0
0
0
0
0
0
0
0
0
0
0
0
0
0
0
0
0
0
0
0
0
0
0
0
0
0
0
0
0
0
0
0
0
0
0
0
0
0
0
0
0
0
0
0
0
0
0
0
0
0
0
0
162
162
162
163
163
164
164
164
164
164
164
164
164
164
164
163
164
163
163
165
162
162
148
129
129
127
130
134
134
154
161
161
162
164
164
164
163
162
162
162
164
164
165
164
164
164
163
163
163
164
164
164
164
165
168
168
179
182
183
183
183
181
181
183
175
175
165
164
162
162
159
131
131
131
128
129
129
129
125
125
231
229
229
230
230
229
229
230
250
250
255
254
255
255
253
254
254
255
254
254
254
255
255
255
254
255
255
255
254
254
254
255
255
255
254
254
255
255
255
254
254
254
254
254
254
254
255
255
254
255
255
255
254
255
255
252
246
246
157
123
127
127
127
127
127
125
140
140
157
165
166
166
167
165
165
165
161
147
147
132
123
123
127
126
126
126
126
124
124
124
169
169
239
251
254
254
254
253
253
254
253
253
254
253
254
254
254
255
255
255
254
254
254
254
255
255
255
254
254
0
0
0
0
0
0
0
0
0
0
0
0
0
0
0
0
0
0
0
0
0
0
0
0
0
0
0
0
0
0
0
0
0
0
0
0
0
0
0
0
0
0
0
0
0
0
0
0
0
0
0
0
0
0
0
0
0
0
0
0
0
0
0
0
0
0
0
0
0
0
0
0
0
0
0
0
0
0
0
0
0
0
0
0
0
0
0
0
0
0
0
0
0
0
0
0
0
0
0
0
0
0
0
0
0
0
0
0
0
0
0
0
0
0
0
0
0
0
0
0
0
0
0
0
0
0
0
0
0
0
0
0
0
0
0
0
0
0
0
0
0
0
0
0
0
0
0
0
0
0
0
0
0
0
0
0
0
0
0
0
0
0
0
0
0
0
0
0
0
0
0
0
0
0
0
0
0
0
0
0
0
0
0
0
0
0
0
0
0
0
0
0
0
0
0
0
0
0
0
0
0
0
0
0
0
0
0
0
0
0
0
0
0
0
0
0
0
0
0
0
0
0
0
0
0
0
0
0
0
0
0
0
0
0
0
0
0
0
0
0
0
0
0
0
0
0
0
0
0
0
0
0
0
0
0
0
0
0
0
0
0
0
0
0
0
0
0
0
0
0
0
0
0
0
0
0
0
0
0
0
0
0
0
0
0
0
0
0
0
0
0
0
0
0
0
0
0
0
0
0
0
0
0
0
0
0
0
0
0
0
0
0
0
0
0
0
0
0
0
0
0
0
0
0
0
0
0
0
0
0
0
0
0
0
0
0
0
0
0
0
0
0
0
0
0
0
0
0
0
0
0
0
0
0
0
0
0
0
0
0
0
0
0
0
0
0
0
0
0
0
0
162
162
162
162
163
163
164
164
163
163
164
164
164
164
164
163
163
164
162
165
163
161
159
146
132
140
144
135
160
163
161
162
164
164
164
164
164
163
163
165
165
165
165
165
164
163
163
163
164
164
165
165
165
170
169
181
182
183
183
183
183
182
183
174
174
165
164
163
163
159
135
133
132
128
129
129
129
120
122
231
231
230
229
231
229
229
230
250
250
255
254
255
254
255
254
254
255
253
254
254
255
255
255
254
254
254
255
254
255
254
254
254
255
254
254
254
255
255
255
255
254
254
254
254
255
255
254
255
255
254
254
255
254
254
250
250
247
162
121
126
127
126
125
126
126
155
148
165
165
166
166
166
166
167
164
162
164
164
164
167
150
131
147
125
126
130
127
124
125
126
119
130
118
171
249
254
250
254
253
252
254
252
253
255
252
254
254
253
255
255
255
254
254
254
254
255
255
254
254
254
0
0
0
0
0
0
0
0
0
0
0
0
0
0
0
0
0
0
0
0
0
0
0
0
0
0
0
0
0
0
0
0
0
0
0
0
0
0
0
0
0
0
0
0
0
0
0
0
0
0
0
0
0
0
0
0
0
0
0
0
0
0
0
0
0
0
0
0
0
0
0
0
0
0
0
0
0
0
0
0
0
0
0
0
0
0
0
0
0
0
0
0
0
0
0
0
0
0
0
0
0
0
0
0
0
0
0
0
0
0
0
0
0
0
0
0
0
0
0
0
0
0
0
0
0
0
0
0
0
0
0
0
0
0
0
0
0
0
0
0
0
0
0
0
0
0
0
0
0
0
0
0
0
0
0
0
0
0
0
0
0
0
0
0
0
0
0
0
0
0
0
0
0
0
0
0
0
0
0
0
0
0
0
0
0
0
0
0
0
0
0
0
0
0
0
0
0
0
0
0
0
0
0
0
0
0
0
0
0
0
0
0
0
0
0
0
0
0
0
0
0
0
0
0
0
0
0
0
0
0
0
0
0
0
0
0
0
0
0
0
0
0
0
0
0
0
0
0
0
0
0
0
0
0
0
0
0
0
0
0
0
0
0
0
0
0
0
0
0
0
0
0
0
0
0
0
0
0
0
0
0
0
0
0
0
0
0
0
0
0
0
0
0
0
0
0
0
0
0
0
0
0
0
0
0
0
0
0
0
0
0
0
0
0
0
0
0
0
0
0
0
0
0
0
0
0
0
0
0
0
0
0
0
0
0
0
0
0
0
0
0
0
0
0
0
0
0
0
0
0
0
0
0
0
0
0
0
0
0
0
0
0
0
0
0
0
0
0
0
0
162
162
162
162
163
163
164
163
163
163
163
164
164
164
164
163
163
163
165
165
164
163
159
161
158
152
152
159
165
163
164
164
164
164
164
164
164
164
164
165
165
165
165
165
164
163
163
163
164
165
165
165
171
170
181
182
183
183
183
183
183
182
174
174
165
163
163
163
160
136
135
131
127
129
129
130
122
120
225
230
231
230
231
229
229
230
250
250
255
254
255
255
255
254
254
255
253
254
254
255
255
255
254
254
254
255
255
254
254
255
254
254
254
255
255
255
254
254
255
255
255
254
254
254
254
254
255
254
255
255
254
254
254
254
250
250
184
122
125
125
128
126
126
126
157
155
166
165
166
166
166
164
166
165
167
165
165
165
165
167
165
166
147
162
134
123
123
126
127
126
129
127
123
123
137
229
250
249
253
252
252
255
254
254
255
254
254
254
255
255
255
255
254
254
254
254
255
255
254
254
254
0
0
0
0
0
0
0
0
0
0
0
0
0
0
0
0
0
0
0
0
0
0
0
0
0
0
0
0
0
0
0
0
0
0
0
0
0
0
0
0
0
0
0
0
0
0
0
0
0
0
0
0
0
0
0
0
0
0
0
0
0
0
0
0
0
0
0
0
0
0
0
0
0
0
0
0
0
0
0
0
0
0
0
0
0
0
0
0
0
0
0
0
0
0
0
0
0
0
0
0
0
0
0
0
0
0
0
0
0
0
0
0
0
0
0
0
0
0
0
0
0
0
0
0
0
0
0
0
0
0
0
0
0
0
0
0
0
0
0
0
0
0
0
0
0
0
0
0
0
0
0
0
0
0
0
0
0
0
0
0
0
0
0
0
0
0
0
0
0
0
0
0
0
0
0
0
0
0
0
0
0
0
0
0
0
0
0
0
0
0
0
0
0
0
0
0
0
0
0
0
0
0
0
0
0
0
0
0
0
0
0
0
0
0
0
0
0
0
0
0
0
0
0
0
0
0
0
0
0
0
0
0
0
0
0
0
0
0
0
0
0
0
0
0
0
0
0
0
0
0
0
0
0
0
0
0
0
0
0
0
0
0
0
0
0
0
0
0
0
0
0
0
0
0
0
0
0
0
0
0
0
0
0
0
0
0
0
0
0
0
0
0
0
0
0
0
0
0
0
0
0
0
0
0
0
0
0
0
0
0
0
0
0
0
0
0
0
0
0
0
0
0
0
0
0
0
0
0
0
0
0
0
0
0
0
0
0
0
0
0
0
0
0
0
0
0
0
0
0
0
0
0
0
0
0
0
0
0
0
0
0
0
0
0
0
0
0
0
0
162
162
162
163
163
163
163
163
163
163
163
163
164
164
164
164
164
164
164
165
162
162
163
163
165
164
161
164
167
164
164
164
164
164
164
164
164
164
164
165
165
165
165
164
163
163
163
164
165
165
165
173
171
182
183
183
183
183
183
183
182
172
172
166
163
165
164
160
137
137
131
128
129
129
127
123
125
219
229
229
230
231
230
229
230
250
250
255
254
255
254
255
254
254
255
254
255
254
255
255
255
255
255
254
255
254
254
254
255
255
255
254
254
254
255
255
255
254
254
255
255
255
254
254
254
255
255
255
254
255
255
255
254
253
251
207
123
126
125
125
127
124
124
155
156
164
167
164
165
165
165
165
167
167
166
165
165
164
168
165
166
166
163
167
165
150
127
134
126
124
129
126
125
126
124
123
192
246
246
252
253
254
255
254
255
255
254
254
254
255
255
255
255
254
254
254
254
255
255
254
254
254
0
0
0
0
0
0
0
0
0
0
0
0
0
0
0
0
0
0
0
0
0
0
0
0
0
0
0
0
0
0
0
0
0
0
0
0
0
0
0
0
0
0
0
0
0
0
0
0
0
0
0
0
0
0
0
0
0
0
0
0
0
0
0
0
0
0
0
0
0
0
0
0
0
0
0
0
0
0
0
0
0
0
0
0
0
0
0
0
0
0
0
0
0
0
0
0
0
0
0
0
0
0
0
0
0
0
0
0
0
0
0
0
0
0
0
0
0
0
0
0
0
0
0
0
0
0
0
0
0
0
0
0
0
0
0
0
0
0
0
0
0
0
0
0
0
0
0
0
0
0
0
0
0
0
0
0
0
0
0
0
0
0
0
0
0
0
0
0
0
0
0
0
0
0
0
0
0
0
0
0
0
0
0
0
0
0
0
0
0
0
0
0
0
0
0
0
0
0
0
0
0
0
0
0
0
0
0
0
0
0
0
0
0
0
0
0
0
0
0
0
0
0
0
0
0
0
0
0
0
0
0
0
0
0
0
0
0
0
0
0
0
0
0
0
0
0
0
0
0
0
0
0
0
0
0
0
0
0
0
0
0
0
0
0
0
0
0
0
0
0
0
0
0
0
0
0
0
0
0
0
0
0
0
0
0
0
0
0
0
0
0
0
0
0
0
0
0
0
0
0
0
0
0
0
0
0
0
0
0
0
0
0
0
0
0
0
0
0
0
0
0
0
0
0
0
0
0
0
0
0
0
0
0
0
0
0
0
0
0
0
0
0
0
0
0
0
0
0
0
0
0
0
0
0
0
0
0
0
0
0
0
0
0
0
0
0
0
0
162
163
163
163
163
163
163
163
163
163
163
163
163
164
164
164
164
164
164
164
162
162
163
161
165
165
164
164
164
164
164
164
164
164
164
164
164
164
164
164
165
165
164
163
163
162
163
164
165
165
175
173
182
183
183
183
183
183
183
182
172
172
165
165
165
165
161
138
137
130
128
129
129
127
125
123
208
229
229
229
229
229
230
230
250
250
254
254
255
255
255
253
254
254
254
255
255
255
254
255
254
255
255
255
255
254
254
254
255
255
254
255
255
254
254
255
255
254
254
254
255
255
255
254
254
253
255
255
255
251
255
252
254
253
241
119
126
126
127
127
127
125
148
155
166
166
163
164
167
165
165
164
165
166
166
166
165
164
166
163
165
168
166
164
165
165
165
134
142
128
128
126
124
129
124
126
122
166
241
231
249
254
254
254
255
255
253
255
254
254
255
255
255
255
254
254
254
254
255
255
253
254
255
0
0
0
0
0
0
0
0
0
0
0
0
0
0
0
0
0
0
0
0
0
0
0
0
0
0
0
0
0
0
0
0
0
0
0
0
0
0
0
0
0
0
0
0
0
0
0
0
0
0
0
0
0
0
0
0
0
0
0
0
0
0
0
0
0
0
0
0
0
0
0
0
0
0
0
0
0
0
0
0
0
0
0
0
0
0
0
0
0
0
0
0
0
0
0
0
0
0
0
0
0
0
0
0
0
0
0
0
0
0
0
0
0
0
0
0
0
0
0
0
0
0
0
0
0
0
0
0
0
0
0
0
0
0
0
0
0
0
0
0
0
0
0
0
0
0
0
0
0
0
0
0
0
0
0
0
0
0
0
0
0
0
0
0
0
0
0
0
0
0
0
0
0
0
0
0
0
0
0
0
0
0
0
0
0
0
0
0
0
0
0
0
0
0
0
0
0
0
0
0
0
0
0
0
0
0
0
0
0
0
0
0
0
0
0
0
0
0
0
0
0
0
0
0
0
0
0
0
0
0
0
0
0
0
0
0
0
0
0
0
0
0
0
0
0
0
0
0
0
0
0
0
0
0
0
0
0
0
0
0
0
0
0
0
0
0
0
0
0
0
0
0
0
0
0
0
0
0
0
0
0
0
0
0
0
0
0
0
0
0
0
0
0
0
0
0
0
0
0
0
0
0
0
0
0
0
0
0
0
0
0
0
0
0
0
0
0
0
0
0
0
0
0
0
0
0
0
0
0
0
0
0
0
0
0
0
0
0
0
0
0
0
0
0
0
0
0
0
0
0
0
0
0
0
0
0
0
0
0
0
0
0
0
0
0
0
0
164
163
163
163
163
163
163
163
163
163
163
163
163
163
164
164
164
164
164
164
162
161
163
163
162
164
164
165
164
164
164
164
164
164
164
164
164
164
164
164
164
164
163
163
162
163
163
164
165
176
176
182
183
184
183
183
183
183
182
171
171
165
165
163
163
161
139
139
130
128
129
129
127
123
123
201
227
227
230
230
228
228
230
250
250
254
255
254
255
255
254
254
254
254
255
255
255
255
255
254
254
254
255
255
255
254
254
254
254
255
254
255
255
255
254
254
255
254
254
254
255
255
255
254
254
254
255
255
255
255
255
255
255
246
137
124
125
127
125
125
126
140
140
167
165
164
163
166
164
164
164
165
167
167
164
166
166
164
168
168
164
163
166
166
164
166
166
166
152
161
129
128
124
124
128
126
126
124
121
214
214
249
254
254
254
255
255
255
254
254
254
255
255
255
255
254
253
253
254
255
255
254
255
255
0
0
0
0
0
0
0
0
0
0
0
0
0
0
0
0
0
0
0
0
0
0
0
0
0
0
0
0
0
0
0
0
0
0
0
0
0
0
0
0
0
0
0
0
0
0
0
0
0
0
0
0
0
0
0
0
0
0
0
0
0
0
0
0
0
0
0
0
0
0
0
0
0
0
0
0
0
0
0
0
0
0
0
0
0
0
0
0
0
0
0
0
0
0
0
0
0
0
0
0
0
0
0
0
0
0
0
0
0
0
0
0
0
0
0
0
0
0
0
0
0
0
0
0
0
0
0
0
0
0
0
0
0
0
0
0
0
0
0
0
0
0
0
0
0
0
0
0
0
0
0
0
0
0
0
0
0
0
0
0
0
0
0
0
0
0
0
0
0
0
0
0
0
0
0
0
0
0
0
0
0
0
0
0
0
0
0
0
0
0
0
0
0
0
0
0
0
0
0
0
0
0
0
0
0
0
0
0
0
0
0
0
0
0
0
0
0
0
0
0
0
0
0
0
0
0
0
0
0
0
0
0
0
0
0
0
0
0
0
0
0
0
0
0
0
0
0
0
0
0
0
0
0
0
0
0
0
0
0
0
0
0
0
0
0
0
0
0
0
0
0
0
0
0
0
0
0
0
0
0
0
0
0
0
0
0
0
0
0
0
0
0
0
0
0
0
0
0
0
0
0
0
0
0
0
0
0
0
0
0
0
0
0
0
0
0
0
0
0
0
0
0
0
0
0
0
0
0
0
0
0
0
0
0
0
0
0
0
0
0
0
0
0
0
0
0
0
0
0
0
0
0
0
0
0
0
0
0
0
0
0
0
0
0
0
0
164
164
164
164
163
163
163
163
163
163
163
163
163
163
163
164
164
164
164
163
163
162
162
162
164
163
164
164
164
164
164
164
164
164
164
164
164
164
164
164
164
164
164
163
163
163
163
165
178
177
182
183
184
184
182
183
183
182
171
171
165
165
164
164
161
141
140
130
129
128
129
128
123
122
197
230
232
230
230
229
229
230
250
250
254
255
254
254
254
254
254
254
254
254
255
255
255
255
255
255
254
255
255
255
255
255
255
254
254
254
255
255
255
255
254
254
254
254
254
255
254
255
254
255
255
255
255
254
255
251
252
254
249
195
124
124
124
127
125
126
127
131
166
166
163
164
164
166
164
165
164
166
167
164
165
165
166
165
164
167
164
167
165
165
164
165
166
164
165
161
166
141
126
124
124
127
126
127
124
119
191
166
249
254
255
253
255
255
255
254
254
254
255
255
255
255
254
254
254
254
255
255
255
255
254
0
0
0
0
0
0
0
0
0
0
0
0
0
0
0
0
0
0
0
0
0
0
0
0
0
0
0
0
0
0
0
0
0
0
0
0
0
0
0
0
0
0
0
0
0
0
0
0
0
0
0
0
0
0
0
0
0
0
0
0
0
0
0
0
0
0
0
0
0
0
0
0
0
0
0
0
0
0
0
0
0
0
0
0
0
0
0
0
0
0
0
0
0
0
0
0
0
0
0
0
0
0
0
0
0
0
0
0
0
0
0
0
0
0
0
0
0
0
0
0
0
0
0
0
0
0
0
0
0
0
0
0
0
0
0
0
0
0
0
0
0
0
0
0
0
0
0
0
0
0
0
0
0
0
0
0
0
0
0
0
0
0
0
0
0
0
0
0
0
0
0
0
0
0
0
0
0
0
0
0
0
0
0
0
0
0
0
0
0
0
0
0
0
0
0
0
0
0
0
0
0
0
0
0
0
0
0
0
0
0
0
0
0
0
0
0
0
0
0
0
0
0
0
0
0
0
0
0
0
0
0
0
0
0
0
0
0
0
0
0
0
0
0
0
0
0
0
0
0
0
0
0
0
0
0
0
0
0
0
0
0
0
0
0
0
0
0
0
0
0
0
0
0
0
0
0
0
0
0
0
0
0
0
0
0
0
0
0
0
0
0
0
0
0
0
0
0
0
0
0
0
0
0
0
0
0
0
0
0
0
0
0
0
0
0
0
0
0
0
0
0
0
0
0
0
0
0
0
0
0
0
0
0
0
0
0
0
0
0
0
0
0
0
0
0
0
0
0
0
0
0
0
0
0
0
0
0
0
0
0
0
0
0
0
0
164
165
164
164
164
163
163
163
163
163
163
163
163
163
163
163
164
164
164
164
163
163
164
163
164
163
163
164
164
164
164
164
164
164
164
164
164
164
164
164
164
164
164
164
164
164
165
179
179
183
183
184
184
183
182
182
180
170
171
165
165
164
164
162
141
141
130
129
128
128
128
123
123
189
230
230
231
228
227
227
232
249
250
254
255
254
254
254
255
255
254
255
255
255
254
255
255
255
255
255
255
255
254
254
255
255
255
254
254
254
254
255
255
255
255
254
254
254
254
254
254
254
254
255
254
255
255
255
251
254
254
249
229
122
122
125
127
127
126
126
127
160
166
164
164
166
169
169
164
164
167
167
164
164
164
167
163
165
165
165
165
165
165
167
164
165
166
165
165
166
165
165
150
126
124
125
126
126
126
125
124
166
151
248
254
254
253
254
254
254
255
254
254
255
255
255
255
254
254
254
254
254
254
254
254
254
0
0
0
0
0
0
0
0
0
0
0
0
0
0
0
0
0
0
0
0
0
0
0
0
0
0
0
0
0
0
0
0
0
0
0
0
0
0
0
0
0
0
0
0
0
0
0
0
0
0
0
0
0
0
0
0
0
0
0
0
0
0
0
0
0
0
0
0
0
0
0
0
0
0
0
0
0
0
0
0
0
0
0
0
0
0
0
0
0
0
0
0
0
0
0
0
0
0
0
0
0
0
0
0
0
0
0
0
0
0
0
0
0
0
0
0
0
0
0
0
0
0
0
0
0
0
0
0
0
0
0
0
0
0
0
0
0
0
0
0
0
0
0
0
0
0
0
0
0
0
0
0
0
0
0
0
0
0
0
0
0
0
0
0
0
0
0
0
0
0
0
0
0
0
0
0
0
0
0
0
0
0
0
0
0
0
0
0
0
0
0
0
0
0
0
0
0
0
0
0
0
0
0
0
0
0
0
0
0
0
0
0
0
0
0
0
0
0
0
0
0
0
0
0
0
0
0
0
0
0
0
0
0
0
0
0
0
0
0
0
0
0
0
0
0
0
0
0
0
0
0
0
0
0
0
0
0
0
0
0
0
0
0
0
0
0
0
0
0
0
0
0
0
0
0
0
0
0
0
0
0
0
0
0
0
0
0
0
0
0
0
0
0
0
0
0
0
0
0
0
0
0
0
0
0
0
0
0
0
0
0
0
0
0
0
0
0
0
0
0
0
0
0
0
0
0
0
0
0
0
0
0
0
0
0
0
0
0
0
0
0
0
0
0
0
0
0
0
0
0
0
0
0
0
0
0
0
0
0
0
0
0
0
0
165
164
164
164
164
164
163
163
163
163
163
163
163
163
163
163
163
164
164
164
164
164
164
164
163
163
163
163
164
164
164
164
164
164
164
164
164
164
164
164
164
164
164
164
164
165
179
179
184
182
183
184
184
183
183
181
169
170
165
165
164
164
162
142
141
130
129
130
128
128
123
123
184
231
230
230
229
229
229
231
249
249
254
255
254
254
254
255
254
254
254
254
255
255
255
254
255
255
255
255
255
255
254
255
254
254
254
254
254
254
254
254
255
254
254
254
254
254
254
254
255
254
254
254
254
254
254
255
253
254
253
249
151
122
123
126
125
127
125
126
146
164
165
165
167
164
165
164
165
164
166
166
165
164
167
165
164
166
165
180
165
164
167
164
166
167
165
166
164
164
165
166
166
156
128
125
125
127
126
125
125
124
135
128
244
254
254
253
254
254
254
255
254
254
254
255
254
255
254
254
254
254
255
255
254
254
254
0
0
0
0
0
0
0
0
0
0
0
0
0
0
0
0
0
0
0
0
0
0
0
0
0
0
0
0
0
0
0
0
0
0
0
0
0
0
0
0
0
0
0
0
0
0
0
0
0
0
0
0
0
0
0
0
0
0
0
0
0
0
0
0
0
0
0
0
0
0
0
0
0
0
0
0
0
0
0
0
0
0
0
0
0
0
0
0
0
0
0
0
0
0
0
0
0
0
0
0
0
0
0
0
0
0
0
0
0
0
0
0
0
0
0
0
0
0
0
0
0
0
0
0
0
0
0
0
0
0
0
0
0
0
0
0
0
0
0
0
0
0
0
0
0
0
0
0
0
0
0
0
0
0
0
0
0
0
0
0
0
0
0
0
0
0
0
0
0
0
0
0
0
0
0
0
0
0
0
0
0
0
0
0
0
0
0
0
0
0
0
0
0
0
0
0
0
0
0
0
0
0
0
0
0
0
0
0
0
0
0
0
0
0
0
0
0
0
0
0
0
0
0
0
0
0
0
0
0
0
0
0
0
0
0
0
0
0
0
0
0
0
0
0
0
0
0
0
0
0
0
0
0
0
0
0
0
0
0
0
0
0
0
0
0
0
0
0
0
0
0
0
0
0
0
0
0
0
0
0
0
0
0
0
0
0
0
0
0
0
0
0
0
0
0
0
0
0
0
0
0
0
0
0
0
0
0
0
0
0
0
0
0
0
0
0
0
0
0
0
0
0
0
0
0
0
0
0
0
0
0
0
0
0
0
0
0
0
0
0
0
0
0
0
0
0
0
0
0
0
0
0
0
0
0
0
0
0
0
0
0
0
0
163
164
164
164
164
164
164
163
163
163
163
163
163
163
163
163
163
163
164
164
164
164
164
164
163
163
163
163
163
164
164
164
164
164
164
164
164
164
164
164
164
164
164
164
165
181
179
184
182
184
184
184
184
183
181
169
169
165
164
163
164
162
142
142
130
129
130
130
129
123
123
177
232
231
229
230
230
229
230
246
249
254
255
254
254
254
254
255
255
254
254
254
254
255
255
255
254
255
255
255
255
255
255
255
254
254
254
254
254
254
254
254
255
255
254
254
254
254
254
254
255
254
254
254
255
254
255
254
253
252
253
204
204
125
128
126
124
125
125
125
169
166
165
165
164
164
166
164
165
165
165
165
165
165
166
165
164
175
187
180
185
185
167
174
170
162
165
165
166
164
165
165
166
166
168
136
125
126
127
125
126
125
124
128
122
231
254
253
254
255
255
255
255
254
255
254
254
254
254
255
254
254
254
255
255
254
254
254
0
0
0
0
0
0
0
0
0
0
0
0
0
0
0
0
0
0
0
0
0
0
0
0
0
0
0
0
0
0
0
0
0
0
0
0
0
0
0
0
0
0
0
0
0
0
0
0
0
0
0
0
0
0
0
0
0
0
0
0
0
0
0
0
0
0
0
0
0
0
0
0
0
0
0
0
0
0
0
0
0
0
0
0
0
0
0
0
0
0
0
0
0
0
0
0
0
0
0
0
0
0
0
0
0
0
0
0
0
0
0
0
0
0
0
0
0
0
0
0
0
0
0
0
0
0
0
0
0
0
0
0
0
0
0
0
0
0
0
0
0
0
0
0
0
0
0
0
0
0
0
0
0
0
0
0
0
0
0
0
0
0
0
0
0
0
0
0
0
0
0
0
0
0
0
0
0
0
0
0
0
0
0
0
0
0
0
0
0
0
0
0
0
0
0
0
0
0
0
0
0
0
0
0
0
0
0
0
0
0
0
0
0
0
0
0
0
0
0
0
0
0
0
0
0
0
0
0
0
0
0
0
0
0
0
0
0
0
0
0
0
0
0
0
0
0
0
0
0
0
0
0
0
0
0
0
0
0
0
0
0
0
0
0
0
0
0
0
0
0
0
0
0
0
0
0
0
0
0
0
0
0
0
0
0
0
0
0
0
0
0
0
0
0
0
0
0
0
0
0
0
0
0
0
0
0
0
0
0
0
0
0
0
0
0
0
0
0
0
0
0
0
0
0
0
0
0
0
0
0
0
0
0
0
0
0
0
0
0
0
0
0
0
0
0
0
0
0
0
0
0
0
0
0
0
0
0
0
0
0
0
0
163
163
164
164
164
164
164
164
163
163
163
163
163
163
163
163
163
163
163
164
164
164
164
164
164
163
163
163
163
163
164
164
164
164
164
164
164
164
164
164
164
164
164
165
181
181
183
182
183
184
184
184
184
182
168
168
165
163
164
162
161
142
142
130
129
130
130
129
123
123
175
232
232
230
229
229
230
230
245
245
255
255
254
254
255
254
254
254
254
255
254
255
255
254
255
255
255
254
255
255
255
254
255
255
255
254
254
254
254
255
255
255
255
255
255
254
254
255
254
254
254
254
254
254
254
252
254
254
254
254
248
238
120
124
127
126
128
128
126
156
165
166
165
165
165
166
165
165
165
165
166
165
164
166
166
164
168
185
189
187
190
190
188
185
191
175
168
164
164
167
165
165
166
165
164
169
142
125
125
126
127
127
125
124
119
119
226
252
252
254
255
254
254
255
255
255
254
254
254
255
254
254
254
254
254
254
254
254
254
0
0
0
0
0
0
0
0
0
0
0
0
0
0
0
0
0
0
0
0
0
0
0
0
0
0
0
0
0
0
0
0
0
0
0
0
0
0
0
0
0
0
0
0
0
0
0
0
0
0
0
0
0
0
0
0
0
0
0
0
0
0
0
0
0
0
0
0
0
0
0
0
0
0
0
0
0
0
0
0
0
0
0
0
0
0
0
0
0
0
0
0
0
0
0
0
0
0
0
0
0
0
0
0
0
0
0
0
0
0
0
0
0
0
0
0
0
0
0
0
0
0
0
0
0
0
0
0
0
0
0
0
0
0
0
0
0
0
0
0
0
0
0
0
0
0
0
0
0
0
0
0
0
0
0
0
0
0
0
0
0
0
0
0
0
0
0
0
0
0
0
0
0
0
0
0
0
0
0
0
0
0
0
0
0
0
0
0
0
0
0
0
0
0
0
0
0
0
0
0
0
0
0
0
0
0
0
0
0
0
0
0
0
0
0
0
0
0
0
0
0
0
0
0
0
0
0
0
0
0
0
0
0
0
0
0
0
0
0
0
0
0
0
0
0
0
0
0
0
0
0
0
0
0
0
0
0
0
0
0
0
0
0
0
0
0
0
0
0
0
0
0
0
0
0
0
0
0
0
0
0
0
0
0
0
0
0
0
0
0
0
0
0
0
0
0
0
0
0
0
0
0
0
0
0
0
0
0
0
0
0
0
0
0
0
0
0
0
0
0
0
0
0
0
0
0
0
0
0
0
0
0
0
0
0
0
0
0
0
0
0
0
0
0
0
0
0
0
0
0
0
0
0
0
0
0
0
0
0
0
0
163
164
164
164
164
164
164
164
164
163
163
163
163
163
163
163
163
163
163
163
164
164
164
164
164
164
163
163
163
163
163
164
164
164
164
164
164
164
164
164
164
164
165
174
179
183
184
182
183
183
184
184
182
167
168
165
163
164
164
160
142
142
130
130
130
130
131
123
123
170
230
232
230
230
230
229
228
242
244
255
254
255
254
254
255
255
254
254
254
255
255
255
255
254
254
255
255
255
254
255
255
254
254
255
255
255
254
254
254
255
255
255
254
255
255
255
254
254
253
254
254
254
254
254
252
254
254
254
253
250
248
179
126
124
126
124
124
126
125
164
165
167
163
165
164
165
165
165
165
166
166
165
164
164
165
164
164
185
186
190
189
189
188
188
191
190
188
176
162
167
166
165
165
166
164
164
165
148
124
124
126
127
126
127
127
120
121
220
252
253
252
254
254
254
254
255
255
254
254
255
255
254
254
254
254
254
254
254
254
254
0
0
0
0
0
0
0
0
0
0
0
0
0
0
0
0
0
0
0
0
0
0
0
0
0
0
0
0
0
0
0
0
0
0
0
0
0
0
0
0
0
0
0
0
0
0
0
0
0
0
0
0
0
0
0
0
0
0
0
0
0
0
0
0
0
0
0
0
0
0
0
0
0
0
0
0
0
0
0
0
0
0
0
0
0
0
0
0
0
0
0
0
0
0
0
0
0
0
0
0
0
0
0
0
0
0
0
0
0
0
0
0
0
0
0
0
0
0
0
0
0
0
0
0
0
0
0
0
0
0
0
0
0
0
0
0
0
0
0
0
0
0
0
0
0
0
0
0
0
0
0
0
0
0
0
0
0
0
0
0
0
0
0
0
0
0
0
0
0
0
0
0
0
0
0
0
0
0
0
0
0
0
0
0
0
0
0
0
0
0
0
0
0
0
0
0
0
0
0
0
0
0
0
0
0
0
0
0
0
0
0
0
0
0
0
0
0
0
0
0
0
0
0
0
0
0
0
0
0
0
0
0
0
0
0
0
0
0
0
0
0
0
0
0
0
0
0
0
0
0
0
0
0
0
0
0
0
0
0
0
0
0
0
0
0
0
0
0
0
0
0
0
0
0
0
0
0
0
0
0
0
0
0
0
0
0
0
0
0
0
0
0
0
0
0
0
0
0
0
0
0
0
0
0
0
0
0
0
0
0
0
0
0
0
0
0
0
0
0
0
0
0
0
0
0
0
0
0
0
0
0
0
0
0
0
0
0
0
0
0
0
0
0
0
0
0
0
0
0
0
0
0
0
0
0
0
0
0
0
0
164
164
164
164
164
164
164
164
164
164
163
163
163
163
163
163
163
163
163
163
164
164
164
164
164
164
164
163
163
163
163
163
164
164
164
164
164
164
164
164
164
165
171
171
183
182
183
183
183
183
183
182
167
167
165
164
163
163
160
141
141
130
130
130
130
130
124
124
170
230
230
230
230
231
231
230
241
241
253
254
255
255
254
255
255
255
255
254
254
255
255
255
254
254
254
254
255
255
255
254
255
255
254
254
255
255
255
254
254
254
255
255
255
255
255
255
255
254
254
252
254
253
253
254
254
254
254
252
251
251
225
118
118
125
126
126
125
127
160
160
164
164
164
166
164
166
166
165
165
165
166
165
165
165
165
164
164
166
184
184
190
191
189
189
188
187
187
189
187
167
173
163
166
166
166
165
165
164
156
125
125
126
126
126
127
125
122
122
221
253
253
253
254
254
254
255
255
255
254
255
255
255
254
254
254
254
254
254
254
254
254
0
0
0
0
0
0
0
0
0
0
0
0
0
0
0
0
0
0
0
0
0
0
0
0
0
0
0
0
0
0
0
0
0
0
0
0
0
0
0
0
0
0
0
0
0
0
0
0
0
0
0
0
0
0
0
0
0
0
0
0
0
0
0
0
0
0
0
0
0
0
0
0
0
0
0
0
0
0
0
0
0
0
0
0
0
0
0
0
0
0
0
0
0
0
0
0
0
0
0
0
0
0
0
0
0
0
0
0
0
0
0
0
0
0
0
0
0
0
0
0
0
0
0
0
0
0
0
0
0
0
0
0
0
0
0
0
0
0
0
0
0
0
0
0
0
0
0
0
0
0
0
0
0
0
0
0
0
0
0
0
0
0
0
0
0
0
0
0
0
0
0
0
0
0
0
0
0
0
0
0
0
0
0
0
0
0
0
0
0
0
0
0
0
0
0
0
0
0
0
0
0
0
0
0
0
0
0
0
0
0
0
0
0
0
0
0
0
0
0
0
0
0
0
0
0
0
0
0
0
0
0
0
0
0
0
0
0
0
0
0
0
0
0
0
0
0
0
0
0
0
0
0
0
0
0
0
0
0
0
0
0
0
0
0
0
0
0
0
0
0
0
0
0
0
0
0
0
0
0
0
0
0
0
0
0
0
0
0
0
0
0
0
0
0
0
0
0
0
0
0
0
0
0
0
0
0
0
0
0
0
0
0
0
0
0
0
0
0
0
0
0
0
0
0
0
0
0
0
0
0
0
0
0
0
0
0
0
0
0
0
0
0
0
0
0
0
0
0
0
0
0
0
0
0
0
0
0
0
0
164
164
164
164
164
164
164
164
164
164
164
163
163
163
163
163
163
163
163
164
164
164
164
164
164
164
164
164
163
163
163
163
163
164
164
164
164
164
164
164
165
167
169
182
182
182
183
183
183
184
181
167
167
164
164
162
163
160
139
140
130
129
130
130
129
123
123
170
230
230
230
229
229
230
230
239
240
254
254
255
255
254
254
254
254
254
254
254
255
255
255
255
255
254
255
255
254
255
255
255
254
255
255
254
254
255
255
255
254
255
255
255
255
255
255
255
254
254
252
254
254
252
254
255
253
254
252
254
253
248
162
124
123
125
127
126
126
124
141
168
163
168
165
164
165
165
165
165
165
164
164
166
165
164
164
166
165
165
167
178
172
186
190
190
190
188
187
188
189
189
179
184
164
166
165
165
167
166
166
157
125
127
126
125
125
127
125
124
121
223
252
253
254
255
255
254
255
254
254
254
254
254
254
254
254
254
254
254
254
254
254
254
0
0
0
0
0
0
0
0
0
0
0
0
0
0
0
0
0
0
0
0
0
0
0
0
0
0
0
0
0
0
0
0
0
0
0
0
0
0
0
0
0
0
0
0
0
0
0
0
0
0
0
0
0
0
0
0
0
0
0
0
0
0
0
0
0
0
0
0
0
0
0
0
0
0
0
0
0
0
0
0
0
0
0
0
0
0
0
0
0
0
0
0
0
0
0
0
0
0
0
0
0
0
0
0
0
0
0
0
0
0
0
0
0
0
0
0
0
0
0
0
0
0
0
0
0
0
0
0
0
0
0
0
0
0
0
0
0
0
0
0
0
0
0
0
0
0
0
0
0
0
0
0
0
0
0
0
0
0
0
0
0
0
0
0
0
0
0
0
0
0
0
0
0
0
0
0
0
0
0
0
0
0
0
0
0
0
0
0
0
0
0
0
0
0
0
0
0
0
0
0
0
0
0
0
0
0
0
0
0
0
0
0
0
0
0
0
0
0
0
0
0
0
0
0
0
0
0
0
0
0
0
0
0
0
0
0
0
0
0
0
0
0
0
0
0
0
0
0
0
0
0
0
0
0
0
0
0
0
0
0
0
0
0
0
0
0
0
0
0
0
0
0
0
0
0
0
0
0
0
0
0
0
0
0
0
0
0
0
0
0
0
0
0
0
0
0
0
0
0
0
0
0
0
0
0
0
0
0
0
0
0
0
0
0
0
0
0
0
0
0
0
0
0
0
0
0
0
0
0
0
0
0
0
0
0
0
0
0
0
0
0
0
0
0
0
0
0
0
0
0
0
0
0
0
0
0
0
0
164
164
165
164
164
164
164
164
164
164
164
164
163
163
163
163
163
163
163
163
164
164
164
164
164
164
164
164
164
163
163
163
163
163
164
164
164
164
164
165
165
167
177
184
182
182
183
184
183
175
165
167
164
164
162
162
159
138
139
130
129
129
129
129
122
123
169
230
230
229
230
230
229
228
239
239
254
255
255
255
253
254
254
253
254
254
254
255
254
255
254
254
255
255
255
254
254
254
255
255
255
254
255
255
254
254
255
255
255
255
255
254
255
255
255
255
254
254
254
254
254
253
255
255
255
255
253
253
254
224
162
122
125
125
127
126
123
123
156
165
163
166
165
165
165
165
166
165
164
164
164
165
165
164
164
165
165
165
165
165
167
167
186
187
190
190
189
188
189
188
190
184
186
169
165
165
164
165
165
166
159
127
127
126
125
125
127
127
121
122
230
253
254
253
255
255
254
255
254
254
255
254
254
254
254
254
254
254
254
254
254
254
254
0
0
0
0
0
0
0
0
0
0
0
0
0
0
0
0
0
0
0
0
0
0
0
0
0
0
0
0
0
0
0
0
0
0
0
0
0
0
0
0
0
0
0
0
0
0
0
0
0
0
0
0
0
0
0
0
0
0
0
0
0
0
0
0
0
0
0
0
0
0
0
0
0
0
0
0
0
0
0
0
0
0
0
0
0
0
0
0
0
0
0
0
0
0
0
0
0
0
0
0
0
0
0
0
0
0
0
0
0
0
0
0
0
0
0
0
0
0
0
0
0
0
0
0
0
0
0
0
0
0
0
0
0
0
0
0
0
0
0
0
0
0
0
0
0
0
0
0
0
0
0
0
0
0
0
0
0
0
0
0
0
0
0
0
0
0
0
0
0
0
0
0
0
0
0
0
0
0
0
0
0
0
0
0
0
0
0
0
0
0
0
0
0
0
0
0
0
0
0
0
0
0
0
0
0
0
0
0
0
0
0
0
0
0
0
0
0
0
0
0
0
0
0
0
0
0
0
0
0
0
0
0
0
0
0
0
0
0
0
0
0
0
0
0
0
0
0
0
0
0
0
0
0
0
0
0
0
0
0
0
0
0
0
0
0
0
0
0
0
0
0
0
0
0
0
0
0
0
0
0
0
0
0
0
0
0
0
0
0
0
0
0
0
0
0
0
0
0
0
0
0
0
0
0
0
0
0
0
0
0
0
0
0
0
0
0
0
0
0
0
0
0
0
0
0
0
0
0
0
0
0
0
0
0
0
0
0
0
0
0
0
0
0
0
0
0
0
0
0
0
0
0
0
0
0
0
0
254
164
164
165
164
164
164
164
164
164
164
164
164
163
163
163
163
163
163
163
163
164
164
164
164
164
164
164
164
164
163
163
163
163
163
164
164
164
165
165
165
171
183
182
183
183
183
184
173
165
165
164
165
162
161
159
136
137
131
129
129
129
129
123
123
170
230
230
229
229
230
230
230
237
237
254
255
255
255
253
255
254
254
254
254
254
255
255
255
254
254
254
255
255
255
254
254
254
254
255
255
255
254
255
255
254
254
255
255
255
255
254
254
255
255
255
254
254
253
254
253
254
255
254
254
254
255
255
250
243
121
125
125
126
125
127
128
136
164
168
165
166
164
164
164
164
165
165
164
164
164
166
165
165
165
166
166
164
165
165
165
163
162
185
188
189
189
188
190
190
187
188
188
188
172
163
164
164
166
164
166
159
126
126
127
126
127
126
126
121
121
238
255
255
251
255
253
255
255
254
254
253
254
254
253
254
254
254
254
254
254
254
254
254
0
0
0
0
0
0
0
0
0
0
0
0
0
0
0
0
0
0
0
0
0
0
0
0
0
0
0
0
0
0
0
0
0
0
0
0
0
0
0
0
0
0
0
0
0
0
0
0
0
0
0
0
0
0
0
0
0
0
0
0
0
0
0
0
0
0
0
0
0
0
0
0
0
0
0
0
0
0
0
0
0
0
0
0
0
0
0
0
0
0
0
0
0
0
0
0
0
0
0
0
0
0
0
0
0
0
0
0
0
0
0
0
0
0
0
0
0
0
0
0
0
0
0
0
0
0
0
0
0
0
0
0
0
0
0
0
0
0
0
0
0
0
0
0
0
0
0
0
0
0
0
0
0
0
0
0
0
0
0
0
0
0
0
0
0
0
0
0
0
0
0
0
0
0
0
0
0
0
0
0
0
0
0
0
0
0
0
0
0
0
0
0
0
0
0
0
0
0
0
0
0
0
0
0
0
0
0
0
0
0
0
0
0
0
0
0
0
0
0
0
0
0
0
0
0
0
0
0
0
0
0
0
0
0
0
0
0
0
0
0
0
0
0
0
0
0
0
0
0
0
0
0
0
0
0
0
0
0
0
0
0
0
0
0
0
0
0
0
0
0
0
0
0
0
0
0
0
0
0
0
0
0
0
0
0
0
0
0
0
0
0
0
0
0
0
0
0
0
0
0
0
0
0
0
0
0
0
0
0
0
0
0
0
0
0
0
0
0
0
0
0
0
0
0
0
0
0
0
0
0
0
0
0
0
0
0
0
0
0
0
0
0
0
0
0
0
0
0
0
0
0
0
0
0
0
0
254
254
164
164
164
164
164
164
164
164
164
164
164
164
163
163
164
163
163
163
163
163
164
164
164
164
164
164
164
164
164
163
163
163
163
163
164
164
166
165
165
167
180
182
182
180
183
170
165
165
165
166
163
162
159
135
136
131
129
129
129
128
123
123
169
231
230
229
230
230
230
230
236
236
255
255
255
255
253
255
255
254
255
254
254
254
254
255
254
254
254
255
255
254
255
255
255
254
254
254
255
255
255
254
255
255
255
254
255
255
255
254
254
254
255
255
255
254
253
254
255
254
255
254
253
254
254
251
250
215
122
125
127
125
125
127
125
149
164
166
165
163
164
165
165
164
165
166
164
165
164
165
165
165
165
166
165
165
165
165
166
166
162
167
175
189
188
188
187
190
190
189
188
189
186
179
164
165
166
164
165
166
158
126
125
125
127
127
125
126
121
123
248
255
255
255
253
254
254
255
254
254
254
254
254
254
254
254
254
254
254
255
254
254
254
0
0
0
0
0
0
0
0
0
0
0
0
0
0
0
0
0
0
0
0
0
0
0
0
0
0
0
0
0
0
0
0
0
0
0
0
0
0
0
0
0
0
0
0
0
0
0
0
0
0
0
0
0
0
0
0
0
0
0
0
0
0
0
0
0
0
0
0
0
0
0
0
0
0
0
0
0
0
0
0
0
0
0
0
0
0
0
0
0
0
0
0
0
0
0
0
0
0
0
0
0
0
0
0
0
0
0
0
0
0
0
0
0
0
0
0
0
0
0
0
0
0
0
0
0
0
0
0
0
0
0
0
0
0
0
0
0
0
0
0
0
0
0
0
0
0
0
0
0
0
0
0
0
0
0
0
0
0
0
0
0
0
0
0
0
0
0
0
0
0
0
0
0
0
0
0
0
0
0
0
0
0
0
0
0
0
0
0
0
0
0
0
0
0
0
0
0
0
0
0
0
0
0
0
0
0
0
0
0
0
0
0
0
0
0
0
0
0
0
0
0
0
0
0
0
0
0
0
0
0
0
0
0
0
0
0
0
0
0
0
0
0
0
0
0
0
0
0
0
0
0
0
0
0
0
0
0
0
0
0
0
0
0
0
0
0
0
0
0
0
0
0
0
0
0
0
0
0
0
0
0
0
0
0
0
0
0
0
0
0
0
0
0
0
0
0
0
0
0
0
0
0
0
0
0
0
0
0
0
0
0
0
0
0
0
0
0
0
0
0
0
0
0
0
0
0
0
0
0
0
0
0
0
0
0
0
0
0
0
0
0
0
0
0
0
0
0
0
0
0
0
0
0
0
0
254
254
254
164
164
164
164
164
164
164
164
164
164
164
164
164
164
164
163
163
163
163
163
164
164
164
164
164
164
164
164
164
163
163
163
163
164
164
164
165
166
166
167
181
174
174
168
164
164
165
166
163
163
156
133
133
131
129
130
129
129
123
123
170
230
230
230
230
230
230
230
236
236
255
254
255
255
253
255
255
254
255
254
254
254
254
254
254
254
254
255
254
254
254
255
255
255
255
254
254
254
255
255
255
254
255
255
255
254
255
255
255
254
254
255
255
255
254
254
255
255
255
254
254
254
254
254
254
245
119
119
128
127
126
126
127
130
130
166
165
166
165
166
165
165
164
165
165
164
164
164
164
164
165
165
165
165
165
166
165
166
166
163
166
166
171
188
189
189
188
189
189
191
188
187
187
180
165
165
166
165
166
165
158
124
124
126
127
127
125
125
135
135
248
255
255
252
254
254
255
254
254
254
254
254
254
254
255
254
254
254
255
255
254
254
254
0
0
0
0
0
0
0
0
0
0
0
0
0
0
0
0
0
0
0
0
0
0
0
0
0
0
0
0
0
0
0
0
0
0
0
0
0
0
0
0
0
0
0
0
0
0
0
0
0
0
0
0
0
0
0
0
0
0
0
0
0
0
0
0
0
0
0
0
0
0
0
0
0
0
0
0
0
0
0
0
0
0
0
0
0
0
0
0
0
0
0
0
0
0
0
0
0
0
0
0
0
0
0
0
0
0
0
0
0
0
0
0
0
0
0
0
0
0
0
0
0
0
0
0
0
0
0
0
0
0
0
0
0
0
0
0
0
0
0
0
0
0
0
0
0
0
0
0
0
0
0
0
0
0
0
0
0
0
0
0
0
0
0
0
0
0
0
0
0
0
0
0
0
0
0
0
0
0
0
0
0
0
0
0
0
0
0
0
0
0
0
0
0
0
0
0
0
0
0
0
0
0
0
0
0
0
0
0
0
0
0
0
0
0
0
0
0
0
0
0
0
0
0
0
0
0
0
0
0
0
0
0
0
0
0
0
0
0
0
0
0
0
0
0
0
0
0
0
0
0
0
0
0
0
0
0
0
0
0
0
0
0
0
0
0
0
0
0
0
0
0
0
0
0
0
0
0
0
0
0
0
0
0
0
0
0
0
0
0
0
0
0
0
0
0
0
0
0
0
0
0
0
0
0
0
0
0
0
0
0
0
0
0
0
0
0
0
0
0
0
0
0
0
0
0
0
0
0
0
0
0
0
0
0
0
0
0
0
0
0
0
0
0
0
0
0
0
0
0
0
0
0
0
0
254
254
254
254
164
164
164
164
163
163
164
164
164
164
164
164
164
164
164
163
163
163
163
163
164
164
164
164
164
164
164
164
164
163
163
164
166
164
163
163
164
166
165
165
170
165
163
163
164
164
162
162
154
132
132
130
127
130
130
128
124
123
171
230
230
229
228
229
230
230
235
235
255
254
255
254
254
255
255
254
254
254
254
254
254
254
254
254
254
255
255
254
254
254
254
255
255
255
255
254
254
254
255
255
255
254
255
255
255
254
255
255
255
254
254
254
255
255
255
254
255
254
255
254
255
255
255
250
218
154
125
127
129
127
127
125
124
160
166
165
166
165
164
165
165
166
164
164
164
164
164
164
164
164
165
165
165
165
165
164
164
167
167
163
165
164
165
187
189
188
188
189
189
189
188
189
189
180
165
165
165
166
166
165
156
124
125
126
127
127
125
124
152
167
248
255
255
255
254
253
253
255
254
254
254
254
254
254
254
254
254
254
255
254
255
254
254
0
0
0
0
0
0
0
0
0
0
0
0
0
0
0
0
0
0
0
0
0
0
0
0
0
0
0
0
0
0
0
0
0
0
0
0
0
0
0
0
0
0
0
0
0
0
0
0
0
0
0
0
0
0
0
0
0
0
0
0
0
0
0
0
0
0
0
0
0
0
0
0
0
0
0
0
0
0
0
0
0
0
0
0
0
0
0
0
0
0
0
0
0
0
0
0
0
0
0
0
0
0
0
0
0
0
0
0
0
0
0
0
0
0
0
0
0
0
0
0
0
0
0
0
0
0
0
0
0
0
0
0
0
0
0
0
0
0
0
0
0
0
0
0
0
0
0
0
0
0
0
0
0
0
0
0
0
0
0
0
0
0
0
0
0
0
0
0
0
0
0
0
0
0
0
0
0
0
0
0
0
0
0
0
0
0
0
0
0
0
0
0
0
0
0
0
0
0
0
0
0
0
0
0
0
0
0
0
0
0
0
0
0
0
0
0
0
0
0
0
0
0
0
0
0
0
0
0
0
0
0
0
0
0
0
0
0
0
0
0
0
0
0
0
0
0
0
0
0
0
0
0
0
0
0
0
0
0
0
0
0
0
0
0
0
0
0
0
0
0
0
0
0
0
0
0
0
0
0
0
0
0
0
0
0
0
0
0
0
0
0
0
0
0
0
0
0
0
0
0
0
0
0
0
0
0
0
0
0
0
0
0
0
0
0
0
0
0
0
0
0
0
0
0
0
0
0
0
0
0
0
0
0
0
0
0
0
0
0
0
0
0
0
0
0
0
0
0
0
0
0
0
0
254
255
255
254
254
164
164
164
163
163
163
164
164
164
164
164
164
164
164
164
163
163
163
163
163
164
164
164
164
164
164
164
164
164
165
171
166
172
167
164
164
163
165
165
165
165
163
162
161
160
160
149
132
132
127
128
130
130
128
124
124
177
229
230
229
229
229
229
229
236
235
254
254
255
255
254
255
255
255
254
254
254
254
254
254
254
255
254
255
254
254
254
254
254
254
254
255
255
255
255
254
254
254
255
255
255
254
255
255
255
254
255
255
254
253
253
254
255
255
255
254
254
254
255
255
255
254
248
218
122
126
127
127
130
126
125
125
163
166
166
165
165
165
164
167
166
164
165
166
166
164
165
164
164
165
165
165
165
163
163
165
164
167
167
167
164
164
164
184
188
188
188
189
189
189
190
189
189
180
165
165
165
166
166
164
147
125
125
125
127
127
125
125
167
188
249
254
254
255
255
255
253
254
254
254
254
254
254
254
254
254
254
255
254
254
255
254
254
0
0
0
0
0
0
0
0
0
0
0
0
0
0
0
0
0
0
0
0
0
0
0
0
0
0
0
0
0
0
0
0
0
0
0
0
0
0
0
0
0
0
0
0
0
0
0
0
0
0
0
0
0
0
0
0
0
0
0
0
0
0
0
0
0
0
0
0
0
0
0
0
0
0
0
0
0
0
0
0
0
0
0
0
0
0
0
0
0
0
0
0
0
0
0
0
0
0
0
0
0
0
0
0
0
0
0
0
0
0
0
0
0
0
0
0
0
0
0
0
0
0
0
0
0
0
0
0
0
0
0
0
0
0
0
0
0
0
0
0
0
0
0
0
0
0
0
0
0
0
0
0
0
0
0
0
0
0
0
0
0
0
0
0
0
0
0
0
0
0
0
0
0
0
0
0
0
0
0
0
0
0
0
0
0
0
0
0
0
0
0
0
0
0
0
0
0
0
0
0
0
0
0
0
0
0
0
0
0
0
0
0
0
0
0
0
0
0
0
0
0
0
0
0
0
0
0
0
0
0
0
0
0
0
0
0
0
0
0
0
0
0
0
0
0
0
0
0
0
0
0
0
0
0
0
0
0
0
0
0
0
0
0
0
0
0
0
0
0
0
0
0
0
0
0
0
0
0
0
0
0
0
0
0
0
0
0
0
0
0
0
0
0
0
0
0
0
0
0
0
0
0
0
0
0
0
0
0
0
0
0
0
0
0
0
0
0
0
0
0
0
0
0
0
0
0
0
0
0
0
0
0
0
0
0
0
0
0
0
0
0
0
0
0
0
0
0
0
0
0
0
0
255
255
255
255
254
254
164
164
164
163
163
164
164
164
164
164
164
164
164
164
164
163
163
163
163
163
164
164
164
164
164
164
164
165
177
174
178
176
179
169
163
162
162
163
163
163
162
161
158
159
144
131
131
127
129
129
129
129
125
124
179
230
230
229
229
230
231
229
235
236
254
254
255
255
254
255
255
255
254
255
255
254
254
254
254
254
254
255
255
255
254
254
254
254
254
254
254
255
255
255
255
254
255
255
255
255
255
254
255
255
255
254
255
255
254
254
255
255
255
254
254
254
254
254
255
254
253
251
159
127
124
125
127
123
129
128
152
164
167
165
166
167
165
166
167
164
167
165
165
166
165
164
165
165
165
165
165
164
165
164
164
165
164
167
166
167
165
165
165
182
189
189
189
189
188
189
190
189
188
179
165
165
165
166
166
164
143
126
126
125
127
128
125
121
208
227
250
253
252
254
255
254
255
252
254
254
254
254
254
254
254
254
253
255
254
255
254
254
254
0
0
0
0
0
0
0
0
0
0
0
0
0
0
0
0
0
0
0
0
0
0
0
0
0
0
0
0
0
0
0
0
0
0
0
0
0
0
0
0
0
0
0
0
0
0
0
0
0
0
0
0
0
0
0
0
0
0
0
0
0
0
0
0
0
0
0
0
0
0
0
0
0
0
0
0
0
0
0
0
0
0
0
0
0
0
0
0
0
0
0
0
0
0
0
0
0
0
0
0
0
0
0
0
0
0
0
0
0
0
0
0
0
0
0
0
0
0
0
0
0
0
0
0
0
0
0
0
0
0
0
0
0
0
0
0
0
0
0
0
0
0
0
0
0
0
0
0
0
0
0
0
0
0
0
0
0
0
0
0
0
0
0
0
0
0
0
0
0
0
0
0
0
0
0
0
0
0
0
0
0
0
0
0
0
0
0
0
0
0
0
0
0
0
0
0
0
0
0
0
0
0
0
0
0
0
0
0
0
0
0
0
0
0
0
0
0
0
0
0
0
0
0
0
0
0
0
0
0
0
0
0
0
0
0
0
0
0
0
0
0
0
0
0
0
0
0
0
0
0
0
0
0
0
0
0
0
0
0
0
0
0
0
0
0
0
0
0
0
0
0
0
0
0
0
0
0
0
0
0
0
0
0
0
0
0
0
0
0
0
0
0
0
0
0
0
0
0
0
0
0
0
0
0
0
0
0
0
0
0
0
0
0
0
0
0
0
0
0
0
0
0
0
0
0
0
0
0
0
0
0
0
0
0
0
0
0
0
0
0
0
0
0
0
0
0
0
0
0
0
0
255
254
254
255
255
254
254
164
163
163
163
164
164
164
164
164
164
164
164
164
164
164
163
163
163
163
163
164
164
164
164
164
165
174
177
184
184
183
179
178
167
162
163
164
163
162
164
158
158
138
130
131
128
130
129
129
128
121
125
184
230
230
230
230
229
230
230
235
235
255
254
255
255
253
254
255
254
254
254
255
255
255
254
254
254
254
254
255
255
255
254
254
254
255
254
254
254
254
255
255
255
255
255
255
255
255
255
255
255
255
255
255
255
255
255
255
255
255
254
254
254
255
254
254
255
254
253
248
126
126
124
128
127
123
128
126
162
164
166
165
166
166
165
166
165
166
165
165
164
165
165
165
164
164
165
165
165
164
165
165
164
165
166
164
166
166
164
165
166
165
182
189
190
189
188
188
188
189
188
188
178
165
165
164
166
166
166
133
126
126
126
128
129
124
121
227
242
251
252
253
252
254
254
255
254
254
254
254
254
254
254
253
253
254
254
255
255
254
254
254
0
0
0
0
0
0
0
0
0
0
0
0
0
0
0
0
0
0
0
0
0
0
0
0
0
0
0
0
0
0
0
0
0
0
0
0
0
0
0
0
0
0
0
0
0
0
0
0
0
0
0
0
0
0
0
0
0
0
0
0
0
0
0
0
0
0
0
0
0
0
0
0
0
0
0
0
0
0
0
0
0
0
0
0
0
0
0
0
0
0
0
0
0
0
0
0
0
0
0
0
0
0
0
0
0
0
0
0
0
0
0
0
0
0
0
0
0
0
0
0
0
0
0
0
0
0
0
0
0
0
0
0
0
0
0
0
0
0
0
0
0
0
0
0
0
0
0
0
0
0
0
0
0
0
0
0
0
0
0
0
0
0
0
0
0
0
0
0
0
0
0
0
0
0
0
0
0
0
0
0
0
0
0
0
0
0
0
0
0
0
0
0
0
0
0
0
0
0
0
0
0
0
0
0
0
0
0
0
0
0
0
0
0
0
0
0
0
0
0
0
0
0
0
0
0
0
0
0
0
0
0
0
0
0
0
0
0
0
0
0
0
0
0
0
0
0
0
0
0
0
0
0
0
0
0
0
0
0
0
0
0
0
0
0
0
0
0
0
0
0
0
0
0
0
0
0
0
0
0
0
0
0
0
0
0
0
0
0
0
0
0
0
0
0
0
0
0
0
0
0
0
0
0
0
0
0
0
0
0
0
0
0
0
0
0
0
0
0
0
0
0
0
0
0
0
0
0
0
0
0
0
0
0
0
0
0
0
0
0
0
0
0
0
0
0
0
0
0
0
0
254
254
254
255
255
255
254
254
163
163
163
164
164
164
164
164
164
164
164
164
164
164
164
163
163
163
163
163
164
164
164
165
166
166
185
181
184
182
184
176
176
165
164
164
164
163
160
157
136
129
129
128
130
130
130
125
121
121
189
231
231
230
230
230
230
229
235
235
254
254
255
255
254
254
254
254
254
255
254
254
255
255
255
254
254
254
254
254
255
254
254
254
254
255
255
255
254
254
254
255
255
255
255
254
254
255
255
255
255
255
255
254
255
255
255
255
255
254
254
254
255
255
254
251
254
254
251
183
120
128
128
127
127
125
127
127
137
166
166
166
165
165
165
164
166
166
164
165
164
164
165
165
165
164
164
165
165
165
164
164
165
164
164
166
165
166
166
164
166
166
165
181
190
190
187
188
189
189
189
189
189
174
165
165
164
167
166
165
126
126
126
125
127
124
124
133
247
247
252
254
254
252
254
254
255
254
254
254
254
255
255
254
254
254
254
254
255
255
254
254
254
0
0
0
0
0
0
0
0
0
0
0
0
0
0
0
0
0
0
0
0
0
0
0
0
0
0
0
0
0
0
0
0
0
0
0
0
0
0
0
0
0
0
0
0
0
0
0
0
0
0
0
0
0
0
0
0
0
0
0
0
0
0
0
0
0
0
0
0
0
0
0
0
0
0
0
0
0
0
0
0
0
0
0
0
0
0
0
0
0
0
0
0
0
0
0
0
0
0
0
0
0
0
0
0
0
0
0
0
0
0
0
0
0
0
0
0
0
0
0
0
0
0
0
0
0
0
0
0
0
0
0
0
0
0
0
0
0
0
0
0
0
0
0
0
0
0
0
0
0
0
0
0
0
0
0
0
0
0
0
0
0
0
0
0
0
0
0
0
0
0
0
0
0
0
0
0
0
0
0
0
0
0
0
0
0
0
0
0
0
0
0
0
0
0
0
0
0
0
0
0
0
0
0
0
0
0
0
0
0
0
0
0
0
0
0
0
0
0
0
0
0
0
0
0
0
0
0
0
0
0
0
0
0
0
0
0
0
0
0
0
0
0
0
0
0
0
0
0
0
0
0
0
0
0
0
0
0
0
0
0
0
0
0
0
0
0
0
0
0
0
0
0
0
0
0
0
0
0
0
0
0
0
0
0
0
0
0
0
0
0
0
0
0
0
0
0
0
0
0
0
0
0
0
0
0
0
0
0
0
0
0
0
0
0
0
0
0
0
0
0
0
0
0
0
0
0
0
0
0
0
0
0
0
0
0
0
0
0
0
0
0
0
0
0
0
0
0
0
0
255
254
255
254
254
255
255
254
254
162
163
163
164
164
164
164
164
164
164
164
164
164
164
164
163
163
163
163
163
164
164
165
166
179
182
182
184
185
184
183
171
165
164
163
162
162
160
150
130
129
128
128
130
130
131
127
126
197
233
231
230
229
230
230
230
235
235
254
254
254
255
255
255
255
254
254
255
255
255
254
254
254
255
255
254
254
254
254
254
255
254
254
254
254
255
255
255
254
255
255
254
255
254
255
254
254
254
255
255
255
254
254
254
255
255
255
255
255
254
254
255
255
255
254
252
254
250
147
120
125
129
122
124
123
126
127
146
166
168
166
166
166
166
166
164
166
166
166
166
165
166
165
165
165
164
165
166
166
166
165
164
165
164
164
165
165
166
166
164
166
166
164
181
189
189
188
189
189
190
188
188
188
169
165
166
165
166
166
161
122
128
128
127
124
125
124
159
248
252
254
253
254
254
254
254
255
255
254
254
254
255
255
255
254
254
254
254
255
255
254
254
254
0
0
0
0
0
0
0
0
0
0
0
0
0
0
0
0
0
0
0
0
0
0
0
0
0
0
0
0
0
0
0
0
0
0
0
0
0
0
0
0
0
0
0
0
0
0
0
0
0
0
0
0
0
0
0
0
0
0
0
0
0
0
0
0
0
0
0
0
0
0
0
0
0
0
0
0
0
0
0
0
0
0
0
0
0
0
0
0
0
0
0
0
0
0
0
0
0
0
0
0
0
0
0
0
0
0
0
0
0
0
0
0
0
0
0
0
0
0
0
0
0
0
0
0
0
0
0
0
0
0
0
0
0
0
0
0
0
0
0
0
0
0
0
0
0
0
0
0
0
0
0
0
0
0
0
0
0
0
0
0
0
0
0
0
0
0
0
0
0
0
0
0
0
0
0
0
0
0
0
0
0
0
0
0
0
0
0
0
0
0
0
0
0
0
0
0
0
0
0
0
0
0
0
0
0
0
0
0
0
0
0
0
0
0
0
0
0
0
0
0
0
0
0
0
0
0
0
0
0
0
0
0
0
0
0
0
0
0
0
0
0
0
0
0
0
0
0
0
0
0
0
0
0
0
0
0
0
0
0
0
0
0
0
0
0
0
0
0
0
0
0
0
0
0
0
0
0
0
0
0
0
0
0
0
0
0
0
0
0
0
0
0
0
0
0
0
0
0
0
0
0
0
0
0
0
0
0
0
0
0
0
0
0
0
0
0
0
0
0
0
0
0
0
0
0
0
0
0
0
0
0
0
0
0
0
0
0
0
0
0
0
0
0
0
0
0
0
0
255
255
255
254
254
254
255
255
254
254
162
162
163
164
164
164
164
164
164
164
164
164
164
164
164
163
163
163
163
163
164
164
165
177
182
182
183
183
183
179
170
165
165
164
163
163
156
139
139
128
127
129
129
130
126
126
174
229
233
232
229
230
230
230
235
235
255
254
254
254
255
255
255
255
254
254
254
255
255
255
254
254
255
255
254
254
254
254
254
254
254
254
254
254
254
255
255
255
254
255
255
254
254
254
255
254
254
254
255
255
255
254
254
254
255
255
255
255
254
254
254
254
252
252
255
253
228
228
121
129
129
126
125
129
129
127
137
137
151
160
166
164
164
166
166
164
166
166
166
165
166
166
165
165
165
165
164
166
165
165
165
165
165
166
166
164
164
165
165
164
166
166
165
183
189
189
189
187
187
189
188
188
188
164
165
165
166
165
165
152
124
126
126
127
127
127
120
226
252
254
254
254
254
253
254
254
255
255
254
254
254
255
255
255
254
254
254
254
255
255
254
254
255
0
0
0
0
0
0
0
0
0
0
0
0
0
0
0
0
0
0
0
0
0
0
0
0
0
0
0
0
0
0
0
0
0
0
0
0
0
0
0
0
0
0
0
0
0
0
0
0
0
0
0
0
0
0
0
0
0
0
0
0
0
0
0
0
0
0
0
0
0
0
0
0
0
0
0
0
0
0
0
0
0
0
0
0
0
0
0
0
0
0
0
0
0
0
0
0
0
0
0
0
0
0
0
0
0
0
0
0
0
0
0
0
0
0
0
0
0
0
0
0
0
0
0
0
0
0
0
0
0
0
0
0
0
0
0
0
0
0
0
0
0
0
0
0
0
0
0
0
0
0
0
0
0
0
0
0
0
0
0
0
0
0
0
0
0
0
0
0
0
0
0
0
0
0
0
0
0
0
0
0
0
0
0
0
0
0
0
0
0
0
0
0
0
0
0
0
0
0
0
0
0
0
0
0
0
0
0
0
0
0
0
0
0
0
0
0
0
0
0
0
0
0
0
0
0
0
0
0
0
0
0
0
0
0
0
0
0
0
0
0
0
0
0
0
0
0
0
0
0
0
0
0
0
0
0
0
0
0
0
0
0
0
0
0
0
0
0
0
0
0
0
0
0
0
0
0
0
0
0
0
0
0
0
0
0
0
0
0
0
0
0
0
0
0
0
0
0
0
0
0
0
0
0
0
0
0
0
0
0
0
0
0
0
0
0
0
0
0
0
0
0
0
0
0
0
0
0
0
0
0
0
0
0
0
0
0
0
0
0
0
0
0
0
0
0
0
0
255
255
254
254
254
254
255
255
255
254
254
163
163
163
164
164
165
164
164
164
164
164
164
164
164
164
163
163
163
164
161
164
164
167
180
182
183
184
182
174
172
165
164
163
163
164
163
148
134
132
130
129
127
132
133
127
123
182
229
231
232
231
230
235
235
255
254
255
254
255
254
254
255
255
255
254
254
254
255
255
255
254
254
255
255
254
254
254
254
254
254
254
254
254
254
254
255
254
254
254
255
255
254
254
254
255
254
255
255
255
255
255
254
254
254
254
255
255
255
254
255
253
255
255
249
253
248
133
121
126
127
125
124
129
123
128
125
125
121
127
137
154
131
165
166
163
165
165
165
166
164
165
165
165
165
165
164
166
165
165
165
164
165
165
165
164
165
165
166
166
165
166
166
165
185
189
190
189
189
190
188
189
187
185
164
165
165
166
162
165
129
125
125
125
127
126
124
125
243
255
254
255
254
254
254
254
254
254
255
254
254
255
255
255
254
254
254
254
254
255
255
254
255
255
0
0
0
0
0
0
0
0
0
0
0
0
0
0
0
0
0
0
0
0
0
0
0
0
0
0
0
0
0
0
0
0
0
0
0
0
0
0
0
0
0
0
0
0
0
0
0
0
0
0
0
0
0
0
0
0
0
0
0
0
0
0
0
0
0
0
0
0
0
0
0
0
0
0
0
0
0
0
0
0
0
0
0
0
0
0
0
0
0
0
0
0
0
0
0
0
0
0
0
0
0
0
0
0
0
0
0
0
0
0
0
0
0
0
0
0
0
0
0
0
0
0
0
0
0
0
0
0
0
0
0
0
0
0
0
0
0
0
0
0
0
0
0
0
0
0
0
0
0
0
0
0
0
0
0
0
0
0
0
0
0
0
0
0
0
0
0
0
0
0
0
0
0
0
0
0
0
0
0
0
0
0
0
0
0
0
0
0
0
0
0
0
0
0
0
0
0
0
0
0
0
0
0
0
0
0
0
0
0
0
0
0
0
0
0
0
0
0
0
0
0
0
0
0
0
0
0
0
0
0
0
0
0
0
0
0
0
0
0
0
0
0
0
0
0
0
0
0
0
0
0
0
0
0
0
0
0
0
0
0
0
0
0
0
0
0
0
0
0
0
0
0
0
0
0
0
0
0
0
0
0
0
0
0
0
0
0
0
0
0
0
0
0
0
0
0
0
0
0
0
0
0
0
0
0
0
0
0
0
0
0
0
0
0
0
0
0
0
0
0
0
0
0
0
0
0
0
0
0
0
0
0
0
0
0
0
0
0
0
0
0
0
0
0
0
0
255
254
254
254
254
254
254
255
255
255
254
254
163
163
163
164
164
164
164
164
164
164
164
164
164
164
164
163
163
164
162
164
165
165
167
177
183
179
171
174
165
164
163
163
162
162
163
159
134
131
131
129
126
132
132
127
123
123
166
233
232
228
237
235
255
254
255
255
255
254
254
254
255
254
254
255
254
254
254
255
255
255
254
255
255
255
254
254
254
254
254
254
254
254
254
254
254
254
254
254
254
255
255
254
254
255
255
254
254
255
255
255
255
254
255
255
254
255
255
254
255
253
255
255
254
254
248
136
121
126
124
127
127
125
125
128
127
129
121
129
127
124
131
127
133
163
153
167
165
165
166
165
165
167
165
165
165
165
166
165
165
166
165
164
164
164
164
165
163
166
166
165
165
165
166
189
190
190
189
190
190
187
189
185
179
165
165
165
165
167
167
125
125
125
125
125
124
126
175
251
254
254
255
254
254
254
254
254
254
255
254
254
254
255
255
255
254
254
254
255
255
254
255
254
254
0
0
0
0
0
0
0
0
0
0
0
0
0
0
0
0
0
0
0
0
0
0
0
0
0
0
0
0
0
0
0
0
0
0
0
0
0
0
0
0
0
0
0
0
0
0
0
0
0
0
0
0
0
0
0
0
0
0
0
0
0
0
0
0
0
0
0
0
0
0
0
0
0
0
0
0
0
0
0
0
0
0
0
0
0
0
0
0
0
0
0
0
0
0
0
0
0
0
0
0
0
0
0
0
0
0
0
0
0
0
0
0
0
0
0
0
0
0
0
0
0
0
0
0
0
0
0
0
0
0
0
0
0
0
0
0
0
0
0
0
0
0
0
0
0
0
0
0
0
0
0
0
0
0
0
0
0
0
0
0
0
0
0
0
0
0
0
0
0
0
0
0
0
0
0
0
0
0
0
0
0
0
0
0
0
0
0
0
0
0
0
0
0
0
0
0
0
0
0
0
0
0
0
0
0
0
0
0
0
0
0
0
0
0
0
0
0
0
0
0
0
0
0
0
0
0
0
0
0
0
0
0
0
0
0
0
0
0
0
0
0
0
0
0
0
0
0
0
0
0
0
0
0
0
0
0
0
0
0
0
0
0
0
0
0
0
0
0
0
0
0
0
0
0
0
0
0
0
0
0
0
0
0
0
0
0
0
0
0
0
0
0
0
0
0
0
0
0
0
0
0
0
0
0
0
0
0
0
0
0
0
0
0
0
0
0
0
0
0
0
0
0
0
0
0
0
0
0
0
0
0
0
0
0
0
0
0
0
0
0
0
0
0
0
0
254
254
254
255
255
255
254
254
255
254
254
254
254
163
163
164
164
164
164
164
164
164
164
164
164
164
164
164
163
163
163
163
164
164
165
165
172
164
164
165
165
163
163
163
163
163
162
158
159
134
128
128
129
130
129
129
131
125
124
159
231
236
236
255
255
255
255
255
254
254
254
254
254
254
255
255
255
254
254
254
255
255
255
255
254
255
255
254
254
254
254
254
254
254
254
254
254
254
254
254
254
254
255
255
254
255
254
255
254
254
255
255
254
254
255
255
255
254
254
254
254
255
253
255
254
255
250
235
119
125
121
128
130
125
127
125
128
128
127
126
127
126
128
124
124
127
139
129
164
166
165
164
163
164
164
164
165
165
166
166
166
166
166
165
165
164
165
165
165
164
166
166
165
165
163
166
188
190
190
188
189
188
188
186
175
175
164
165
166
165
158
142
125
124
125
125
125
124
120
214
252
254
254
255
254
254
254
254
255
255
255
254
254
254
255
255
255
255
254
254
254
254
254
255
254
254
0
0
0
0
0
0
0
0
0
0
0
0
0
0
0
0
0
0
0
0
0
0
0
0
0
0
0
0
0
0
0
0
0
0
0
0
0
0
0
0
0
0
0
0
0
0
0
0
0
0
0
0
0
0
0
0
0
0
0
0
0
0
0
0
0
0
0
0
0
0
0
0
0
0
0
0
0
0
0
0
0
0
0
0
0
0
0
0
0
0
0
0
0
0
0
0
0
0
0
0
0
0
0
0
0
0
0
0
0
0
0
0
0
0
0
0
0
0
0
0
0
0
0
0
0
0
0
0
0
0
0
0
0
0
0
0
0
0
0
0
0
0
0
0
0
0
0
0
0
0
0
0
0
0
0
0
0
0
0
0
0
0
0
0
0
0
0
0
0
0
0
0
0
0
0
0
0
0
0
0
0
0
0
0
0
0
0
0
0
0
0
0
0
0
0
0
0
0
0
0
0
0
0
0
0
0
0
0
0
0
0
0
0
0
0
0
0
0
0
0
0
0
0
0
0
0
0
0
0
0
0
0
0
0
0
0
0
0
0
0
0
0
0
0
0
0
0
0
0
0
0
0
0
0
0
0
0
0
0
0
0
0
0
0
0
0
0
0
0
0
0
0
0
0
0
0
0
0
0
0
0
0
0
0
0
0
0
0
0
0
0
0
0
0
0
0
0
0
0
0
0
0
0
0
0
0
0
0
0
0
0
0
0
0
0
0
0
0
0
0
0
0
0
0
0
0
0
0
0
0
0
0
0
0
0
0
0
0
0
0
0
0
0
0
254
254
255
255
254
254
254
254
254
254
254
254
255
254
163
164
164
164
164
164
164
164
164
164
164
164
165
164
165
164
164
163
165
165
165
165
164
165
165
164
163
163
163
164
164
164
164
161
159
157
137
128
129
130
128
131
127
131
124
123
145
241
252
252
254
255
255
254
254
255
255
254
254
254
255
255
255
255
254
254
254
255
255
255
255
254
255
255
255
254
254
254
254
254
255
255
254
254
254
254
254
254
255
255
255
254
254
255
255
254
254
255
255
254
254
255
255
254
254
253
255
255
254
255
251
254
250
251
140
127
121
129
127
125
125
125
125
123
127
127
127
127
126
126
126
126
127
129
125
154
165
166
165
164
164
164
165
165
165
165
165
166
164
165
165
165
164
165
165
164
165
166
165
165
163
164
174
188
190
190
189
188
188
191
185
169
167
164
166
166
167
142
132
128
125
126
125
126
120
133
248
254
254
255
255
254
254
254
255
255
255
254
254
254
255
255
255
255
255
254
254
254
254
254
254
254
254
0
0
0
0
0
0
0
0
0
0
0
0
0
0
0
0
0
0
0
0
0
0
0
0
0
0
0
0
0
0
0
0
0
0
0
0
0
0
0
0
0
0
0
0
0
0
0
0
0
0
0
0
0
0
0
0
0
0
0
0
0
0
0
0
0
0
0
0
0
0
0
0
0
0
0
0
0
0
0
0
0
0
0
0
0
0
0
0
0
0
0
0
0
0
0
0
0
0
0
0
0
0
0
0
0
0
0
0
0
0
0
0
0
0
0
0
0
0
0
0
0
0
0
0
0
0
0
0
0
0
0
0
0
0
0
0
0
0
0
0
0
0
0
0
0
0
0
0
0
0
0
0
0
0
0
0
0
0
0
0
0
0
0
0
0
0
0
0
0
0
0
0
0
0
0
0
0
0
0
0
0
0
0
0
0
0
0
0
0
0
0
0
0
0
0
0
0
0
0
0
0
0
0
0
0
0
0
0
0
0
0
0
0
0
0
0
0
0
0
0
0
0
0
0
0
0
0
0
0
0
0
0
0
0
0
0
0
0
0
0
0
0
0
0
0
0
0
0
0
0
0
0
0
0
0
0
0
0
0
0
0
0
0
0
0
0
0
0
0
0
0
0
0
0
0
0
0
0
0
0
0
0
0
0
0
0
0
0
0
0
0
0
0
0
0
0
0
0
0
0
0
0
0
0
0
0
0
0
0
0
0
0
0
0
0
0
0
0
0
0
0
0
0
0
0
0
0
0
0
0
0
0
0
0
0
0
0
0
0
0
0
0
0
254
255
255
255
254
254
254
253
254
254
254
255
255
255
253
164
164
164
164
164
163
164
164
164
164
164
164
165
165
165
164
164
164
164
164
165
165
164
163
163
163
163
163
163
164
164
162
162
164
158
158
138
129
129
130
128
128
128
132
124
124
145
248
252
252
254
255
255
255
255
255
255
254
255
255
255
254
254
255
254
254
254
254
255
255
255
254
255
255
255
254
254
254
254
254
255
255
254
254
254
255
255
254
255
255
255
254
255
255
255
254
254
255
255
254
254
254
254
254
254
254
255
255
254
254
254
254
248
241
133
124
123
123
129
127
127
128
126
127
127
125
127
127
122
127
125
125
124
125
125
148
167
167
164
166
164
164
165
165
165
165
164
165
165
165
165
165
164
165
165
165
165
165
165
167
164
164
179
190
190
190
189
188
188
187
184
165
165
164
166
166
167
129
129
125
127
127
127
126
178
178
250
254
255
255
255
255
255
254
255
255
255
254
254
254
255
255
255
255
254
254
254
254
255
255
254
254
254
0
0
0
0
0
0
0
0
0
0
0
0
0
0
0
0
0
0
0
0
0
0
0
0
0
0
0
0
0
0
0
0
0
0
0
0
0
0
0
0
0
0
0
0
0
0
0
0
0
0
0
0
0
0
0
0
0
0
0
0
0
0
0
0
0
0
0
0
0
0
0
0
0
0
0
0
0
0
0
0
0
0
0
0
0
0
0
0
0
0
0
0
0
0
0
0
0
0
0
0
0
0
0
0
0
0
0
0
0
0
0
0
0
0
0
0
0
0
0
0
0
0
0
0
0
0
0
0
0
0
0
0
0
0
0
0
0
0
0
0
0
0
0
0
0
0
0
0
0
0
0
0
0
0
0
0
0
0
0
0
0
0
0
0
0
0
0
0
0
0
0
0
0
0
0
0
0
0
0
0
0
0
0
0
0
0
0
0
0
0
0
0
0
0
0
0
0
0
0
0
0
0
0
0
0
0
0
0
0
0
0
0
0
0
0
0
0
0
0
0
0
0
0
0
0
0
0
0
0
0
0
0
0
0
0
0
0
0
0
0
0
0
0
0
0
0
0
0
0
0
0
0
0
0
0
0
0
0
0
0
0
0
0
0
0
0
0
0
0
0
0
0
0
0
0
0
0
0
0
0
0
0
0
0
0
0
0
0
0
0
0
0
0
0
0
0
0
0
0
0
0
0
0
0
0
0
0
0
0
0
0
0
0
0
0
0
0
0
0
0
0
0
0
0
0
0
0
0
0
0
0
0
0
0
0
0
0
0
0
0
0
0
255
254
254
254
254
255
254
254
254
254
255
255
255
255
254
254
164
164
164
163
163
163
164
164
163
164
164
164
165
165
164
164
164
163
165
163
163
163
162
162
162
163
162
163
164
165
162
164
164
164
158
158
138
129
130
129
130
130
126
131
125
125
130
248
253
251
254
255
255
255
255
255
255
254
254
254
254
254
254
254
254
255
255
254
255
255
255
254
255
255
255
254
255
254
254
254
254
255
254
254
254
255
255
254
255
255
255
254
255
255
255
254
254
255
255
254
254
254
254
254
254
254
254
254
252
252
252
253
241
237
162
121
127
121
125
124
126
124
125
125
129
126
128
129
127
127
124
127
122
125
126
148
166
165
167
164
165
165
165
165
165
164
165
165
165
165
165
164
164
165
166
164
167
166
167
166
164
164
186
190
189
190
191
189
188
190
177
165
165
166
166
166
158
126
128
127
125
123
122
121
229
246
255
254
254
255
255
255
255
254
255
255
255
254
254
255
255
255
255
255
254
254
254
254
255
255
254
254
254
0
0
0
0
0
0
0
0
0
0
0
0
0
0
0
0
0
0
0
0
0
0
0
0
0
0
0
0
0
0
0
0
0
0
0
0
0
0
0
0
0
0
0
0
0
0
0
0
0
0
0
0
0
0
0
0
0
0
0
0
0
0
0
0
0
0
0
0
0
0
0
0
0
0
0
0
0
0
0
0
0
0
0
0
0
0
0
0
0
0
0
0
0
0
0
0
0
0
0
0
0
0
0
0
0
0
0
0
0
0
0
0
0
0
0
0
0
0
0
0
0
0
0
0
0
0
0
0
0
0
0
0
0
0
0
0
0
0
0
0
0
0
0
0
0
0
0
0
0
0
0
0
0
0
0
0
0
0
0
0
0
0
0
0
0
0
0
0
0
0
0
0
0
0
0
0
0
0
0
0
0
0
0
0
0
0
0
0
0
0
0
0
0
0
0
0
0
0
0
0
0
0
0
0
0
0
0
0
0
0
0
0
0
0
0
0
0
0
0
0
0
0
0
0
0
0
0
0
0
0
0
0
0
0
0
0
0
0
0
0
0
0
0
0
0
0
0
0
0
0
0
0
0
0
0
0
0
0
0
0
0
0
0
0
0
0
0
0
0
0
0
0
0
0
0
0
0
0
0
0
0
0
0
0
0
0
0
0
0
0
0
0
0
0
0
0
0
0
0
0
0
0
0
0
0
0
0
0
0
0
0
0
0
0
0
0
0
0
0
0
0
0
0
0
0
0
0
0
0
0
0
0
0
0
0
0
0
0
0
0
0
255
254
254
254
254
254
254
254
254
255
255
255
254
255
255
254
254
164
164
164
163
163
164
164
163
163
164
164
164
164
164
164
164
164
165
163
162
162
162
162
163
163
163
164
164
164
163
162
164
164
163
158
159
140
130
130
130
128
126
128
130
127
127
127
246
251
253
254
255
255
255
254
254
255
254
254
254
254
255
255
255
255
255
255
254
255
255
255
254
255
255
255
255
255
254
254
254
255
255
254
254
254
254
254
254
255
255
255
254
255
255
255
254
254
254
254
254
255
254
254
254
255
254
254
255
254
252
252
253
228
228
200
152
121
123
119
122
122
124
122
129
123
124
125
125
124
126
127
127
125
126
127
155
164
164
166
165
165
165
165
165
165
165
164
165
165
165
165
165
164
166
166
164
164
167
166
163
167
167
188
190
190
188
190
188
188
190
166
165
165
166
166
166
128
126
126
123
129
122
123
157
248
248
252
255
255
255
255
255
255
254
255
255
255
254
255
254
254
255
255
254
254
254
254
254
255
255
254
254
254
0
0
0
0
0
0
0
0
0
0
0
0
0
0
0
0
0
0
0
0
0
0
0
0
0
0
0
0
0
0
0
0
0
0
0
0
0
0
0
0
0
0
0
0
0
0
0
0
0
0
0
0
0
0
0
0
0
0
0
0
0
0
0
0
0
0
0
0
0
0
0
0
0
0
0
0
0
0
0
0
0
0
0
0
0
0
0
0
0
0
0
0
0
0
0
0
0
0
0
0
0
0
0
0
0
0
0
0
0
0
0
0
0
0
0
0
0
0
0
0
0
0
0
0
0
0
0
0
0
0
0
0
0
0
0
0
0
0
0
0
0
0
0
0
0
0
0
0
0
0
0
0
0
0
0
0
0
0
0
0
0
0
0
0
0
0
0
0
0
0
0
0
0
0
0
0
0
0
0
0
0
0
0
0
0
0
0
0
0
0
0
0
0
0
0
0
0
0
0
0
0
0
0
0
0
0
0
0
0
0
0
0
0
0
0
0
0
0
0
0
0
0
0
0
0
0
0
0
0
0
0
0
0
0
0
0
0
0
0
0
0
0
0
0
0
0
0
0
0
0
0
0
0
0
0
0
0
0
0
0
0
0
0
0
0
0
0
0
0
0
0
0
0
0
0
0
0
0
0
0
0
0
0
0
0
0
0
0
0
0
0
0
0
0
0
0
0
0
0
0
0
0
0
0
0
0
0
0
0
0
0
0
0
0
0
0
0
0
0
0
0
0
0
0
0
0
0
0
0
0
0
0
0
0
0
0
0
0
0
0
253
252
255
254
254
254
254
254
254
254
255
254
254
254
255
255
254
254
164
164
164
164
164
164
163
163
163
163
163
163
164
164
164
164
163
162
162
162
162
163
163
164
164
165
165
165
165
163
162
164
164
162
159
159
140
131
132
128
127
130
130
129
128
127
126
247
253
252
254
254
254
254
255
255
255
254
254
254
255
255
255
255
255
255
255
254
255
255
255
254
255
255
255
254
254
254
254
254
255
255
254
254
254
254
254
254
255
254
254
254
255
255
255
254
254
254
255
255
255
254
255
255
255
254
255
255
254
254
254
241
226
232
225
212
188
229
159
140
211
129
122
123
131
123
125
129
127
126
127
127
126
126
125
161
164
165
164
167
166
163
165
164
165
164
165
166
166
164
164
165
166
166
165
166
163
166
166
163
172
176
190
190
189
189
188
188
188
187
165
166
166
166
164
150
125
128
128
123
125
119
125
209
253
254
254
255
255
255
255
255
255
254
255
255
255
255
254
254
254
255
255
254
254
254
254
254
255
255
254
254
254
0
0
0
0
0
0
0
0
0
0
0
0
0
0
0
0
0
0
0
0
0
0
0
0
0
0
0
0
0
0
0
0
0
0
0
0
0
0
0
0
0
0
0
0
0
0
0
0
0
0
0
0
0
0
0
0
0
0
0
0
0
0
0
0
0
0
0
0
0
0
0
0
0
0
0
0
0
0
0
0
0
0
0
0
0
0
0
0
0
0
0
0
0
0
0
0
0
0
0
0
0
0
0
0
0
0
0
0
0
0
0
0
0
0
0
0
0
0
0
0
0
0
0
0
0
0
0
0
0
0
0
0
0
0
0
0
0
0
0
0
0
0
0
0
0
0
0
0
0
0
0
0
0
0
0
0
0
0
0
0
0
0
0
0
0
0
0
0
0
0
0
0
0
0
0
0
0
0
0
0
0
0
0
0
0
0
0
0
0
0
0
0
0
0
0
0
0
0
0
0
0
0
0
0
0
0
0
0
0
0
0
0
0
0
0
0
0
0
0
0
0
0
0
0
0
0
0
0
0
0
0
0
0
0
0
0
0
0
0
0
0
0
0
0
0
0
0
0
0
0
0
0
0
0
0
0
0
0
0
0
0
0
0
0
0
0
0
0
0
0
0
0
0
0
0
0
0
0
0
0
0
0
0
0
0
0
0
0
0
0
0
0
0
0
0
0
0
0
0
0
0
0
0
0
0
0
0
0
0
0
0
0
0
0
0
0
0
0
0
0
0
0
0
0
0
0
0
0
0
0
0
0
0
0
0
0
0
0
0
254
253
255
253
253
254
254
254
254
255
255
254
254
253
254
255
255
254
254
164
163
163
164
164
164
163
163
163
163
163
163
164
164
164
163
163
162
162
163
163
164
164
165
165
165
165
165
163
163
163
164
164
161
159
159
142
132
131
128
128
130
128
127
127
127
132
249
252
253
254
254
254
255
255
255
255
254
254
254
255
255
255
255
255
255
255
254
255
255
254
254
255
255
255
254
254
254
254
255
255
254
254
254
254
254
254
254
254
254
254
254
255
255
255
254
254
255
255
255
255
255
255
255
254
254
255
255
251
254
242
229
232
230
229
230
229
229
229
211
229
227
224
131
177
120
129
121
124
126
126
127
125
125
130
165
165
168
169
166
163
163
165
165
165
166
165
166
166
166
165
164
164
165
164
166
163
166
166
165
176
186
187
189
189
190
187
188
188
171
164
166
165
166
150
133
124
128
124
126
126
125
144
247
254
251
254
255
255
255
255
255
255
255
255
255
255
255
254
254
254
255
255
254
254
254
254
254
255
255
255
254
254
0
0
0
0
0
0
0
0
0
0
0
0
0
0
0
0
0
0
0
0
0
0
0
0
0
0
0
0
0
0
0
0
0
0
0
0
0
0
0
0
0
0
0
0
0
0
0
0
0
0
0
0
0
0
0
0
0
0
0
0
0
0
0
0
0
0
0
0
0
0
0
0
0
0
0
0
0
0
0
0
0
0
0
0
0
0
0
0
0
0
0
0
0
0
0
0
0
0
0
0
0
0
0
0
0
0
0
0
0
0
0
0
0
0
0
0
0
0
0
0
0
0
0
0
0
0
0
0
0
0
0
0
0
0
0
0
0
0
0
0
0
0
0
0
0
0
0
0
0
0
0
0
0
0
0
0
0
0
0
0
0
0
0
0
0
0
0
0
0
0
0
0
0
0
0
0
0
0
0
0
0
0
0
0
0
0
0
0
0
0
0
0
0
0
0
0
0
0
0
0
0
0
0
0
0
0
0
0
0
0
0
0
0
0
0
0
0
0
0
0
0
0
0
0
0
0
0
0
0
0
0
0
0
0
0
0
0
0
0
0
0
0
0
0
0
0
0
0
0
0
0
0
0
0
0
0
0
0
0
0
0
0
0
0
0
0
0
0
0
0
0
0
0
0
0
0
0
0
0
0
0
0
0
0
0
0
0
0
0
0
0
0
0
0
0
0
0
0
0
0
0
0
0
0
0
0
0
0
0
0
0
0
0
0
0
0
0
0
0
0
0
0
0
0
0
0
0
0
0
0
0
0
0
0
0
0
0
0
254
253
255
254
254
254
254
254
254
254
255
255
253
254
254
255
255
255
254
254
163
163
163
164
164
164
163
163
163
163
163
163
164
164
163
163
163
163
163
164
164
165
165
165
165
165
165
163
163
165
165
162
162
161
160
160
142
131
130
128
127
129
129
130
125
127
136
251
253
253
254
255
255
255
255
255
255
255
254
254
255
255
255
255
255
255
255
254
255
255
254
254
255
255
255
254
254
254
255
254
254
254
254
254
254
255
255
254
254
254
254
254
255
255
255
254
254
255
255
255
255
254
255
255
254
254
255
255
253
230
230
230
229
231
229
227
227
227
227
228
229
232
225
222
222
148
123
123
123
127
126
126
125
142
142
163
162
165
165
166
164
164
165
164
165
165
165
165
165
165
164
164
164
164
165
166
164
166
166
163
187
188
189
188
189
189
188
187
187
164
166
166
166
165
125
125
125
125
128
125
120
210
210
252
254
254
252
255
255
255
255
255
255
255
255
255
255
255
254
254
254
255
255
254
254
254
254
254
255
255
255
254
254
0
0
0
0
0
0
0
0
0
0
0
0
0
0
0
0
0
0
0
0
0
0
0
0
0
0
0
0
0
0
0
0
0
0
0
0
0
0
0
0
0
0
0
0
0
0
0
0
0
0
0
0
0
0
0
0
0
0
0
0
0
0
0
0
0
0
0
0
0
0
0
0
0
0
0
0
0
0
0
0
0
0
0
0
0
0
0
0
0
0
0
0
0
0
0
0
0
0
0
0
0
0
0
0
0
0
0
0
0
0
0
0
0
0
0
0
0
0
0
0
0
0
0
0
0
0
0
0
0
0
0
0
0
0
0
0
0
0
0
0
0
0
0
0
0
0
0
0
0
0
0
0
0
0
0
0
0
0
0
0
0
0
0
0
0
0
0
0
0
0
0
0
0
0
0
0
0
0
0
0
0
0
0
0
0
0
0
0
0
0
0
0
0
0
0
0
0
0
0
0
0
0
0
0
0
0
0
0
0
0
0
0
0
0
0
0
0
0
0
0
0
0
0
0
0
0
0
0
0
0
0
0
0
0
0
0
0
0
0
0
0
0
0
0
0
0
0
0
0
0
0
0
0
0
0
0
0
0
0
0
0
0
0
0
0
0
0
0
0
0
0
0
0
0
0
0
0
0
0
0
0
0
0
0
0
0
0
0
0
0
0
0
0
0
0
0
0
0
0
0
0
0
0
0
0
0
0
0
0
0
0
0
0
0
0
0
0
0
0
0
0
0
0
0
0
0
0
0
0
0
0
0
0
0
0
0
0
254
253
254
254
255
255
255
254
254
254
254
254
254
253
254
254
255
255
255
255
254
163
163
163
164
164
164
163
163
163
163
164
164
163
163
163
163
163
163
164
164
165
164
164
165
164
164
164
163
163
164
164
162
162
161
160
160
140
130
131
129
129
129
129
130
127
121
185
251
253
254
253
255
255
254
255
255
255
255
254
254
255
255
255
255
255
255
254
254
255
255
254
254
255
255
255
255
255
254
254
254
254
254
254
254
254
255
255
254
254
254
254
254
255
255
255
254
254
255
254
255
254
254
255
255
254
254
254
255
252
228
230
226
231
230
232
233
233
230
230
229
231
226
233
225
227
169
120
120
126
125
126
126
124
152
164
166
165
167
164
165
166
165
164
165
165
164
164
164
164
165
165
165
165
165
166
163
164
167
163
179
188
189
189
189
189
189
188
185
175
168
164
165
166
154
126
127
127
128
125
127
119
246
245
255
254
254
254
255
255
255
255
255
255
255
255
255
255
255
254
254
254
255
255
254
254
254
254
254
254
254
254
254
254
0
0
0
0
0
0
0
0
0
0
0
0
0
0
0
0
0
0
0
0
0
0
0
0
0
0
0
0
0
0
0
0
0
0
0
0
0
0
0
0
0
0
0
0
0
0
0
0
0
0
0
0
0
0
0
0
0
0
0
0
0
0
0
0
0
0
0
0
0
0
0
0
0
0
0
0
0
0
0
0
0
0
0
0
0
0
0
0
0
0
0
0
0
0
0
0
0
0
0
0
0
0
0
0
0
0
0
0
0
0
0
0
0
0
0
0
0
0
0
0
0
0
0
0
0
0
0
0
0
0
0
0
0
0
0
0
0
0
0
0
0
0
0
0
0
0
0
0
0
0
0
0
0
0
0
0
0
0
0
0
0
0
0
0
0
0
0
0
0
0
0
0
0
0
0
0
0
0
0
0
0
0
0
0
0
0
0
0
0
0
0
0
0
0
0
0
0
0
0
0
0
0
0
0
0
0
0
0
0
0
0
0
0
0
0
0
0
0
0
0
0
0
0
0
0
0
0
0
0
0
0
0
0
0
0
0
0
0
0
0
0
0
0
0
0
0
0
0
0
0
0
0
0
0
0
0
0
0
0
0
0
0
0
0
0
0
0
0
0
0
0
0
0
0
0
0
0
0
0
0
0
0
0
0
0
0
0
0
0
0
0
0
0
0
0
0
0
0
0
0
0
0
0
0
0
0
0
0
0
0
0
0
0
0
0
0
0
0
0
0
0
0
0
0
0
0
0
0
0
0
0
0
0
0
0
0
251
250
250
253
254
255
251
254
254
254
254
254
254
254
254
254
254
255
255
255
254
254
163
163
163
164
164
164
163
163
164
164
164
164
163
163
163
163
163
164
164
163
164
164
164
164
164
163
163
163
163
162
162
162
162
163
160
160
140
130
130
129
128
128
128
127
126
126
222
253
254
254
254
254
254
255
255
255
255
255
254
254
255
255
255
255
254
254
254
254
255
255
254
254
255
255
255
254
254
254
254
254
254
255
254
254
254
255
255
254
254
254
254
254
255
255
255
254
254
255
255
254
254
254
255
255
255
254
255
255
238
231
231
231
227
227
226
230
224
224
230
230
230
229
229
227
231
175
122
122
125
128
126
127
132
164
164
165
165
165
167
165
165
165
164
165
165
164
165
164
164
164
165
165
165
166
166
163
166
160
160
187
187
187
188
189
189
188
187
165
165
166
166
166
164
125
127
127
127
129
129
119
215
251
251
251
255
255
254
255
255
255
255
255
255
255
255
255
255
255
254
254
254
255
255
254
254
254
254
254
254
254
254
254
254
0
0
0
0
0
0
0
0
0
0
0
0
0
0
0
0
0
0
0
0
0
0
0
0
0
0
0
0
0
0
0
0
0
0
0
0
0
0
0
0
0
0
0
0
0
0
0
0
0
0
0
0
0
0
0
0
0
0
0
0
0
0
0
0
0
0
0
0
0
0
0
0
0
0
0
0
0
0
0
0
0
0
0
0
0
0
0
0
0
0
0
0
0
0
0
0
0
0
0
0
0
0
0
0
0
0
0
0
0
0
0
0
0
0
0
0
0
0
0
0
0
0
0
0
0
0
0
0
0
0
0
0
0
0
0
0
0
0
0
0
0
0
0
0
0
0
0
0
0
0
0
0
0
0
0
0
0
0
0
0
0
0
0
0
0
0
0
0
0
0
0
0
0
0
0
0
0
0
0
0
0
0
0
0
0
0
0
0
0
0
0
0
0
0
0
0
0
0
0
0
0
0
0
0
0
0
0
0
0
0
0
0
0
0
0
0
0
0
0
0
0
0
0
0
0
0
0
0
0
0
0
0
0
0
0
0
0
0
0
0
0
0
0
0
0
0
0
0
0
0
0
0
0
0
0
0
0
0
0
0
0
0
0
0
0
0
0
0
0
0
0
0
0
0
0
0
0
0
0
0
0
0
0
0
0
0
0
0
0
0
0
0
0
0
0
0
0
0
0
0
0
0
0
0
0
0
0
0
0
0
0
0
0
0
0
0
0
0
0
0
0
0
0
0
0
0
0
0
0
0
0
0
0
0
0
126
239
250
212
252
255
255
255
254
254
254
254
254
254
254
254
254
253
255
255
254
254
254
163
163
163
164
164
164
164
164
165
164
164
164
163
163
163
163
163
163
162
163
164
164
164
163
163
163
163
164
165
163
164
165
165
163
159
158
139
129
128
131
128
128
129
132
123
146
249
252
254
254
254
255
255
255
255
255
255
255
254
254
255
255
255
255
254
254
254
254
255
255
255
254
254
254
255
254
254
254
254
254
255
255
254
254
254
255
255
254
254
254
255
254
255
255
255
255
254
254
255
255
255
254
255
254
254
254
255
254
237
231
227
228
229
229
228
230
231
228
230
228
231
231
227
228
222
171
124
127
126
124
125
124
149
165
165
165
166
167
165
165
166
165
165
165
165
165
165
164
164
164
165
165
165
164
166
163
169
163
173
189
187
189
188
189
190
188
188
163
166
164
165
150
133
125
127
127
126
124
124
168
245
254
250
255
253
254
254
255
255
255
255
255
255
255
255
255
255
255
254
254
254
255
255
254
254
254
254
254
254
255
253
254
254
0
0
0
0
0
0
0
0
0
0
0
0
0
0
0
0
0
0
0
0
0
0
0
0
0
0
0
0
0
0
0
0
0
0
0
0
0
0
0
0
0
0
0
0
0
0
0
0
0
0
0
0
0
0
0
0
0
0
0
0
0
0
0
0
0
0
0
0
0
0
0
0
0
0
0
0
0
0
0
0
0
0
0
0
0
0
0
0
0
0
0
0
0
0
0
0
0
0
0
0
0
0
0
0
0
0
0
0
0
0
0
0
0
0
0
0
0
0
0
0
0
0
0
0
0
0
0
0
0
0
0
0
0
0
0
0
0
0
0
0
0
0
0
0
0
0
0
0
0
0
0
0
0
0
0
0
0
0
0
0
0
0
0
0
0
0
0
0
0
0
0
0
0
0
0
0
0
0
0
0
0
0
0
0
0
0
0
0
0
0
0
0
0
0
0
0
0
0
0
0
0
0
0
0
0
0
0
0
0
0
0
0
0
0
0
0
0
0
0
0
0
0
0
0
0
0
0
0
0
0
0
0
0
0
0
0
0
0
0
0
0
0
0
0
0
0
0
0
0
0
0
0
0
0
0
0
0
0
0
0
0
0
0
0
0
0
0
0
0
0
0
0
0
0
0
0
0
0
0
0
0
0
0
0
0
0
0
0
0
0
0
0
0
0
0
0
0
0
0
0
0
0
0
0
0
0
0
0
0
0
0
0
0
0
0
0
0
0
0
0
0
0
0
0
0
0
0
0
0
0
0
0
0
0
126
125
122
212
160
248
254
255
254
254
254
254
255
254
254
254
254
253
253
254
254
254
254
254
163
163
163
164
164
164
165
165
165
164
164
164
163
163
163
162
162
162
163
164
164
164
164
164
163
164
165
165
165
165
165
165
164
163
158
158
136
129
129
129
129
129
127
123
146
210
252
254
254
255
253
255
255
255
255
255
255
255
254
254
254
255
255
255
254
254
254
255
255
255
255
254
254
254
255
254
254
254
254
254
255
255
254
254
254
255
255
254
254
255
255
254
255
255
254
254
254
255
255
255
255
254
254
254
254
254
254
254
253
227
236
234
233
233
226
230
228
227
228
231
228
233
230
222
230
122
127
125
126
126
124
135
165
165
166
165
165
165
166
165
165
165
165
165
165
165
164
164
164
164
165
164
164
166
166
164
162
173
183
188
189
191
187
188
188
188
165
166
164
166
160
133
127
127
127
128
127
120
120
230
254
250
254
254
254
254
254
255
255
255
255
255
254
254
255
255
255
254
254
254
254
255
255
255
254
254
254
254
255
255
255
255
255
0
0
0
0
0
0
0
0
0
0
0
0
0
0
0
0
0
0
0
0
0
0
0
0
0
0
0
0
0
0
0
0
0
0
0
0
0
0
0
0
0
0
0
0
0
0
0
0
0
0
0
0
0
0
0
0
0
0
0
0
0
0
0
0
0
0
0
0
0
0
0
0
0
0
0
0
0
0
0
0
0
0
0
0
0
0
0
0
0
0
0
0
0
0
0
0
0
0
0
0
0
0
0
0
0
0
0
0
0
0
0
0
0
0
0
0
0
0
0
0
0
0
0
0
0
0
0
0
0
0
0
0
0
0
0
0
0
0
0
0
0
0
0
0
0
0
0
0
0
0
0
0
0
0
0
0
0
0
0
0
0
0
0
0
0
0
0
0
0
0
0
0
0
0
0
0
0
0
0
0
0
0
0
0
0
0
0
0
0
0
0
0
0
0
0
0
0
0
0
0
0
0
0
0
0
0
0
0
0
0
0
0
0
0
0
0
0
0
0
0
0
0
0
0
0
0
0
0
0
0
0
0
0
0
0
0
0
0
0
0
0
0
0
0
0
0
0
0
0
0
0
0
0
0
0
0
0
0
0
0
0
0
0
0
0
0
0
0
0
0
0
0
0
0
0
0
0
0
0
0
0
0
0
0
0
0
0
0
0
0
0
0
0
0
0
0
0
0
0
0
0
0
0
0
0
0
0
0
0
0
0
0
0
0
0
0
0
0
0
0
0
0
0
0
0
0
0
0
0
0
0
0
0
127
125
125
122
137
130
239
254
254
254
254
254
254
254
254
254
254
254
254
254
254
254
255
254
254
163
163
163
164
164
164
165
164
164
164
163
163
163
163
163
162
163
164
164
164
164
164
164
164
165
165
165
165
165
166
164
164
164
163
156
147
133
128
130
131
128
128
128
121
248
253
254
252
254
254
255
255
255
255
255
255
255
255
254
254
254
255
255
255
254
254
254
255
255
255
255
254
255
255
255
254
254
254
254
254
255
255
255
255
254
255
255
254
254
255
255
254
255
255
254
254
254
255
254
255
255
254
254
254
254
254
254
254
254
250
255
245
241
255
236
236
234
234
229
228
231
231
229
219
219
121
125
128
127
125
156
156
164
166
166
164
164
165
164
165
164
164
166
165
165
165
165
164
164
164
164
164
164
166
164
166
164
188
188
186
188
190
188
188
186
186
163
165
166
164
143
125
125
126
126
126
127
132
191
251
254
255
255
254
254
254
254
255
255
255
255
254
254
254
254
254
255
254
254
254
254
255
255
255
254
254
254
254
255
255
255
255
254
0
0
0
0
0
0
0
0
0
0
0
0
0
0
0
0
0
0
0
0
0
0
0
0
0
0
0
0
0
0
0
0
0
0
0
0
0
0
0
0
0
0
0
0
0
0
0
0
0
0
0
0
0
0
0
0
0
0
0
0
0
0
0
0
0
0
0
0
0
0
0
0
0
0
0
0
0
0
0
0
0
0
0
0
0
0
0
0
0
0
0
0
0
0
0
0
0
0
0
0
0
0
0
0
0
0
0
0
0
0
0
0
0
0
0
0
0
0
0
0
0
0
0
0
0
0
0
0
0
0
0
0
0
0
0
0
0
0
0
0
0
0
0
0
0
0
0
0
0
0
0
0
0
0
0
0
0
0
0
0
0
0
0
0
0
0
0
0
0
0
0
0
0
0
0
0
0
0
0
0
0
0
0
0
0
0
0
0
0
0
0
0
0
0
0
0
0
0
0
0
0
0
0
0
0
0
0
0
0
0
0
0
0
0
0
0
0
0
0
0
0
0
0
0
0
0
0
0
0
0
0
0
0
0
0
0
0
0
0
0
0
0
0
0
0
0
0
0
0
0
0
0
0
0
0
0
0
0
0
0
0
0
0
0
0
0
0
0
0
0
0
0
0
0
0
0
0
0
0
0
0
0
0
0
0
0
0
0
0
0
0
0
0
0
0
0
0
0
0
0
0
0
0
0
0
0
0
0
0
0
0
0
0
0
0
0
0
0
0
0
0
0
0
0
0
0
0
0
0
0
0
0
129
128
128
130
127
130
126
245
253
255
255
255
254
254
255
255
255
255
254
254
254
254
255
254
254
254
164
165
163
164
164
164
164
164
164
164
163
164
163
163
162
164
164
165
165
164
164
164
164
164
165
165
164
165
163
163
164
163
162
160
147
139
128
130
130
128
130
122
122
247
253
252
254
254
255
254
254
255
255
255
255
255
255
254
254
254
254
255
255
255
254
254
255
255
255
255
254
254
255
255
255
254
254
254
254
255
255
255
255
255
255
255
255
254
254
255
254
255
255
255
255
254
254
254
254
255
255
255
254
255
255
254
254
254
255
255
255
254
255
255
252
244
244
251
246
231
233
228
229
180
128
125
128
124
126
124
167
165
167
166
167
165
165
165
165
164
164
165
165
165
164
165
164
164
164
165
164
165
165
164
164
166
173
191
189
188
190
189
187
191
175
163
166
166
165
158
127
125
128
126
126
127
122
191
242
255
251
254
254
254
254
254
254
255
255
255
255
254
254
254
254
254
255
254
254
254
254
255
255
255
255
254
254
254
255
255
254
254
254
0
0
0
0
0
0
0
0
0
0
0
0
0
0
0
0
0
0
0
0
0
0
0
0
0
0
0
0
0
0
0
0
0
0
0
0
0
0
0
0
0
0
0
0
0
0
0
0
0
0
0
0
0
0
0
0
0
0
0
0
0
0
0
0
0
0
0
0
0
0
0
0
0
0
0
0
0
0
0
0
0
0
0
0
0
0
0
0
0
0
0
0
0
0
0
0
0
0
0
0
0
0
0
0
0
0
0
0
0
0
0
0
0
0
0
0
0
0
0
0
0
0
0
0
0
0
0
0
0
0
0
0
0
0
0
0
0
0
0
0
0
0
0
0
0
0
0
0
0
0
0
0
0
0
0
0
0
0
0
0
0
0
0
0
0
0
0
0
0
0
0
0
0
0
0
0
0
0
0
0
0
0
0
0
0
0
0
0
0
0
0
0
0
0
0
0
0
0
0
0
0
0
0
0
0
0
0
0
0
0
0
0
0
0
0
0
0
0
0
0
0
0
0
0
0
0
0
0
0
0
0
0
0
0
0
0
0
0
0
0
0
0
0
0
0
0
0
0
0
0
0
0
0
0
0
0
0
0
0
0
0
0
0
0
0
0
0
0
0
0
0
0
0
0
0
0
0
0
0
0
0
0
0
0
0
0
0
0
0
0
0
0
0
0
0
0
0
0
0
0
0
0
0
0
0
0
0
0
0
0
0
0
0
0
0
0
0
0
0
0
0
0
0
0
0
0
0
0
0
0
0
129
128
128
129
129
130
131
131
251
251
255
255
254
255
255
255
254
254
254
254
254
254
254
254
254
254
254
163
163
163
163
163
163
164
164
164
165
164
164
162
163
163
165
165
164
164
163
163
163
164
165
164
164
163
163
163
163
162
165
165
151
129
129
129
130
130
130
127
155
155
252
254
254
254
255
255
255
253
255
255
255
255
255
255
254
254
254
254
254
254
255
255
255
255
255
255
255
254
254
255
255
254
254
254
254
255
255
255
255
255
255
254
255
255
254
254
254
254
255
255
255
255
254
254
255
255
255
255
255
255
255
255
254
255
255
255
255
255
255
255
255
255
255
254
254
253
241
241
229
221
120
120
125
129
129
125
164
163
163
164
166
166
165
165
165
165
164
166
166
165
164
164
165
164
165
165
165
164
164
165
166
166
163
188
188
188
188
187
187
189
182
162
162
164
165
165
132
126
129
129
125
122
122
155
250
250
255
254
254
254
255
254
254
254
255
255
255
254
254
254
254
255
255
255
254
254
254
254
255
255
255
254
254
254
254
255
255
254
254
254
0
0
0
0
0
0
0
0
0
0
0
0
0
0
0
0
0
0
0
0
0
0
0
0
0
0
0
0
0
0
0
0
0
0
0
0
0
0
0
0
0
0
0
0
0
0
0
0
0
0
0
0
0
0
0
0
0
0
0
0
0
0
0
0
0
0
0
0
0
0
0
0
0
0
0
0
0
0
0
0
0
0
0
0
0
0
0
0
0
0
0
0
0
0
0
0
0
0
0
0
0
0
0
0
0
0
0
0
0
0
0
0
0
0
0
0
0
0
0
0
0
0
0
0
0
0
0
0
0
0
0
0
0
0
0
0
0
0
0
0
0
0
0
0
0
0
0
0
0
0
0
0
0
0
0
0
0
0
0
0
0
0
0
0
0
0
0
0
0
0
0
0
0
0
0
0
0
0
0
0
0
0
0
0
0
0
0
0
0
0
0
0
0
0
0
0
0
0
0
0
0
0
0
0
0
0
0
0
0
0
0
0
0
0
0
0
0
0
0
0
0
0
0
0
0
0
0
0
0
0
0
0
0
0
0
0
0
0
0
0
0
0
0
0
0
0
0
0
0
0
0
0
0
0
0
0
0
0
0
0
0
0
0
0
0
0
0
0
0
0
0
0
0
0
0
0
0
0
0
0
0
0
0
0
0
0
0
0
0
0
0
0
0
0
0
0
0
0
0
0
0
0
0
0
0
0
0
0
0
0
0
0
0
0
0
0
0
0
0
0
0
0
0
0
0
0
0
0
0
0
130
127
128
129
128
129
131
144
174
252
254
254
253
254
255
255
255
254
254
254
254
254
254
254
254
254
255
255
164
163
163
163
163
164
164
165
165
164
163
163
163
165
165
165
165
163
162
162
163
164
164
164
163
163
162
162
162
162
164
157
132
132
129
128
129
130
129
124
121
246
254
253
255
253
255
255
254
254
254
255
254
255
255
255
255
254
254
254
254
254
254
254
254
254
254
255
254
254
254
254
255
255
254
254
254
254
254
254
255
255
255
254
254
255
254
254
254
255
255
255
255
255
255
254
254
254
255
255
255
255
255
255
255
254
255
255
255
254
255
255
254
255
254
255
254
254
255
247
248
229
155
126
125
123
125
125
161
165
168
166
166
166
165
165
165
165
166
165
166
166
165
164
164
165
165
165
164
164
165
165
165
166
162
184
191
187
189
189
188
190
185
171
167
164
168
167
147
130
124
127
126
126
121
128
230
255
254
254
254
254
254
255
254
255
255
255
254
254
254
255
255
255
255
255
255
254
254
255
255
255
255
255
254
254
254
255
255
255
254
254
254
0
0
0
0
0
0
0
0
0
0
0
0
0
0
0
0
0
0
0
0
0
0
0
0
0
0
0
0
0
0
0
0
0
0
0
0
0
0
0
0
0
0
0
0
0
0
0
0
0
0
0
0
0
0
0
0
0
0
0
0
0
0
0
0
0
0
0
0
0
0
0
0
0
0
0
0
0
0
0
0
0
0
0
0
0
0
0
0
0
0
0
0
0
0
0
0
0
0
0
0
0
0
0
0
0
0
0
0
0
0
0
0
0
0
0
0
0
0
0
0
0
0
0
0
0
0
0
0
0
0
0
0
0
0
0
0
0
0
0
0
0
0
0
0
0
0
0
0
0
0
0
0
0
0
0
0
0
0
0
0
0
0
0
0
0
0
0
0
0
0
0
0
0
0
0
0
0
0
0
0
0
0
0
0
0
0
0
0
0
0
0
0
0
0
0
0
0
0
0
0
0
0
0
0
0
0
0
0
0
0
0
0
0
0
0
0
0
0
0
0
0
0
0
0
0
0
0
0
0
0
0
0
0
0
0
0
0
0
0
0
0
0
0
0
0
0
0
0
0
0
0
0
0
0
0
0
0
0
0
0
0
0
0
0
0
0
0
0
0
0
0
0
0
0
0
0
0
0
0
0
0
0
0
0
0
0
0
0
0
0
0
0
0
0
0
0
0
0
0
0
0
0
0
0
0
0
0
0
0
0
0
0
0
0
0
0
0
0
0
0
0
0
0
0
0
0
0
0
0
138
132
128
129
127
129
128
119
219
219
252
255
253
250
252
254
254
255
255
254
254
254
254
254
253
255
255
254
254
163
163
163
163
163
164
165
165
163
163
163
164
165
165
165
164
162
162
162
163
164
164
164
163
163
163
162
162
162
161
134
132
129
128
128
128
129
127
127
126
241
254
250
255
254
254
254
254
254
251
254
254
255
255
255
255
255
254
254
254
254
255
255
254
254
254
254
254
254
254
254
254
255
255
254
254
254
254
254
254
255
255
254
254
255
254
254
254
254
255
255
255
255
255
254
252
252
254
254
255
255
254
255
255
255
254
255
255
255
255
255
255
255
255
254
254
254
254
254
248
248
178
124
125
128
127
140
140
167
165
166
166
166
165
165
164
166
166
165
165
166
165
164
164
164
165
165
164
164
165
165
165
168
169
169
188
188
189
189
187
190
190
179
164
164
166
165
125
125
126
127
126
125
122
128
204
253
254
254
254
254
254
255
255
255
255
254
255
254
254
255
255
255
254
254
254
255
255
255
255
255
255
255
254
254
254
254
255
255
255
254
254
254
0
0
0
0
0
0
0
0
0
0
0
0
0
0
0
0
0
0
0
0
0
0
0
0
0
0
0
0
0
0
0
0
0
0
0
0
0
0
0
0
0
0
0
0
0
0
0
0
0
0
0
0
0
0
0
0
0
0
0
0
0
0
0
0
0
0
0
0
0
0
0
0
0
0
0
0
0
0
0
0
0
0
0
0
0
0
0
0
0
0
0
0
0
0
0
0
0
0
0
0
0
0
0
0
0
0
0
0
0
0
0
0
0
0
0
0
0
0
0
0
0
0
0
0
0
0
0
0
0
0
0
0
0
0
0
0
0
0
0
0
0
0
0
0
0
0
0
0
0
0
0
0
0
0
0
0
0
0
0
0
0
0
0
0
0
0
0
0
0
0
0
0
0
0
0
0
0
0
0
0
0
0
0
0
0
0
0
0
0
0
0
0
0
0
0
0
0
0
0
0
0
0
0
0
0
0
0
0
0
0
0
0
0
0
0
0
0
0
0
0
0
0
0
0
0
0
0
0
0
0
0
0
0
0
0
0
0
0
0
0
0
0
0
0
0
0
0
0
0
0
0
0
0
0
0
0
0
0
0
0
0
0
0
0
0
0
0
0
0
0
0
0
0
0
0
0
0
0
0
0
0
0
0
0
0
0
0
0
0
0
0
0
0
0
0
0
0
0
0
0
0
0
0
0
0
0
0
0
0
0
0
0
0
0
0
0
0
0
0
0
0
0
0
0
0
0
0
0
160
139
130
129
129
128
126
126
127
249
252
254
251
254
254
254
253
254
254
254
254
254
253
254
254
254
255
255
254
254
163
163
163
163
164
163
163
163
163
164
165
164
165
164
162
162
163
163
164
164
165
165
164
163
162
161
161
156
132
135
131
129
129
129
128
130
129
121
181
215
251
252
254
253
255
254
252
253
254
254
254
255
254
255
255
255
255
254
254
254
255
255
255
255
254
254
254
254
255
255
254
254
255
255
255
255
255
254
254
255
255
255
254
255
255
254
255
254
255
255
255
255
255
254
253
253
254
254
254
255
254
254
255
255
255
254
255
255
255
254
253
255
255
254
254
255
253
254
255
239
185
123
127
127
123
125
161
168
165
168
165
165
166
165
165
164
166
165
166
165
165
165
165
165
164
164
165
165
165
165
165
167
163
180
188
187
187
188
188
187
188
183
167
164
165
166
151
125
128
125
127
127
127
124
240
252
254
255
255
255
255
255
255
255
255
255
255
255
254
254
255
255
255
254
254
255
255
255
255
255
255
255
255
254
254
254
254
255
254
254
254
254
255
0
0
0
0
0
0
0
0
0
0
0
0
0
0
0
0
0
0
0
0
0
0
0
0
0
0
0
0
0
0
0
0
0
0
0
0
0
0
0
0
0
0
0
0
0
0
0
0
0
0
0
0
0
0
0
0
0
0
0
0
0
0
0
0
0
0
0
0
0
0
0
0
0
0
0
0
0
0
0
0
0
0
0
0
0
0
0
0
0
0
0
0
0
0
0
0
0
0
0
0
0
0
0
0
0
0
0
0
0
0
0
0
0
0
0
0
0
0
0
0
0
0
0
0
0
0
0
0
0
0
0
0
0
0
0
0
0
0
0
0
0
0
0
0
0
0
0
0
0
0
0
0
0
0
0
0
0
0
0
0
0
0
0
0
0
0
0
0
0
0
0
0
0
0
0
0
0
0
0
0
0
0
0
0
0
0
0
0
0
0
0
0
0
0
0
0
0
0
0
0
0
0
0
0
0
0
0
0
0
0
0
0
0
0
0
0
0
0
0
0
0
0
0
0
0
0
0
0
0
0
0
0
0
0
0
0
0
0
0
0
0
0
0
0
0
0
0
0
0
0
0
0
0
0
0
0
0
0
0
0
0
0
0
0
0
0
0
0
0
0
0
0
0
0
0
0
0
0
0
0
0
0
0
0
0
0
0
0
0
0
0
0
0
0
0
0
0
0
0
0
0
0
0
0
0
0
0
0
0
0
0
0
0
0
0
0
0
0
0
0
0
0
0
0
0
0
0
160
160
136
129
129
129
130
126
126
201
252
254
253
254
254
252
254
254
254
254
254
254
254
254
254
254
254
255
255
254
255
163
162
163
164
164
164
163
164
165
164
164
164
162
162
163
162
165
164
165
165
165
164
162
161
161
147
132
132
129
128
128
130
127
129
130
129
148
181
229
238
254
254
254
254
254
254
255
254
254
255
255
254
254
255
255
255
255
254
254
254
254
255
255
255
254
254
254
255
255
254
254
254
255
255
255
255
255
254
255
255
254
254
255
255
255
255
255
255
255
255
255
254
254
254
255
254
254
254
254
254
254
254
255
255
255
254
255
255
255
253
254
254
254
253
255
255
254
255
245
185
123
129
130
123
125
164
168
165
167
165
165
165
165
165
165
165
165
166
165
165
165
165
164
164
164
164
164
165
165
166
167
165
175
188
189
188
190
188
189
187
183
167
163
164
166
159
125
128
126
126
126
123
121
234
252
254
254
255
254
254
254
255
255
255
255
255
255
255
254
254
255
255
254
255
255
255
255
255
255
254
255
255
255
254
254
255
255
254
254
254
255
255
254
0
0
0
0
0
0
0
0
0
0
0
0
0
0
0
0
0
0
0
0
0
0
0
0
0
0
0
0
0
0
0
0
0
0
0
0
0
0
0
0
0
0
0
0
0
0
0
0
0
0
0
0
0
0
0
0
0
0
0
0
0
0
0
0
0
0
0
0
0
0
0
0
0
0
0
0
0
0
0
0
0
0
0
0
0
0
0
0
0
0
0
0
0
0
0
0
0
0
0
0
0
0
0
0
0
0
0
0
0
0
0
0
0
0
0
0
0
0
0
0
0
0
0
0
0
0
0
0
0
0
0
0
0
0
0
0
0
0
0
0
0
0
0
0
0
0
0
0
0
0
0
0
0
0
0
0
0
0
0
0
0
0
0
0
0
0
0
0
0
0
0
0
0
0
0
0
0
0
0
0
0
0
0
0
0
0
0
0
0
0
0
0
0
0
0
0
0
0
0
0
0
0
0
0
0
0
0
0
0
0
0
0
0
0
0
0
0
0
0
0
0
0
0
0
0
0
0
0
0
0
0
0
0
0
0
0
0
0
0
0
0
0
0
0
0
0
0
0
0
0
0
0
0
0
0
0
0
0
0
0
0
0
0
0
0
0
0
0
0
0
0
0
0
0
0
0
0
0
0
0
0
0
0
0
0
0
0
0
0
0
0
0
0
0
0
0
0
0
0
0
0
0
0
0
0
0
0
0
0
0
0
0
0
0
0
0
0
0
0
0
0
0
0
0
0
0
163
157
157
132
130
129
129
130
123
123
249
255
253
252
254
254
254
255
254
254
254
254
254
254
254
254
254
254
255
255
255
254
164
164
162
164
164
164
164
164
164
164
162
162
162
162
163
164
163
165
165
164
161
153
158
141
131
131
130
130
130
129
126
127
127
127
134
134
228
232
232
248
253
255
255
254
255
255
255
255
254
254
255
254
254
255
255
255
255
254
254
254
254
255
255
255
254
254
254
255
254
254
254
254
254
254
254
254
254
254
254
254
254
254
255
255
255
255
255
255
255
254
254
254
254
254
255
254
254
254
254
254
254
254
255
255
255
254
255
255
255
254
254
254
255
253
250
251
249
249
159
123
125
126
124
147
147
165
166
166
167
167
164
164
165
166
166
166
166
165
165
165
165
165
164
164
164
165
165
164
164
165
164
164
185
187
187
188
189
190
190
187
162
165
166
167
136
136
128
125
125
127
128
156
156
247
251
251
254
254
254
254
254
255
255
254
254
254
255
255
255
255
255
255
255
254
255
254
255
255
254
254
255
255
255
254
255
254
254
254
254
254
255
254
254
0
0
0
0
0
0
0
0
0
0
0
0
0
0
0
0
0
0
0
0
0
0
0
0
0
0
0
0
0
0
0
0
0
0
0
0
0
0
0
0
0
0
0
0
0
0
0
0
0
0
0
0
0
0
0
0
0
0
0
0
0
0
0
0
0
0
0
0
0
0
0
0
0
0
0
0
0
0
0
0
0
0
0
0
0
0
0
0
0
0
0
0
0
0
0
0
0
0
0
0
0
0
0
0
0
0
0
0
0
0
0
0
0
0
0
0
0
0
0
0
0
0
0
0
0
0
0
0
0
0
0
0
0
0
0
0
0
0
0
0
0
0
0
0
0
0
0
0
0
0
0
0
0
0
0
0
0
0
0
0
0
0
0
0
0
0
0
0
0
0
0
0
0
0
0
0
0
0
0
0
0
0
0
0
0
0
0
0
0
0
0
0
0
0
0
0
0
0
0
0
0
0
0
0
0
0
0
0
0
0
0
0
0
0
0
0
0
0
0
0
0
0
0
0
0
0
0
0
0
0
0
0
0
0
0
0
0
0
0
0
0
0
0
0
0
0
0
0
0
0
0
0
0
0
0
0
0
0
0
0
0
0
0
0
0
0
0
0
0
0
0
0
0
0
0
0
0
0
0
0
0
0
0
0
0
0
0
0
0
0
0
0
0
0
0
0
0
0
0
0
0
0
0
0
0
0
0
0
0
0
0
0
0
0
0
0
0
0
0
0
0
0
0
0
0
163
162
149
141
128
130
129
132
129
138
206
253
253
252
251
253
254
255
255
254
254
254
254
254
254
254
254
253
254
255
255
255
254
166
165
163
162
162
163
164
164
162
163
162
165
163
163
166
162
165
163
161
145
153
133
129
130
129
128
128
127
128
127
126
129
123
128
227
229
227
232
245
255
254
255
255
255
255
255
254
254
254
254
255
254
254
255
255
255
254
254
254
254
254
255
255
255
254
254
254
255
254
255
254
254
254
254
254
254
255
254
254
254
254
255
255
255
255
255
255
253
254
254
254
254
255
255
254
254
254
254
254
255
255
254
255
255
255
254
255
255
254
254
254
255
253
255
253
251
231
125
125
125
125
121
128
165
165
163
165
164
165
163
164
164
165
166
166
166
165
165
165
165
165
166
164
164
165
164
164
165
167
163
173
184
189
187
189
188
189
188
190
162
165
166
165
159
122
128
124
128
126
123
121
228
251
255
254
255
254
254
254
255
255
254
254
254
254
254
254
255
255
255
255
254
254
254
254
254
254
255
254
254
255
254
254
255
255
254
254
254
254
254
254
254
254
0
0
0
0
0
0
0
0
0
0
0
0
0
0
0
0
0
0
0
0
0
0
0
0
0
0
0
0
0
0
0
0
0
0
0
0
0
0
0
0
0
0
0
0
0
0
0
0
0
0
0
0
0
0
0
0
0
0
0
0
0
0
0
0
0
0
0
0
0
0
0
0
0
0
0
0
0
0
0
0
0
0
0
0
0
0
0
0
0
0
0
0
0
0
0
0
0
0
0
0
0
0
0
0
0
0
0
0
0
0
0
0
0
0
0
0
0
0
0
0
0
0
0
0
0
0
0
0
0
0
0
0
0
0
0
0
0
0
0
0
0
0
0
0
0
0
0
0
0
0
0
0
0
0
0
0
0
0
0
0
0
0
0
0
0
0
0
0
0
0
0
0
0
0
0
0
0
0
0
0
0
0
0
0
0
0
0
0
0
0
0
0
0
0
0
0
0
0
0
0
0
0
0
0
0
0
0
0
0
0
0
0
0
0
0
0
0
0
0
0
0
0
0
0
0
0
0
0
0
0
0
0
0
0
0
0
0
0
0
0
0
0
0
0
0
0
0
0
0
0
0
0
0
0
0
0
0
0
0
0
0
0
0
0
0
0
0
0
0
0
0
0
0
0
0
0
0
0
0
0
0
0
0
0
0
0
0
0
0
0
0
0
0
0
0
0
0
0
0
0
0
0
0
0
0
0
0
0
0
0
0
0
0
0
0
0
0
0
0
0
0
0
0
0
163
167
155
134
134
127
128
132
127
122
247
247
254
254
254
253
255
255
255
255
254
254
254
254
254
254
253
253
253
254
255
255
255
254
165
162
166
162
162
164
162
162
162
165
164
164
164
160
160
161
156
139
139
133
129
129
127
127
128
128
128
127
127
126
122
123
219
227
230
230
232
255
255
254
254
255
255
255
254
254
254
254
254
255
254
255
255
255
255
255
254
254
254
254
255
255
255
254
254
254
254
254
254
254
254
253
254
254
255
255
255
254
254
254
254
255
255
255
255
254
254
254
254
254
254
254
254
254
255
253
253
254
255
255
255
254
255
255
255
254
255
255
254
252
252
253
255
255
246
184
124
124
125
126
126
139
167
165
164
166
166
166
166
165
164
164
166
166
166
166
165
165
165
166
166
166
165
165
165
164
164
167
164
171
190
190
188
188
188
190
185
171
171
166
167
167
165
124
128
128
132
130
130
122
216
251
251
255
254
254
254
255
255
254
254
254
254
254
254
254
254
255
255
255
255
254
254
254
254
254
254
254
254
254
254
254
254
255
255
254
255
254
254
254
254
254
254
0
0
0
0
0
0
0
0
0
0
0
0
0
0
0
0
0
0
0
0
0
0
0
0
0
0
0
0
0
0
0
0
0
0
0
0
0
0
0
0
0
0
0
0
0
0
0
0
0
0
0
0
0
0
0
0
0
0
0
0
0
0
0
0
0
0
0
0
0
0
0
0
0
0
0
0
0
0
0
0
0
0
0
0
0
0
0
0
0
0
0
0
0
0
0
0
0
0
0
0
0
0
0
0
0
0
0
0
0
0
0
0
0
0
0
0
0
0
0
0
0
0
0
0
0
0
0
0
0
0
0
0
0
0
0
0
0
0
0
0
0
0
0
0
0
0
0
0
0
0
0
0
0
0
0
0
0
0
0
0
0
0
0
0
0
0
0
0
0
0
0
0
0
0
0
0
0
0
0
0
0
0
0
0
0
0
0
0
0
0
0
0
0
0
0
0
0
0
0
0
0
0
0
0
0
0
0
0
0
0
0
0
0
0
0
0
0
0
0
0
0
0
0
0
0
0
0
0
0
0
0
0
0
0
0
0
0
0
0
0
0
0
0
0
0
0
0
0
0
0
0
0
0
0
0
0
0
0
0
0
0
0
0
0
0
0
0
0
0
0
0
0
0
0
0
0
0
0
0
0
0
0
0
0
0
0
0
0
0
0
0
0
0
0
0
0
0
0
0
0
0
0
0
0
0
0
0
0
0
0
0
0
0
0
0
0
0
0
0
0
0
0
0
164
165
162
147
129
126
129
130
130
125
148
251
254
250
252
255
254
255
255
255
254
254
254
254
254
254
254
253
254
254
254
255
255
255
254
162
163
165
165
165
165
164
165
163
165
162
163
161
159
141
129
134
130
130
130
126
128
127
130
129
127
128
124
135
127
221
230
228
229
227
233
246
253
253
254
254
254
255
255
254
255
255
254
254
254
254
254
254
255
255
255
254
254
254
254
255
255
254
254
254
254
254
254
254
254
254
253
254
254
255
255
255
254
254
254
255
255
255
254
254
254
255
254
254
253
253
254
255
254
254
253
254
255
255
255
255
254
255
255
255
254
255
255
255
254
254
253
255
248
126
123
127
126
127
125
155
163
165
167
165
165
167
164
164
166
165
166
166
166
166
166
166
166
165
166
165
165
165
166
166
163
164
161
171
182
187
188
189
189
189
188
189
162
169
166
166
162
137
129
124
129
124
125
121
138
246
251
254
255
253
255
255
255
255
254
254
254
255
254
254
255
254
255
255
255
254
254
254
254
254
254
254
255
254
254
254
255
255
255
255
255
255
255
255
255
254
254
254
0
0
0
0
0
0
0
0
0
0
0
0
0
0
0
0
0
0
0
0
0
0
0
0
0
0
0
0
0
0
0
0
0
0
0
0
0
0
0
0
0
0
0
0
0
0
0
0
0
0
0
0
0
0
0
0
0
0
0
0
0
0
0
0
0
0
0
0
0
0
0
0
0
0
0
0
0
0
0
0
0
0
0
0
0
0
0
0
0
0
0
0
0
0
0
0
0
0
0
0
0
0
0
0
0
0
0
0
0
0
0
0
0
0
0
0
0
0
0
0
0
0
0
0
0
0
0
0
0
0
0
0
0
0
0
0
0
0
0
0
0
0
0
0
0
0
0
0
0
0
0
0
0
0
0
0
0
0
0
0
0
0
0
0
0
0
0
0
0
0
0
0
0
0
0
0
0
0
0
0
0
0
0
0
0
0
0
0
0
0
0
0
0
0
0
0
0
0
0
0
0
0
0
0
0
0
0
0
0
0
0
0
0
0
0
0
0
0
0
0
0
0
0
0
0
0
0
0
0
0
0
0
0
0
0
0
0
0
0
0
0
0
0
0
0
0
0
0
0
0
0
0
0
0
0
0
0
0
0
0
0
0
0
0
0
0
0
0
0
0
0
0
0
0
0
0
0
0
0
0
0
0
0
0
0
0
0
0
0
0
0
0
0
0
0
0
0
0
0
0
0
0
0
0
0
0
0
0
0
0
0
0
0
0
0
0
0
0
0
0
0
0
165
162
162
155
130
126
127
127
129
125
121
250
254
254
251
255
255
254
255
255
255
254
254
254
253
254
254
255
255
254
254
254
255
255
254
254
163
164
164
165
162
162
161
163
161
159
163
146
134
129
129
130
127
130
128
128
128
129
128
127
127
123
147
135
225
227
229
228
230
230
233
253
254
253
254
254
255
255
255
255
255
254
254
253
254
252
253
254
254
254
255
255
255
254
254
253
253
254
254
254
254
254
254
254
254
255
254
254
254
255
255
255
254
254
254
254
254
254
254
254
254
255
255
254
253
253
254
254
254
254
254
254
254
255
255
255
255
254
255
255
254
253
255
254
253
254
254
251
153
153
125
125
126
125
135
155
168
165
165
165
167
164
164
165
165
166
166
166
166
166
166
166
166
166
166
165
165
165
164
166
165
166
167
171
186
190
188
188
185
188
188
186
160
169
163
168
162
134
128
125
129
126
128
121
137
236
254
254
254
254
255
255
255
255
255
254
255
255
255
255
255
255
254
255
255
255
254
254
254
254
254
255
255
255
254
254
255
255
255
255
255
255
254
254
255
255
254
254
254
0
0
0
0
0
0
0
0
0
0
0
0
0
0
0
0
0
0
0
0
0
0
0
0
0
0
0
0
0
0
0
0
0
0
0
0
0
0
0
0
0
0
0
0
0
0
0
0
0
0
0
0
0
0
0
0
0
0
0
0
0
0
0
0
0
0
0
0
0
0
0
0
0
0
0
0
0
0
0
0
0
0
0
0
0
0
0
0
0
0
0
0
0
0
0
0
0
0
0
0
0
0
0
0
0
0
0
0
0
0
0
0
0
0
0
0
0
0
0
0
0
0
0
0
0
0
0
0
0
0
0
0
0
0
0
0
0
0
0
0
0
0
0
0
0
0
0
0
0
0
0
0
0
0
0
0
0
0
0
0
0
0
0
0
0
0
0
0
0
0
0
0
0
0
0
0
0
0
0
0
0
0
0
0
0
0
0
0
0
0
0
0
0
0
0
0
0
0
0
0
0
0
0
0
0
0
0
0
0
0
0
0
0
0
0
0
0
0
0
0
0
0
0
0
0
0
0
0
0
0
0
0
0
0
0
0
0
0
0
0
0
0
0
0
0
0
0
0
0
0
0
0
0
0
0
0
0
0
0
0
0
0
0
0
0
0
0
0
0
0
0
0
0
0
0
0
0
0
0
0
0
0
0
0
0
0
0
0
0
0
0
0
0
0
0
0
0
0
0
0
0
0
0
0
0
0
0
0
0
0
0
0
0
0
0
0
0
0
0
0
0
165
163
161
141
141
131
126
130
126
128
166
166
252
255
255
254
254
255
254
254
255
255
254
253
253
253
254
255
255
254
254
254
254
255
255
254
254
160
160
163
162
153
159
162
152
152
138
131
128
130
129
128
128
130
129
129
127
129
124
125
124
165
165
232
228
231
228
229
230
230
243
255
255
255
254
254
254
255
255
255
255
254
252
254
254
254
254
254
254
254
255
255
254
254
254
253
253
252
254
254
254
254
254
254
255
255
255
255
254
255
255
254
254
254
254
254
253
253
254
254
254
254
255
254
254
253
254
254
254
254
254
254
254
254
255
255
255
255
255
254
254
254
253
254
254
253
249
214
192
123
126
126
124
130
130
166
165
167
166
167
164
164
165
165
165
165
166
166
166
166
166
166
166
166
166
166
165
165
165
165
163
165
166
170
190
190
187
189
190
189
192
185
174
167
165
165
159
125
128
127
126
127
127
121
219
231
251
253
255
255
254
255
255
255
255
255
255
255
254
254
255
255
255
254
255
254
254
254
254
254
254
255
255
255
255
255
255
255
255
255
255
255
254
254
254
255
255
254
254
254
0
0
0
0
0
0
0
0
0
0
0
0
0
0
0
0
0
0
0
0
0
0
0
0
0
0
0
0
0
0
0
0
0
0
0
0
0
0
0
0
0
0
0
0
0
0
0
0
0
0
0
0
0
0
0
0
0
0
0
0
0
0
0
0
0
0
0
0
0
0
0
0
0
0
0
0
0
0
0
0
0
0
0
0
0
0
0
0
0
0
0
0
0
0
0
0
0
0
0
0
0
0
0
0
0
0
0
0
0
0
0
0
0
0
0
0
0
0
0
0
0
0
0
0
0
0
0
0
0
0
0
0
0
0
0
0
0
0
0
0
0
0
0
0
0
0
0
0
0
0
0
0
0
0
0
0
0
0
0
0
0
0
0
0
0
0
0
0
0
0
0
0
0
0
0
0
0
0
0
0
0
0
0
0
0
0
0
0
0
0
0
0
0
0
0
0
0
0
0
0
0
0
0
0
0
0
0
0
0
0
0
0
0
0
0
0
0
0
0
0
0
0
0
0
0
0
0
0
0
0
0
0
0
0
0
0
0
0
0
0
0
0
0
0
0
0
0
0
0
0
0
0
0
0
0
0
0
0
0
0
0
0
0
0
0
0
0
0
0
0
0
0
0
0
0
0
0
0
0
0
0
0
0
0
0
0
0
0
0
0
0
0
0
0
0
0
0
0
0
0
0
0
0
0
0
0
0
0
0
0
0
0
0
0
0
0
0
0
0
0
165
163
160
158
131
130
126
130
129
127
117
232
250
253
255
254
254
255
254
254
254
255
255
254
253
254
254
254
255
255
254
254
254
254
255
255
254
254
156
140
140
153
137
134
143
133
129
128
128
130
127
128
128
128
129
126
128
124
124
133
215
189
233
229
230
231
232
228
229
234
254
255
254
254
255
254
255
254
255
255
255
255
252
254
254
254
252
251
254
254
254
255
254
254
254
254
253
254
254
254
253
254
255
255
254
254
255
255
255
255
254
254
255
254
254
253
253
253
254
254
254
254
254
254
254
253
254
254
254
255
255
255
255
254
254
255
255
255
255
254
254
253
253
254
253
249
227
214
123
124
126
125
126
126
159
166
163
167
162
165
165
165
165
165
165
165
165
166
165
165
165
166
166
166
166
166
166
166
165
165
165
165
166
176
186
189
187
188
190
188
187
185
169
164
165
168
158
124
128
125
129
125
123
121
220
231
248
255
255
255
255
254
254
254
255
255
255
255
254
254
254
255
255
255
254
255
254
254
254
254
255
255
255
255
255
255
255
255
255
255
255
255
254
254
254
254
255
255
254
254
254
0
0
0
0
0
0
0
0
0
0
0
0
0
0
0
0
0
0
0
0
0
0
0
0
0
0
0
0
0
0
0
0
0
0
0
0
0
0
0
0
0
0
0
0
0
0
0
0
0
0
0
0
0
0
0
0
0
0
0
0
0
0
0
0
0
0
0
0
0
0
0
0
0
0
0
0
0
0
0
0
0
0
0
0
0
0
0
0
0
0
0
0
0
0
0
0
0
0
0
0
0
0
0
0
0
0
0
0
0
0
0
0
0
0
0
0
0
0
0
0
0
0
0
0
0
0
0
0
0
0
0
0
0
0
0
0
0
0
0
0
0
0
0
0
0
0
0
0
0
0
0
0
0
0
0
0
0
0
0
0
0
0
0
0
0
0
0
0
0
0
0
0
0
0
0
0
0
0
0
0
0
0
0
0
0
0
0
0
0
0
0
0
0
0
0
0
0
0
0
0
0
0
0
0
0
0
0
0
0
0
0
0
0
0
0
0
0
0
0
0
0
0
0
0
0
0
0
0
0
0
0
0
0
0
0
0
0
0
0
0
0
0
0
0
0
0
0
0
0
0
0
0
0
0
0
0
0
0
0
0
0
0
0
0
0
0
0
0
0
0
0
0
0
0
0
0
0
0
0
0
0
0
0
0
0
0
0
0
0
0
0
0
0
0
0
0
0
0
0
0
0
0
0
0
0
0
0
0
0
0
0
0
0
0
0
0
0
0
0
164
162
162
158
138
131
131
129
124
124
124
179
250
252
254
254
254
255
254
254
254
254
255
255
254
255
255
254
254
255
255
255
254
254
254
254
254
254
254
131
131
128
130
130
130
129
129
129
130
127
127
130
129
129
128
124
123
123
163
228
228
229
229
230
230
230
228
228
230
252
254
254
254
254
254
254
254
254
254
254
255
255
254
254
254
250
254
255
255
254
255
255
255
254
254
254
254
254
254
255
254
254
254
255
254
254
254
255
255
255
255
254
254
254
254
254
253
254
254
254
254
254
254
253
254
254
253
254
254
254
255
255
255
254
254
254
255
254
254
254
252
253
253
254
250
235
235
123
123
123
126
127
127
140
165
164
164
165
168
168
166
165
165
165
165
165
165
165
166
165
165
166
166
166
166
166
166
166
165
165
165
164
166
166
187
188
186
186
188
189
189
186
164
164
164
168
129
129
127
126
126
122
125
154
154
234
252
252
254
255
255
255
255
255
255
255
255
255
255
254
254
254
255
255
255
254
254
254
255
255
255
255
255
255
255
255
255
255
255
255
254
254
255
255
254
254
254
255
255
254
254
254
0
0
0
0
0
0
0
0
0
0
0
0
0
0
0
0
0
0
0
0
0
0
0
0
0
0
0
0
0
0
0
0
0
0
0
0
0
0
0
0
0
0
0
0
0
0
0
0
0
0
0
0
0
0
0
0
0
0
0
0
0
0
0
0
0
0
0
0
0
0
0
0
0
0
0
0
0
0
0
0
0
0
0
0
0
0
0
0
0
0
0
0
0
0
0
0
0
0
0
0
0
0
0
0
0
0
0
0
0
0
0
0
0
0
0
0
0
0
0
0
0
0
0
0
0
0
0
0
0
0
0
0
0
0
0
0
0
0
0
0
0
0
0
0
0
0
0
0
0
0
0
0
0
0
0
0
0
0
0
0
0
0
0
0
0
0
0
0
0
0
0
0
0
0
0
0
0
0
0
0
0
0
0
0
0
0
0
0
0
0
0
0
0
0
0
0
0
0
0
0
0
0
0
0
0
0
0
0
0
0
0
0
0
0
0
0
0
0
0
0
0
0
0
0
0
0
0
0
0
0
0
0
0
0
0
0
0
0
0
0
0
0
0
0
0
0
0
0
0
0
0
0
0
0
0
0
0
0
0
0
0
0
0
0
0
0
0
0
0
0
0
0
0
0
0
0
0
0
0
0
0
0
0
0
0
0
0
0
0
0
0
0
0
0
0
0
0
0
0
0
0
0
0
0
0
0
0
0
0
0
0
0
0
0
0
0
0
0
164
167
161
163
148
134
128
129
133
128
127
122
241
255
254
255
255
254
255
254
254
254
254
254
254
254
255
254
254
254
255
255
255
254
254
254
254
254
254
254
132
131
129
129
129
131
130
127
130
128
126
130
130
127
119
155
131
195
231
231
231
229
231
232
229
231
229
231
246
250
253
255
254
254
254
254
254
255
254
254
254
248
249
252
251
245
244
252
254
252
254
253
254
249
255
253
255
254
253
252
255
254
255
255
255
254
254
254
254
254
255
254
255
254
255
254
254
254
254
254
254
254
253
254
253
254
254
254
254
255
255
255
255
255
254
254
254
254
253
253
254
253
254
249
232
235
126
122
122
126
127
127
132
163
166
167
165
165
165
166
166
166
165
165
165
165
165
165
165
166
166
166
166
166
166
166
166
166
166
165
164
166
164
177
188
189
187
189
190
190
189
180
165
165
167
168
152
125
129
125
124
129
124
121
222
232
244
255
255
254
254
255
255
254
255
255
255
255
255
254
254
254
254
255
255
255
254
255
255
255
255
255
255
255
255
255
255
255
255
254
254
254
255
255
255
254
254
254
255
255
254
254
254
0
0
0
0
0
0
0
0
0
0
0
0
0
0
0
0
0
0
0
0
0
0
0
0
0
0
0
0
0
0
0
0
0
0
0
0
0
0
0
0
0
0
0
0
0
0
0
0
0
0
0
0
0
0
0
0
0
0
0
0
0
0
0
0
0
0
0
0
0
0
0
0
0
0
0
0
0
0
0
0
0
0
0
0
0
0
0
0
0
0
0
0
0
0
0
0
0
0
0
0
0
0
0
0
0
0
0
0
0
0
0
0
0
0
0
0
0
0
0
0
0
0
0
0
0
0
0
0
0
0
0
0
0
0
0
0
0
0
0
0
0
0
0
0
0
0
0
0
0
0
0
0
0
0
0
0
0
0
0
0
0
0
0
0
0
0
0
0
0
0
0
0
0
0
0
0
0
0
0
0
0
0
0
0
0
0
0
0
0
0
0
0
0
0
0
0
0
0
0
0
0
0
0
0
0
0
0
0
0
0
0
0
0
0
0
0
0
0
0
0
0
0
0
0
0
0
0
0
0
0
0
0
0
0
0
0
0
0
0
0
0
0
0
0
0
0
0
0
0
0
0
0
0
0
0
0
0
0
0
0
0
0
0
0
0
0
0
0
0
0
0
0
0
0
0
0
0
0
0
0
0
0
0
0
0
0
0
0
0
0
0
0
0
0
0
0
0
0
0
0
0
0
0
0
0
0
0
0
0
0
0
0
0
0
0
0
0
164
165
162
162
162
135
128
129
130
126
127
128
198
252
254
251
254
254
254
254
254
254
254
254
254
255
255
254
254
254
255
255
255
254
254
254
254
255
255
255
254
131
126
130
129
129
128
130
130
129
128
130
125
122
194
194
230
230
231
230
228
229
229
228
231
231
230
246
246
254
255
255
254
254
254
254
254
252
254
254
251
236
249
212
194
198
198
213
231
252
248
250
254
249
254
251
251
255
254
252
255
252
254
254
255
255
254
255
254
254
255
255
254
254
254
255
254
254
254
254
254
254
254
254
252
255
254
255
255
254
255
254
255
255
255
255
255
255
255
255
254
255
249
229
229
127
122
122
125
125
127
126
160
165
165
165
165
165
166
165
166
166
166
165
165
165
165
165
165
166
166
166
166
166
166
166
166
166
166
166
164
166
162
187
189
189
189
189
190
187
190
180
164
164
164
164
147
125
129
128
124
124
124
122
228
232
245
255
255
255
255
255
255
254
255
255
255
255
255
255
254
254
254
254
255
255
255
254
255
255
255
255
255
255
255
255
255
255
255
254
254
254
255
255
255
254
254
254
254
255
255
254
254
254
0
0
0
0
0
0
0
0
0
0
0
0
0
0
0
0
0
0
0
0
0
0
0
0
0
0
0
0
0
0
0
0
0
0
0
0
0
0
0
0
0
0
0
0
0
0
0
0
0
0
0
0
0
0
0
0
0
0
0
0
0
0
0
0
0
0
0
0
0
0
0
0
0
0
0
0
0
0
0
0
0
0
0
0
0
0
0
0
0
0
0
0
0
0
0
0
0
0
0
0
0
0
0
0
0
0
0
0
0
0
0
0
0
0
0
0
0
0
0
0
0
0
0
0
0
0
0
0
0
0
0
0
0
0
0
0
0
0
0
0
0
0
0
0
0
0
0
0
0
0
0
0
0
0
0
0
0
0
0
0
0
0
0
0
0
0
0
0
0
0
0
0
0
0
0
0
0
0
0
0
0
0
0
0
0
0
0
0
0
0
0
0
0
0
0
0
0
0
0
0
0
0
0
0
0
0
0
0
0
0
0
0
0
0
0
0
0
0
0
0
0
0
0
0
0
0
0
0
0
0
0
0
0
0
0
0
0
0
0
0
0
0
0
0
0
0
0
0
0
0
0
0
0
0
0
0
0
0
0
0
0
0
0
0
0
0
0
0
0
0
0
0
0
0
0
0
0
0
0
0
0
0
0
0
0
0
0
0
0
0
0
0
0
0
0
0
0
0
0
0
0
0
0
0
0
0
0
0
0
0
0
0
0
0
0
0
166
164
163
162
156
145
132
130
129
129
125
118
147
248
254
254
254
255
254
254
254
254
254
254
255
255
255
255
254
254
254
255
255
255
254
254
254
254
255
255
255
254
126
128
128
127
122
128
126
126
126
119
164
232
225
233
228
230
230
229
230
228
230
230
230
230
247
247
254
254
254
254
254
255
255
254
251
244
251
235
127
174
130
124
123
121
124
125
133
159
211
211
243
248
244
248
252
252
252
253
254
250
254
254
254
255
255
255
255
254
255
253
253
252
253
253
255
254
254
254
254
254
254
254
254
254
252
255
255
255
254
254
254
254
255
255
251
253
252
252
255
249
199
219
125
123
122
125
127
127
125
155
165
164
165
163
164
166
166
166
165
166
166
166
165
165
165
165
166
166
166
166
166
166
166
166
166
166
166
166
164
161
180
190
188
188
189
188
188
189
189
173
164
165
167
163
137
125
126
124
128
126
121
126
191
228
252
252
254
254
254
255
255
255
255
255
255
254
255
255
255
255
254
254
254
255
255
255
254
255
255
255
255
255
254
254
255
255
255
255
255
255
254
254
254
255
255
254
254
254
255
255
254
254
254
0
0
0
0
0
0
0
0
0
0
0
0
0
0
0
0
0
0
0
0
0
0
0
0
0
0
0
0
0
0
0
0
0
0
0
0
0
0
0
0
0
0
0
0
0
0
0
0
0
0
0
0
0
0
0
0
0
0
0
0
0
0
0
0
0
0
0
0
0
0
0
0
0
0
0
0
0
0
0
0
0
0
0
0
0
0
0
0
0
0
0
0
0
0
0
0
0
0
0
0
0
0
0
0
0
0
0
0
0
0
0
0
0
0
0
0
0
0
0
0
0
0
0
0
0
0
0
0
0
0
0
0
0
0
0
0
0
0
0
0
0
0
0
0
0
0
0
0
0
0
0
0
0
0
0
0
0
0
0
0
0
0
0
0
0
0
0
0
0
0
0
0
0
0
0
0
0
0
0
0
0
0
0
0
0
0
0
0
0
0
0
0
0
0
0
0
0
0
0
0
0
0
0
0
0
0
0
0
0
0
0
0
0
0
0
0
0
0
0
0
0
0
0
0
0
0
0
0
0
0
0
0
0
0
0
0
0
0
0
0
0
0
0
0
0
0
0
0
0
0
0
0
0
0
0
0
0
0
0
0
0
0
0
0
0
0
0
0
0
0
0
0
0
0
0
0
0
0
0
0
0
0
0
0
0
0
0
0
0
0
0
0
0
0
0
0
0
0
0
0
0
0
0
0
0
0
0
0
0
0
0
0
0
0
0
163
165
163
165
159
145
133
129
128
129
132
126
147
224
254
255
252
254
255
254
254
254
254
255
255
255
255
255
254
254
255
255
255
255
255
254
254
254
254
255
255
255
254
128
124
121
122
123
154
123
154
232
231
232
228
227
228
230
229
231
230
230
230
230
229
252
249
253
254
254
254
254
254
254
254
249
229
244
144
123
127
126
127
127
123
128
125
125
125
131
121
143
120
144
244
207
239
252
249
251
253
250
254
253
254
253
255
255
255
254
254
253
255
254
251
254
255
254
254
253
255
254
254
254
253
254
254
253
255
254
254
254
254
254
254
255
253
250
252
250
244
169
199
120
124
123
127
126
126
126
147
165
165
167
165
163
166
166
166
166
166
165
166
166
166
165
165
166
166
166
166
166
166
166
166
166
166
166
167
166
165
166
186
190
189
191
189
187
187
187
185
165
165
165
167
161
137
125
127
126
128
129
119
126
214
227
246
255
255
254
254
254
255
255
255
255
255
254
254
255
255
255
255
254
254
254
255
255
255
254
255
255
255
255
254
254
254
255
255
255
254
255
254
254
254
255
255
255
254
254
254
255
255
254
254
254
0
0
0
0
0
0
0
0
0
0
0
0
0
0
0
0
0
0
0
0
0
0
0
0
0
0
0
0
0
0
0
0
0
0
0
0
0
0
0
0
0
0
0
0
0
0
0
0
0
0
0
0
0
0
0
0
0
0
0
0
0
0
0
0
0
0
0
0
0
0
0
0
0
0
0
0
0
0
0
0
0
0
0
0
0
0
0
0
0
0
0
0
0
0
0
0
0
0
0
0
0
0
0
0
0
0
0
0
0
0
0
0
0
0
0
0
0
0
0
0
0
0
0
0
0
0
0
0
0
0
0
0
0
0
0
0
0
0
0
0
0
0
0
0
0
0
0
0
0
0
0
0
0
0
0
0
0
0
0
0
0
0
0
0
0
0
0
0
0
0
0
0
0
0
0
0
0
0
0
0
0
0
0
0
0
0
0
0
0
0
0
0
0
0
0
0
0
0
0
0
0
0
0
0
0
0
0
0
0
0
0
0
0
0
0
0
0
0
0
0
0
0
0
0
0
0
0
0
0
0
0
0
0
0
0
0
0
0
0
0
0
0
0
0
0
0
0
0
0
0
0
0
0
0
0
0
0
0
0
0
0
0
0
0
0
0
0
0
0
0
0
0
0
0
0
0
0
0
0
0
0
0
0
0
0
0
0
0
0
0
0
0
0
0
0
0
0
0
0
0
0
0
0
0
0
0
0
0
0
0
0
0
0
0
165
163
163
165
165
149
128
128
130
127
130
130
123
250
250
254
251
253
253
254
254
254
255
255
255
255
255
254
254
254
255
255
255
255
255
255
254
254
254
254
255
255
255
254
145
145
179
217
217
232
230
229
229
229
230
230
229
230
228
230
230
229
229
236
254
254
254
254
254
254
254
255
255
253
248
208
208
127
124
124
125
127
130
126
124
127
127
130
124
124
121
128
124
124
121
145
145
206
244
193
250
248
250
250
251
254
254
255
254
254
254
253
255
255
253
251
254
254
253
254
254
253
252
252
254
255
254
254
253
254
254
253
255
252
252
254
252
252
247
223
122
141
124
123
123
128
126
126
125
147
167
167
166
165
165
166
166
166
166
166
166
166
165
166
166
166
166
166
166
166
166
166
166
166
166
166
166
166
166
165
163
176
181
187
188
188
185
189
189
187
175
165
165
165
165
165
126
124
125
125
125
122
122
146
229
229
247
254
254
254
255
255
255
255
255
255
255
254
254
254
255
255
255
254
254
254
254
255
255
255
254
255
255
255
255
254
254
254
255
255
255
254
254
254
255
255
255
255
255
254
254
254
255
255
254
254
254
0
0
0
0
0
0
0
0
0
0
0
0
0
0
0
0
0
0
0
0
0
0
0
0
0
0
0
0
0
0
0
0
0
0
0
0
0
0
0
0
0
0
0
0
0
0
0
0
0
0
0
0
0
0
0
0
0
0
0
0
0
0
0
0
0
0
0
0
0
0
0
0
0
0
0
0
0
0
0
0
0
0
0
0
0
0
0
0
0
0
0
0
0
0
0
0
0
0
0
0
0
0
0
0
0
0
0
0
0
0
0
0
0
0
0
0
0
0
0
0
0
0
0
0
0
0
0
0
0
0
0
0
0
0
0
0
0
0
0
0
0
0
0
0
0
0
0
0
0
0
0
0
0
0
0
0
0
0
0
0
0
0
0
0
0
0
0
0
0
0
0
0
0
0
0
0
0
0
0
0
0
0
0
0
0
0
0
0
0
0
0
0
0
0
0
0
0
0
0
0
0
0
0
0
0
0
0
0
0
0
0
0
0
0
0
0
0
0
0
0
0
0
0
0
0
0
0
0
0
0
0
0
0
0
0
0
0
0
0
0
0
0
0
0
0
0
0
0
0
0
0
0
0
0
0
0
0
0
0
0
0
0
0
0
0
0
0
0
0
0
0
0
0
0
0
0
0
0
0
0
0
0
0
0
0
0
0
0
0
0
0
0
0
0
0
0
0
0
0
0
0
0
0
0
0
0
0
0
0
0
0
0
0
165
165
163
163
162
156
139
128
127
130
129
127
121
175
251
255
253
254
253
255
254
255
255
255
255
255
254
254
254
255
255
255
255
255
255
255
255
254
254
254
254
255
255
255
254
231
229
232
231
228
229
229
230
231
232
231
230
229
228
231
231
229
239
255
255
254
254
254
254
253
255
255
254
247
159
184
119
125
119
124
127
130
130
129
126
126
125
128
125
128
127
130
126
124
130
122
120
124
120
193
133
178
248
248
244
251
254
253
252
251
254
249
254
251
254
254
254
255
253
253
254
255
254
255
254
254
252
252
255
254
254
250
248
253
250
245
249
239
132
125
122
125
126
124
127
125
126
125
151
165
166
165
166
164
166
166
166
166
166
166
166
166
166
165
166
166
166
166
166
166
166
166
166
166
166
166
165
165
165
165
169
176
189
190
189
189
188
189
188
192
164
164
164
165
167
146
125
125
125
125
124
130
122
174
225
229
248
254
254
254
254
255
255
255
255
255
255
255
254
254
254
255
255
255
255
254
254
254
255
255
255
254
255
255
255
255
254
254
254
255
255
255
254
255
254
254
255
255
255
255
254
254
254
255
255
254
254
254
0
0
0
0
0
0
0
0
0
0
0
0
0
0
0
0
0
0
0
0
0
0
0
0
0
0
0
0
0
0
0
0
0
0
0
0
0
0
0
0
0
0
0
0
0
0
0
0
0
0
0
0
0
0
0
0
0
0
0
0
0
0
0
0
0
0
0
0
0
0
0
0
0
0
0
0
0
0
0
0
0
0
0
0
0
0
0
0
0
0
0
0
0
0
0
0
0
0
0
0
0
0
0
0
0
0
0
0
0
0
0
0
0
0
0
0
0
0
0
0
0
0
0
0
0
0
0
0
0
0
0
0
0
0
0
0
0
0
0
0
0
0
0
0
0
0
0
0
0
0
0
0
0
0
0
0
0
0
0
0
0
0
0
0
0
0
0
0
0
0
0
0
0
0
0
0
0
0
0
0
0
0
0
0
0
0
0
0
0
0
0
0
0
0
0
0
0
0
0
0
0
0
0
0
0
0
0
0
0
0
0
0
0
0
0
0
0
0
0
0
0
0
0
0
0
0
0
0
0
0
0
0
0
0
0
0
0
0
0
0
0
0
0
0
0
0
0
0
0
0
0
0
0
0
0
0
0
0
0
0
0
0
0
0
0
0
0
0
0
0
0
0
0
0
0
0
0
0
0
0
0
0
0
0
0
0
0
0
0
0
0
0
0
0
0
0
0
0
0
0
0
0
0
0
0
0
0
0
0
0
0
0
170
164
164
163
163
156
145
128
129
129
129
128
121
137
251
254
254
254
255
255
255
255
255
255
255
254
254
254
255
255
255
254
254
254
255
255
255
255
254
254
254
254
255
255
255
254
229
232
233
232
232
230
229
231
230
229
230
230
229
235
235
251
253
255
253
254
254
254
254
254
255
253
241
140
140
125
122
125
127
125
127
127
125
128
128
132
128
128
124
125
126
126
124
126
130
125
124
127
127
122
118
118
127
154
244
197
234
245
245
246
249
249
249
250
249
249
253
254
253
254
252
255
254
253
253
253
252
254
255
251
249
248
248
238
205
245
142
121
123
123
125
127
127
127
125
125
127
155
165
165
166
165
166
165
166
166
166
166
166
166
166
166
166
166
165
166
166
166
166
166
166
166
166
166
166
167
165
165
167
166
166
188
189
189
189
187
188
190
188
174
174
165
167
165
167
134
125
125
124
127
127
122
123
174
228
230
252
252
254
254
254
255
255
255
255
255
255
255
255
254
254
254
255
255
255
255
254
254
254
255
255
255
255
255
255
255
255
254
254
254
255
255
255
254
254
254
254
255
255
255
255
254
254
254
254
254
254
254
254
0
0
0
0
0
0
0
0
0
0
0
0
0
0
0
0
0
0
0
0
0
0
0
0
0
0
0
0
0
0
0
0
0
0
0
0
0
0
0
0
0
0
0
0
0
0
0
0
0
0
0
0
0
0
0
0
0
0
0
0
0
0
0
0
0
0
0
0
0
0
0
0
0
0
0
0
0
0
0
0
0
0
0
0
0
0
0
0
0
0
0
0
0
0
0
0
0
0
0
0
0
0
0
0
0
0
0
0
0
0
0
0
0
0
0
0
0
0
0
0
0
0
0
0
0
0
0
0
0
0
0
0
0
0
0
0
0
0
0
0
0
0
0
0
0
0
0
0
0
0
0
0
0
0
0
0
0
0
0
0
0
0
0
0
0
0
0
0
0
0
0
0
0
0
0
0
0
0
0
0
0
0
0
0
0
0
0
0
0
0
0
0
0
0
0
0
0
0
0
0
0
0
0
0
0
0
0
0
0
0
0
0
0
0
0
0
0
0
0
0
0
0
0
0
0
0
0
0
0
0
0
0
0
0
0
0
0
0
0
0
0
0
0
0
0
0
0
0
0
0
0
0
0
0
0
0
0
0
0
0
0
0
0
0
0
0
0
0
0
0
0
0
0
0
0
0
0
0
0
0
0
0
0
0
0
0
0
0
0
0
0
0
0
0
0
0
0
0
0
0
0
0
0
0
0
0
0
0
0
0
0
171
166
162
164
164
160
134
127
131
130
128
128
125
217
251
253
255
253
254
255
254
254
255
255
254
254
254
255
255
255
255
254
254
254
254
255
255
255
255
254
254
254
254
255
255
255
254
227
230
229
228
230
231
229
229
229
230
229
252
242
254
255
254
255
254
255
255
253
253
254
252
233
123
132
126
125
125
125
122
129
125
135
166
152
159
167
154
145
130
148
124
127
125
126
127
129
125
126
125
126
128
124
128
120
121
129
122
157
195
128
225
241
245
205
249
251
233
250
249
249
249
250
248
236
250
250
224
246
250
240
146
221
178
122
133
118
125
125
122
127
125
126
124
124
126
130
159
166
166
165
164
164
166
166
166
166
166
166
166
166
166
166
166
165
166
165
166
166
166
166
166
166
166
166
164
166
164
166
164
165
187
186
186
189
189
188
189
189
188
187
163
165
166
164
150
125
124
125
125
125
127
123
126
209
230
234
250
253
254
254
254
255
255
255
255
255
255
255
255
255
255
254
254
255
255
255
255
254
254
254
255
255
255
254
255
255
255
255
254
255
254
255
254
254
255
254
254
254
255
255
255
255
254
254
254
254
254
254
254
254
0
0
0
0
0
0
0
0
0
0
0
0
0
0
0
0
0
0
0
0
0
0
0
0
0
0
0
0
0
0
0
0
0
0
0
0
0
0
0
0
0
0
0
0
0
0
0
0
0
0
0
0
0
0
0
0
0
0
0
0
0
0
0
0
0
0
0
0
0
0
0
0
0
0
0
0
0
0
0
0
0
0
0
0
0
0
0
0
0
0
0
0
0
0
0
0
0
0
0
0
0
0
0
0
0
0
0
0
0
0
0
0
0
0
0
0
0
0
0
0
0
0
0
0
0
0
0
0
0
0
0
0
0
0
0
0
0
0
0
0
0
0
0
0
0
0
0
0
0
0
0
0
0
0
0
0
0
0
0
0
0
0
0
0
0
0
0
0
0
0
0
0
0
0
0
0
0
0
0
0
0
0
0
0
0
0
0
0
0
0
0
0
0
0
0
0
0
0
0
0
0
0
0
0
0
0
0
0
0
0
0
0
0
0
0
0
0
0
0
0
0
0
0
0
0
0
0
0
0
0
0
0
0
0
0
0
0
0
0
0
0
0
0
0
0
0
0
0
0
0
0
0
0
0
0
0
0
0
0
0
0
0
0
0
0
0
0
0
0
0
0
0
0
0
0
0
0
0
0
0
0
0
0
0
0
0
0
0
0
0
0
0
0
0
0
0
0
0
0
0
0
0
0
0
0
0
0
0
0
0
171
165
164
164
164
164
135
127
128
126
128
130
128
180
251
254
253
253
251
255
254
254
254
254
254
254
255
255
255
255
255
254
254
254
254
254
255
255
255
254
254
254
254
254
255
255
255
254
230
230
230
230
229
230
230
229
242
255
252
253
254
255
255
254
255
255
253
253
253
250
209
120
123
123
125
125
128
125
131
129
158
165
166
164
166
167
166
165
166
148
163
141
125
126
124
126
125
125
126
126
126
125
128
130
126
127
122
126
126
128
122
119
122
205
126
135
233
141
152
239
237
157
154
236
152
138
224
127
121
120
146
120
123
122
127
128
126
125
126
126
125
127
123
124
140
166
165
166
164
164
164
164
166
166
166
166
166
166
166
166
166
166
166
166
166
166
166
166
166
166
166
166
166
164
164
165
165
166
164
181
188
186
190
188
189
188
189
188
188
170
166
165
164
166
133
125
126
124
125
126
125
123
119
223
225
234
251
253
254
254
254
254
255
255
255
255
255
255
255
255
255
255
254
254
255
255
255
255
254
254
255
255
255
255
254
255
255
255
255
255
255
255
254
254
255
255
254
254
254
255
255
255
254
254
254
254
254
254
254
254
254
0
0
0
0
0
0
0
0
0
0
0
0
0
0
0
0
0
0
0
0
0
0
0
0
0
0
0
0
0
0
0
0
0
0
0
0
0
0
0
0
0
0
0
0
0
0
0
0
0
0
0
0
0
0
0
0
0
0
0
0
0
0
0
0
0
0
0
0
0
0
0
0
0
0
0
0
0
0
0
0
0
0
0
0
0
0
0
0
0
0
0
0
0
0
0
0
0
0
0
0
0
0
0
0
0
0
0
0
0
0
0
0
0
0
0
0
0
0
0
0
0
0
0
0
0
0
0
0
0
0
0
0
0
0
0
0
0
0
0
0
0
0
0
0
0
0
0
0
0
0
0
0
0
0
0
0
0
0
0
0
0
0
0
0
0
0
0
0
0
0
0
0
0
0
0
0
0
0
0
0
0
0
0
0
0
0
0
0
0
0
0
0
0
0
0
0
0
0
0
0
0
0
0
0
0
0
0
0
0
0
0
0
0
0
0
0
0
0
0
0
0
0
0
0
0
0
0
0
0
0
0
0
0
0
0
0
0
0
0
0
0
0
0
0
0
0
0
0
0
0
0
0
0
0
0
0
0
0
0
0
0
0
0
0
0
0
0
0
0
0
0
0
0
0
0
0
0
0
0
0
0
0
0
0
0
0
0
0
0
0
0
0
0
0
0
0
0
0
0
0
0
0
0
0
0
0
0
0
0
164
162
162
164
165
163
156
130
129
129
127
130
125
123
243
249
249
255
253
253
253
254
252
252
254
255
255
255
255
255
255
255
254
254
254
254
254
255
255
254
254
254
254
254
254
255
255
255
254
230
230
227
231
247
236
251
254
254
253
254
254
255
254
254
255
254
253
253
249
197
123
121
126
125
125
126
124
140
133
168
166
166
167
163
163
165
162
166
165
164
168
168
158
138
152
126
124
128
128
126
124
124
127
124
127
126
128
126
126
123
125
128
126
122
124
124
124
122
122
123
120
124
124
121
119
119
122
124
123
123
127
127
127
128
124
125
125
126
127
127
125
126
126
151
166
167
166
165
165
165
164
165
166
166
166
166
166
166
166
166
166
166
166
166
166
166
166
166
166
166
166
166
166
166
167
167
164
166
177
190
190
189
189
189
189
187
188
188
177
164
164
164
167
165
151
125
126
126
127
125
125
124
196
226
232
237
254
254
254
254
255
254
255
255
255
255
255
255
255
255
255
255
255
254
254
255
255
255
255
254
255
255
255
255
255
254
255
255
255
255
255
255
255
255
255
255
255
254
254
254
255
255
254
254
254
254
254
255
255
254
254
254
0
0
0
0
0
0
0
0
0
0
0
0
0
0
0
0
0
0
0
0
0
0
0
0
0
0
0
0
0
0
0
0
0
0
0
0
0
0
0
0
0
0
0
0
0
0
0
0
0
0
0
0
0
0
0
0
0
0
0
0
0
0
0
0
0
0
0
0
0
0
0
0
0
0
0
0
0
0
0
0
0
0
0
0
0
0
0
0
0
0
0
0
0
0
0
0
0
0
0
0
0
0
0
0
0
0
0
0
0
0
0
0
0
0
0
0
0
0
0
0
0
0
0
0
0
0
0
0
0
0
0
0
0
0
0
0
0
0
0
0
0
0
0
0
0
0
0
0
0
0
0
0
0
0
0
0
0
0
0
0
0
0
0
0
0
0
0
0
0
0
0
0
0
0
0
0
0
0
0
0
0
0
0
0
0
0
0
0
0
0
0
0
0
0
0
0
0
0
0
0
0
0
0
0
0
0
0
0
0
0
0
0
0
0
0
0
0
0
0
0
0
0
0
0
0
0
0
0
0
0
0
0
0
0
0
0
0
0
0
0
0
0
0
0
0
0
0
0
0
0
0
0
0
0
0
0
0
0
0
0
0
0
0
0
0
0
0
0
0
0
0
0
0
0
0
0
0
0
0
0
0
0
0
0
0
0
0
0
0
0
0
0
0
0
0
0
0
0
0
0
0
0
0
0
0
0
0
0
165
165
162
164
162
163
157
132
130
128
129
130
125
125
230
253
254
255
255
254
253
254
255
254
255
255
255
255
254
255
255
255
255
255
255
254
254
254
254
254
254
254
254
254
254
254
255
255
255
254
229
245
255
247
254
254
253
254
254
255
255
254
253
254
254
251
251
248
180
122
123
126
128
128
125
125
143
140
165
167
163
165
164
165
166
166
166
166
167
163
162
166
164
167
152
165
154
124
126
127
124
124
126
124
127
126
126
125
125
128
126
128
129
126
124
122
126
126
125
124
127
120
124
125
123
129
122
129
123
124
124
124
124
127
124
125
126
126
126
123
152
136
162
165
167
167
163
166
164
164
165
165
166
166
166
166
166
166
166
166
166
166
166
166
166
166
166
166
165
166
166
165
165
166
165
164
164
181
189
189
188
188
189
190
187
188
188
188
164
164
164
165
165
165
131
125
127
126
125
126
124
126
224
226
231
242
252
254
255
255
255
254
254
255
254
255
255
255
255
255
255
255
255
255
254
254
255
255
255
255
254
254
254
255
255
255
254
255
255
255
255
255
255
255
255
255
255
255
254
254
254
255
255
255
254
254
254
254
255
255
254
254
254
0
0
0
0
0
0
0
0
0
0
0
0
0
0
0
0
0
0
0
0
0
0
0
0
0
0
0
0
0
0
0
0
0
0
0
0
0
0
0
0
0
0
0
0
0
0
0
0
0
0
0
0
0
0
0
0
0
0
0
0
0
0
0
0
0
0
0
0
0
0
0
0
0
0
0
0
0
0
0
0
0
0
0
0
0
0
0
0
0
0
0
0
0
0
0
0
0
0
0
0
0
0
0
0
0
0
0
0
0
0
0
0
0
0
0
0
0
0
0
0
0
0
0
0
0
0
0
0
0
0
0
0
0
0
0
0
0
0
0
0
0
0
0
0
0
0
0
0
0
0
0
0
0
0
0
0
0
0
0
0
0
0
0
0
0
0
0
0
0
0
0
0
0
0
0
0
0
0
0
0
0
0
0
0
0
0
0
0
0
0
0
0
0
0
0
0
0
0
0
0
0
0
0
0
0
0
0
0
0
0
0
0
0
0
0
0
0
0
0
0
0
0
0
0
0
0
0
0
0
0
0
0
0
0
0
0
0
0
0
0
0
0
0
0
0
0
0
0
0
0
0
0
0
0
0
0
0
0
0
0
0
0
0
0
0
0
0
0
0
0
0
0
0
0
0
0
0
0
0
0
0
0
0
0
0
0
0
0
0
0
0
0
0
0
0
0
0
0
0
0
0
0
0
0
0
0
0
165
165
163
163
163
163
144
144
129
130
129
129
130
135
135
251
254
255
251
255
252
252
255
255
255
255
255
255
255
254
255
255
255
255
254
254
254
254
254
254
254
254
255
255
254
254
255
255
255
255
254
253
253
254
255
255
255
254
254
254
255
253
253
254
252
252
248
170
121
121
125
127
127
125
126
147
147
166
165
165
167
166
164
165
165
164
164
166
163
163
167
165
166
166
167
167
167
166
157
127
140
128
129
129
129
124
124
126
125
126
126
124
125
125
126
128
126
124
130
127
127
127
125
125
127
129
126
126
127
127
127
127
127
128
128
126
128
128
146
163
152
164
163
165
165
167
166
166
165
166
165
165
165
166
166
166
166
166
166
166
166
166
166
166
166
166
166
166
166
165
166
166
164
164
165
165
184
188
188
189
188
188
188
189
188
188
189
167
167
167
165
164
164
144
125
125
126
125
125
127
120
182
182
231
230
230
253
254
254
254
255
254
254
255
254
255
255
255
255
255
255
255
255
255
254
254
254
255
255
255
255
254
254
254
255
255
255
254
255
255
255
255
255
255
255
255
255
255
255
254
254
254
255
255
255
254
254
254
255
255
255
254
254
254
0
0
0
0
0
0
0
0
0
0
0
0
0
0
0
0
0
0
0
0
0
0
0
0
0
0
0
0
0
0
0
0
0
0
0
0
0
0
0
0
0
0
0
0
0
0
0
0
0
0
0
0
0
0
0
0
0
0
0
0
0
0
0
0
0
0
0
0
0
0
0
0
0
0
0
0
0
0
0
0
0
0
0
0
0
0
0
0
0
0
0
0
0
0
0
0
0
0
0
0
0
0
0
0
0
0
0
0
0
0
0
0
0
0
0
0
0
0
0
0
0
0
0
0
0
0
0
0
0
0
0
0
0
0
0
0
0
0
0
0
0
0
0
0
0
0
0
0
0
0
0
0
0
0
0
0
0
0
0
0
0
0
0
0
0
0
0
0
0
0
0
0
0
0
0
0
0
0
0
0
0
0
0
0
0
0
0
0
0
0
0
0
0
0
0
0
0
0
0
0
0
0
0
0
0
0
0
0
0
0
0
0
0
0
0
0
0
0
0
0
0
0
0
0
0
0
0
0
0
0
0
0
0
0
0
0
0
0
0
0
0
0
0
0
0
0
0
0
0
0
0
0
0
0
0
0
0
0
0
0
0
0
0
0
0
0
0
0
0
0
0
0
0
0
0
0
0
0
0
0
0
0
0
0
0
0
0
0
0
0
0
0
0
0
0
0
0
0
0
0
0
0
0
0
0
0
164
164
163
163
161
162
158
131
126
128
127
126
133
123
219
247
253
254
253
255
253
255
254
254
255
255
255
255
255
255
255
255
255
254
254
254
254
254
254
254
254
255
255
255
255
254
254
255
255
255
255
254
254
254
255
255
255
254
253
255
255
255
253
252
252
247
161
123
122
126
128
127
125
125
149
149
167
166
166
166
166
166
167
166
165
163
163
165
166
164
166
166
166
166
167
164
166
167
167
165
161
162
150
129
160
123
125
133
130
125
128
125
127
128
123
125
124
127
124
129
125
128
124
125
126
124
126
126
125
126
124
128
136
122
127
158
145
161
165
166
163
166
165
164
168
164
165
166
165
166
166
165
165
165
166
166
166
166
166
166
166
166
166
166
166
166
166
166
164
165
165
165
166
175
170
186
189
187
188
189
189
188
190
188
188
189
175
170
165
165
167
166
161
126
126
126
127
127
126
124
121
139
231
228
230
247
254
253
254
255
255
255
254
255
255
255
255
255
255
255
255
255
255
255
255
254
254
254
255
255
255
255
254
254
254
255
255
254
254
255
255
255
255
255
255
255
255
255
255
255
254
254
255
255
255
255
255
255
255
255
255
255
255
254
255
0
0
0
0
0
0
0
0
0
0
0
0
0
0
0
0
0
0
0
0
0
0
0
0
0
0
0
0
0
0
0
0
0
0
0
0
0
0
0
0
0
0
0
0
0
0
0
0
0
0
0
0
0
0
0
0
0
0
0
0
0
0
0
0
0
0
0
0
0
0
0
0
0
0
0
0
0
0
0
0
0
0
0
0
0
0
0
0
0
0
0
0
0
0
0
0
0
0
0
0
0
0
0
0
0
0
0
0
0
0
0
0
0
0
0
0
0
0
0
0
0
0
0
0
0
0
0
0
0
0
0
0
0
0
0
0
0
0
0
0
0
0
0
0
0
0
0
0
0
0
0
0
0
0
0
0
0
0
0
0
0
0
0
0
0
0
0
0
0
0
0
0
0
0
0
0
0
0
0
0
0
0
0
0
0
0
0
0
0
0
0
0
0
0
0
0
0
0
0
0
0
0
0
0
0
0
0
0
0
0
0
0
0
0
0
0
0
0
0
0
0
0
0
0
0
0
0
0
0
0
0
0
0
0
0
0
0
0
0
0
0
0
0
0
0
0
0
0
0
0
0
0
0
0
0
0
0
0
0
0
0
0
0
0
0
0
0
0
0
0
0
0
0
0
0
0
0
0
0
0
0
0
0
0
0
0
0
0
0
0
0
0
0
0
0
0
0
0
0
0
0
0
0
0
0
165
162
163
162
164
162
154
128
129
129
125
127
133
120
218
247
252
251
255
255
255
254
254
254
255
255
255
255
255
255
255
255
254
254
254
255
254
254
254
254
254
255
255
255
254
254
254
254
254
255
255
255
254
254
254
254
255
254
255
255
255
254
252
252
246
158
123
123
127
127
128
125
125
151
151
164
166
166
165
166
166
166
164
166
165
167
166
165
166
166
166
166
165
163
167
167
165
167
165
165
167
162
167
168
160
165
161
155
155
151
139
125
135
132
123
128
129
124
124
123
124
128
126
127
123
124
129
129
125
136
146
160
160
163
167
158
168
166
165
166
167
166
165
166
165
164
166
165
165
165
166
166
165
165
166
166
166
166
166
166
166
166
166
166
166
166
166
165
165
165
164
168
181
181
189
189
189
189
188
189
188
190
187
188
190
176
175
165
165
165
165
165
135
126
125
126
127
125
127
120
121
195
226
228
233
252
253
253
254
254
255
254
255
255
254
255
255
255
255
255
255
255
255
255
255
255
255
254
254
255
255
255
255
254
254
254
254
254
255
254
255
255
255
255
255
255
255
255
255
255
254
254
255
255
255
255
255
255
255
255
254
255
255
255
254
254
0
0
0
0
0
0
0
0
0
0
0
0
0
0
0
0
0
0
0
0
0
0
0
0
0
0
0
0
0
0
0
0
0
0
0
0
0
0
0
0
0
0
0
0
0
0
0
0
0
0
0
0
0
0
0
0
0
0
0
0
0
0
0
0
0
0
0
0
0
0
0
0
0
0
0
0
0
0
0
0
0
0
0
0
0
0
0
0
0
0
0
0
0
0
0
0
0
0
0
0
0
0
0
0
0
0
0
0
0
0
0
0
0
0
0
0
0
0
0
0
0
0
0
0
0
0
0
0
0
0
0
0
0
0
0
0
0
0
0
0
0
0
0
0
0
0
0
0
0
0
0
0
0
0
0
0
0
0
0
0
0
0
0
0
0
0
0
0
0
0
0
0
0
0
0
0
0
0
0
0
0
0
0
0
0
0
0
0
0
0
0
0
0
0
0
0
0
0
0
0
0
0
0
0
0
0
0
0
0
0
0
0
0
0
0
0
0
0
0
0
0
0
0
0
0
0
0
0
0
0
0
0
0
0
0
0
0
0
0
0
0
0
0
0
0
0
0
0
0
0
0
0
0
0
0
0
0
0
0
0
0
0
0
0
0
0
0
0
0
0
0
0
0
0
0
0
0
0
0
0
0
0
0
0
0
0
0
0
0
0
0
0
0
0
0
0
0
0
0
0
0
0
0
0
162
162
163
164
164
159
138
129
130
128
128
127
130
150
150
241
254
252
254
253
254
254
255
255
255
255
254
255
255
255
255
255
254
254
254
254
255
254
254
254
255
255
255
255
254
254
254
254
254
254
255
255
255
254
253
253
254
255
254
254
254
252
252
247
158
122
123
126
126
126
126
124
156
154
164
166
166
165
166
166
166
166
166
165
165
167
167
165
165
165
165
165
165
165
164
165
165
165
165
166
166
167
167
167
165
165
164
168
165
167
163
161
157
157
153
148
167
144
146
143
143
140
143
166
145
152
156
156
164
166
166
166
163
166
166
167
167
167
164
164
163
164
165
166
166
165
165
165
165
166
165
166
165
165
165
166
166
166
166
166
166
166
166
166
166
166
165
165
166
165
181
192
188
190
188
189
190
189
189
188
189
188
187
189
177
177
165
166
165
164
166
158
147
124
125
125
126
126
126
125
152
229
229
231
239
252
254
254
254
254
253
255
255
254
254
254
255
255
255
255
255
255
255
255
255
255
255
254
254
254
255
255
255
255
254
255
255
254
255
254
254
255
255
255
255
255
254
254
254
254
254
254
255
255
255
255
255
255
255
254
254
254
255
255
254
254
254
0
0
0
0
0
0
0
0
0
0
0
0
0
0
0
0
0
0
0
0
0
0
0
0
0
0
0
0
0
0
0
0
0
0
0
0
0
0
0
0
0
0
0
0
0
0
0
0
0
0
0
0
0
0
0
0
0
0
0
0
0
0
0
0
0
0
0
0
0
0
0
0
0
0
0
0
0
0
0
0
0
0
0
0
0
0
0
0
0
0
0
0
0
0
0
0
0
0
0
0
0
0
0
0
0
0
0
0
0
0
0
0
0
0
0
0
0
0
0
0
0
0
0
0
0
0
0
0
0
0
0
0
0
0
0
0
0
0
0
0
0
0
0
0
0
0
0
0
0
0
0
0
0
0
0
0
0
0
0
0
0
0
0
0
0
0
0
0
0
0
0
0
0
0
0
0
0
0
0
0
0
0
0
0
0
0
0
0
0
0
0
0
0
0
0
0
0
0
0
0
0
0
0
0
0
0
0
0
0
0
0
0
0
0
0
0
0
0
0
0
0
0
0
0
0
0
0
0
0
0
0
0
0
0
0
0
0
0
0
0
0
0
0
0
0
0
0
0
0
0
0
0
0
0
0
0
0
0
0
0
0
0
0
0
0
0
0
0
0
0
0
0
0
0
0
0
0
0
0
0
0
0
0
0
0
0
0
0
0
0
0
0
0
0
0
0
0
0
0
0
0
0
0
162
164
163
163
161
149
132
129
131
127
128
129
125
122
227
236
254
252
254
254
254
254
254
255
255
254
254
254
255
255
255
255
255
254
254
254
255
255
254
254
254
255
255
255
255
255
255
254
254
254
255
255
255
254
254
254
254
254
254
255
252
251
246
159
122
122
126
126
126
125
124
157
156
167
165
166
166
166
165
166
166
166
166
166
165
163
165
166
166
165
164
165
165
166
166
165
163
164
165
166
167
164
166
166
165
167
164
165
164
167
164
164
164
169
166
164
167
167
167
162
166
168
165
166
165
168
165
167
162
164
166
162
165
166
164
164
165
165
167
166
163
167
164
166
165
166
164
165
165
165
165
164
165
165
165
166
166
166
166
166
166
166
166
166
166
165
165
165
182
190
189
192
188
190
188
188
189
190
188
189
188
188
189
180
181
166
164
166
165
166
165
158
123
126
126
125
127
124
126
118
214
230
227
229
248
252
253
253
254
253
254
254
254
255
254
254
254
255
255
255
255
255
255
255
255
255
255
255
255
254
255
255
255
255
255
254
254
254
255
254
254
254
255
255
255
255
254
254
254
254
255
255
254
254
254
254
255
255
255
255
254
254
254
255
255
254
254
254
0
0
0
0
0
0
0
0
0
0
0
0
0
0
0
0
0
0
0
0
0
0
0
0
0
0
0
0
0
0
0
0
0
0
0
0
0
0
0
0
0
0
0
0
0
0
0
0
0
0
0
0
0
0
0
0
0
0
0
0
0
0
0
0
0
0
0
0
0
0
0
0
0
0
0
0
0
0
0
0
0
0
0
0
0
0
0
0
0
0
0
0
0
0
0
0
0
0
0
0
0
0
0
0
0
0
0
0
0
0
0
0
0
0
0
0
0
0
0
0
0
0
0
0
0
0
0
0
0
0
0
0
0
0
0
0
0
0
0
0
0
0
0
0
0
0
0
0
0
0
0
0
0
0
0
0
0
0
0
0
0
0
0
0
0
0
0
0
0
0
0
0
0
0
0
0
0
0
0
0
0
0
0
0
0
0
0
0
0
0
0
0
0
0
0
0
0
0
0
0
0
0
0
0
0
0
0
0
0
0
0
0
0
0
0
0
0
0
0
0
0
0
0
0
0
0
0
0
0
0
0
0
0
0
0
0
0
0
0
0
0
0
0
0
0
0
0
0
0
0
0
0
0
0
0
0
0
0
0
0
0
0
0
0
0
0
0
0
0
0
0
0
0
0
0
0
0
0
0
0
0
0
0
0
0
0
0
0
0
0
0
0
0
0
0
0
0
0
0
0
0
0
165
163
163
161
153
134
134
130
128
128
131
130
130
131
230
244
244
253
254
254
255
255
254
254
254
253
253
254
255
255
255
255
255
255
254
254
254
255
255
254
254
255
255
255
254
255
255
255
254
254
254
255
255
255
254
254
254
254
255
252
252
246
158
122
122
126
126
126
125
124
154
155
165
164
164
166
166
166
166
166
166
166
166
166
166
168
165
166
166
166
165
165
165
166
166
165
166
164
164
167
166
166
166
166
165
165
167
166
166
168
167
167
164
167
167
167
165
163
163
164
163
164
164
167
166
166
166
168
167
167
168
164
164
164
165
165
166
167
164
164
165
165
165
166
166
164
164
165
165
165
164
164
164
165
166
166
166
166
166
166
166
166
166
166
165
166
166
188
189
189
187
186
189
189
187
189
189
189
188
189
189
189
179
179
165
165
166
166
166
167
167
126
126
126
127
127
128
128
123
176
176
231
231
240
240
254
254
254
255
254
254
254
255
254
254
255
254
254
255
255
255
255
255
255
255
255
255
255
255
255
255
255
255
255
255
255
254
254
254
255
254
254
254
255
255
255
254
254
254
254
255
255
254
254
254
254
254
254
254
254
255
254
254
254
255
255
254
254
254
0
0
0
0
0
0
0
0
0
0
0
0
0
0
0
0
0
0
0
0
0
0
0
0
0
0
0
0
0
0
0
0
0
0
0
0
0
0
0
0
0
0
0
0
0
0
0
0
0
0
0
0
0
0
0
0
0
0
0
0
0
0
0
0
0
0
0
0
0
0
0
0
0
0
0
0
0
0
0
0
0
0
0
0
0
0
0
0
0
0
0
0
0
0
0
0
0
0
0
0
0
0
0
0
0
0
0
0
0
0
0
0
0
0
0
0
0
0
0
0
0
0
0
0
0
0
0
0
0
0
0
0
0
0
0
0
0
0
0
0
0
0
0
0
0
0
0
0
0
0
0
0
0
0
0
0
0
0
0
0
0
0
0
0
0
0
0
0
0
0
0
0
0
0
0
0
0
0
0
0
0
0
0
0
0
0
0
0
0
0
0
0
0
0
0
0
0
0
0
0
0
0
0
0
0
0
0
0
0
0
0
0
0
0
0
0
0
0
0
0
0
0
0
0
0
0
0
0
0
0
0
0
0
0
0
0
0
0
0
0
0
0
0
0
0
0
0
0
0
0
0
0
0
0
0
0
0
0
0
0
0
0
0
0
0
0
0
0
0
0
0
0
0
0
0
0
0
0
0
0
0
0
0
0
0
0
0
0
0
0
0
0
0
0
0
0
0
0
0
0
0
164
164
161
155
132
134
128
129
131
129
130
127
125
189
232
229
253
253
253
253
254
255
254
255
254
254
253
254
255
255
255
255
255
255
255
254
255
255
255
255
255
255
255
254
254
254
255
255
254
254
254
254
255
255
255
254
254
253
251
252
246
158
121
122
126
127
127
125
125
152
154
164
166
166
166
166
166
166
166
166
166
166
166
166
166
165
165
165
166
166
166
165
166
166
166
165
165
165
166
165
167
166
167
166
165
165
166
166
165
167
164
164
164
164
163
166
164
167
167
164
164
168
165
164
164
167
163
164
165
164
165
165
163
166
167
165
165
165
164
164
165
166
165
165
165
165
165
165
165
165
165
164
164
167
166
166
166
166
166
166
166
166
166
165
165
165
186
189
189
189
191
189
189
188
188
191
190
188
188
189
189
174
177
165
165
165
165
166
164
166
133
125
125
127
128
128
127
123
124
142
229
228
228
231
254
253
255
254
254
254
254
254
254
254
254
254
254
254
254
254
255
255
255
255
255
255
255
255
255
255
255
255
254
255
255
254
254
254
253
254
255
254
255
254
255
255
255
254
254
254
254
254
255
255
255
255
254
254
254
254
255
255
254
254
254
255
255
255
254
254
0
0
0
0
0
0
0
0
0
0
0
0
0
0
0
0
0
0
0
0
0
0
0
0
0
0
0
0
0
0
0
0
0
0
0
0
0
0
0
0
0
0
0
0
0
0
0
0
0
0
0
0
0
0
0
0
0
0
0
0
0
0
0
0
0
0
0
0
0
0
0
0
0
0
0
0
0
0
0
0
0
0
0
0
0
0
0
0
0
0
0
0
0
0
0
0
0
0
0
0
0
0
0
0
0
0
0
0
0
0
0
0
0
0
0
0
0
0
0
0
0
0
0
0
0
0
0
0
0
0
0
0
0
0
0
0
0
0
0
0
0
0
0
0
0
0
0
0
0
0
0
0
0
0
0
0
0
0
0
0
0
0
0
0
0
0
0
0
0
0
0
0
0
0
0
0
0
0
0
0
0
0
0
0
0
0
0
0
0
0
0
0
0
0
0
0
0
0
0
0
0
0
0
0
0
0
0
0
0
0
0
0
0
0
0
0
0
0
0
0
0
0
0
0
0
0
0
0
0
0
0
0
0
0
0
0
0
0
0
0
0
0
0
0
0
0
0
0
0
0
0
0
0
0
0
0
0
0
0
0
0
0
0
0
0
0
0
0
0
0
0
0
0
0
0
0
0
0
0
0
0
0
0
0
0
0
0
0
0
0
0
0
0
0
0
0
0
0
0
0
164
162
154
132
132
130
128
129
128
126
130
130
157
229
229
227
251
253
255
255
255
255
255
255
254
254
254
254
254
254
254
255
254
255
255
255
255
255
255
255
255
255
254
254
254
254
254
255
254
254
254
254
254
254
255
255
254
255
251
248
160
121
121
125
126
127
125
125
150
150
164
166
166
165
165
166
166
166
166
166
166
166
166
166
166
165
165
165
165
166
166
165
166
166
165
165
165
165
165
165
164
165
166
166
165
167
166
166
166
167
165
167
168
168
166
167
164
165
164
164
164
166
163
164
165
166
167
167
166
164
165
165
166
166
164
163
167
167
166
165
165
166
165
165
165
165
164
165
164
164
165
165
163
165
165
165
165
166
166
166
166
166
166
164
165
168
189
186
186
189
188
188
192
189
188
188
191
188
188
186
171
174
167
165
165
165
164
166
164
148
125
125
127
127
126
126
125
122
124
210
230
229
229
236
253
253
254
254
254
254
254
254
254
254
254
254
254
254
254
254
253
255
255
255
255
255
255
255
255
255
255
252
254
254
255
254
254
254
254
254
254
255
254
254
254
254
255
255
255
254
254
254
255
255
255
255
254
254
254
254
254
255
254
254
254
254
255
255
255
254
254
0
0
0
0
0
0
0
0
0
0
0
0
0
0
0
0
0
0
0
0
0
0
0
0
0
0
0
0
0
0
0
0
0
0
0
0
0
0
0
0
0
0
0
0
0
0
0
0
0
0
0
0
0
0
0
0
0
0
0
0
0
0
0
0
0
0
0
0
0
0
0
0
0
0
0
0
0
0
0
0
0
0
0
0
0
0
0
0
0
0
0
0
0
0
0
0
0
0
0
0
0
0
0
0
0
0
0
0
0
0
0
0
0
0
0
0
0
0
0
0
0
0
0
0
0
0
0
0
0
0
0
0
0
0
0
0
0
0
0
0
0
0
0
0
0
0
0
0
0
0
0
0
0
0
0
0
0
0
0
0
0
0
0
0
0
0
0
0
0
0
0
0
0
0
0
0
0
0
0
0
0
0
0
0
0
0
0
0
0
0
0
0
0
0
0
0
0
0
0
0
0
0
0
0
0
0
0
0
0
0
0
0
0
0
0
0
0
0
0
0
0
0
0
0
0
0
0
0
0
0
0
0
0
0
0
0
0
0
0
0
0
0
0
0
0
0
0
0
0
0
0
0
0
0
0
0
0
0
0
0
0
0
0
0
0
0
0
0
0
0
0
0
0
0
0
0
0
0
0
0
0
0
0
0
0
0
0
0
0
0
0
0
0
0
0
0
0
0
0
162
150
134
133
130
128
128
129
129
129
127
127
226
232
230
231
243
255
255
254
255
253
254
255
255
255
255
254
254
254
254
254
255
255
255
255
255
255
255
255
255
254
254
254
254
254
255
255
255
255
255
254
254
254
254
255
255
254
254
167
124
121
125
126
125
125
125
147
148
166
165
165
165
165
165
165
166
165
165
166
166
166
166
166
166
166
165
166
165
166
165
165
166
166
165
165
166
166
165
165
165
165
166
165
166
167
166
166
166
166
165
167
163
166
162
166
164
165
165
164
164
164
166
168
167
163
166
164
165
165
165
166
166
166
163
166
166
166
164
166
165
164
164
165
166
166
166
164
165
165
164
166
167
165
164
165
165
165
166
166
166
166
164
166
164
177
183
187
187
190
188
189
187
188
188
188
189
186
186
166
167
166
164
165
165
165
165
166
150
125
125
126
127
126
126
126
123
122
186
227
232
230
230
248
253
255
254
254
254
255
255
254
254
254
255
254
255
254
254
255
253
254
254
255
254
255
255
254
255
255
255
255
254
252
255
254
255
255
253
254
254
254
255
254
253
254
255
255
255
255
254
255
255
255
255
255
255
254
255
254
254
254
255
255
254
254
254
255
255
255
254
254
0
0
0
0
0
0
0
0
0
0
0
0
0
0
0
0
0
0
0
0
0
0
0
0
0
0
0
0
0
0
0
0
0
0
0
0
0
0
0
0
0
0
0
0
0
0
0
0
0
0
0
0
0
0
0
0
0
0
0
0
0
0
0
0
0
0
0
0
0
0
0
0
0
0
0
0
0
0
0
0
0
0
0
0
0
0
0
0
0
0
0
0
0
0
0
0
0
0
0
0
0
0
0
0
0
0
0
0
0
0
0
0
0
0
0
0
0
0
0
0
0
0
0
0
0
0
0
0
0
0
0
0
0
0
0
0
0
0
0
0
0
0
0
0
0
0
0
0
0
0
0
0
0
0
0
0
0
0
0
0
0
0
0
0
0
0
0
0
0
0
0
0
0
0
0
0
0
0
0
0
0
0
0
0
0
0
0
0
0
0
0
0
0
0
0
0
0
0
0
0
0
0
0
0
0
0
0
0
0
0
0
0
0
0
0
0
0
0
0
0
0
0
0
0
0
0
0
0
0
0
0
0
0
0
0
0
0
0
0
0
0
0
0
0
0
0
0
0
0
0
0
0
0
0
0
0
0
0
0
0
0
0
0
0
0
0
0
0
0
0
0
0
0
0
0
0
0
0
0
0
0
0
0
0
0
0
0
0
0
0
0
0
0
0
0
0
0
0
145
133
134
129
128
128
128
129
130
128
120
211
226
231
227
231
243
254
253
254
255
254
254
255
255
255
255
255
254
254
254
254
254
255
255
255
255
255
255
255
254
254
255
254
255
255
255
255
255
255
255
255
254
254
254
254
255
255
254
254
124
128
127
126
124
125
147
147
166
165
165
166
166
165
165
165
165
165
165
166
166
166
166
166
166
166
166
166
166
165
164
165
165
166
165
165
166
166
166
165
165
165
166
166
166
166
166
166
166
166
166
167
165
169
162
166
165
165
165
165
165
164
165
164
163
163
166
165
165
165
166
165
166
166
166
166
165
165
164
166
164
165
164
165
164
166
166
166
165
164
167
163
167
167
166
165
166
165
166
166
166
164
164
166
163
166
183
179
190
190
187
191
187
189
190
184
189
171
163
166
165
164
166
165
167
165
165
156
125
125
126
126
126
126
127
125
123
134
230
229
232
231
239
248
254
253
253
254
254
254
255
254
255
254
254
254
255
254
252
253
253
255
254
254
254
254
254
254
254
251
255
255
251
251
255
253
255
255
255
255
254
254
254
254
253
254
254
255
255
255
255
255
254
254
255
254
254
254
255
254
254
254
255
254
255
254
254
254
255
255
254
254
254
0
0
0
0
0
0
0
0
0
0
0
0
0
0
0
0
0
0
0
0
0
0
0
0
0
0
0
0
0
0
0
0
0
0
0
0
0
0
0
0
0
0
0
0
0
0
0
0
0
0
0
0
0
0
0
0
0
0
0
0
0
0
0
0
0
0
0
0
0
0
0
0
0
0
0
0
0
0
0
0
0
0
0
0
0
0
0
0
0
0
0
0
0
0
0
0
0
0
0
0
0
0
0
0
0
0
0
0
0
0
0
0
0
0
0
0
0
0
0
0
0
0
0
0
0
0
0
0
0
0
0
0
0
0
0
0
0
0
0
0
0
0
0
0
0
0
0
0
0
0
0
0
0
0
0
0
0
0
0
0
0
0
0
0
0
0
0
0
0
0
0
0
0
0
0
0
0
0
0
0
0
0
0
0
0
0
0
0
0
0
0
0
0
0
0
0
0
0
0
0
0
0
0
0
0
0
0
0
0
0
0
0
0
0
0
0
0
0
0
0
0
0
0
0
0
0
0
0
0
0
0
0
0
0
0
0
0
0
0
0
0
0
0
0
0
0
0
0
0
0
0
0
0
0
0
0
0
0
0
0
0
0
0
0
0
0
0
0
0
0
0
0
0
0
0
0
0
0
0
0
0
0
0
0
0
0
0
0
0
0
0
0
0
0
0
0
0
131
131
129
129
129
128
129
129
130
121
203
203
231
233
233
233
253
254
253
254
255
255
254
253
255
255
255
255
255
254
254
254
254
255
255
255
255
255
255
254
254
255
255
255
255
255
255
254
254
255
255
255
255
254
254
254
254
255
254
254
254
127
127
124
125
142
143
166
165
165
166
166
166
165
165
165
165
166
165
165
166
166
166
166
166
166
166
166
166
166
164
165
166
166
166
165
165
166
166
166
165
164
167
167
166
166
166
166
166
166
166
166
165
165
163
166
166
166
165
165
165
166
165
164
166
166
165
165
165
165
165
166
165
166
166
163
166
166
165
165
164
164
165
165
165
164
166
166
166
165
163
163
164
161
161
167
166
164
166
166
165
165
166
166
166
163
166
170
170
181
186
186
185
181
165
172
163
165
165
163
165
166
167
167
166
166
156
124
124
126
125
127
127
127
126
126
123
228
229
228
230
229
229
252
254
254
255
254
254
254
254
255
255
255
254
254
254
255
255
255
255
255
253
254
254
255
255
254
255
255
254
254
254
254
254
253
253
255
255
255
255
254
254
254
254
254
254
254
254
255
255
255
254
254
254
254
254
254
254
254
254
255
255
255
254
255
254
254
254
255
255
254
254
254
0
0
0
0
0
0
0
0
0
0
0
0
0
0
0
0
0
0
0
0
0
0
0
0
0
0
0
0
0
0
0
0
0
0
0
0
0
0
0
0
0
0
0
0
0
0
0
0
0
0
0
0
0
0
0
0
0
0
0
0
0
0
0
0
0
0
0
0
0
0
0
0
0
0
0
0
0
0
0
0
0
0
0
0
0
0
0
0
0
0
0
0
0
0
0
0
0
0
0
0
0
0
0
0
0
0
0
0
0
0
0
0
0
0
0
0
0
0
0
0
0
0
0
0
0
0
0
0
0
0
0
0
0
0
0
0
0
0
0
0
0
0
0
0
0
0
0
0
0
0
0
0
0
0
0
0
0
0
0
0
0
0
0
0
0
0
0
0
0
0
0
0
0
0
0
0
0
0
0
0
0
0
0
0
0
0
0
0
0
0
0
0
0
0
0
0
0
0
0
0
0
0
0
0
0
0
0
0
0
0
0
0
0
0
0
0
0
0
0
0
0
0
0
0
0
0
0
0
0
0
0
0
0
0
0
0
0
0
0
0
0
0
0
0
0
0
0
0
0
0
0
0
0
0
0
0
0
0
0
0
0
0
0
0
0
0
0
0
0
0
0
0
0
0
0
0
0
0
0
0
0
0
0
0
0
0
0
0
0
0
0
0
0
0
0
0
131
128
129
129
128
129
129
129
121
187
192
229
230
229
228
237
254
254
254
254
255
254
254
255
255
255
255
255
255
255
254
254
255
255
255
255
255
255
255
255
255
255
255
255
255
255
255
255
254
254
255
255
255
255
254
254
254
254
254
255
254
254
126
125
138
142
165
165
164
166
166
166
166
166
166
165
166
166
166
166
166
165
166
166
166
166
166
166
166
166
166
166
166
166
166
165
165
165
166
166
165
165
166
165
165
166
166
166
166
166
166
166
165
167
165
165
166
166
166
165
166
166
165
164
165
165
164
165
165
165
165
165
165
165
166
165
166
165
164
165
164
166
166
166
164
165
165
166
165
166
164
165
174
166
163
165
166
164
166
165
163
167
165
165
166
167
164
163
164
165
168
173
164
166
165
166
164
165
166
166
163
166
167
165
166
154
125
124
126
125
128
127
126
128
127
120
203
229
229
230
229
228
254
254
254
254
254
254
253
254
254
254
255
254
254
254
253
254
255
254
253
254
253
254
255
255
254
255
253
254
255
255
254
255
254
252
254
255
255
255
255
255
254
254
254
255
254
253
253
255
255
255
254
254
254
254
254
254
254
254
255
254
255
255
255
254
255
254
254
254
255
255
255
254
254
0
0
0
0
0
0
0
0
0
0
0
0
0
0
0
0
0
0
0
0
0
0
0
0
0
0
0
0
0
0
0
0
0
0
0
0
0
0
0
0
0
0
0
0
0
0
0
0
0
0
0
0
0
0
0
0
0
0
0
0
0
0
0
0
0
0
0
0
0
0
0
0
0
0
0
0
0
0
0
0
0
0
0
0
0
0
0
0
0
0
0
0
0
0
0
0
0
0
0
0
0
0
0
0
0
0
0
0
0
0
0
0
0
0
0
0
0
0
0
0
0
0
0
0
0
0
0
0
0
0
0
0
0
0
0
0
0
0
0
0
0
0
0
0
0
0
0
0
0
0
0
0
0
0
0
0
0
0
0
0
0
0
0
0
0
0
0
0
0
0
0
0
0
0
0
0
0
0
0
0
0
0
0
0
0
0
0
0
0
0
0
0
0
0
0
0
0
0
0
0
0
0
0
0
0
0
0
0
0
0
0
0
0
0
0
0
0
0
0
0
0
0
0
0
0
0
0
0
0
0
0
0
0
0
0
0
0
0
0
0
0
0
0
0
0
0
0
0
0
0
0
0
0
0
0
0
0
0
0
0
0
0
0
0
0
0
0
0
0
0
0
0
0
0
0
0
0
0
0
0
0
0
0
0
0
0
0
0
0
0
0
0
0
0
0
129
131
131
128
128
129
130
122
187
187
232
231
230
229
231
250
250
255
254
254
255
254
255
255
255
254
254
255
255
255
255
255
255
255
254
255
255
255
255
255
255
255
255
255
255
255
255
255
254
254
254
255
255
255
255
255
254
254
254
255
255
254
254
132
132
164
166
166
166
166
166
166
166
166
166
166
166
166
166
166
166
166
165
166
166
166
165
166
166
166
166
166
166
166
166
166
165
165
165
166
165
165
165
165
165
165
166
166
166
166
166
166
166
166
165
165
165
166
166
166
166
166
166
165
164
164
165
164
165
165
165
165
165
165
165
165
166
164
164
164
165
166
166
165
166
165
166
165
166
166
165
182
174
186
184
168
168
166
167
167
164
164
165
165
164
167
167
166
165
165
167
168
166
166
164
164
164
167
164
165
165
166
166
166
142
125
125
128
125
127
127
127
127
128
121
187
230
230
230
229
229
235
254
254
254
254
254
254
254
254
254
254
254
254
254
254
255
255
252
254
254
254
255
254
254
253
255
255
255
254
252
252
255
251
254
255
255
254
254
255
255
255
254
254
254
254
254
254
254
255
255
255
255
254
254
254
254
254
254
254
254
254
254
255
255
255
254
255
254
254
254
255
255
255
254
254
0
0
0
0
0
0
0
0
0
0
0
0
0
0
0
0
0
0
0
0
0
0
0
0
0
0
0
0
0
0
0
0
0
0
0
0
0
0
0
0
0
0
0
0
0
0
0
0
0
0
0
0
0
0
0
0
0
0
0
0
0
0
0
0
0
0
0
0
0
0
0
0
0
0
0
0
0
0
0
0
0
0
0
0
0
0
0
0
0
0
0
0
0
0
0
0
0
0
0
0
0
0
0
0
0
0
0
0
0
0
0
0
0
0
0
0
0
0
0
0
0
0
0
0
0
0
0
0
0
0
0
0
0
0
0
0
0
0
0
0
0
0
0
0
0
0
0
0
0
0
0
0
0
0
0
0
0
0
0
0
0
0
0
0
0
0
0
0
0
0
0
0
0
0
0
0
0
0
0
0
0
0
0
0
0
0
0
0
0
0
0
0
0
0
0
0
0
0
0
0
0
0
0
0
0
0
0
0
0
0
0
0
0
0
0
0
0
0
0
0
0
0
0
0
0
0
0
0
0
0
0
0
0
0
0
0
0
0
0
0
0
0
0
0
0
0
0
0
0
0
0
0
0
0
0
0
0
0
0
0
0
0
0
0
0
0
0
0
0
0
0
0
0
0
0
0
0
0
0
0
0
0
0
0
0
0
0
0
0
0
0
0
0
0
126
128
128
128
126
129
123
204
193
232
229
231
228
230
237
244
254
254
253
254
254
255
255
255
255
255
254
254
255
255
255
255
255
254
254
254
255
255
255
255
255
255
255
255
254
254
255
255
255
254
254
254
255
255
255
255
254
254
254
254
255
255
254
254
166
166
166
166
166
166
166
166
166
166
166
166
166
166
166
166
166
166
166
165
166
166
166
165
166
166
166
166
166
165
166
166
166
165
165
165
166
165
165
165
165
165
165
166
166
166
166
166
166
166
166
165
165
165
166
166
166
166
166
165
164
164
164
165
164
165
165
165
165
165
165
166
166
166
165
165
165
165
164
164
165
166
167
165
164
164
185
184
190
187
190
190
166
165
162
163
166
165
165
165
166
165
166
165
168
164
164
165
164
164
167
167
164
165
166
165
166
160
165
138
126
125
127
126
127
126
127
125
126
123
177
229
229
229
229
229
230
251
254
254
255
254
254
254
254
254
254
254
254
254
254
254
254
253
254
253
254
254
254
254
254
255
254
254
255
252
252
254
253
254
254
254
253
253
254
255
255
255
255
254
254
254
254
254
254
253
253
255
255
255
254
254
254
254
254
255
255
254
254
254
255
255
255
254
255
254
255
255
255
255
254
254
254
0
0
0
0
0
0
0
0
0
0
0
0
0
0
0
0
0
0
0
0
0
0
0
0
0
0
0
0
0
0
0
0
0
0
0
0
0
0
0
0
0
0
0
0
0
0
0
0
0
0
0
0
0
0
0
0
0
0
0
0
0
0
0
0
0
0
0
0
0
0
0
0
0
0
0
0
0
0
0
0
0
0
0
0
0
0
0
0
0
0
0
0
0
0
0
0
0
0
0
0
0
0
0
0
0
0
0
0
0
0
0
0
0
0
0
0
0
0
0
0
0
0
0
0
0
0
0
0
0
0
0
0
0
0
0
0
0
0
0
0
0
0
0
0
0
0
0
0
0
0
0
0
0
0
0
0
0
0
0
0
0
0
0
0
0
0
0
0
0
0
0
0
0
0
0
0
0
0
0
0
0
0
0
0
0
0
0
0
0
0
0
0
0
0
0
0
0
0
0
0
0
0
0
0
0
0
0
0
0
0
0
0
0
0
0
0
0
0
0
0
0
0
0
0
0
0
0
0
0
0
0
0
0
0
0
0
0
0
0
0
0
0
0
0
0
0
0
0
0
0
0
0
0
0
0
0
0
0
0
0
0
0
0
0
0
0
0
0
0
0
0
0
0
0
0
0
0
0
0
0
0
0
0
0
0
0
0
0
0
0
0
0
0
126
129
128
128
126
125
212
204
229
228
229
230
231
232
237
253
254
254
253
254
255
255
255
255
255
255
254
254
254
255
255
255
255
255
254
254
254
255
255
255
255
255
255
255
254
254
254
254
255
254
254
254
254
254
254
255
255
254
254
254
254
255
255
254
254
166
166
166
166
166
166
166
166
166
166
166
166
166
166
166
166
166
166
166
165
166
166
166
166
166
166
166
166
166
165
166
166
166
165
165
165
165
165
165
165
165
165
166
166
166
166
165
166
166
166
166
165
166
166
166
166
166
165
165
165
164
164
164
165
165
165
165
166
165
165
165
166
166
166
165
165
164
164
164
165
165
164
165
164
173
185
189
188
189
190
185
179
165
165
167
166
166
166
164
166
166
165
165
166
167
165
165
166
165
167
166
165
165
165
166
150
160
129
126
126
126
126
127
127
127
126
125
122
163
225
229
229
231
229
230
244
251
254
255
254
254
253
254
254
254
254
254
254
253
254
254
254
255
253
253
252
254
254
251
250
255
249
248
247
252
246
247
253
247
251
253
253
254
253
255
254
254
255
254
254
254
254
254
255
253
255
255
255
255
255
255
254
255
254
255
255
255
254
254
254
255
255
255
254
255
255
255
255
255
254
255
254
254
0
0
0
0
0
0
0
0
0
0
0
0
0
0
0
0
0
0
0
0
0
0
0
0
0
0
0
0
0
0
0
0
0
0
0
0
0
0
0
0
0
0
0
0
0
0
0
0
0
0
0
0
0
0
0
0
0
0
0
0
0
0
0
0
0
0
0
0
0
0
0
0
0
0
0
0
0
0
0
0
0
0
0
0
0
0
0
0
0
0
0
0
0
0
0
0
0
0
0
0
0
0
0
0
0
0
0
0
0
0
0
0
0
0
0
0
0
0
0
0
0
0
0
0
0
0
0
0
0
0
0
0
0
0
0
0
0
0
0
0
0
0
0
0
0
0
0
0
0
0
0
0
0
0
0
0
0
0
0
0
0
0
0
0
0
0
0
0
0
0
0
0
0
0
0
0
0
0
0
0
0
0
0
0
0
0
0
0
0
0
0
0
0
0
0
0
0
0
0
0
0
0
0
0
0
0
0
0
0
0
0
0
0
0
0
0
0
0
0
0
0
0
0
0
0
0
0
0
0
0
0
0
0
0
0
0
0
0
0
0
0
0
0
0
0
0
0
0
0
0
0
0
0
0
0
0
0
0
0
0
0
0
0
0
0
0
0
0
0
0
0
0
0
0
0
0
0
0
0
0
0
0
0
0
0
0
0
0
0
0
0
0
128
127
127
125
140
228
225
230
229
229
230
230
230
229
251
254
254
253
254
255
255
255
255
255
255
255
255
254
254
254
255
255
255
255
255
254
254
254
255
255
255
255
255
255
255
254
254
254
254
255
255
254
254
255
254
254
255
255
254
254
254
254
255
254
254
254
166
166
166
166
166
165
166
166
166
166
166
166
166
166
166
166
166
166
166
165
166
166
166
166
166
166
166
166
166
165
166
166
166
165
165
165
165
165
166
165
165
166
166
166
166
166
166
166
166
166
165
166
166
165
166
166
166
165
166
166
164
165
165
166
166
166
166
165
165
165
165
166
166
166
165
164
164
164
164
165
167
163
168
168
184
190
188
188
188
189
189
170
165
164
167
165
165
166
164
166
166
166
165
167
167
165
167
167
167
164
165
166
163
131
138
126
127
127
124
126
127
126
126
126
126
123
159
227
226
232
232
232
230
237
237
254
255
254
254
254
253
253
254
254
254
254
255
254
254
253
253
255
254
254
246
251
249
247
247
235
220
109
208
210
222
222
232
244
175
246
248
251
251
251
254
254
253
254
254
254
252
254
254
254
254
252
254
255
255
255
255
254
254
254
255
255
255
254
254
254
255
255
254
254
255
255
255
255
254
254
255
254
254
0
0
0
0
0
0
0
0
0
0
0
0
0
0
0
0
0
0
0
0
0
0
0
0
0
0
0
0
0
0
0
0
0
0
0
0
0
0
0
0
0
0
0
0
0
0
0
0
0
0
0
0
0
0
0
0
0
0
0
0
0
0
0
0
0
0
0
0
0
0
0
0
0
0
0
0
0
0
0
0
0
0
0
0
0
0
0
0
0
0
0
0
0
0
0
0
0
0
0
0
0
0
0
0
0
0
0
0
0
0
0
0
0
0
0
0
0
0
0
0
0
0
0
0
0
0
0
0
0
0
0
0
0
0
0
0
0
0
0
0
0
0
0
0
0
0
0
0
0
0
0
0
0
0
0
0
0
0
0
0
0
0
0
0
0
0
0
0
0
0
0
0
0
0
0
0
0
0
0
0
0
0
0
0
0
0
0
0
0
0
0
0
0
0
0
0
0
0
0
0
0
0
0
0
0
0
0
0
0
0
0
0
0
0
0
0
0
0
0
0
0
0
0
0
0
0
0
0
0
0
0
0
0
0
0
0
0
0
0
0
0
0
0
0
0
0
0
0
0
0
0
0
0
0
0
0
0
0
0
0
0
0
0
0
0
0
0
0
0
0
0
0
0
0
0
0
0
0
0
0
0
0
0
0
0
0
0
0
0
0
0
126
126
124
176
230
228
230
229
230
230
228
230
230
243
254
253
254
255
255
255
255
255
255
255
255
255
255
255
255
254
255
255
255
255
255
255
254
254
254
255
255
254
255
255
255
255
254
254
254
254
255
255
255
255
254
254
254
255
255
254
254
254
254
254
255
255
254
166
166
166
166
165
165
166
166
166
166
166
166
166
166
166
166
166
166
166
166
166
166
166
166
166
166
166
166
166
166
166
166
166
165
165
165
166
166
166
165
166
166
166
166
166
166
166
166
165
165
166
166
165
165
166
166
166
166
166
166
166
165
164
166
166
165
165
165
165
165
166
165
166
166
164
164
163
166
165
165
166
162
176
183
190
188
187
187
189
180
166
163
164
165
166
165
165
165
163
165
165
165
167
164
167
168
167
165
162
165
141
126
131
126
127
128
125
126
124
127
125
125
125
122
165
229
227
230
229
229
229
230
233
253
254
254
254
254
254
254
254
255
254
254
253
255
253
253
254
253
255
251
245
246
201
125
205
149
103
105
109
100
104
109
119
105
101
175
101
122
235
247
207
249
251
246
249
254
254
255
255
255
255
253
252
254
253
255
255
254
254
254
254
254
255
254
255
255
254
254
254
254
254
254
255
255
254
254
254
255
254
254
254
0
0
0
0
0
0
0
0
0
0
0
0
0
0
0
0
0
0
0
0
0
0
0
0
0
0
0
0
0
0
0
0
0
0
0
0
0
0
0
0
0
0
0
0
0
0
0
0
0
0
0
0
0
0
0
0
0
0
0
0
0
0
0
0
0
0
0
0
0
0
0
0
0
0
0
0
0
0
0
0
0
0
0
0
0
0
0
0
0
0
0
0
0
0
0
0
0
0
0
0
0
0
0
0
0
0
0
0
0
0
0
0
0
0
0
0
0
0
0
0
0
0
0
0
0
0
0
0
0
0
0
0
0
0
0
0
0
0
0
0
0
0
0
0
0
0
0
0
0
0
0
0
0
0
0
0
0
0
0
0
0
0
0
0
0
0
0
0
0
0
0
0
0
0
0
0
0
0
0
0
0
0
0
0
0
0
0
0
0
0
0
0
0
0
0
0
0
0
0
0
0
0
0
0
0
0
0
0
0
0
0
0
0
0
0
0
0
0
0
0
0
0
0
0
0
0
0
0
0
0
0
0
0
0
0
0
0
0
0
0
0
0
0
0
0
0
0
0
0
0
0
0
0
0
0
0
0
0
0
0
0
0
0
0
0
0
0
0
0
0
0
0
0
0
0
0
0
0
0
0
0
0
0
0
0
0
0
0
0
0
126
121
197
231
231
229
229
229
229
228
230
230
239
255
255
255
253
255
255
255
255
255
255
255
255
255
255
255
255
255
255
255
255
255
255
255
255
254
254
254
254
254
254
255
255
255
255
254
254
254
255
255
255
255
254
254
254
254
255
255
254
254
254
254
255
255
254
254
165
165
166
166
166
165
166
166
166
166
166
166
166
166
166
166
166
166
166
166
166
166
166
166
166
166
166
166
166
165
166
166
166
166
165
165
166
166
166
165
165
166
166
166
166
166
166
166
166
166
166
165
165
165
166
166
166
166
166
166
165
164
164
165
165
165
165
165
166
166
166
165
166
165
166
164
164
166
165
165
166
166
186
186
187
189
189
188
173
164
164
166
165
165
167
166
166
166
167
164
164
163
164
164
164
165
150
150
130
126
126
127
126
126
127
125
125
125
128
126
126
120
178
229
229
230
230
230
230
230
230
252
254
254
254
254
254
254
254
255
255
255
254
255
255
254
254
253
253
250
224
224
137
102
102
106
105
105
105
105
107
107
107
105
105
105
107
102
102
103
104
207
128
182
233
233
245
249
249
252
251
253
253
252
254
254
255
254
255
255
255
254
254
254
254
254
255
255
254
254
254
254
254
254
254
254
254
254
255
255
254
254
254
0
0
0
0
0
0
0
0
0
0
0
0
0
0
0
0
0
0
0
0
0
0
0
0
0
0
0
0
0
0
0
0
0
0
0
0
0
0
0
0
0
0
0
0
0
0
0
0
0
0
0
0
0
0
0
0
0
0
0
0
0
0
0
0
0
0
0
0
0
0
0
0
0
0
0
0
0
0
0
0
0
0
0
0
0
0
0
0
0
0
0
0
0
0
0
0
0
0
0
0
0
0
0
0
0
0
0
0
0
0
0
0
0
0
0
0
0
0
0
0
0
0
0
0
0
0
0
0
0
0
0
0
0
0
0
0
0
0
0
0
0
0
0
0
0
0
0
0
0
0
0
0
0
0
0
0
0
0
0
0
0
0
0
0
0
0
0
0
0
0
0
0
0
0
0
0
0
0
0
0
0
0
0
0
0
0
0
0
0
0
0
0
0
0
0
0
0
0
0
0
0
0
0
0
0
0
0
0
0
0
0
0
0
0
0
0
0
0
0
0
0
0
0
0
0
0
0
0
0
0
0
0
0
0
0
0
0
0
0
0
0
0
0
0
0
0
0
0
0
0
0
0
0
0
0
0
0
0
0
0
0
0
0
0
0
0
0
0
0
0
0
0
0
0
0
0
0
0
0
0
0
0
0
0
0
0
0
0
0
136
217
231
232
230
230
229
229
231
229
229
238
254
255
255
254
255
255
255
255
255
255
255
255
255
255
255
255
255
255
255
255
254
255
255
255
255
255
254
254
255
255
254
253
254
255
255
255
254
254
254
254
255
255
255
254
254
254
254
255
255
254
254
254
254
254
254
254
254
165
165
165
165
165
165
166
166
166
166
166
166
166
166
166
166
166
166
166
166
166
166
166
166
166
166
166
166
166
165
166
166
166
166
165
165
166
166
166
166
165
166
166
166
166
166
166
166
166
167
166
165
166
166
166
166
166
166
166
166
165
165
166
166
165
166
166
166
166
165
166
165
165
163
165
164
165
165
165
166
165
167
187
178
189
188
171
165
165
167
164
164
165
165
166
165
165
163
164
164
168
166
168
142
125
137
125
127
127
126
127
126
126
128
128
127
126
124
126
121
204
229
229
229
229
230
231
230
230
244
253
254
254
254
254
253
254
255
255
255
254
255
253
254
252
253
255
247
160
192
110
106
102
105
105
103
111
111
101
108
102
107
105
105
106
109
105
108
108
106
105
102
104
110
166
111
233
245
227
247
253
254
253
253
250
254
255
254
255
255
255
254
255
254
254
254
254
255
254
254
254
254
255
254
254
254
254
255
255
255
254
254
254
0
0
0
0
0
0
0
0
0
0
0
0
0
0
0
0
0
0
0
0
0
0
0
0
0
0
0
0
0
0
0
0
0
0
0
0
0
0
0
0
0
0
0
0
0
0
0
0
0
0
0
0
0
0
0
0
0
0
0
0
0
0
0
0
0
0
0
0
0
0
0
0
0
0
0
0
0
0
0
0
0
0
0
0
0
0
0
0
0
0
0
0
0
0
0
0
0
0
0
0
0
0
0
0
0
0
0
0
0
0
0
0
0
0
0
0
0
0
0
0
0
0
0
0
0
0
0
0
0
0
0
0
0
0
0
0
0
0
0
0
0
0
0
0
0
0
0
0
0
0
0
0
0
0
0
0
0
0
0
0
0
0
0
0
0
0
0
0
0
0
0
0
0
0
0
0
0
0
0
0
0
0
0
0
0
0
0
0
0
0
0
0
0
0
0
0
0
0
0
0
0
0
0
0
0
0
0
0
0
0
0
0
0
0
0
0
0
0
0
0
0
0
0
0
0
0
0
0
0
0
0
0
0
0
0
0
0
0
0
0
0
0
0
0
0
0
0
0
0
0
0
0
0
0
0
0
0
0
0
0
0
0
0
0
0
0
0
0
0
0
0
0
0
0
0
0
0
0
0
0
0
0
0
0
0
0
0
0
232
230
231
229
230
230
229
230
229
229
239
254
254
252
255
255
255
255
255
255
255
255
255
255
255
254
254
255
255
255
255
255
254
254
255
255
255
255
254
254
254
255
254
253
254
254
255
255
255
254
254
254
255
255
255
255
254
254
254
254
255
255
254
254
254
254
254
254
254
254
165
165
165
165
165
165
166
166
166
166
166
166
166
166
166
166
166
166
166
166
166
166
166
166
166
166
166
166
166
165
166
166
166
166
165
166
166
165
165
165
165
166
166
166
166
166
166
165
167
166
165
166
166
166
166
166
165
166
166
166
166
167
167
166
166
166
166
165
165
165
166
164
163
167
164
165
166
166
165
165
164
168
178
166
166
164
164
164
164
164
165
164
165
164
167
163
163
165
163
168
144
128
124
124
128
124
127
128
129
127
125
129
126
126
125
122
124
138
219
229
229
229
230
229
230
229
230
238
255
254
254
254
254
254
253
255
255
255
255
255
255
251
253
252
252
243
135
160
104
107
106
105
105
107
107
108
108
101
108
105
105
105
107
105
109
105
102
108
105
106
110
104
109
101
111
100
107
162
162
228
246
253
248
252
255
255
251
254
255
255
255
255
255
254
255
255
254
255
254
254
255
254
254
254
254
254
254
254
255
255
254
254
254
0
0
0
0
0
0
0
0
0
0
0
0
0
0
0
0
0
0
0
0
0
0
0
0
0
0
0
0
0
0
0
0
0
0
0
0
0
0
0
0
0
0
0
0
0
0
0
0
0
0
0
0
0
0
0
0
0
0
0
0
0
0
0
0
0
0
0
0
0
0
0
0
0
0
0
0
0
0
0
0
0
0
0
0
0
0
0
0
0
0
0
0
0
0
0
0
0
0
0
0
0
0
0
0
0
0
0
0
0
0
0
0
0
0
0
0
0
0
0
0
0
0
0
0
0
0
0
0
0
0
0
0
0
0
0
0
0
0
0
0
0
0
0
0
0
0
0
0
0
0
0
0
0
0
0
0
0
0
0
0
0
0
0
0
0
0
0
0
0
0
0
0
0
0
0
0
0
0
0
0
0
0
0
0
0
0
0
0
0
0
0
0
0
0
0
0
0
0
0
0
0
0
0
0
0
0
0
0
0
0
0
0
0
0
0
0
0
0
0
0
0
0
0
0
0
0
0
0
0
0
0
0
0
0
0
0
0
0
0
0
0
0
0
0
0
0
0
0
0
0
0
0
0
0
0
0
0
0
0
0
0
0
0
0
0
0
0
0
0
0
0
0
0
0
0
0
0
0
0
0
0
0
0
0
0
0
0
230
229
229
229
229
230
229
229
229
240
255
255
252
255
255
255
255
255
255
255
255
255
255
255
255
254
255
255
255
255
255
255
255
254
254
255
255
254
254
254
254
254
254
255
254
254
255
255
255
255
254
254
255
255
255
255
255
254
255
254
255
255
255
254
254
254
254
254
255
254
254
165
165
166
166
165
165
166
166
166
166
166
166
165
166
166
166
166
166
165
165
166
166
166
165
166
166
166
166
166
165
166
166
166
166
166
166
165
165
165
165
165
166
165
166
166
167
165
167
165
165
167
166
166
166
165
165
165
167
166
165
166
166
165
166
166
165
165
165
165
166
166
167
166
166
165
166
166
166
165
165
164
163
164
166
165
166
164
163
167
166
166
164
168
164
166
167
131
151
129
125
126
126
125
130
126
128
125
125
126
127
125
125
124
123
121
160
225
229
228
229
231
230
230
229
229
236
254
254
254
254
254
254
255
255
255
255
255
255
255
254
252
254
254
240
117
122
103
105
105
105
104
103
103
106
108
109
107
105
128
106
105
118
108
106
106
106
104
110
105
104
104
108
108
107
106
103
103
110
105
170
236
249
242
254
254
252
255
254
255
255
255
255
253
255
255
254
255
254
255
255
255
254
254
254
254
254
254
254
255
254
254
254
254
0
0
0
0
0
0
0
0
0
0
0
0
0
0
0
0
0
0
0
0
0
0
0
0
0
0
0
0
0
0
0
0
0
0
0
0
0
0
0
0
0
0
0
0
0
0
0
0
0
0
0
0
0
0
0
0
0
0
0
0
0
0
0
0
0
0
0
0
0
0
0
0
0
0
0
0
0
0
0
0
0
0
0
0
0
0
0
0
0
0
0
0
0
0
0
0
0
0
0
0
0
0
0
0
0
0
0
0
0
0
0
0
0
0
0
0
0
0
0
0
0
0
0
0
0
0
0
0
0
0
0
0
0
0
0
0
0
0
0
0
0
0
0
0
0
0
0
0
0
0
0
0
0
0
0
0
0
0
0
0
0
0
0
0
0
0
0
0
0
0
0
0
0
0
0
0
0
0
0
0
0
0
0
0
0
0
0
0
0
0
0
0
0
0
0
0
0
0
0
0
0
0
0
0
0
0
0
0
0
0
0
0
0
0
0
0
0
0
0
0
0
0
0
0
0
0
0
0
0
0
0
0
0
0
0
0
0
0
0
0
0
0
0
0
0
0
0
0
0
0
0
0
0
0
0
0
0
0
0
0
0
0
0
0
0
0
0
0
0
0
0
0
0
0
0
0
0
0
0
0
0
0
0
0
0
0
230
228
230
229
229
229
230
229
245
255
255
254
255
254
255
254
254
255
254
255
255
255
255
255
255
255
255
255
255
255
255
255
255
254
254
254
254
254
254
254
253
254
253
254
255
254
254
255
255
255
255
254
255
255
255
255
255
255
255
254
254
255
254
254
254
254
254
254
255
255
255
254
165
165
165
165
165
166
165
166
166
166
166
166
166
166
166
166
165
165
165
165
166
165
165
165
166
166
166
166
166
165
166
166
165
165
166
166
165
165
165
165
165
165
165
165
167
164
166
167
165
164
165
166
166
165
165
165
166
166
165
166
166
165
164
165
165
165
166
166
166
165
164
165
165
167
166
166
164
167
165
165
165
166
166
163
164
164
166
164
165
166
163
153
164
134
129
131
128
127
126
126
127
127
130
124
126
124
125
124
126
125
123
139
123
212
228
229
229
230
229
231
229
230
229
235
253
255
254
255
254
254
255
255
255
255
254
255
255
253
255
251
254
239
113
117
107
106
104
106
106
103
103
108
127
108
146
154
156
128
153
155
118
156
152
113
109
130
118
105
106
106
107
107
104
105
103
106
104
105
104
102
123
242
204
244
252
248
250
254
255
255
255
253
253
253
254
255
255
254
255
254
254
254
255
255
254
253
254
254
254
255
254
254
254
0
0
0
0
0
0
0
0
0
0
0
0
0
0
0
0
0
0
0
0
0
0
0
0
0
0
0
0
0
0
0
0
0
0
0
0
0
0
0
0
0
0
0
0
0
0
0
0
0
0
0
0
0
0
0
0
0
0
0
0
0
0
0
0
0
0
0
0
0
0
0
0
0
0
0
0
0
0
0
0
0
0
0
0
0
0
0
0
0
0
0
0
0
0
0
0
0
0
0
0
0
0
0
0
0
0
0
0
0
0
0
0
0
0
0
0
0
0
0
0
0
0
0
0
0
0
0
0
0
0
0
0
0
0
0
0
0
0
0
0
0
0
0
0
0
0
0
0
0
0
0
0
0
0
0
0
0
0
0
0
0
0
0
0
0
0
0
0
0
0
0
0
0
0
0
0
0
0
0
0
0
0
0
0
0
0
0
0
0
0
0
0
0
0
0
0
0
0
0
0
0
0
0
0
0
0
0
0
0
0
0
0
0
0
0
0
0
0
0
0
0
0
0
0
0
0
0
0
0
0
0
0
0
0
0
0
0
0
0
0
0
0
0
0
0
0
0
0
0
0
0
0
0
0
0
0
0
0
0
0
0
0
0
0
0
0
0
0
0
0
0
0
0
0
0
0
0
0
0
0
0
0
0
0
0
230
230
230
231
229
231
231
248
254
254
254
255
254
255
254
254
254
254
254
254
255
255
255
255
255
255
255
255
255
255
255
255
255
255
254
254
254
254
255
254
254
253
253
253
254
254
253
253
255
255
255
255
255
254
255
254
255
255
255
254
254
254
254
254
254
254
254
254
254
255
255
255
254
165
165
165
165
165
165
166
166
166
166
166
166
166
166
166
166
165
165
165
166
165
165
165
166
166
166
166
166
166
165
165
165
165
166
165
165
165
165
165
166
165
164
164
164
163
163
165
165
165
165
165
166
166
165
166
166
166
166
166
166
166
166
166
165
165
165
165
165
165
165
166
167
165
165
165
165
165
165
165
167
165
166
169
169
167
165
165
162
153
137
137
126
126
126
126
124
127
127
128
125
125
129
124
124
123
126
122
122
123
176
176
227
228
230
229
229
229
229
230
231
231
233
253
254
254
255
255
255
254
254
255
255
254
252
252
255
253
254
251
242
117
117
106
105
105
105
106
104
104
116
145
145
160
159
156
156
154
160
160
156
157
157
157
158
155
155
151
133
133
118
107
106
106
107
105
105
106
105
102
102
99
139
139
228
248
248
254
252
255
255
255
254
254
255
255
253
255
254
254
254
255
255
255
255
254
253
253
255
255
255
254
254
254
0
0
0
0
0
0
0
0
0
0
0
0
0
0
0
0
0
0
0
0
0
0
0
0
0
0
0
0
0
0
0
0
0
0
0
0
0
0
0
0
0
0
0
0
0
0
0
0
0
0
0
0
0
0
0
0
0
0
0
0
0
0
0
0
0
0
0
0
0
0
0
0
0
0
0
0
0
0
0
0
0
0
0
0
0
0
0
0
0
0
0
0
0
0
0
0
0
0
0
0
0
0
0
0
0
0
0
0
0
0
0
0
0
0
0
0
0
0
0
0
0
0
0
0
0
0
0
0
0
0
0
0
0
0
0
0
0
0
0
0
0
0
0
0
0
0
0
0
0
0
0
0
0
0
0
0
0
0
0
0
0
0
0
0
0
0
0
0
0
0
0
0
0
0
0
0
0
0
0
0
0
0
0
0
0
0
0
0
0
0
0
0
0
0
0
0
0
0
0
0
0
0
0
0
0
0
0
0
0
0
0
0
0
0
0
0
0
0
0
0
0
0
0
0
0
0
0
0
0
0
0
0
0
0
0
0
0
0
0
0
0
0
0
0
0
0
0
0
0
0
0
0
0
0
0
0
0
0
0
0
0
0
0
0
0
0
0
0
0
0
0
0
0
0
0
0
0
0
0
0
0
0
0
0
229
229
227
230
234
233
252
255
255
254
254
254
254
254
255
254
254
254
254
255
255
255
255
254
254
255
255
255
255
255
255
255
255
254
254
255
254
254
255
254
254
254
253
253
254
254
254
254
254
255
255
255
255
254
254
254
254
255
255
255
254
254
254
254
254
255
254
254
254
254
255
255
255
254
166
166
165
165
165
166
166
166
166
166
166
166
166
166
166
166
165
166
166
166
165
165
165
166
166
166
166
166
167
166
165
166
166
166
165
166
164
165
166
164
166
163
167
165
164
166
166
166
165
163
164
166
164
166
166
166
166
166
166
166
166
167
165
166
165
165
167
166
167
166
165
164
167
166
163
167
166
165
167
165
163
165
164
153
164
155
124
125
127
125
127
126
125
128
127
127
124
126
125
129
124
122
125
119
125
118
143
227
212
230
232
230
230
230
229
229
231
229
229
234
254
254
254
255
254
255
255
255
254
254
254
254
252
255
255
254
254
246
138
125
105
105
104
106
105
106
105
130
156
159
156
156
156
156
157
158
156
155
155
159
161
154
156
158
157
154
155
154
156
155
124
110
123
103
106
104
108
102
105
107
103
105
104
174
245
216
244
251
255
254
254
255
255
254
253
252
255
254
253
253
255
255
255
254
254
255
255
255
255
254
254
254
254
0
0
0
0
0
0
0
0
0
0
0
0
0
0
0
0
0
0
0
0
0
0
0
0
0
0
0
0
0
0
0
0
0
0
0
0
0
0
0
0
0
0
0
0
0
0
0
0
0
0
0
0
0
0
0
0
0
0
0
0
0
0
0
0
0
0
0
0
0
0
0
0
0
0
0
0
0
0
0
0
0
0
0
0
0
0
0
0
0
0
0
0
0
0
0
0
0
0
0
0
0
0
0
0
0
0
0
0
0
0
0
0
0
0
0
0
0
0
0
0
0
0
0
0
0
0
0
0
0
0
0
0
0
0
0
0
0
0
0
0
0
0
0
0
0
0
0
0
0
0
0
0
0
0
0
0
0
0
0
0
0
0
0
0
0
0
0
0
0
0
0
0
0
0
0
0
0
0
0
0
0
0
0
0
0
0
0
0
0
0
0
0
0
0
0
0
0
0
0
0
0
0
0
0
0
0
0
0
0
0
0
0
0
0
0
0
0
0
0
0
0
0
0
0
0
0
0
0
0
0
0
0
0
0
0
0
0
0
0
0
0
0
0
0
0
0
0
0
0
0
0
0
0
0
0
0
0
0
0
0
0
0
0
0
0
0
0
0
0
0
0
0
0
0
0
0
0
0
0
0
0
0
0
229
230
230
243
243
255
254
255
255
255
255
255
254
254
254
255
253
254
254
255
255
255
255
254
254
254
255
255
255
255
255
255
255
254
254
254
255
254
254
255
254
254
255
254
254
254
254
255
254
254
255
255
255
255
254
254
254
254
255
255
254
254
254
254
255
255
255
254
254
254
254
255
255
255
254
166
165
165
166
166
166
166
166
166
166
166
166
166
166
166
166
166
166
166
165
165
165
166
166
166
166
166
166
166
166
166
166
165
165
165
165
165
167
167
167
164
167
167
164
165
165
165
167
163
166
162
165
165
166
166
166
166
166
166
165
164
161
161
165
166
167
165
164
165
165
166
168
166
165
165
164
164
167
162
162
152
133
153
123
125
126
126
126
127
127
125
128
127
127
127
125
125
127
127
124
120
122
160
160
220
229
227
230
229
229
229
228
231
231
230
230
229
237
255
255
255
254
253
254
254
255
255
255
254
254
254
255
255
254
254
248
161
161
102
105
105
105
107
105
105
143
153
156
158
157
156
156
156
154
154
154
156
155
160
158
159
159
156
155
154
157
158
156
156
155
160
123
152
127
105
105
105
106
106
106
104
104
104
106
173
173
241
251
254
254
254
254
254
254
253
253
254
254
253
253
254
254
254
254
255
255
255
255
254
254
254
254
254
0
0
0
0
0
0
0
0
0
0
0
0
0
0
0
0
0
0
0
0
0
0
0
0
0
0
0
0
0
0
0
0
0
0
0
0
0
0
0
0
0
0
0
0
0
0
0
0
0
0
0
0
0
0
0
0
0
0
0
0
0
0
0
0
0
0
0
0
0
0
0
0
0
0
0
0
0
0
0
0
0
0
0
0
0
0
0
0
0
0
0
0
0
0
0
0
0
0
0
0
0
0
0
0
0
0
0
0
0
0
0
0
0
0
0
0
0
0
0
0
0
0
0
0
0
0
0
0
0
0
0
0
0
0
0
0
0
0
0
0
0
0
0
0
0
0
0
0
0
0
0
0
0
0
0
0
0
0
0
0
0
0
0
0
0
0
0
0
0
0
0
0
0
0
0
0
0
0
0
0
0
0
0
0
0
0
0
0
0
0
0
0
0
0
0
0
0
0
0
0
0
0
0
0
0
0
0
0
0
0
0
0
0
0
0
0
0
0
0
0
0
0
0
0
0
0
0
0
0
0
0
0
0
0
0
0
0
0
0
0
0
0
0
0
0
0
0
0
0
0
0
0
0
0
0
0
0
0
0
0
0
0
0
0
0
0
0
0
0
0
0
0
0
0
0
0
0
0
0
0
0
0
231
230
251
247
251
254
254
254
255
255
254
255
255
254
254
254
255
254
254
255
255
255
255
255
254
254
254
255
255
255
255
255
255
255
254
254
254
254
254
254
255
255
255
254
254
254
254
254
255
254
254
255
255
255
255
254
254
254
254
254
254
254
254
254
254
255
255
255
254
254
254
254
255
255
254
254
164
165
165
166
166
166
166
166
166
166
166
166
166
166
166
166
166
166
166
165
166
166
166
166
166
164
163
167
165
166
165
165
165
165
165
164
167
161
165
164
165
163
164
164
164
165
165
164
166
166
165
166
166
166
166
165
165
164
166
167
167
168
166
167
166
165
166
164
167
166
167
162
167
146
165
157
124
143
129
126
124
127
129
124
126
124
126
126
126
126
124
125
126
124
126
128
121
122
123
148
226
206
229
230
229
230
229
231
229
228
230
231
230
230
230
240
255
255
255
254
254
253
254
255
254
254
254
254
253
255
255
255
254
251
224
194
103
105
105
105
106
107
105
144
160
159
158
156
155
155
156
156
156
156
158
156
157
154
156
157
156
156
156
157
156
156
158
159
160
158
155
155
157
146
117
140
102
105
106
106
106
102
104
103
136
105
228
249
254
254
254
253
254
254
255
255
254
254
253
253
254
254
254
254
255
255
255
255
254
254
254
254
254
0
0
0
0
0
0
0
0
0
0
0
0
0
0
0
0
0
0
0
0
0
0
0
0
0
0
0
0
0
0
0
0
0
0
0
0
0
0
0
0
0
0
0
0
0
0
0
0
0
0
0
0
0
0
0
0
0
0
0
0
0
0
0
0
0
0
0
0
0
0
0
0
0
0
0
0
0
0
0
0
0
0
0
0
0
0
0
0
0
0
0
0
0
0
0
0
0
0
0
0
0
0
0
0
0
0
0
0
0
0
0
0
0
0
0
0
0
0
0
0
0
0
0
0
0
0
0
0
0
0
0
0
0
0
0
0
0
0
0
0
0
0
0
0
0
0
0
0
0
0
0
0
0
0
0
0
0
0
0
0
0
0
0
0
0
0
0
0
0
0
0
0
0
0
0
0
0
0
0
0
0
0
0
0
0
0
0
0
0
0
0
0
0
0
0
0
0
0
0
0
0
0
0
0
0
0
0
0
0
0
0
0
0
0
0
0
0
0
0
0
0
0
0
0
0
0
0
0
0
0
0
0
0
0
0
0
0
0
0
0
0
0
0
0
0
0
0
0
0
0
0
0
0
0
0
0
0
0
0
0
0
0
0
0
0
0
0
0
0
0
0
0
0
0
0
0
0
0
0
0
0
236
255
251
254
254
254
253
254
255
255
255
254
255
255
254
254
254
255
254
255
254
254
255
255
255
254
254
254
255
255
255
254
255
255
253
254
254
255
255
254
254
255
255
254
255
254
254
254
255
255
254
254
255
255
255
255
254
254
254
254
254
255
255
254
254
255
255
255
255
254
254
254
254
255
255
254
254
165
166
165
166
166
166
166
166
166
166
166
166
166
166
165
166
166
166
166
166
166
166
166
165
164
166
167
165
164
166
165
165
165
164
164
167
166
165
166
167
167
164
167
169
165
169
165
166
166
165
164
166
166
164
165
166
165
164
167
164
163
166
164
166
163
166
163
156
166
153
139
127
146
128
124
124
126
129
126
123
126
128
124
126
126
126
126
128
125
124
127
122
124
119
133
121
183
222
227
226
230
230
230
230
230
230
231
230
231
230
228
230
230
248
255
255
255
254
255
254
255
255
255
254
253
255
254
254
255
253
255
250
242
224
102
104
105
106
105
105
107
131
154
160
154
157
156
155
156
156
156
156
155
158
157
157
155
156
157
157
156
156
157
157
156
158
153
160
154
157
156
157
158
155
140
158
126
106
109
105
106
104
106
101
105
101
160
244
254
253
254
254
254
254
255
255
253
254
253
253
254
254
254
254
255
255
255
255
254
255
255
254
254
0
0
0
0
0
0
0
0
0
0
0
0
0
0
0
0
0
0
0
0
0
0
0
0
0
0
0
0
0
0
0
0
0
0
0
0
0
0
0
0
0
0
0
0
0
0
0
0
0
0
0
0
0
0
0
0
0
0
0
0
0
0
0
0
0
0
0
0
0
0
0
0
0
0
0
0
0
0
0
0
0
0
0
0
0
0
0
0
0
0
0
0
0
0
0
0
0
0
0
0
0
0
0
0
0
0
0
0
0
0
0
0
0
0
0
0
0
0
0
0
0
0
0
0
0
0
0
0
0
0
0
0
0
0
0
0
0
0
0
0
0
0
0
0
0
0
0
0
0
0
0
0
0
0
0
0
0
0
0
0
0
0
0
0
0
0
0
0
0
0
0
0
0
0
0
0
0
0
0
0
0
0
0
0
0
0
0
0
0
0
0
0
0
0
0
0
0
0
0
0
0
0
0
0
0
0
0
0
0
0
0
0
0
0
0
0
0
0
0
0
0
0
0
0
0
0
0
0
0
0
0
0
0
0
0
0
0
0
0
0
0
0
0
0
0
0
0
0
0
0
0
0
0
0
0
0
0
0
0
0
0
0
0
0
0
0
0
0
0
0
0
0
0
0
0
0
0
0
0
0
254
254
254
254
254
254
254
254
254
255
255
255
254
254
254
254
254
254
255
254
254
254
254
255
255
255
254
255
255
255
255
255
255
254
254
254
255
255
255
255
254
254
255
255
255
255
254
254
254
255
254
254
254
254
255
255
255
254
254
254
254
255
255
255
255
255
255
255
255
255
254
254
254
254
255
255
255
254
165
165
165
166
166
166
166
166
166
166
166
166
165
165
165
166
166
166
166
166
166
166
164
165
167
167
166
166
167
165
165
167
167
165
165
165
164
166
162
166
162
162
162
163
166
156
166
167
168
168
167
164
164
164
168
155
167
167
165
165
165
161
126
155
146
137
137
132
122
129
124
124
127
127
128
126
126
128
129
124
125
127
123
123
127
128
123
125
123
119
119
129
175
175
220
229
229
230
230
230
230
230
230
229
230
230
230
230
229
234
234
251
255
255
255
254
255
255
254
255
253
254
253
255
255
255
255
255
253
254
248
248
126
104
104
106
107
105
104
122
157
157
157
157
156
156
156
156
156
156
155
155
156
155
157
156
156
156
156
155
155
157
154
156
156
156
161
156
155
158
156
158
158
153
156
156
144
110
121
106
107
106
106
103
105
104
132
236
251
251
254
255
255
254
255
255
253
253
253
253
254
254
253
254
255
255
255
254
255
255
254
254
254
0
0
0
0
0
0
0
0
0
0
0
0
0
0
0
0
0
0
0
0
0
0
0
0
0
0
0
0
0
0
0
0
0
0
0
0
0
0
0
0
0
0
0
0
0
0
0
0
0
0
0
0
0
0
0
0
0
0
0
0
0
0
0
0
0
0
0
0
0
0
0
0
0
0
0
0
0
0
0
0
0
0
0
0
0
0
0
0
0
0
0
0
0
0
0
0
0
0
0
0
0
0
0
0
0
0
0
0
0
0
0
0
0
0
0
0
0
0
0
0
0
0
0
0
0
0
0
0
0
0
0
0
0
0
0
0
0
0
0
0
0
0
0
0
0
0
0
0
0
0
0
0
0
0
0
0
0
0
0
0
0
0
0
0
0
0
0
0
0
0
0
0
0
0
0
0
0
0
0
0
0
0
0
0
0
0
0
0
0
0
0
0
0
0
0
0
0
0
0
0
0
0
0
0
0
0
0
0
0
0
0
0
0
0
0
0
0
0
0
0
0
0
0
0
0
0
0
0
0
0
0
0
0
0
0
0
0
0
0
0
0
0
0
0
0
0
0
0
0
0
0
0
0
0
0
0
0
0
0
0
0
0
0
0
0
0
0
0
0
0
0
0
0
0
0
0
0
0
0
254
254
254
254
254
255
254
254
254
254
255
255
255
254
254
254
254
254
255
255
254
254
254
254
255
255
255
255
255
254
255
255
255
254
254
255
255
255
255
255
255
254
255
254
254
255
255
254
254
254
255
254
255
254
254
255
255
255
254
254
254
255
255
254
255
255
255
255
255
255
255
254
254
254
255
255
255
255
254
165
165
165
166
166
166
166
165
166
166
166
166
165
165
165
165
165
166
166
166
166
165
163
165
166
163
163
167
165
162
166
162
167
166
164
163
165
162
141
123
146
148
127
128
156
129
132
161
161
133
161
161
132
130
155
127
126
148
141
126
127
126
124
125
125
123
127
123
129
125
128
125
128
126
126
126
125
126
124
125
125
127
126
124
120
123
128
169
126
170
229
219
232
230
228
229
231
229
230
230
230
228
229
229
229
229
229
249
241
254
255
255
255
254
255
255
254
255
254
253
255
254
255
253
252
255
255
252
252
247
166
102
104
106
105
106
105
105
156
159
157
154
156
156
156
156
156
156
156
156
156
156
156
157
157
156
156
155
165
167
157
164
162
154
155
156
155
155
157
156
157
159
158
157
152
158
156
121
129
106
107
106
106
105
104
103
102
227
251
249
254
255
253
254
255
255
252
253
254
254
254
253
253
254
255
254
254
254
255
255
254
254
254
0
0
0
0
0
0
0
0
0
0
0
0
0
0
0
0
0
0
0
0
0
0
0
0
0
0
0
0
0
0
0
0
0
0
0
0
0
0
0
0
0
0
0
0
0
0
0
0
0
0
0
0
0
0
0
0
0
0
0
0
0
0
0
0
0
0
0
0
0
0
0
0
0
0
0
0
0
0
0
0
0
0
0
0
0
0
0
0
0
0
0
0
0
0
0
0
0
0
0
0
0
0
0
0
0
0
0
0
0
0
0
0
0
0
0
0
0
0
0
0
0
0
0
0
0
0
0
0
0
0
0
0
0
0
0
0
0
0
0
0
0
0
0
0
0
0
0
0
0
0
0
0
0
0
0
0
0
0
0
0
0
0
0
0
0
0
0
0
0
0
0
0
0
0
0
0
0
0
0
0
0
0
0
0
0
0
0
0
0
0
0
0
0
0
0
0
0
0
0
0
0
0
0
0
0
0
0
0
0
0
0
0
0
0
0
0
0
0
0
0
0
0
0
0
0
0
0
0
0
0
0
0
0
0
0
0
0
0
0
0
0
0
0
0
0
0
0
0
0
0
0
0
0
0
0
0
0
0
0
0
0
0
0
0
0
0
0
0
0
0
0
0
0
0
0
0
0
0
254
254
254
254
253
254
254
254
254
254
254
255
255
255
254
254
254
254
255
255
255
254
254
254
254
255
255
255
254
254
254
254
254
254
255
255
255
254
255
254
254
253
253
253
254
254
255
255
254
254
254
254
253
254
254
254
255
255
255
254
254
254
254
254
254
255
254
254
255
255
255
255
255
254
254
255
255
255
255
254
165
165
165
166
166
165
166
166
166
166
166
166
166
165
165
165
165
164
164
167
165
165
167
163
167
167
166
165
165
168
166
167
167
164
168
168
147
125
125
125
124
126
126
125
125
125
127
127
133
126
127
121
121
124
124
124
126
128
123
123
126
126
126
124
124
123
123
125
126
126
128
128
126
128
127
126
126
125
128
128
124
119
135
135
180
222
222
231
227
229
230
230
228
228
230
231
231
230
230
228
228
229
230
230
241
251
249
255
255
255
255
254
255
255
255
255
254
254
255
255
255
255
255
255
255
254
254
254
240
102
102
107
106
106
106
103
140
140
152
158
156
156
156
156
156
156
156
156
156
156
156
156
156
157
157
159
175
177
177
179
176
176
172
168
158
158
157
159
159
155
156
158
156
157
157
157
156
141
141
105
107
107
107
105
107
107
103
186
249
247
253
253
253
254
255
255
254
254
254
254
254
254
254
255
254
254
254
254
254
254
254
254
254
0
0
0
0
0
0
0
0
0
0
0
0
0
0
0
0
0
0
0
0
0
0
0
0
0
0
0
0
0
0
0
0
0
0
0
0
0
0
0
0
0
0
0
0
0
0
0
0
0
0
0
0
0
0
0
0
0
0
0
0
0
0
0
0
0
0
0
0
0
0
0
0
0
0
0
0
0
0
0
0
0
0
0
0
0
0
0
0
0
0
0
0
0
0
0
0
0
0
0
0
0
0
0
0
0
0
0
0
0
0
0
0
0
0
0
0
0
0
0
0
0
0
0
0
0
0
0
0
0
0
0
0
0
0
0
0
0
0
0
0
0
0
0
0
0
0
0
0
0
0
0
0
0
0
0
0
0
0
0
0
0
0
0
0
0
0
0
0
0
0
0
0
0
0
0
0
0
0
0
0
0
0
0
0
0
0
0
0
0
0
0
0
0
0
0
0
0
0
0
0
0
0
0
0
0
0
0
0
0
0
0
0
0
0
0
0
0
0
0
0
0
0
0
0
0
0
0
0
0
0
0
0
0
0
0
0
0
0
0
0
0
0
0
0
0
0
0
0
0
0
0
0
0
0
0
0
0
0
0
0
0
0
0
0
0
0
0
0
0
0
0
0
0
0
0
0
0
255
255
254
254
254
254
254
255
254
254
254
254
255
255
255
254
254
254
254
255
255
255
254
254
254
255
255
255
254
254
254
254
254
255
255
255
255
255
254
253
254
255
254
253
254
255
255
254
254
254
254
254
254
255
253
254
254
255
255
255
254
255
255
254
255
255
255
254
254
255
255
255
255
254
254
254
255
254
254
254
254
165
164
165
166
166
165
166
166
166
166
166
166
166
165
166
165
165
166
165
165
166
166
165
169
180
187
172
164
165
164
164
164
165
164
162
133
124
126
127
127
125
125
127
125
125
127
124
123
124
128
124
127
126
125
125
127
128
125
127
126
125
126
130
125
128
128
126
125
126
123
127
125
122
122
126
125
124
120
119
201
224
189
218
232
226
225
227
228
231
230
228
228
231
229
230
228
230
230
230
231
241
234
248
254
253
254
255
255
255
254
255
255
255
255
255
255
255
255
255
254
255
254
254
255
255
254
248
183
125
106
106
107
107
104
109
122
155
156
157
157
156
156
156
156
156
156
156
156
156
156
156
156
156
156
170
186
185
184
186
185
186
179
182
177
170
182
161
156
157
157
155
156
158
155
156
156
156
151
155
117
105
106
105
105
107
108
102
169
246
246
251
255
255
253
255
254
255
255
254
254
254
255
255
254
254
254
254
254
254
254
254
254
254
0
0
0
0
0
0
0
0
0
0
0
0
0
0
0
0
0
0
0
0
0
0
0
0
0
0
0
0
0
0
0
0
0
0
0
0
0
0
0
0
0
0
0
0
0
0
0
0
0
0
0
0
0
0
0
0
0
0
0
0
0
0
0
0
0
0
0
0
0
0
0
0
0
0
0
0
0
0
0
0
0
0
0
0
0
0
0
0
0
0
0
0
0
0
0
0
0
0
0
0
0
0
0
0
0
0
0
0
0
0
0
0
0
0
0
0
0
0
0
0
0
0
0
0
0
0
0
0
0
0
0
0
0
0
0
0
0
0
0
0
0
0
0
0
0
0
0
0
0
0
0
0
0
0
0
0
0
0
0
0
0
0
0
0
0
0
0
0
0
0
0
0
0
0
0
0
0
0
0
0
0
0
0
0
0
0
0
0
0
0
0
0
0
0
0
0
0
0
0
0
0
0
0
0
0
0
0
0
0
0
0
0
0
0
0
0
0
0
0
0
0
0
0
0
0
0
0
0
0
0
0
0
0
0
0
0
0
0
0
0
0
0
0
0
0
0
0
0
0
0
0
0
0
0
0
0
0
0
0
0
0
0
0
0
0
0
0
0
0
0
0
0
0
0
0
0
255
254
254
254
254
254
255
255
255
255
254
254
254
255
255
255
254
254
254
254
255
255
255
254
254
254
255
255
255
254
254
254
255
255
255
255
255
253
253
249
254
255
254
254
252
252
254
254
254
254
254
254
254
254
253
254
255
254
255
255
254
255
255
255
255
255
255
254
254
254
254
255
255
255
254
254
254
254
254
254
254
254
164
165
165
166
166
165
166
166
166
166
166
165
164
166
166
165
166
165
165
165
162
162
173
188
187
187
187
165
168
167
167
165
164
155
133
126
128
127
127
128
124
127
125
126
127
124
125
128
128
125
124
126
125
129
126
126
127
128
126
129
124
126
126
126
123
126
125
123
123
121
116
124
122
146
182
124
219
230
230
230
228
229
232
230
231
227
233
228
232
228
229
230
229
232
230
230
230
236
249
241
254
254
254
255
254
254
255
255
254
255
255
255
255
255
255
255
255
255
255
254
254
252
254
255
251
231
183
101
106
105
107
105
105
109
152
155
157
157
157
156
156
156
156
156
156
156
156
156
156
156
156
156
160
182
182
182
183
186
180
184
185
185
181
184
182
183
180
157
165
155
154
158
159
157
156
155
158
154
154
122
106
105
107
106
108
108
102
150
246
246
251
255
254
255
254
254
255
254
254
254
254
254
254
254
255
254
254
254
254
254
254
254
254
0
0
0
0
0
0
0
0
0
0
0
0
0
0
0
0
0
0
0
0
0
0
0
0
0
0
0
0
0
0
0
0
0
0
0
0
0
0
0
0
0
0
0
0
0
0
0
0
0
0
0
0
0
0
0
0
0
0
0
0
0
0
0
0
0
0
0
0
0
0
0
0
0
0
0
0
0
0
0
0
0
0
0
0
0
0
0
0
0
0
0
0
0
0
0
0
0
0
0
0
0
0
0
0
0
0
0
0
0
0
0
0
0
0
0
0
0
0
0
0
0
0
0
0
0
0
0
0
0
0
0
0
0
0
0
0
0
0
0
0
0
0
0
0
0
0
0
0
0
0
0
0
0
0
0
0
0
0
0
0
0
0
0
0
0
0
0
0
0
0
0
0
0
0
0
0
0
0
0
0
0
0
0
0
0
0
0
0
0
0
0
0
0
0
0
0
0
0
0
0
0
0
0
0
0
0
0
0
0
0
0
0
0
0
0
0
0
0
0
0
0
0
0
0
0
0
0
0
0
0
0
0
0
0
0
0
0
0
0
0
0
0
0
0
0
0
0
0
0
0
0
0
0
0
0
0
0
0
0
0
0
0
0
0
0
0
0
0
0
0
0
0
0
0
0
254
254
255
254
254
255
255
255
255
255
255
254
254
254
255
255
255
254
254
254
254
255
255
255
254
254
254
255
255
255
254
254
255
255
254
255
254
254
254
252
254
254
255
254
253
254
253
254
255
254
254
254
254
254
254
255
254
254
254
254
254
254
255
255
255
255
255
255
254
254
254
254
255
255
255
254
254
254
254
254
254
254
254
165
165
165
166
166
165
166
166
166
166
166
166
165
166
166
165
166
167
165
166
165
164
187
188
189
189
189
173
177
163
164
167
167
135
125
125
127
126
126
127
125
124
124
126
127
126
122
126
126
126
125
126
123
127
125
121
128
124
126
122
123
123
122
123
121
118
118
124
142
226
173
203
225
225
230
225
229
231
230
229
228
230
230
230
229
231
226
232
228
229
229
231
228
243
234
245
255
255
255
254
254
254
255
255
255
254
255
255
255
255
255
255
255
255
255
255
255
254
255
254
255
254
254
246
246
106
106
107
106
108
104
104
132
157
156
156
157
156
156
156
156
156
156
156
156
156
157
156
156
156
156
156
165
183
179
183
184
181
183
182
187
183
183
182
183
183
185
173
180
159
155
158
158
158
156
156
158
155
158
124
104
105
105
106
107
107
102
142
246
246
249
253
253
255
254
254
255
253
254
254
254
254
254
254
255
254
254
254
254
255
254
254
254
0
0
0
0
0
0
0
0
0
0
0
0
0
0
0
0
0
0
0
0
0
0
0
0
0
0
0
0
0
0
0
0
0
0
0
0
0
0
0
0
0
0
0
0
0
0
0
0
0
0
0
0
0
0
0
0
0
0
0
0
0
0
0
0
0
0
0
0
0
0
0
0
0
0
0
0
0
0
0
0
0
0
0
0
0
0
0
0
0
0
0
0
0
0
0
0
0
0
0
0
0
0
0
0
0
0
0
0
0
0
0
0
0
0
0
0
0
0
0
0
0
0
0
0
0
0
0
0
0
0
0
0
0
0
0
0
0
0
0
0
0
0
0
0
0
0
0
0
0
0
0
0
0
0
0
0
0
0
0
0
0
0
0
0
0
0
0
0
0
0
0
0
0
0
0
0
0
0
0
0
0
0
0
0
0
0
0
0
0
0
0
0
0
0
0
0
0
0
0
0
0
0
0
0
0
0
0
0
0
0
0
0
0
0
0
0
0
0
0
0
0
0
0
0
0
0
0
0
0
0
0
0
0
0
0
0
0
0
0
0
0
0
0
0
0
0
0
0
0
0
0
0
0
0
0
0
0
0
0
0
0
0
0
0
0
0
0
0
0
0
0
0
0
0
254
255
255
255
255
255
255
255
255
255
255
254
254
254
254
255
255
255
254
254
254
254
255
255
255
254
254
254
255
255
254
254
254
254
254
255
254
255
252
252
255
251
252
254
252
252
253
252
255
252
251
255
254
254
254
251
254
254
255
255
254
254
254
255
254
254
255
255
255
254
254
254
254
255
255
255
254
254
254
254
254
255
255
254
165
165
165
166
166
165
166
166
166
166
166
166
166
166
166
166
165
165
164
165
164
172
189
188
188
187
187
177
179
165
166
167
165
133
125
124
125
126
126
127
129
128
128
126
126
119
120
121
126
121
123
123
124
122
121
122
121
130
122
143
167
122
190
213
145
174
231
230
226
226
229
230
231
229
229
229
229
227
229
229
229
229
226
230
230
226
232
230
229
228
241
251
243
254
255
255
254
255
255
255
255
254
255
255
255
254
255
255
255
255
254
254
255
255
255
254
254
254
255
255
254
252
250
158
101
104
107
104
105
105
112
153
157
156
156
156
156
156
156
156
155
156
156
156
155
157
156
156
156
154
156
157
161
179
167
176
183
183
185
181
183
183
181
183
184
184
184
180
181
168
156
158
157
157
156
156
156
158
155
134
103
106
105
107
107
106
103
140
246
246
250
253
254
255
254
254
255
254
254
254
255
254
254
254
254
254
254
254
255
255
254
254
254
0
0
0
0
0
0
0
0
0
0
0
0
0
0
0
0
0
0
0
0
0
0
0
0
0
0
0
0
0
0
0
0
0
0
0
0
0
0
0
0
0
0
0
0
0
0
0
0
0
0
0
0
0
0
0
0
0
0
0
0
0
0
0
0
0
0
0
0
0
0
0
0
0
0
0
0
0
0
0
0
0
0
0
0
0
0
0
0
0
0
0
0
0
0
0
0
0
0
0
0
0
0
0
0
0
0
0
0
0
0
0
0
0
0
0
0
0
0
0
0
0
0
0
0
0
0
0
0
0
0
0
0
0
0
0
0
0
0
0
0
0
0
0
0
0
0
0
0
0
0
0
0
0
0
0
0
0
0
0
0
0
0
0
0
0
0
0
0
0
0
0
0
0
0
0
0
0
0
0
0
0
0
0
0
0
0
0
0
0
0
0
0
0
0
0
0
0
0
0
0
0
0
0
0
0
0
0
0
0
0
0
0
0
0
0
0
0
0
0
0
0
0
0
0
0
0
0
0
0
0
0
0
0
0
0
0
0
0
0
0
0
0
0
0
0
0
0
0
0
0
0
0
0
0
0
0
0
0
0
0
0
0
0
0
0
0
0
0
0
0
0
0
0
255
254
255
255
255
255
255
255
254
255
255
255
255
254
254
254
255
255
255
254
254
254
254
255
255
255
254
254
254
254
255
255
254
254
254
254
255
254
254
254
248
242
248
247
246
246
249
251
251
250
255
254
254
255
254
254
254
254
254
254
255
255
255
255
254
254
254
255
253
253
253
254
254
254
255
255
255
254
254
254
255
255
255
255
254
165
165
165
166
166
165
166
166
166
165
165
165
166
166
166
166
165
165
165
166
180
180
188
190
186
186
187
179
179
165
165
164
164
133
123
123
125
126
126
127
124
130
130
138
139
139
133
133
137
137
145
155
155
169
182
231
202
214
226
226
224
228
228
228
227
223
223
229
229
229
228
230
230
230
228
228
228
229
228
228
232
231
230
230
229
230
230
239
252
253
253
253
255
255
255
254
254
255
255
255
255
255
255
255
255
254
255
255
254
254
254
255
255
255
255
254
254
254
255
255
255
244
103
105
105
107
107
107
104
136
157
157
157
157
157
156
156
156
156
156
156
156
156
156
156
157
156
157
157
154
155
155
155
155
157
164
174
184
184
182
187
187
181
184
184
184
184
182
182
173
157
155
155
156
157
157
157
156
156
137
105
105
105
107
105
105
103
150
248
248
251
254
254
255
254
254
255
254
255
255
255
254
254
254
254
254
254
254
255
255
254
254
254
0
0
0
0
0
0
0
0
0
0
0
0
0
0
0
0
0
0
0
0
0
0
0
0
0
0
0
0
0
0
0
0
0
0
0
0
0
0
0
0
0
0
0
0
0
0
0
0
0
0
0
0
0
0
0
0
0
0
0
0
0
0
0
0
0
0
0
0
0
0
0
0
0
0
0
0
0
0
0
0
0
0
0
0
0
0
0
0
0
0
0
0
0
0
0
0
0
0
0
0
0
0
0
0
0
0
0
0
0
0
0
0
0
0
0
0
0
0
0
0
0
0
0
0
0
0
0
0
0
0
0
0
0
0
0
0
0
0
0
0
0
0
0
0
0
0
0
0
0
0
0
0
0
0
0
0
0
0
0
0
0
0
0
0
0
0
0
0
0
0
0
0
0
0
0
0
0
0
0
0
0
0
0
0
0
0
0
0
0
0
0
0
0
0
0
0
0
0
0
0
0
0
0
0
0
0
0
0
0
0
0
0
0
0
0
0
0
0
0
0
0
0
0
0
0
0
0
0
0
0
0
0
0
0
0
0
0
0
0
0
0
0
0
0
0
0
0
0
0
0
0
0
0
0
0
0
0
0
0
0
0
0
0
0
0
0
0
0
0
0
0
0
255
255
254
254
255
255
255
254
254
254
254
255
255
255
254
254
254
255
255
255
254
254
254
255
255
255
255
254
254
254
254
255
255
255
255
254
254
255
249
233
175
242
136
125
201
200
125
216
236
174
226
252
250
249
254
251
252
254
255
254
254
255
255
255
254
254
254
255
255
254
254
253
255
255
254
255
255
255
254
254
254
255
255
255
254
254
165
165
165
166
166
166
166
165
165
165
165
165
166
166
166
165
165
165
165
167
186
187
188
191
188
190
188
181
182
166
166
164
165
133
124
125
128
127
127
125
124
188
208
207
208
227
230
216
219
230
222
225
231
231
231
230
230
226
223
230
230
229
230
228
230
229
230
230
230
230
228
231
229
229
230
231
233
231
230
230
229
231
229
248
241
250
253
254
254
252
255
255
254
254
254
254
254
255
255
255
255
255
255
255
255
254
255
255
255
255
255
254
255
255
255
254
255
255
253
249
202
104
105
106
106
105
106
105
155
157
157
156
156
157
157
156
156
156
157
156
156
156
156
157
156
156
157
158
157
156
154
156
157
157
158
155
162
177
166
181
186
182
181
184
184
184
183
183
184
180
157
156
157
156
156
156
157
157
158
140
106
106
106
108
104
110
101
158
249
249
251
254
254
254
254
254
254
254
255
254
255
255
255
255
254
254
254
254
254
254
254
254
254
0
0
0
0
0
0
0
0
0
0
0
0
0
0
0
0
0
0
0
0
0
0
0
0
0
0
0
0
0
0
0
0
0
0
0
0
0
0
0
0
0
0
0
0
0
0
0
0
0
0
0
0
0
0
0
0
0
0
0
0
0
0
0
0
0
0
0
0
0
0
0
0
0
0
0
0
0
0
0
0
0
0
0
0
0
0
0
0
0
0
0
0
0
0
0
0
0
0
0
0
0
0
0
0
0
0
0
0
0
0
0
0
0
0
0
0
0
0
0
0
0
0
0
0
0
0
0
0
0
0
0
0
0
0
0
0
0
0
0
0
0
0
0
0
0
0
0
0
0
0
0
0
0
0
0
0
0
0
0
0
0
0
0
0
0
0
0
0
0
0
0
0
0
0
0
0
0
0
0
0
0
0
0
0
0
0
0
0
0
0
0
0
0
0
0
0
0
0
0
0
0
0
0
0
0
0
0
0
0
0
0
0
0
0
0
0
0
0
0
0
0
0
0
0
0
0
0
0
0
0
0
0
0
0
0
0
0
0
0
0
0
0
0
0
0
0
0
0
0
0
0
0
0
0
0
0
0
0
0
0
0
0
0
0
0
0
0
0
0
0
0
255
255
255
254
254
255
255
254
254
254
254
255
255
255
255
254
254
254
255
255
255
254
254
254
255
255
255
254
254
254
254
255
254
254
253
251
254
246
185
131
131
127
119
119
126
121
125
123
120
126
126
158
215
249
243
246
251
251
253
255
254
255
254
255
255
254
255
255
254
255
254
254
255
254
254
254
255
255
254
254
254
254
255
254
254
254
254
165
165
165
166
166
166
165
165
165
166
165
165
166
165
165
165
165
165
164
167
188
188
190
187
190
189
190
185
185
166
166
165
166
133
125
126
128
127
127
124
119
208
211
231
229
229
229
230
230
228
232
229
229
229
230
230
231
228
230
230
229
230
230
231
230
230
229
230
230
230
231
231
229
231
229
233
226
235
238
238
250
254
248
252
255
255
255
254
252
255
252
254
254
254
255
254
254
254
255
255
255
255
255
255
255
255
255
255
255
254
254
254
255
255
255
255
255
252
241
106
106
104
107
106
105
106
133
133
153
158
156
156
156
157
156
156
156
156
156
156
156
156
155
156
156
156
156
157
156
156
156
156
156
157
157
159
156
166
159
177
187
187
181
184
184
184
183
183
183
182
161
157
155
157
156
156
155
158
158
140
105
106
106
104
106
106
103
188
249
250
253
255
255
254
254
254
255
255
254
254
254
255
255
255
254
254
255
255
254
254
254
254
254
0
0
0
0
0
0
0
0
0
0
0
0
0
0
0
0
0
0
0
0
0
0
0
0
0
0
0
0
0
0
0
0
0
0
0
0
0
0
0
0
0
0
0
0
0
0
0
0
0
0
0
0
0
0
0
0
0
0
0
0
0
0
0
0
0
0
0
0
0
0
0
0
0
0
0
0
0
0
0
0
0
0
0
0
0
0
0
0
0
0
0
0
0
0
0
0
0
0
0
0
0
0
0
0
0
0
0
0
0
0
0
0
0
0
0
0
0
0
0
0
0
0
0
0
0
0
0
0
0
0
0
0
0
0
0
0
0
0
0
0
0
0
0
0
0
0
0
0
0
0
0
0
0
0
0
0
0
0
0
0
0
0
0
0
0
0
0
0
0
0
0
0
0
0
0
0
0
0
0
0
0
0
0
0
0
0
0
0
0
0
0
0
0
0
0
0
0
0
0
0
0
0
0
0
0
0
0
0
0
0
0
0
0
0
0
0
0
0
0
0
0
0
0
0
0
0
0
0
0
0
0
0
0
0
0
0
0
0
0
0
0
0
0
0
0
0
0
0
0
0
0
0
0
0
0
0
0
0
0
0
0
0
0
0
0
0
0
0
0
0
254
255
255
254
254
254
255
254
254
254
254
254
255
255
255
254
254
254
254
255
255
255
254
254
254
255
254
254
254
254
254
255
254
253
248
250
234
148
124
124
122
127
126
123
125
124
128
128
126
122
122
124
119
148
209
148
240
251
247
255
254
254
254
254
254
251
255
253
253
254
255
253
254
255
254
254
254
255
254
254
254
254
254
255
254
254
254
254
165
165
165
166
166
166
165
165
165
166
165
165
165
165
165
165
165
164
165
169
189
189
191
189
188
188
189
187
188
166
166
164
164
132
127
126
127
126
126
123
120
213
211
230
229
232
229
230
230
232
228
229
231
230
231
228
231
230
230
228
230
229
227
227
232
227
228
231
230
230
231
228
230
230
233
243
254
251
255
253
255
254
255
254
253
252
254
253
254
253
253
254
254
255
255
254
255
254
255
255
255
255
255
255
255
255
255
255
255
254
254
254
255
254
254
251
248
196
130
103
107
106
106
105
107
110
157
157
157
156
156
156
156
156
156
156
157
156
157
156
155
155
156
156
157
156
154
156
156
156
156
156
156
155
155
159
156
154
159
164
184
180
182
184
184
184
183
182
182
184
163
156
156
157
156
156
155
157
155
140
105
107
108
106
105
107
104
208
251
253
254
255
254
254
255
255
255
255
254
254
254
254
254
255
255
255
255
254
254
254
254
254
254
0
0
0
0
0
0
0
0
0
0
0
0
0
0
0
0
0
0
0
0
0
0
0
0
0
0
0
0
0
0
0
0
0
0
0
0
0
0
0
0
0
0
0
0
0
0
0
0
0
0
0
0
0
0
0
0
0
0
0
0
0
0
0
0
0
0
0
0
0
0
0
0
0
0
0
0
0
0
0
0
0
0
0
0
0
0
0
0
0
0
0
0
0
0
0
0
0
0
0
0
0
0
0
0
0
0
0
0
0
0
0
0
0
0
0
0
0
0
0
0
0
0
0
0
0
0
0
0
0
0
0
0
0
0
0
0
0
0
0
0
0
0
0
0
0
0
0
0
0
0
0
0
0
0
0
0
0
0
0
0
0
0
0
0
0
0
0
0
0
0
0
0
0
0
0
0
0
0
0
0
0
0
0
0
0
0
0
0
0
0
0
0
0
0
0
0
0
0
0
0
0
0
0
0
0
0
0
0
0
0
0
0
0
0
0
0
0
0
0
0
0
0
0
0
0
0
0
0
0
0
0
0
0
0
0
0
0
0
0
0
0
0
0
0
0
0
0
0
0
0
0
0
0
0
0
0
0
0
0
0
0
0
0
0
0
0
0
0
0
254
254
255
254
254
254
254
254
255
254
254
254
254
254
255
255
254
254
254
254
254
255
255
254
254
254
254
254
255
255
254
255
251
248
248
182
119
124
124
126
128
127
127
128
125
129
125
126
126
127
124
124
125
127
122
148
122
152
247
221
247
251
254
253
254
251
253
255
253
254
254
254
254
255
254
254
254
255
255
254
255
254
254
254
254
254
254
254
254
165
165
165
166
166
166
165
165
165
166
165
165
165
165
165
165
165
165
166
171
189
188
189
189
188
187
190
188
189
167
165
163
164
132
126
126
126
126
127
123
117
211
212
228
232
230
230
231
232
228
232
231
227
229
228
229
228
230
228
232
232
227
230
229
231
228
231
235
230
242
250
239
247
255
254
254
252
252
253
253
252
255
254
253
254
254
254
253
253
254
254
254
255
255
255
255
255
254
255
255
255
255
255
255
254
255
255
255
255
254
255
254
254
253
253
242
196
103
107
107
105
106
104
107
123
157
157
151
157
154
156
157
156
156
156
156
156
157
156
155
155
156
156
157
158
157
156
156
156
156
156
156
156
155
156
157
155
159
158
157
180
175
184
184
184
183
185
182
183
183
163
156
156
158
156
156
156
155
155
133
105
108
107
106
107
107
102
238
253
254
255
254
254
254
255
255
255
254
254
254
254
254
255
255
255
255
255
254
254
255
254
254
254
0
0
0
0
0
0
0
0
0
0
0
0
0
0
0
0
0
0
0
0
0
0
0
0
0
0
0
0
0
0
0
0
0
0
0
0
0
0
0
0
0
0
0
0
0
0
0
0
0
0
0
0
0
0
0
0
0
0
0
0
0
0
0
0
0
0
0
0
0
0
0
0
0
0
0
0
0
0
0
0
0
0
0
0
0
0
0
0
0
0
0
0
0
0
0
0
0
0
0
0
0
0
0
0
0
0
0
0
0
0
0
0
0
0
0
0
0
0
0
0
0
0
0
0
0
0
0
0
0
0
0
0
0
0
0
0
0
0
0
0
0
0
0
0
0
0
0
0
0
0
0
0
0
0
0
0
0
0
0
0
0
0
0
0
0
0
0
0
0
0
0
0
0
0
0
0
0
0
0
0
0
0
0
0
0
0
0
0
0
0
0
0
0
0
0
0
0
0
0
0
0
0
0
0
0
0
0
0
0
0
0
0
0
0
0
0
0
0
0
0
0
0
0
0
0
0
0
0
0
0
0
0
0
0
0
0
0
0
0
0
0
0
0
0
0
0
0
0
0
0
0
0
0
0
0
0
0
0
0
0
0
0
0
0
0
0
0
0
255
254
254
255
255
255
254
255
255
255
255
254
254
254
254
255
255
254
255
255
254
254
255
255
254
254
254
255
255
254
254
250
247
247
166
124
125
124
128
124
124
125
125
125
125
127
132
127
127
128
128
127
126
128
125
126
121
121
122
163
163
229
248
252
252
254
254
254
255
255
254
254
254
255
255
254
254
254
255
255
255
255
254
253
253
254
254
254
254
254
165
165
165
166
166
166
165
165
165
165
165
165
165
165
165
165
164
166
166
173
188
189
190
189
187
187
189
188
188
168
165
164
164
130
125
125
126
127
127
124
121
209
209
229
229
228
230
231
229
229
228
232
232
228
230
227
232
230
228
228
227
230
247
233
241
246
246
252
254
254
255
254
254
254
254
254
254
254
254
254
255
255
254
254
255
254
254
254
254
254
254
254
255
255
255
255
255
254
255
255
255
255
255
254
254
255
255
255
255
254
254
254
254
251
249
125
102
102
105
105
107
107
111
159
159
160
158
158
159
158
157
157
157
156
156
157
157
156
156
155
155
155
154
156
156
157
156
156
156
156
156
156
156
156
156
156
155
156
156
156
170
166
184
183
182
182
183
184
184
184
165
155
155
157
156
156
157
158
157
130
105
106
106
106
105
105
116
246
255
255
255
254
254
254
255
255
255
254
254
254
254
255
254
255
255
254
254
255
255
255
254
254
254
0
0
0
0
0
0
0
0
0
0
0
0
0
0
0
0
0
0
0
0
0
0
0
0
0
0
0
0
0
0
0
0
0
0
0
0
0
0
0
0
0
0
0
0
0
0
0
0
0
0
0
0
0
0
0
0
0
0
0
0
0
0
0
0
0
0
0
0
0
0
0
0
0
0
0
0
0
0
0
0
0
0
0
0
0
0
0
0
0
0
0
0
0
0
0
0
0
0
0
0
0
0
0
0
0
0
0
0
0
0
0
0
0
0
0
0
0
0
0
0
0
0
0
0
0
0
0
0
0
0
0
0
0
0
0
0
0
0
0
0
0
0
0
0
0
0
0
0
0
0
0
0
0
0
0
0
0
0
0
0
0
0
0
0
0
0
0
0
0
0
0
0
0
0
0
0
0
0
0
0
0
0
0
0
0
0
0
0
0
0
0
0
0
0
0
0
0
0
0
0
0
0
0
0
0
0
0
0
0
0
0
0
0
0
0
0
0
0
0
0
0
0
0
0
0
0
0
0
0
0
0
0
0
0
0
0
0
0
0
0
0
0
0
0
0
0
0
0
0
0
0
0
0
0
0
0
0
0
0
0
0
0
0
0
0
0
0
255
254
254
254
255
255
255
254
254
255
255
255
254
254
254
254
255
254
255
254
254
254
254
255
255
254
254
254
254
254
252
244
244
161
119
125
125
125
127
124
126
132
124
127
159
163
132
161
152
126
124
130
124
128
126
127
125
125
130
122
125
120
134
243
250
248
253
254
255
253
254
252
254
254
254
254
254
254
254
254
255
255
255
254
254
254
254
254
255
255
254
165
165
165
166
166
166
166
166
166
165
165
166
165
165
165
165
164
164
164
174
189
190
189
189
187
187
189
189
187
167
165
164
164
130
125
125
127
127
127
123
119
215
213
227
228
227
231
226
232
232
228
230
232
233
227
240
245
230
235
252
252
247
254
255
253
255
254
254
255
255
254
255
255
255
255
254
255
254
254
254
255
255
255
254
254
255
255
254
254
254
255
254
255
255
255
255
255
254
255
255
255
255
254
254
255
255
254
254
254
251
253
254
251
247
104
107
109
106
106
107
105
119
146
154
156
155
156
159
155
157
157
156
156
157
157
156
156
156
156
156
155
155
156
156
156
156
156
156
156
156
156
156
156
156
156
157
155
155
156
156
166
162
183
183
184
184
183
184
184
183
163
156
155
157
156
158
157
157
156
115
106
107
107
106
105
106
167
247
255
255
255
254
254
254
255
254
255
254
254
254
254
254
254
254
254
255
255
255
255
255
255
254
254
0
0
0
0
0
0
0
0
0
0
0
0
0
0
0
0
0
0
0
0
0
0
0
0
0
0
0
0
0
0
0
0
0
0
0
0
0
0
0
0
0
0
0
0
0
0
0
0
0
0
0
0
0
0
0
0
0
0
0
0
0
0
0
0
0
0
0
0
0
0
0
0
0
0
0
0
0
0
0
0
0
0
0
0
0
0
0
0
0
0
0
0
0
0
0
0
0
0
0
0
0
0
0
0
0
0
0
0
0
0
0
0
0
0
0
0
0
0
0
0
0
0
0
0
0
0
0
0
0
0
0
0
0
0
0
0
0
0
0
0
0
0
0
0
0
0
0
0
0
0
0
0
0
0
0
0
0
0
0
0
0
0
0
0
0
0
0
0
0
0
0
0
0
0
0
0
0
0
0
0
0
0
0
0
0
0
0
0
0
0
0
0
0
0
0
0
0
0
0
0
0
0
0
0
0
0
0
0
0
0
0
0
0
0
0
0
0
0
0
0
0
0
0
0
0
0
0
0
0
0
0
0
0
0
0
0
0
0
0
0
0
0
0
0
0
0
0
0
0
0
0
0
0
0
0
0
0
0
0
0
0
0
0
0
0
0
255
255
254
254
254
255
255
255
254
254
255
255
255
254
254
254
254
254
254
254
255
255
254
255
255
255
254
255
255
252
246
246
157
123
127
127
127
127
127
125
140
132
157
165
166
166
167
165
165
165
161
147
147
132
123
123
127
126
130
126
126
124
124
124
169
248
239
251
254
254
254
253
253
254
253
254
254
253
254
254
254
255
255
255
254
254
254
254
255
255
255
254
165
165
165
166
166
166
166
166
166
166
166
166
165
164
164
165
166
165
165
175
189
189
188
190
187
187
190
190
190
166
165
164
164
129
125
125
127
126
126
123
118
217
217
237
237
237
238
240
232
243
248
250
250
252
254
254
254
253
255
255
254
254
254
255
254
254
255
255
252
252
255
254
255
255
254
254
254
254
254
254
255
254
254
254
254
255
255
254
254
255
255
254
255
255
255
255
255
254
255
255
255
255
255
255
255
254
254
253
254
255
255
247
147
147
103
106
102
102
105
107
107
149
158
156
160
153
157
157
157
157
156
156
157
157
157
156
156
156
156
157
157
157
156
156
156
156
156
156
156
156
156
156
156
156
156
157
156
157
157
156
161
161
182
184
184
184
184
184
184
182
162
155
154
156
157
157
157
156
156
108
107
106
106
106
103
103
201
251
255
255
255
254
254
253
254
254
255
254
254
254
254
254
254
254
255
255
255
255
255
255
255
254
254
0
0
0
0
0
0
0
0
0
0
0
0
0
0
0
0
0
0
0
0
0
0
0
0
0
0
0
0
0
0
0
0
0
0
0
0
0
0
0
0
0
0
0
0
0
0
0
0
0
0
0
0
0
0
0
0
0
0
0
0
0
0
0
0
0
0
0
0
0
0
0
0
0
0
0
0
0
0
0
0
0
0
0
0
0
0
0
0
0
0
0
0
0
0
0
0
0
0
0
0
0
0
0
0
0
0
0
0
0
0
0
0
0
0
0
0
0
0
0
0
0
0
0
0
0
0
0
0
0
0
0
0
0
0
0
0
0
0
0
0
0
0
0
0
0
0
0
0
0
0
0
0
0
0
0
0
0
0
0
0
0
0
0
0
0
0
0
0
0
0
0
0
0
0
0
0
0
0
0
0
0
0
0
0
0
0
0
0
0
0
0
0
0
0
0
0
0
0
0
0
0
0
0
0
0
0
0
0
0
0
0
0
0
0
0
0
0
0
0
0
0
0
0
0
0
0
0
0
0
0
0
0
0
0
0
0
0
0
0
0
0
0
0
0
0
0
0
0
0
0
0
0
0
0
0
0
0
0
0
0
0
0
0
0
0
255
255
255
254
254
254
255
254
254
254
255
255
255
255
254
254
254
254
255
255
254
255
255
254
254
255
254
254
250
250
247
162
121
126
127
128
125
126
126
155
148
165
166
166
166
166
166
167
164
162
164
164
164
167
150
131
147
125
126
122
127
124
125
126
119
130
213
171
249
254
250
254
253
252
254
252
255
255
252
254
254
253
255
255
255
254
254
254
254
255
255
254
254
165
165
165
166
166
166
166
166
166
166
166
166
165
165
165
166
166
165
165
177
189
188
188
190
187
188
189
190
185
165
164
165
165
131
125
126
127
126
127
124
120
228
234
248
250
255
254
254
252
255
255
254
254
254
254
254
254
255
254
254
254
254
254
254
255
251
255
254
255
255
255
254
255
255
255
254
254
254
255
253
255
255
254
254
254
255
255
254
254
255
255
254
255
255
255
255
255
254
255
255
255
255
255
255
255
253
254
255
255
254
249
242
104
104
108
106
105
107
106
109
106
118
122
141
107
153
154
144
157
155
157
157
157
156
156
156
156
157
157
157
157
156
156
156
156
156
156
156
157
156
156
156
156
156
156
157
156
158
158
156
159
159
182
184
184
184
184
184
183
181
161
155
156
156
156
156
156
155
146
105
106
105
106
106
103
109
232
252
255
255
255
254
254
254
255
255
255
254
254
254
254
254
254
255
255
255
255
255
255
255
254
254
254
0
0
0
0
0
0
0
0
0
0
0
0
0
0
0
0
0
0
0
0
0
0
0
0
0
0
0
0
0
0
0
0
0
0
0
0
0
0
0
0
0
0
0
0
0
0
0
0
0
0
0
0
0
0
0
0
0
0
0
0
0
0
0
0
0
0
0
0
0
0
0
0
0
0
0
0
0
0
0
0
0
0
0
0
0
0
0
0
0
0
0
0
0
0
0
0
0
0
0
0
0
0
0
0
0
0
0
0
0
0
0
0
0
0
0
0
0
0
0
0
0
0
0
0
0
0
0
0
0
0
0
0
0
0
0
0
0
0
0
0
0
0
0
0
0
0
0
0
0
0
0
0
0
0
0
0
0
0
0
0
0
0
0
0
0
0
0
0
0
0
0
0
0
0
0
0
0
0
0
0
0
0
0
0
0
0
0
0
0
0
0
0
0
0
0
0
0
0
0
0
0
0
0
0
0
0
0
0
0
0
0
0
0
0
0
0
0
0
0
0
0
0
0
0
0
0
0
0
0
0
0
0
0
0
0
0
0
0
0
0
0
0
0
0
0
0
0
0
0
0
0
0
0
0
0
0
0
0
0
0
0
0
0
0
255
254
255
255
254
254
254
255
255
255
254
254
255
255
255
254
254
254
254
255
255
254
255
255
254
254
254
254
250
250
184
122
125
125
128
126
125
126
157
155
166
165
166
166
166
164
166
165
167
165
165
165
165
167
165
166
147
162
134
123
127
126
127
126
129
127
123
171
137
229
250
249
253
252
252
255
254
255
255
254
254
254
255
255
255
255
254
254
254
254
255
255
254
254
165
165
165
166
166
166
166
166
165
166
166
165
165
165
165
166
165
165
165
177
188
189
190
189
188
188
187
185
185
165
166
165
165
131
126
126
126
126
126
124
124
234
232
251
255
254
254
254
255
253
254
254
254
253
254
254
255
255
254
254
254
254
255
255
255
255
253
255
255
255
254
254
255
255
255
254
254
253
253
254
254
255
254
254
254
255
255
254
254
255
255
255
255
255
255
255
255
255
255
255
255
253
255
255
254
255
255
254
252
249
234
104
106
106
101
105
107
105
107
106
106
106
106
107
105
109
144
118
143
157
157
157
157
156
156
157
157
157
158
156
156
156
156
156
156
156
157
157
157
156
156
156
156
156
156
156
155
158
157
157
159
159
181
184
184
183
184
183
182
179
157
156
157
157
156
156
158
132
132
106
107
106
107
104
109
139
250
254
255
255
254
254
254
254
255
255
255
255
254
254
254
254
255
255
255
255
255
255
255
255
254
254
253
0
0
0
0
0
0
0
0
0
0
0
0
0
0
0
0
0
0
0
0
0
0
0
0
0
0
0
0
0
0
0
0
0
0
0
0
0
0
0
0
0
0
0
0
0
0
0
0
0
0
0
0
0
0
0
0
0
0
0
0
0
0
0
0
0
0
0
0
0
0
0
0
0
0
0
0
0
0
0
0
0
0
0
0
0
0
0
0
0
0
0
0
0
0
0
0
0
0
0
0
0
0
0
0
0
0
0
0
0
0
0
0
0
0
0
0
0
0
0
0
0
0
0
0
0
0
0
0
0
0
0
0
0
0
0
0
0
0
0
0
0
0
0
0
0
0
0
0
0
0
0
0
0
0
0
0
0
0
0
0
0
0
0
0
0
0
0
0
0
0
0
0
0
0
0
0
0
0
0
0
0
0
0
0
0
0
0
0
0
0
0
0
0
0
0
0
0
0
0
0
0
0
0
0
0
0
0
0
0
0
0
0
0
0
0
0
0
0
0
0
0
0
0
0
0
0
0
0
0
0
0
0
0
0
0
0
0
0
0
0
0
0
0
0
0
0
0
0
0
0
0
0
0
0
0
0
0
0
0
0
0
0
0
254
254
255
255
255
254
254
254
255
255
255
254
254
255
255
255
254
254
254
255
255
255
254
255
255
255
254
251
251
207
123
126
125
125
127
124
124
156
156
164
167
164
165
165
165
165
167
167
166
165
165
164
168
165
166
166
163
167
165
150
127
126
126
124
129
126
125
126
123
123
192
246
246
252
253
254
255
254
255
255
254
254
254
255
255
255
255
254
254
254
254
255
255
254
254
165
165
165
166
166
166
166
165
165
165
165
165
165
166
165
165
164
165
165
177
189
190
190
189
191
191
188
180
169
165
166
165
165
129
125
125
126
126
126
124
125
233
233
250
254
255
254
255
255
255
255
254
254
255
255
255
255
255
254
254
254
255
255
250
254
254
254
255
254
254
254
254
255
255
254
252
252
254
254
254
254
255
254
254
254
255
255
254
255
255
255
255
255
255
255
255
255
255
255
255
255
253
255
254
254
254
254
254
251
142
105
101
108
106
106
106
106
106
105
107
107
105
108
103
103
102
101
106
120
149
157
157
156
157
157
156
157
156
158
156
157
157
156
156
156
157
157
157
157
156
156
156
156
157
157
155
155
157
157
156
159
161
182
184
184
184
184
182
184
174
157
157
157
157
156
156
158
121
109
103
107
106
106
105
190
235
252
254
255
255
255
254
254
254
255
255
255
255
254
254
255
255
255
255
255
254
254
255
255
255
254
253
254
0
0
0
0
0
0
0
0
0
0
0
0
0
0
0
0
0
0
0
0
0
0
0
0
0
0
0
0
0
0
0
0
0
0
0
0
0
0
0
0
0
0
0
0
0
0
0
0
0
0
0
0
0
0
0
0
0
0
0
0
0
0
0
0
0
0
0
0
0
0
0
0
0
0
0
0
0
0
0
0
0
0
0
0
0
0
0
0
0
0
0
0
0
0
0
0
0
0
0
0
0
0
0
0
0
0
0
0
0
0
0
0
0
0
0
0
0
0
0
0
0
0
0
0
0
0
0
0
0
0
0
0
0
0
0
0
0
0
0
0
0
0
0
0
0
0
0
0
0
0
0
0
0
0
0
0
0
0
0
0
0
0
0
0
0
0
0
0
0
0
0
0
0
0
0
0
0
0
0
0
0
0
0
0
0
0
0
0
0
0
0
0
0
0
0
0
0
0
0
0
0
0
0
0
0
0
0
0
0
0
0
0
0
0
0
0
0
0
0
0
0
0
0
0
0
0
0
0
0
0
0
0
0
0
0
0
0
0
0
0
0
0
0
0
0
0
0
0
0
0
0
0
0
0
0
0
0
0
0
0
0
0
254
254
255
255
255
255
255
254
254
255
255
254
254
254
255
255
255
254
254
253
255
255
255
251
255
252
254
253
228
119
126
126
127
127
127
125
148
155
165
166
163
164
167
165
165
166
165
166
166
166
165
164
166
163
165
168
166
164
165
165
165
134
127
128
128
126
124
129
124
120
122
166
241
231
249
254
254
254
255
253
253
255
254
254
255
255
255
255
254
254
254
254
255
255
253
254
165
165
165
166
166
166
166
166
166
165
165
165
166
165
166
165
165
165
164
174
190
188
190
190
187
189
185
169
163
165
165
165
164
129
125
125
127
126
126
123
124
234
236
251
255
255
254
255
255
254
255
254
254
255
255
255
255
254
254
254
254
255
255
254
254
254
254
254
254
254
254
254
254
254
254
254
255
254
254
254
254
255
254
254
254
255
255
255
255
255
255
255
255
255
255
255
255
254
254
255
255
254
254
254
255
254
254
251
206
105
103
108
106
106
103
107
108
106
106
107
105
102
106
108
108
107
106
108
105
130
156
144
156
157
157
156
156
156
155
157
157
155
156
156
156
156
157
156
156
156
156
156
156
157
156
157
154
157
157
156
161
162
183
184
184
184
182
184
185
162
156
157
157
156
156
156
154
109
109
106
106
104
106
104
235
247
254
254
255
255
255
254
254
254
255
255
255
255
255
254
255
255
255
255
254
254
254
254
255
255
254
254
254
0
0
0
0
0
0
0
0
0
0
0
0
0
0
0
0
0
0
0
0
0
0
0
0
0
0
0
0
0
0
0
0
0
0
0
0
0
0
0
0
0
0
0
0
0
0
0
0
0
0
0
0
0
0
0
0
0
0
0
0
0
0
0
0
0
0
0
0
0
0
0
0
0
0
0
0
0
0
0
0
0
0
0
0
0
0
0
0
0
0
0
0
0
0
0
0
0
0
0
0
0
0
0
0
0
0
0
0
0
0
0
0
0
0
0
0
0
0
0
0
0
0
0
0
0
0
0
0
0
0
0
0
0
0
0
0
0
0
0
0
0
0
0
0
0
0
0
0
0
0
0
0
0
0
0
0
0
0
0
0
0
0
0
0
0
0
0
0
0
0
0
0
0
0
0
0
0
0
0
0
0
0
0
0
0
0
0
0
0
0
0
0
0
0
0
0
0
0
0
0
0
0
0
0
0
0
0
0
0
0
0
0
0
0
0
0
0
0
0
0
0
0
0
0
0
0
0
0
0
0
0
0
0
0
0
0
0
0
0
0
0
0
0
0
0
0
0
0
0
0
0
0
0
0
0
0
0
0
0
0
0
254
254
254
255
254
255
255
255
254
254
255
254
254
254
255
255
255
254
254
254
255
255
255
255
255
255
255
246
137
125
125
127
125
125
126
140
140
167
165
163
163
166
164
164
164
165
167
167
164
166
166
164
168
168
164
163
166
166
164
166
166
166
152
129
129
128
124
124
128
126
122
124
121
214
214
249
254
254
254
255
255
255
254
254
254
255
255
255
255
254
253
253
254
255
255
254
255
165
165
165
166
166
165
164
165
165
165
165
165
166
166
166
166
164
167
167
169
185
185
189
188
188
188
169
164
164
165
165
163
163
128
125
125
127
126
126
123
130
235
235
250
254
254
253
255
254
254
254
254
254
255
255
255
255
254
254
254
254
255
255
254
254
254
254
254
255
255
254
254
254
255
255
255
255
254
254
254
254
255
254
254
255
255
255
255
255
255
255
255
255
255
255
254
254
254
254
255
255
254
255
255
255
254
246
246
155
103
103
106
107
107
108
106
106
106
108
106
106
107
105
104
104
104
104
104
104
104
130
130
156
157
157
157
157
157
154
156
155
155
156
156
156
156
156
156
156
156
156
156
156
156
156
157
157
157
157
157
165
165
185
185
184
184
181
185
185
159
156
158
158
156
157
157
142
106
106
107
106
107
107
151
249
249
255
254
255
255
255
254
254
254
255
255
255
255
254
254
254
255
255
255
254
254
254
254
255
255
254
254
254
0
0
0
0
0
0
0
0
0
0
0
0
0
0
0
0
0
0
0
0
0
0
0
0
0
0
0
0
0
0
0
0
0
0
0
0
0
0
0
0
0
0
0
0
0
0
0
0
0
0
0
0
0
0
0
0
0
0
0
0
0
0
0
0
0
0
0
0
0
0
0
0
0
0
0
0
0
0
0
0
0
0
0
0
0
0
0
0
0
0
0
0
0
0
0
0
0
0
0
0
0
0
0
0
0
0
0
0
0
0
0
0
0
0
0
0
0
0
0
0
0
0
0
0
0
0
0
0
0
0
0
0
0
0
0
0
0
0
0
0
0
0
0
0
0
0
0
0
0
0
0
0
0
0
0
0
0
0
0
0
0
0
0
0
0
0
0
0
0
0
0
0
0
0
0
0
0
0
0
0
0
0
0
0
0
0
0
0
0
0
0
0
0
0
0
0
0
0
0
0
0
0
0
0
0
0
0
0
0
0
0
0
0
0
0
0
0
0
0
0
0
0
0
0
0
0
0
0
0
0
0
0
0
0
0
0
0
0
0
0
0
0
0
0
0
0
0
0
0
0
0
0
0
0
0
0
0
0
0
0
255
254
254
254
255
255
255
255
254
254
254
254
254
255
254
255
254
255
255
255
255
254
255
255
252
254
249
195
124
124
125
127
125
126
127
131
166
166
163
164
164
166
164
165
164
166
167
164
165
165
166
165
164
167
164
167
165
165
164
165
166
164
165
161
134
141
126
124
124
127
126
125
124
119
191
166
249
254
255
253
255
255
255
254
254
254
255
255
255
255
254
254
254
254
255
255
255
255
165
165
165
166
165
165
164
166
166
166
165
165
166
165
165
165
164
163
166
164
184
178
177
188
166
164
165
166
165
166
165
163
163
128
125
126
127
126
126
124
130
235
238
251
254
255
255
255
254
254
255
254
254
255
255
255
255
254
254
254
255
255
255
255
255
254
254
255
255
255
255
254
255
255
255
255
255
254
254
254
254
255
255
255
254
255
255
255
255
254
254
255
255
255
255
254
254
253
254
255
255
254
255
255
254
254
248
248
136
102
100
108
106
105
104
105
106
105
107
107
106
106
106
108
109
103
106
103
105
106
114
106
155
156
156
157
159
160
156
156
156
157
156
156
156
156
156
156
156
156
156
156
156
155
155
156
157
156
156
157
166
177
183
184
184
184
181
181
175
157
156
158
159
153
157
157
122
104
105
106
103
105
101
207
251
254
254
254
255
255
255
254
254
254
255
254
255
255
254
254
254
255
254
254
254
254
255
255
255
254
254
254
254
0
0
0
0
0
0
0
0
0
0
0
0
0
0
0
0
0
0
0
0
0
0
0
0
0
0
0
0
0
0
0
0
0
0
0
0
0
0
0
0
0
0
0
0
0
0
0
0
0
0
0
0
0
0
0
0
0
0
0
0
0
0
0
0
0
0
0
0
0
0
0
0
0
0
0
0
0
0
0
0
0
0
0
0
0
0
0
0
0
0
0
0
0
0
0
0
0
0
0
0
0
0
0
0
0
0
0
0
0
0
0
0
0
0
0
0
0
0
0
0
0
0
0
0
0
0
0
0
0
0
0
0
0
0
0
0
0
0
0
0
0
0
0
0
0
0
0
0
0
0
0
0
0
0
0
0
0
0
0
0
0
0
0
0
0
0
0
0
0
0
0
0
0
0
0
0
0
0
0
0
0
0
0
0
0
0
0
0
0
0
0
0
0
0
0
0
0
0
0
0
0
0
0
0
0
0
0
0
0
0
0
0
0
0
0
0
0
0
0
0
0
0
0
0
0
0
0
0
0
0
0
0
0
0
0
0
0
0
0
0
0
0
0
0
0
0
0
0
0
0
0
0
0
0
0
0
0
0
0
255
254
254
254
254
255
255
255
255
254
254
254
254
254
254
254
254
255
254
255
255
255
251
254
252
249
229
122
122
125
127
127
126
126
127
160
166
164
164
166
169
166
164
164
167
167
164
164
165
167
163
165
165
165
165
165
165
167
164
165
166
165
165
166
165
141
150
126
124
125
126
126
124
125
124
166
151
248
254
254
253
254
255
254
255
254
254
255
255
255
255
254
254
254
254
254
254
254
254
165
166
166
166
166
165
166
166
166
166
165
165
166
165
165
166
165
166
167
162
166
166
165
165
164
163
166
165
165
166
165
163
163
129
126
125
127
127
127
123
133
238
240
252
254
254
254
254
254
255
255
254
254
255
255
255
255
255
254
254
255
255
255
255
255
254
255
255
255
255
254
254
255
255
255
255
255
254
254
254
254
255
255
254
254
255
255
255
254
254
254
255
255
255
255
255
255
254
254
255
255
254
254
254
254
254
248
240
172
100
113
101
102
102
103
104
105
103
106
108
108
106
102
109
104
106
106
106
104
103
106
105
138
156
157
153
156
156
157
156
157
156
156
156
156
156
156
156
156
156
156
156
156
155
155
156
157
156
156
154
179
179
183
183
184
183
184
167
167
157
156
159
158
157
157
151
105
106
106
106
107
101
129
249
254
254
255
254
255
255
254
254
254
254
254
254
255
255
254
254
254
254
254
254
255
255
255
254
254
254
254
254
254
0
0
0
0
0
0
0
0
0
0
0
0
0
0
0
0
0
0
0
0
0
0
0
0
0
0
0
0
0
0
0
0
0
0
0
0
0
0
0
0
0
0
0
0
0
0
0
0
0
0
0
0
0
0
0
0
0
0
0
0
0
0
0
0
0
0
0
0
0
0
0
0
0
0
0
0
0
0
0
0
0
0
0
0
0
0
0
0
0
0
0
0
0
0
0
0
0
0
0
0
0
0
0
0
0
0
0
0
0
0
0
0
0
0
0
0
0
0
0
0
0
0
0
0
0
0
0
0
0
0
0
0
0
0
0
0
0
0
0
0
0
0
0
0
0
0
0
0
0
0
0
0
0
0
0
0
0
0
0
0
0
0
0
0
0
0
0
0
0
0
0
0
0
0
0
0
0
0
0
0
0
0
0
0
0
0
0
0
0
0
0
0
0
0
0
0
0
0
0
0
0
0
0
0
0
0
0
0
0
0
0
0
0
0
0
0
0
0
0
0
0
0
0
0
0
0
0
0
0
0
0
0
0
0
0
0
0
0
0
0
0
0
0
0
0
0
0
0
0
0
0
0
0
0
0
0
0
0
254
254
254
254
254
254
255
254
254
254
254
254
254
254
255
254
254
254
254
254
254
255
253
254
253
246
151
122
123
126
125
127
126
126
146
164
165
165
167
164
165
164
164
164
166
166
165
164
167
164
164
166
165
180
165
164
167
164
166
167
165
166
164
164
165
166
156
156
128
125
125
127
126
125
125
124
135
128
244
254
254
253
254
253
254
255
254
254
254
255
255
255
254
254
254
254
255
255
254
254
165
165
165
165
166
165
166
166
166
165
165
165
166
165
165
166
165
165
167
163
164
163
166
163
168
164
165
166
164
165
166
163
163
129
125
126
127
126
125
123
135
241
245
252
252
254
254
255
254
254
255
254
254
255
255
255
255
255
254
254
255
255
255
255
254
255
255
255
255
255
254
254
255
255
255
255
255
254
254
254
254
254
254
254
254
255
255
255
254
254
254
255
255
255
255
255
255
254
255
254
254
254
254
255
255
254
231
231
214
162
225
130
113
194
111
110
102
157
100
101
111
101
108
107
107
106
106
107
105
105
105
105
131
159
156
154
155
154
157
155
156
156
156
156
156
156
156
156
156
156
156
156
156
156
156
156
157
154
157
155
182
184
183
183
184
184
183
160
157
157
156
156
156
159
136
117
106
106
108
106
102
198
243
251
254
255
254
254
255
255
254
254
254
254
254
254
255
255
254
254
254
254
255
255
255
254
254
254
254
254
254
254
254
0
0
0
0
0
0
0
0
0
0
0
0
0
0
0
0
0
0
0
0
0
0
0
0
0
0
0
0
0
0
0
0
0
0
0
0
0
0
0
0
0
0
0
0
0
0
0
0
0
0
0
0
0
0
0
0
0
0
0
0
0
0
0
0
0
0
0
0
0
0
0
0
0
0
0
0
0
0
0
0
0
0
0
0
0
0
0
0
0
0
0
0
0
0
0
0
0
0
0
0
0
0
0
0
0
0
0
0
0
0
0
0
0
0
0
0
0
0
0
0
0
0
0
0
0
0
0
0
0
0
0
0
0
0
0
0
0
0
0
0
0
0
0
0
0
0
0
0
0
0
0
0
0
0
0
0
0
0
0
0
0
0
0
0
0
0
0
0
0
0
0
0
0
0
0
0
0
0
0
0
0
0
0
0
0
0
0
0
0
0
0
0
0
0
0
0
0
0
0
0
0
0
0
0
0
0
0
0
0
0
0
0
0
0
0
0
0
0
0
0
0
0
0
0
0
0
0
0
0
0
0
0
0
0
0
0
0
0
0
0
0
0
0
0
0
0
0
0
0
0
0
0
0
0
0
0
0
254
254
254
254
254
254
255
255
254
254
254
254
254
254
255
254
254
254
255
254
255
254
253
252
253
204
151
125
128
126
124
125
125
132
169
166
165
165
164
164
166
164
165
164
165
165
165
165
166
165
166
175
187
180
185
185
167
174
170
162
165
165
166
164
165
165
166
162
168
136
125
126
127
125
126
125
124
128
122
231
254
253
254
255
254
255
255
254
255
254
254
254
254
255
254
254
254
255
255
254
254
165
165
165
166
165
164
165
166
165
166
165
165
165
165
165
166
165
167
164
163
163
167
165
165
164
167
169
164
166
166
166
164
164
130
126
126
126
125
125
123
153
245
247
254
254
254
254
255
253
254
254
254
254
255
255
255
255
255
254
254
255
255
255
255
254
254
254
255
255
255
254
254
255
255
255
255
254
254
254
254
254
254
254
254
254
255
255
255
254
254
254
255
255
255
255
255
255
254
251
254
253
253
255
253
253
245
227
230
227
225
227
228
194
227
226
226
157
224
205
111
160
112
102
107
106
104
107
107
104
106
105
105
126
156
156
156
154
155
158
156
156
156
156
156
156
156
156
156
156
156
156
156
156
156
157
155
157
157
158
170
184
184
182
184
184
184
173
157
156
157
157
155
156
155
117
106
106
108
104
106
127
243
248
254
255
254
255
254
255
255
254
254
254
254
254
254
255
255
254
254
254
255
255
255
255
254
254
254
254
255
254
254
254
0
0
0
0
0
0
0
0
0
0
0
0
0
0
0
0
0
0
0
0
0
0
0
0
0
0
0
0
0
0
0
0
0
0
0
0
0
0
0
0
0
0
0
0
0
0
0
0
0
0
0
0
0
0
0
0
0
0
0
0
0
0
0
0
0
0
0
0
0
0
0
0
0
0
0
0
0
0
0
0
0
0
0
0
0
0
0
0
0
0
0
0
0
0
0
0
0
0
0
0
0
0
0
0
0
0
0
0
0
0
0
0
0
0
0
0
0
0
0
0
0
0
0
0
0
0
0
0
0
0
0
0
0
0
0
0
0
0
0
0
0
0
0
0
0
0
0
0
0
0
0
0
0
0
0
0
0
0
0
0
0
0
0
0
0
0
0
0
0
0
0
0
0
0
0
0
0
0
0
0
0
0
0
0
0
0
0
0
0
0
0
0
0
0
0
0
0
0
0
0
0
0
0
0
0
0
0
0
0
0
0
0
0
0
0
0
0
0
0
0
0
0
0
0
0
0
0
0
0
0
0
0
0
0
0
0
0
0
0
0
0
0
0
0
0
0
0
0
0
0
0
0
0
0
0
0
254
254
254
255
255
255
255
255
255
254
255
255
254
254
254
254
254
254
254
252
254
254
254
254
248
238
120
127
127
126
128
128
126
156
166
166
165
165
165
166
165
165
165
165
165
165
164
166
166
164
168
189
189
187
190
190
188
185
191
175
168
164
164
167
165
165
166
165
169
169
142
125
125
126
127
125
125
124
119
119
226
252
252
254
255
254
254
255
255
255
254
254
255
255
254
254
254
254
254
254
254
254
165
165
166
166
166
164
166
166
166
166
165
165
165
165
165
165
165
167
167
166
165
163
166
175
183
183
179
165
165
165
166
165
165
130
126
126
126
125
126
122
170
250
250
251
253
253
254
255
254
254
253
254
254
255
255
255
255
255
254
254
255
255
255
255
254
254
254
255
255
255
254
254
255
255
255
255
255
254
254
254
254
254
255
255
255
255
255
255
254
254
254
255
255
255
255
254
254
253
254
254
254
254
254
254
244
225
232
232
229
228
228
229
229
230
228
226
232
232
228
217
225
157
108
104
104
106
106
106
104
104
106
106
124
156
156
158
155
156
157
157
156
156
156
156
156
156
156
156
156
156
156
156
156
157
156
156
156
156
156
180
184
185
182
184
182
182
164
156
156
155
157
158
158
135
105
105
108
107
105
106
200
247
247
254
254
254
254
255
255
255
254
254
254
254
254
254
255
255
254
254
254
255
255
255
254
254
254
255
255
255
255
254
254
0
0
0
0
0
0
0
0
0
0
0
0
0
0
0
0
0
0
0
0
0
0
0
0
0
0
0
0
0
0
0
0
0
0
0
0
0
0
0
0
0
0
0
0
0
0
0
0
0
0
0
0
0
0
0
0
0
0
0
0
0
0
0
0
0
0
0
0
0
0
0
0
0
0
0
0
0
0
0
0
0
0
0
0
0
0
0
0
0
0
0
0
0
0
0
0
0
0
0
0
0
0
0
0
0
0
0
0
0
0
0
0
0
0
0
0
0
0
0
0
0
0
0
0
0
0
0
0
0
0
0
0
0
0
0
0
0
0
0
0
0
0
0
0
0
0
0
0
0
0
0
0
0
0
0
0
0
0
0
0
0
0
0
0
0
0
0
0
0
0
0
0
0
0
0
0
0
0
0
0
0
0
0
0
0
0
0
0
0
0
0
0
0
0
0
0
0
0
0
0
0
0
0
0
0
0
0
0
0
0
0
0
0
0
0
0
0
0
0
0
0
0
0
0
0
0
0
0
0
0
0
0
0
0
0
0
0
0
0
0
0
0
0
0
0
0
0
0
0
0
0
0
0
0
0
254
254
254
255
255
255
254
255
255
255
254
254
253
254
254
254
254
254
252
254
254
254
253
250
248
179
126
124
127
124
124
126
125
164
165
167
163
165
164
165
165
165
165
166
166
164
164
164
165
164
164
185
189
190
189
189
188
188
191
190
188
176
162
167
166
165
165
166
164
167
165
148
124
124
126
127
127
127
127
120
121
220
252
253
252
254
254
254
254
255
255
254
254
255
255
254
254
254
254
254
254
254
254
165
164
165
165
166
165
166
165
166
165
166
166
165
165
166
165
164
163
164
162
163
177
188
190
190
191
184
166
165
165
166
165
165
129
125
125
126
126
127
124
193
250
252
251
254
253
255
255
255
253
254
254
254
255
255
255
255
255
254
254
255
254
255
255
254
254
254
255
255
255
254
254
255
255
255
255
255
254
254
254
254
255
255
254
254
255
255
255
254
254
254
255
255
255
255
254
254
254
255
254
255
255
255
251
233
228
230
228
230
228
235
228
230
226
228
229
229
230
229
225
229
225
126
102
100
107
107
108
106
105
106
106
124
157
156
157
156
156
155
157
156
155
156
156
156
156
156
156
156
156
156
156
156
156
156
158
156
155
162
182
185
186
182
183
182
177
157
157
157
157
155
157
154
117
106
108
108
105
108
142
246
252
254
251
251
254
255
255
255
255
254
254
254
254
254
254
255
254
254
254
254
255
255
255
255
255
255
255
255
255
255
254
254
0
0
0
0
0
0
0
0
0
0
0
0
0
0
0
0
0
0
0
0
0
0
0
0
0
0
0
0
0
0
0
0
0
0
0
0
0
0
0
0
0
0
0
0
0
0
0
0
0
0
0
0
0
0
0
0
0
0
0
0
0
0
0
0
0
0
0
0
0
0
0
0
0
0
0
0
0
0
0
0
0
0
0
0
0
0
0
0
0
0
0
0
0
0
0
0
0
0
0
0
0
0
0
0
0
0
0
0
0
0
0
0
0
0
0
0
0
0
0
0
0
0
0
0
0
0
0
0
0
0
0
0
0
0
0
0
0
0
0
0
0
0
0
0
0
0
0
0
0
0
0
0
0
0
0
0
0
0
0
0
0
0
0
0
0
0
0
0
0
0
0
0
0
0
0
0
0
0
0
0
0
0
0
0
0
0
0
0
0
0
0
0
0
0
0
0
0
0
0
0
0
0
0
0
0
0
0
0
0
0
0
0
0
0
0
0
0
0
0
0
0
0
0
0
0
0
0
0
0
0
0
0
0
0
0
0
0
0
0
0
0
0
0
0
0
0
0
0
0
0
0
0
0
0
255
254
254
254
255
255
255
255
255
255
255
254
253
252
254
253
253
254
254
254
254
252
251
251
225
118
118
125
126
124
125
127
160
160
164
164
163
166
164
166
166
165
165
165
166
165
164
165
165
164
164
166
184
190
190
191
189
189
188
187
187
189
187
167
173
163
166
166
166
165
165
164
156
125
125
126
126
127
127
125
122
122
221
253
253
253
254
254
254
255
255
255
254
255
255
255
254
254
254
254
254
254
254
254
164
164
165
165
165
166
166
166
165
166
166
166
165
166
166
166
165
166
166
169
190
190
184
188
191
191
183
163
163
165
167
165
164
128
125
125
125
124
124
122
241
252
254
254
254
254
254
253
253
254
255
254
254
255
255
255
255
255
254
254
254
255
255
255
254
254
254
255
255
255
254
254
255
255
255
255
255
254
254
254
254
254
254
254
254
255
255
255
254
254
254
255
255
255
255
254
254
254
255
255
253
253
245
245
229
230
228
229
230
233
233
230
233
233
232
230
229
229
229
229
229
228
193
100
105
100
107
107
106
107
106
106
133
155
155
156
157
157
155
158
155
154
156
156
156
156
156
156
156
156
156
156
156
156
156
157
158
175
175
179
184
184
183
184
177
164
156
156
156
157
157
154
138
102
106
106
104
102
102
221
254
254
252
253
253
253
254
255
255
255
254
254
254
254
255
255
255
254
254
254
254
255
255
255
255
255
255
254
254
254
255
254
254
0
0
0
0
0
0
0
0
0
0
0
0
0
0
0
0
0
0
0
0
0
0
0
0
0
0
0
0
0
0
0
0
0
0
0
0
0
0
0
0
0
0
0
0
0
0
0
0
0
0
0
0
0
0
0
0
0
0
0
0
0
0
0
0
0
0
0
0
0
0
0
0
0
0
0
0
0
0
0
0
0
0
0
0
0
0
0
0
0
0
0
0
0
0
0
0
0
0
0
0
0
0
0
0
0
0
0
0
0
0
0
0
0
0
0
0
0
0
0
0
0
0
0
0
0
0
0
0
0
0
0
0
0
0
0
0
0
0
0
0
0
0
0
0
0
0
0
0
0
0
0
0
0
0
0
0
0
0
0
0
0
0
0
0
0
0
0
0
0
0
0
0
0
0
0
0
0
0
0
0
0
0
0
0
0
0
0
0
0
0
0
0
0
0
0
0
0
0
0
0
0
0
0
0
0
0
0
0
0
0
0
0
0
0
0
0
0
0
0
0
0
0
0
0
0
0
0
0
0
0
0
0
0
0
0
0
0
0
0
0
0
0
0
0
0
0
0
0
0
0
0
0
0
255
255
254
255
255
255
255
255
255
255
254
254
252
254
254
252
254
255
253
254
252
254
253
248
162
124
123
125
127
126
126
124
141
168
163
168
165
164
165
165
165
165
165
164
164
166
165
164
164
166
165
165
167
178
187
186
190
190
190
188
187
188
189
189
179
184
164
166
165
165
167
166
166
157
125
127
126
125
127
127
125
124
121
223
252
253
254
255
254
254
255
254
254
254
254
254
254
254
254
254
254
254
254
254
254
165
165
166
166
165
165
166
166
166
166
166
164
165
165
165
165
165
162
169
185
188
189
193
187
188
183
172
166
168
165
166
163
162
127
128
126
124
128
126
131
248
254
255
254
254
254
253
255
255
255
255
254
254
255
255
255
255
254
254
255
255
255
255
255
254
254
254
255
255
255
254
254
255
255
255
255
255
254
254
254
255
254
254
254
254
255
255
255
254
255
255
254
255
255
255
254
254
254
255
254
254
254
242
243
230
228
231
230
230
229
230
232
226
229
229
231
231
231
230
229
230
227
213
113
121
103
105
105
106
106
105
104
141
155
157
157
158
157
156
159
155
156
156
156
156
156
156
157
157
156
156
156
156
156
155
156
159
186
182
182
185
183
184
182
157
155
156
156
157
155
155
113
104
105
105
105
108
107
169
248
252
252
253
253
253
255
253
255
255
255
254
254
255
255
255
255
255
254
254
254
254
255
255
255
255
254
254
254
254
255
254
254
254
0
0
0
0
0
0
0
0
0
0
0
0
0
0
0
0
0
0
0
0
0
0
0
0
0
0
0
0
0
0
0
0
0
0
0
0
0
0
0
0
0
0
0
0
0
0
0
0
0
0
0
0
0
0
0
0
0
0
0
0
0
0
0
0
0
0
0
0
0
0
0
0
0
0
0
0
0
0
0
0
0
0
0
0
0
0
0
0
0
0
0
0
0
0
0
0
0
0
0
0
0
0
0
0
0
0
0
0
0
0
0
0
0
0
0
0
0
0
0
0
0
0
0
0
0
0
0
0
0
0
0
0
0
0
0
0
0
0
0
0
0
0
0
0
0
0
0
0
0
0
0
0
0
0
0
0
0
0
0
0
0
0
0
0
0
0
0
0
0
0
0
0
0
0
0
0
0
0
0
0
0
0
0
0
0
0
0
0
0
0
0
0
0
0
0
0
0
0
0
0
0
0
0
0
0
0
0
0
0
0
0
0
0
0
0
0
0
0
0
0
0
0
0
0
0
0
0
0
0
0
0
0
0
0
0
0
0
0
0
0
0
0
0
0
0
0
0
0
0
0
0
0
255
255
255
255
255
254
255
255
255
255
254
254
254
254
254
253
255
255
255
255
253
253
254
224
162
122
125
125
127
126
123
124
156
165
163
166
165
165
165
165
166
165
164
164
164
165
165
164
164
165
165
165
165
165
167
186
186
187
190
190
189
188
189
188
190
184
186
169
165
165
164
165
166
166
159
127
127
126
125
127
127
127
121
122
230
253
254
253
255
254
254
255
254
254
255
254
254
254
254
254
254
254
254
254
254
254
165
165
166
165
166
165
165
166
165
166
164
164
164
165
165
166
165
169
185
185
189
188
189
188
183
168
162
168
164
166
165
162
155
128
126
125
125
126
120
223
253
255
255
255
254
255
255
255
255
255
255
254
254
255
255
255
255
255
255
255
254
255
254
255
254
254
255
255
255
255
254
254
255
255
255
255
254
254
254
254
255
254
254
254
254
255
255
255
254
255
255
254
255
255
255
254
254
254
255
254
254
254
243
247
234
232
230
227
230
230
228
230
230
230
230
227
231
228
229
230
229
230
225
121
126
105
105
106
108
104
104
107
159
157
159
156
157
156
155
157
156
156
156
156
156
156
156
157
157
156
156
156
156
156
156
157
177
182
184
184
183
182
183
158
155
157
158
157
156
158
131
104
109
105
105
106
101
169
239
254
253
253
255
255
255
255
254
255
255
255
255
255
254
255
255
255
255
255
254
254
254
255
255
255
254
254
254
254
255
255
254
254
254
0
0
0
0
0
0
0
0
0
0
0
0
0
0
0
0
0
0
0
0
0
0
0
0
0
0
0
0
0
0
0
0
0
0
0
0
0
0
0
0
0
0
0
0
0
0
0
0
0
0
0
0
0
0
0
0
0
0
0
0
0
0
0
0
0
0
0
0
0
0
0
0
0
0
0
0
0
0
0
0
0
0
0
0
0
0
0
0
0
0
0
0
0
0
0
0
0
0
0
0
0
0
0
0
0
0
0
0
0
0
0
0
0
0
0
0
0
0
0
0
0
0
0
0
0
0
0
0
0
0
0
0
0
0
0
0
0
0
0
0
0
0
0
0
0
0
0
0
0
0
0
0
0
0
0
0
0
0
0
0
0
0
0
0
0
0
0
0
0
0
0
0
0
0
0
0
0
0
0
0
0
0
0
0
0
0
0
0
0
0
0
0
0
0
0
0
0
0
0
0
0
0
0
0
0
0
0
0
0
0
0
0
0
0
0
0
0
0
0
0
0
0
0
0
0
0
0
0
0
0
0
0
0
0
0
0
0
0
0
0
0
0
0
0
0
0
0
0
0
0
0
254
255
255
255
255
254
254
255
255
255
254
254
253
254
253
255
255
254
254
254
255
255
250
243
121
125
125
126
125
127
128
136
168
168
165
166
164
164
164
165
165
165
164
164
164
166
165
165
165
166
166
164
165
165
165
163
185
185
188
189
189
188
190
190
187
188
188
188
172
163
164
164
166
166
166
159
126
126
127
126
126
126
126
121
121
238
255
255
251
255
255
255
255
254
254
253
254
253
253
254
254
254
254
254
254
254
254
165
165
165
165
166
165
165
165
165
166
165
165
165
166
166
166
165
188
188
187
190
188
190
176
163
163
165
165
166
166
166
146
146
123
128
128
124
122
159
247
255
254
254
255
255
255
254
254
255
255
254
254
254
255
255
255
255
255
254
254
254
255
255
255
255
254
254
255
255
255
254
254
255
255
255
254
254
254
254
254
255
254
254
254
254
255
255
254
254
255
255
254
255
255
255
254
254
254
254
254
254
254
251
254
243
240
236
236
231
228
246
228
230
239
231
231
229
229
228
228
231
227
226
125
125
104
106
106
106
106
110
110
155
156
156
157
156
156
156
156
157
157
156
156
156
156
156
157
157
156
156
156
156
157
154
160
182
184
184
183
183
184
175
154
155
155
156
156
156
157
105
106
106
106
104
104
128
248
255
255
254
254
254
254
255
254
254
255
255
255
255
254
254
254
255
255
255
255
254
254
254
255
254
255
254
254
254
254
255
255
254
254
254
0
0
0
0
0
0
0
0
0
0
0
0
0
0
0
0
0
0
0
0
0
0
0
0
0
0
0
0
0
0
0
0
0
0
0
0
0
0
0
0
0
0
0
0
0
0
0
0
0
0
0
0
0
0
0
0
0
0
0
0
0
0
0
0
0
0
0
0
0
0
0
0
0
0
0
0
0
0
0
0
0
0
0
0
0
0
0
0
0
0
0
0
0
0
0
0
0
0
0
0
0
0
0
0
0
0
0
0
0
0
0
0
0
0
0
0
0
0
0
0
0
0
0
0
0
0
0
0
0
0
0
0
0
0
0
0
0
0
0
0
0
0
0
0
0
0
0
0
0
0
0
0
0
0
0
0
0
0
0
0
0
0
0
0
0
0
0
0
0
0
0
0
0
0
0
0
0
0
0
0
0
0
0
0
0
0
0
0
0
0
0
0
0
0
0
0
0
0
0
0
0
0
0
0
0
0
0
0
0
0
0
0
0
0
0
0
0
0
0
0
0
0
0
0
0
0
0
0
0
0
0
0
0
0
0
0
0
0
0
0
0
0
0
0
0
0
0
0
0
0
255
254
255
255
255
254
254
254
255
255
255
254
253
254
255
254
255
254
253
254
254
251
250
215
122
125
127
125
125
127
125
149
164
166
165
163
164
165
165
164
166
166
164
165
164
165
165
165
165
166
165
165
165
165
166
166
162
176
175
189
188
188
187
190
190
189
188
189
186
179
164
165
166
164
165
166
158
126
125
125
127
126
125
126
121
123
248
255
255
255
253
253
254
255
254
254
254
254
254
254
254
254
254
254
254
255
254
254
165
165
165
166
166
166
164
165
165
166
165
165
165
166
165
166
165
188
180
181
188
171
165
166
168
167
163
166
164
167
165
135
126
127
124
122
122
159
229
254
254
254
255
254
255
254
254
254
254
254
254
254
255
255
255
255
255
255
254
254
255
255
255
255
254
254
254
255
255
255
254
254
255
254
255
254
254
254
254
254
255
254
254
254
255
255
255
254
254
255
255
254
255
255
255
254
254
255
254
254
254
254
254
253
254
249
250
254
250
246
254
255
239
253
245
231
229
227
228
231
230
228
227
115
107
103
106
106
103
106
128
144
157
154
155
157
156
156
157
155
158
157
156
156
156
156
156
157
157
156
156
156
155
154
158
180
183
182
182
184
184
177
153
157
159
153
157
156
160
115
105
105
107
109
104
107
245
255
254
254
254
252
254
254
254
254
254
255
255
255
255
254
254
254
255
255
255
255
254
254
254
254
254
254
254
254
254
255
255
255
255
254
254
0
0
0
0
0
0
0
0
0
0
0
0
0
0
0
0
0
0
0
0
0
0
0
0
0
0
0
0
0
0
0
0
0
0
0
0
0
0
0
0
0
0
0
0
0
0
0
0
0
0
0
0
0
0
0
0
0
0
0
0
0
0
0
0
0
0
0
0
0
0
0
0
0
0
0
0
0
0
0
0
0
0
0
0
0
0
0
0
0
0
0
0
0
0
0
0
0
0
0
0
0
0
0
0
0
0
0
0
0
0
0
0
0
0
0
0
0
0
0
0
0
0
0
0
0
0
0
0
0
0
0
0
0
0
0
0
0
0
0
0
0
0
0
0
0
0
0
0
0
0
0
0
0
0
0
0
0
0
0
0
0
0
0
0
0
0
0
0
0
0
0
0
0
0
0
0
0
0
0
0
0
0
0
0
0
0
0
0
0
0
0
0
0
0
0
0
0
0
0
0
0
0
0
0
0
0
0
0
0
0
0
0
0
0
0
0
0
0
0
0
0
0
0
0
0
0
0
0
0
0
0
0
0
0
0
0
0
0
0
0
0
0
0
0
0
0
0
0
0
255
255
254
255
255
255
254
254
255
255
254
254
254
255
255
255
254
254
254
254
254
254
245
119
119
128
127
126
126
127
130
130
166
165
165
165
166
165
165
164
165
166
164
164
164
164
164
165
165
165
165
166
166
165
166
166
163
166
175
171
188
189
189
188
189
189
191
188
187
187
180
165
165
166
165
165
165
158
124
124
126
127
125
125
125
135
135
248
255
255
252
254
255
255
254
254
254
254
254
254
254
255
254
254
254
255
255
254
254
165
165
165
166
166
166
165
165
165
165
164
164
164
165
165
165
165
167
167
169
162
162
166
163
166
166
165
165
165
162
147
126
123
125
126
126
128
247
247
253
255
254
254
254
254
254
254
254
254
254
255
255
255
255
255
255
255
255
255
255
254
255
255
255
254
254
254
255
255
255
254
254
254
254
255
254
254
254
254
254
255
254
255
255
254
255
255
254
254
255
255
254
255
255
254
254
254
254
254
254
254
251
254
254
255
254
254
254
254
251
251
254
254
254
254
244
234
234
230
229
229
228
222
104
104
103
108
108
105
104
144
156
156
157
157
154
156
156
155
157
157
157
156
156
156
156
156
157
157
156
155
155
159
168
168
186
181
183
183
182
166
166
155
156
157
157
154
153
153
106
106
107
106
105
187
187
251
252
252
255
254
254
254
253
255
255
254
255
255
255
255
254
254
254
255
255
255
255
254
254
254
255
255
255
254
254
254
255
255
255
254
254
254
0
0
0
0
0
0
0
0
0
0
0
0
0
0
0
0
0
0
0
0
0
0
0
0
0
0
0
0
0
0
0
0
0
0
0
0
0
0
0
0
0
0
0
0
0
0
0
0
0
0
0
0
0
0
0
0
0
0
0
0
0
0
0
0
0
0
0
0
0
0
0
0
0
0
0
0
0
0
0
0
0
0
0
0
0
0
0
0
0
0
0
0
0
0
0
0
0
0
0
0
0
0
0
0
0
0
0
0
0
0
0
0
0
0
0
0
0
0
0
0
0
0
0
0
0
0
0
0
0
0
0
0
0
0
0
0
0
0
0
0
0
0
0
0
0
0
0
0
0
0
0
0
0
0
0
0
0
0
0
0
0
0
0
0
0
0
0
0
0
0
0
0
0
0
0
0
0
0
0
0
0
0
0
0
0
0
0
0
0
0
0
0
0
0
0
0
0
0
0
0
0
0
0
0
0
0
0
0
0
0
0
0
0
0
0
0
0
0
0
0
0
0
0
0
0
0
0
0
0
0
0
0
0
0
0
0
0
0
0
0
0
0
0
0
0
0
0
0
255
255
255
254
255
255
255
254
254
254
255
255
255
254
255
254
255
254
255
255
255
250
218
154
125
127
129
127
127
125
124
160
166
165
166
166
164
165
165
166
164
164
164
164
164
164
164
164
165
165
165
165
166
164
164
167
167
163
165
167
165
187
189
188
188
189
189
189
188
189
189
180
165
165
165
166
165
165
156
124
125
126
127
125
125
124
152
167
248
255
255
255
254
254
253
255
254
254
254
254
254
254
254
254
254
254
255
254
255
254
165
165
165
166
166
166
165
166
166
165
164
164
164
165
165
166
165
164
165
163
166
166
166
166
166
165
164
166
165
167
128
124
125
125
123
122
205
252
254
254
255
255
255
255
254
254
253
254
255
255
255
254
254
255
255
255
255
255
254
254
254
255
255
254
254
254
254
255
255
254
254
254
255
255
255
254
254
254
254
254
255
255
255
254
254
255
255
254
254
255
255
254
254
255
255
254
254
254
254
254
255
252
254
255
255
254
255
255
254
251
254
253
253
254
254
251
239
246
231
230
231
230
204
104
104
104
108
105
107
116
157
154
157
156
156
156
156
156
156
156
156
156
156
156
156
156
156
157
157
156
157
156
154
180
184
184
184
184
184
180
155
157
156
158
158
154
157
122
101
106
105
105
103
102
240
250
251
255
255
253
254
254
254
254
255
254
254
255
255
255
255
254
254
254
255
255
255
254
254
254
254
255
255
255
254
254
254
255
255
255
254
254
254
0
0
0
0
0
0
0
0
0
0
0
0
0
0
0
0
0
0
0
0
0
0
0
0
0
0
0
0
0
0
0
0
0
0
0
0
0
0
0
0
0
0
0
0
0
0
0
0
0
0
0
0
0
0
0
0
0
0
0
0
0
0
0
0
0
0
0
0
0
0
0
0
0
0
0
0
0
0
0
0
0
0
0
0
0
0
0
0
0
0
0
0
0
0
0
0
0
0
0
0
0
0
0
0
0
0
0
0
0
0
0
0
0
0
0
0
0
0
0
0
0
0
0
0
0
0
0
0
0
0
0
0
0
0
0
0
0
0
0
0
0
0
0
0
0
0
0
0
0
0
0
0
0
0
0
0
0
0
0
0
0
0
0
0
0
0
0
0
0
0
0
0
0
0
0
0
0
0
0
0
0
0
0
0
0
0
0
0
0
0
0
0
0
0
0
0
0
0
0
0
0
0
0
0
0
0
0
0
0
0
0
0
0
0
0
0
0
0
0
0
0
0
0
0
0
0
0
0
0
0
0
0
0
0
0
0
0
0
0
0
0
0
0
0
0
0
0
254
255
255
255
254
255
255
254
253
253
254
255
255
255
254
254
254
255
255
255
254
248
218
122
126
127
127
130
126
125
125
163
166
166
165
165
164
164
167
166
164
165
166
164
164
165
164
164
165
165
165
165
163
164
165
164
167
167
167
164
165
164
184
188
188
188
189
189
189
190
189
189
180
165
165
165
166
165
164
147
125
125
125
127
125
125
125
167
188
249
254
254
255
255
253
253
254
254
254
254
254
254
254
254
254
254
255
254
254
255
254
165
165
165
166
166
166
166
166
165
166
164
165
165
166
166
165
165
165
167
166
166
166
165
166
165
164
166
165
165
127
127
125
129
125
122
195
249
250
250
251
255
255
254
254
254
254
255
254
255
255
255
254
254
255
255
255
255
254
254
254
254
254
254
255
254
254
255
254
254
254
254
254
255
254
255
254
254
254
255
255
255
255
254
254
254
255
255
254
254
255
254
254
255
255
255
254
254
254
255
255
255
251
253
253
253
254
255
253
254
254
254
254
252
252
254
254
246
252
233
230
230
229
141
104
107
107
105
108
106
154
154
154
157
156
156
156
156
156
156
156
156
156
156
156
156
156
157
157
155
158
156
159
182
182
182
182
182
184
180
157
155
155
155
155
154
159
132
101
106
107
105
103
101
231
250
251
255
253
253
254
254
254
254
255
254
254
254
255
255
255
255
254
254
254
255
255
254
254
254
255
255
255
255
254
254
254
254
255
255
255
254
254
254
0
0
0
0
0
0
0
0
0
0
0
0
0
0
0
0
0
0
0
0
0
0
0
0
0
0
0
0
0
0
0
0
0
0
0
0
0
0
0
0
0
0
0
0
0
0
0
0
0
0
0
0
0
0
0
0
0
0
0
0
0
0
0
0
0
0
0
0
0
0
0
0
0
0
0
0
0
0
0
0
0
0
0
0
0
0
0
0
0
0
0
0
0
0
0
0
0
0
0
0
0
0
0
0
0
0
0
0
0
0
0
0
0
0
0
0
0
0
0
0
0
0
0
0
0
0
0
0
0
0
0
0
0
0
0
0
0
0
0
0
0
0
0
0
0
0
0
0
0
0
0
0
0
0
0
0
0
0
0
0
0
0
0
0
0
0
0
0
0
0
0
0
0
0
0
0
0
0
0
0
0
0
0
0
0
0
0
0
0
0
0
0
0
0
0
0
0
0
0
0
0
0
0
0
0
0
0
0
0
0
0
0
0
0
0
0
0
0
0
0
0
0
0
0
0
0
0
0
0
0
0
0
0
0
0
0
0
0
0
0
0
0
0
0
0
0
255
254
255
255
255
254
255
255
254
254
255
255
255
254
254
254
254
254
255
254
251
251
159
127
124
125
127
123
129
128
152
164
167
165
166
167
165
167
167
164
167
165
165
166
164
164
165
165
165
165
165
164
165
164
165
165
164
167
166
167
165
165
165
182
189
189
189
189
188
189
190
189
188
179
165
165
165
166
164
164
143
126
126
125
127
125
125
121
208
227
250
253
252
254
255
255
255
252
254
254
254
254
254
254
254
254
253
255
254
255
254
254
165
165
165
166
166
166
165
165
165
166
165
165
166
165
166
166
165
167
165
164
164
167
167
164
166
166
165
146
124
125
124
125
125
120
250
253
255
254
252
254
254
254
254
255
255
255
254
254
255
255
255
254
255
255
255
255
255
254
254
254
254
254
254
255
255
254
254
254
255
255
254
254
254
254
255
254
255
254
254
254
255
255
254
254
254
255
255
254
254
254
254
254
255
254
254
254
255
254
253
254
252
254
255
254
255
254
255
255
254
254
254
255
253
254
255
254
255
255
236
229
230
224
107
109
109
106
106
108
119
155
157
157
155
156
156
156
156
156
156
156
156
156
156
156
156
157
155
156
156
156
164
181
181
182
186
180
185
164
155
155
154
158
158
156
156
156
107
107
101
108
104
136
136
246
254
255
254
255
255
255
254
254
254
255
254
254
254
255
255
255
255
254
254
254
254
254
254
254
255
255
255
254
254
254
254
254
254
255
255
254
255
254
254
0
0
0
0
0
0
0
0
0
0
0
0
0
0
0
0
0
0
0
0
0
0
0
0
0
0
0
0
0
0
0
0
0
0
0
0
0
0
0
0
0
0
0
0
0
0
0
0
0
0
0
0
0
0
0
0
0
0
0
0
0
0
0
0
0
0
0
0
0
0
0
0
0
0
0
0
0
0
0
0
0
0
0
0
0
0
0
0
0
0
0
0
0
0
0
0
0
0
0
0
0
0
0
0
0
0
0
0
0
0
0
0
0
0
0
0
0
0
0
0
0
0
0
0
0
0
0
0
0
0
0
0
0
0
0
0
0
0
0
0
0
0
0
0
0
0
0
0
0
0
0
0
0
0
0
0
0
0
0
0
0
0
0
0
0
0
0
0
0
0
0
0
0
0
0
0
0
0
0
0
0
0
0
0
0
0
0
0
0
0
0
0
0
0
0
0
0
0
0
0
0
0
0
0
0
0
0
0
0
0
0
0
0
0
0
0
0
0
0
0
0
0
0
0
0
0
0
0
0
0
0
0
0
0
0
0
0
0
0
0
0
0
0
0
0
255
255
255
255
255
255
255
255
255
255
255
255
254
254
254
255
254
254
255
254
253
225
126
126
124
128
127
123
128
126
162
164
166
165
166
166
165
166
166
166
165
165
164
165
165
164
164
164
165
165
165
164
165
165
164
167
166
164
166
166
164
165
166
165
182
189
190
189
188
188
188
189
188
188
178
165
165
164
166
164
166
133
126
126
126
128
123
124
121
227
242
251
252
253
252
254
255
255
254
254
254
254
254
254
254
253
253
254
254
255
255
254
254
165
165
165
166
166
166
165
165
165
166
165
166
165
166
165
165
165
165
167
165
167
166
165
165
165
167
126
124
126
127
127
124
131
242
253
252
255
252
254
253
254
255
255
255
255
255
255
255
255
255
255
255
254
254
255
255
255
254
254
254
254
254
254
254
254
254
254
254
255
255
254
254
254
254
255
255
255
254
254
254
254
255
254
255
255
255
254
255
254
254
254
254
254
255
255
255
253
249
245
252
246
251
254
254
254
251
255
255
254
254
255
253
254
255
254
254
255
254
241
230
225
150
102
102
111
107
108
110
157
158
157
157
156
156
156
156
156
156
156
156
156
156
155
156
157
156
156
157
157
173
181
183
182
186
182
186
163
155
159
157
158
157
154
158
136
105
108
101
109
102
104
221
246
253
255
251
255
255
255
254
254
254
254
254
254
254
254
255
255
255
255
254
254
254
254
255
255
255
255
254
254
254
254
255
254
254
254
254
254
254
254
254
254
0
0
0
0
0
0
0
0
0
0
0
0
0
0
0
0
0
0
0
0
0
0
0
0
0
0
0
0
0
0
0
0
0
0
0
0
0
0
0
0
0
0
0
0
0
0
0
0
0
0
0
0
0
0
0
0
0
0
0
0
0
0
0
0
0
0
0
0
0
0
0
0
0
0
0
0
0
0
0
0
0
0
0
0
0
0
0
0
0
0
0
0
0
0
0
0
0
0
0
0
0
0
0
0
0
0
0
0
0
0
0
0
0
0
0
0
0
0
0
0
0
0
0
0
0
0
0
0
0
0
0
0
0
0
0
0
0
0
0
0
0
0
0
0
0
0
0
0
0
0
0
0
0
0
0
0
0
0
0
0
0
0
0
0
0
0
0
0
0
0
0
0
0
0
0
0
0
0
0
0
0
0
0
0
0
0
0
0
0
0
0
0
0
0
0
0
0
0
0
0
0
0
0
0
0
0
0
0
0
0
0
0
0
0
0
0
0
0
0
0
0
0
0
0
0
0
0
0
0
0
0
0
0
0
0
0
0
0
0
0
0
0
0
0
255
255
255
255
255
255
255
255
255
255
255
254
254
254
255
254
254
251
254
254
251
183
128
128
128
127
127
125
127
127
137
166
166
166
165
165
165
164
166
164
164
165
164
164
165
165
164
164
164
165
165
165
164
164
165
164
166
166
165
166
166
164
166
165
165
181
190
190
187
188
189
189
189
189
189
174
165
165
164
167
165
165
126
126
126
125
127
124
124
133
247
247
252
254
254
252
254
255
255
254
254
254
254
255
254
254
254
254
254
254
255
255
254
254
165
165
165
165
165
166
165
165
165
166
166
166
166
165
165
165
165
162
162
166
165
165
166
169
129
129
127
127
127
125
123
221
221
251
251
251
253
253
253
255
255
255
255
255
254
254
255
255
255
255
254
254
254
255
255
255
255
254
254
254
254
254
254
254
254
254
254
255
255
255
254
254
255
255
255
254
254
254
254
254
255
255
255
255
254
254
254
255
254
254
254
254
255
255
252
245
161
219
181
206
206
244
251
251
255
255
255
255
254
254
254
252
255
255
254
254
254
254
241
225
225
99
104
103
103
106
143
143
155
159
156
156
156
156
156
156
156
156
156
156
157
157
157
158
158
155
158
159
159
182
182
182
183
183
182
177
154
158
158
157
155
155
159
141
107
107
107
105
105
101
212
251
251
255
254
254
255
255
255
254
254
254
254
255
254
254
254
254
255
255
255
254
254
254
255
255
255
254
254
254
254
255
255
255
255
254
254
254
255
255
254
254
254
0
0
0
0
0
0
0
0
0
0
0
0
0
0
0
0
0
0
0
0
0
0
0
0
0
0
0
0
0
0
0
0
0
0
0
0
0
0
0
0
0
0
0
0
0
0
0
0
0
0
0
0
0
0
0
0
0
0
0
0
0
0
0
0
0
0
0
0
0
0
0
0
0
0
0
0
0
0
0
0
0
0
0
0
0
0
0
0
0
0
0
0
0
0
0
0
0
0
0
0
0
0
0
0
0
0
0
0
0
0
0
0
0
0
0
0
0
0
0
0
0
0
0
0
0
0
0
0
0
0
0
0
0
0
0
0
0
0
0
0
0
0
0
0
0
0
0
0
0
0
0
0
0
0
0
0
0
0
0
0
0
0
0
0
0
0
0
0
0
0
0
0
0
0
0
0
0
0
0
0
0
0
0
0
0
0
0
0
0
0
0
0
0
0
0
0
0
0
0
0
0
0
0
0
0
0
0
0
0
0
0
0
0
0
0
0
0
0
0
0
0
0
0
0
0
0
0
0
0
0
0
0
0
0
0
0
0
0
0
0
0
0
0
254
255
255
255
254
254
255
255
255
255
255
255
254
254
255
255
254
254
252
254
250
147
120
124
129
122
124
123
126
127
146
166
168
166
166
166
166
166
164
166
165
166
166
165
166
165
165
165
164
165
166
166
166
165
164
165
164
164
165
165
166
166
164
166
165
164
181
189
189
188
189
189
190
188
188
188
169
165
166
165
166
163
161
122
128
128
127
124
124
124
159
248
252
254
253
254
254
254
255
255
255
254
254
254
255
254
255
254
254
254
254
255
255
254
254
165
165
166
166
165
166
165
166
166
166
165
165
166
165
165
164
164
166
166
165
166
163
137
132
127
125
126
125
125
135
180
229
238
254
254
254
255
254
255
254
254
254
253
255
255
254
254
255
254
255
255
254
254
255
255
255
255
254
254
254
254
254
254
255
254
255
254
254
255
254
255
254
255
254
255
254
254
254
254
254
255
255
254
254
254
254
254
254
254
254
254
254
252
244
129
161
103
104
101
143
117
239
249
248
254
251
255
255
253
254
254
253
255
255
254
255
254
253
238
180
107
106
103
104
109
108
158
156
159
155
156
156
156
156
156
157
156
157
155
156
156
156
157
155
155
157
152
179
183
182
183
181
181
182
173
154
156
156
156
158
158
160
140
105
107
104
108
106
101
215
237
253
250
255
255
254
254
255
255
255
254
254
254
255
254
254
254
254
255
255
255
254
254
254
255
255
255
254
254
254
254
255
255
255
255
254
254
255
255
255
254
254
254
0
0
0
0
0
0
0
0
0
0
0
0
0
0
0
0
0
0
0
0
0
0
0
0
0
0
0
0
0
0
0
0
0
0
0
0
0
0
0
0
0
0
0
0
0
0
0
0
0
0
0
0
0
0
0
0
0
0
0
0
0
0
0
0
0
0
0
0
0
0
0
0
0
0
0
0
0
0
0
0
0
0
0
0
0
0
0
0
0
0
0
0
0
0
0
0
0
0
0
0
0
0
0
0
0
0
0
0
0
0
0
0
0
0
0
0
0
0
0
0
0
0
0
0
0
0
0
0
0
0
0
0
0
0
0
0
0
0
0
0
0
0
0
0
0
0
0
0
0
0
0
0
0
0
0
0
0
0
0
0
0
0
0
0
0
0
0
0
0
0
0
0
0
0
0
0
0
0
0
0
0
0
0
0
0
0
0
0
0
0
0
0
0
0
0
0
0
0
0
0
0
0
0
0
0
0
0
0
0
0
0
0
0
0
0
0
0
0
0
0
0
0
0
0
0
0
0
0
0
0
0
0
0
0
0
0
0
0
0
0
0
0
254
254
255
255
255
254
254
255
255
255
255
255
254
254
254
254
252
254
255
253
228
228
121
129
129
126
125
129
129
127
137
137
151
160
166
164
164
166
166
164
166
166
166
165
166
166
165
165
164
165
164
166
165
165
165
165
165
166
165
164
164
165
165
164
166
164
165
183
189
189
189
187
187
189
188
188
188
164
165
165
166
165
161
152
124
126
126
127
127
124
120
226
252
254
254
254
254
253
254
255
255
255
254
254
254
255
255
255
254
254
254
254
255
255
254
254
165
165
166
166
166
165
166
166
166
165
165
165
165
164
164
166
167
166
165
164
139
139
125
125
125
128
124
122
122
225
232
238
254
255
254
254
254
254
254
254
254
253
253
254
255
255
254
254
255
255
254
254
254
255
255
255
255
255
254
254
254
255
255
254
254
254
254
254
254
254
254
254
254
254
254
254
254
254
255
255
254
255
254
254
254
254
254
255
255
254
251
244
113
113
104
103
103
107
105
117
103
224
246
246
254
254
255
255
254
255
255
254
254
254
255
254
253
251
172
100
100
107
105
109
111
160
157
157
157
157
156
156
156
157
157
157
156
156
156
156
156
156
159
158
158
156
183
183
184
180
185
185
183
157
157
158
155
156
156
157
156
156
107
105
104
109
105
127
127
233
254
250
254
254
254
252
255
255
255
255
254
254
254
254
254
254
254
254
255
255
255
254
254
254
255
255
255
254
254
254
254
255
255
255
254
254
254
255
255
255
254
254
254
0
0
0
0
0
0
0
0
0
0
0
0
0
0
0
0
0
0
0
0
0
0
0
0
0
0
0
0
0
0
0
0
0
0
0
0
0
0
0
0
0
0
0
0
0
0
0
0
0
0
0
0
0
0
0
0
0
0
0
0
0
0
0
0
0
0
0
0
0
0
0
0
0
0
0
0
0
0
0
0
0
0
0
0
0
0
0
0
0
0
0
0
0
0
0
0
0
0
0
0
0
0
0
0
0
0
0
0
0
0
0
0
0
0
0
0
0
0
0
0
0
0
0
0
0
0
0
0
0
0
0
0
0
0
0
0
0
0
0
0
0
0
0
0
0
0
0
0
0
0
0
0
0
0
0
0
0
0
0
0
0
0
0
0
0
0
0
0
0
0
0
0
0
0
0
0
0
0
0
0
0
0
0
0
0
0
0
0
0
0
0
0
0
0
0
0
0
0
0
0
0
0
0
0
0
0
0
0
0
0
0
0
0
0
0
0
0
0
0
0
0
0
0
0
0
0
0
0
0
0
0
0
0
0
0
0
0
0
0
0
0
254
254
255
255
255
255
254
254
254
254
255
255
255
254
255
253
255
255
255
253
248
133
121
126
127
127
124
129
123
128
125
125
121
127
137
154
131
165
166
163
165
165
166
166
164
165
165
165
165
164
164
166
165
165
165
164
165
165
165
165
165
165
166
166
165
166
165
165
185
189
190
189
189
190
188
189
187
185
164
165
165
166
162
140
129
125
125
125
127
126
125
125
243
255
254
255
254
254
254
254
255
254
255
254
254
255
255
255
254
254
254
254
254
255
255
254
255
165
164
165
165
166
165
166
166
166
166
164
165
164
166
164
165
166
166
133
136
126
128
126
128
125
121
121
204
228
230
237
251
251
254
254
255
255
255
255
254
253
254
254
254
255
255
255
255
255
254
254
254
254
255
255
254
254
255
254
255
255
254
254
254
254
254
254
254
255
255
254
254
255
255
255
255
255
254
254
254
255
255
254
254
254
255
255
255
252
244
114
114
104
106
110
107
105
106
101
102
101
222
246
249
254
254
253
254
254
255
254
255
255
254
252
251
239
119
103
105
109
105
105
146
158
154
158
154
155
153
156
157
157
157
157
156
156
157
157
155
157
156
154
154
170
179
183
183
182
186
181
175
164
153
157
157
156
157
156
155
136
105
106
105
105
105
101
219
233
246
254
254
254
255
254
252
255
255
254
254
254
254
254
254
254
254
254
254
255
255
255
254
254
254
255
255
255
254
254
254
254
255
254
254
254
254
254
255
254
254
254
254
254
0
0
0
0
0
0
0
0
0
0
0
0
0
0
0
0
0
0
0
0
0
0
0
0
0
0
0
0
0
0
0
0
0
0
0
0
0
0
0
0
0
0
0
0
0
0
0
0
0
0
0
0
0
0
0
0
0
0
0
0
0
0
0
0
0
0
0
0
0
0
0
0
0
0
0
0
0
0
0
0
0
0
0
0
0
0
0
0
0
0
0
0
0
0
0
0
0
0
0
0
0
0
0
0
0
0
0
0
0
0
0
0
0
0
0
0
0
0
0
0
0
0
0
0
0
0
0
0
0
0
0
0
0
0
0
0
0
0
0
0
0
0
0
0
0
0
0
0
0
0
0
0
0
0
0
0
0
0
0
0
0
0
0
0
0
0
0
0
0
0
0
0
0
0
0
0
0
0
0
0
0
0
0
0
0
0
0
0
0
0
0
0
0
0
0
0
0
0
0
0
0
0
0
0
0
0
0
0
0
0
0
0
0
0
0
0
0
0
0
0
0
0
0
0
0
0
0
0
0
0
0
0
0
0
0
0
0
0
0
0
255
254
255
255
255
255
255
254
255
254
254
255
255
254
255
253
255
255
254
253
248
136
121
126
124
127
124
125
125
128
127
129
121
129
127
124
131
127
133
163
153
167
165
166
166
165
165
167
165
165
165
165
166
165
165
166
165
164
164
164
165
165
163
166
166
165
165
165
166
189
190
190
189
190
190
187
189
185
179
165
165
165
165
167
129
125
125
125
125
125
124
138
175
251
254
254
255
254
254
254
254
254
254
255
254
254
254
255
254
255
254
254
254
255
255
254
255
254
164
165
165
166
166
166
166
166
166
166
165
166
165
164
165
161
127
133
125
127
128
125
128
122
121
156
226
228
231
234
250
254
254
254
255
255
255
255
254
254
254
254
254
254
255
255
255
255
254
255
254
254
254
255
254
255
254
254
255
255
254
254
254
254
253
254
253
254
255
255
254
254
255
255
255
255
254
254
254
254
254
254
254
254
254
255
252
244
118
114
105
102
106
107
104
105
107
105
104
101
100
191
249
250
253
253
254
255
255
254
254
255
254
254
246
154
119
106
106
109
106
105
158
158
156
156
154
158
156
156
157
157
157
157
156
157
157
155
156
156
156
155
161
170
183
182
181
182
184
183
175
159
157
157
157
154
157
156
155
130
105
108
106
106
105
103
222
233
244
254
252
254
255
255
252
255
254
254
255
254
254
254
254
254
254
254
254
254
255
255
255
254
254
254
255
255
255
255
254
254
255
254
254
254
254
254
255
254
254
254
254
254
254
0
0
0
0
0
0
0
0
0
0
0
0
0
0
0
0
0
0
0
0
0
0
0
0
0
0
0
0
0
0
0
0
0
0
0
0
0
0
0
0
0
0
0
0
0
0
0
0
0
0
0
0
0
0
0
0
0
0
0
0
0
0
0
0
0
0
0
0
0
0
0
0
0
0
0
0
0
0
0
0
0
0
0
0
0
0
0
0
0
0
0
0
0
0
0
0
0
0
0
0
0
0
0
0
0
0
0
0
0
0
0
0
0
0
0
0
0
0
0
0
0
0
0
0
0
0
0
0
0
0
0
0
0
0
0
0
0
0
0
0
0
0
0
0
0
0
0
0
0
0
0
0
0
0
0
0
0
0
0
0
0
0
0
0
0
0
0
0
0
0
0
0
0
0
0
0
0
0
0
0
0
0
0
0
0
0
0
0
0
0
0
0
0
0
0
0
0
0
0
0
0
0
0
0
0
0
0
0
0
0
0
0
0
0
0
0
0
0
0
0
0
0
0
0
0
0
0
0
0
0
0
0
0
0
0
0
0
0
0
254
255
254
255
255
255
254
254
255
255
254
254
254
254
254
255
253
255
254
255
235
235
119
125
121
128
130
127
127
125
128
128
127
126
127
126
128
124
124
127
139
129
164
166
164
164
163
164
164
164
165
166
166
166
166
166
166
165
165
164
165
165
165
164
166
166
165
165
166
166
188
190
190
188
189
188
188
186
175
175
164
165
166
165
158
125
125
124
125
125
125
124
214
214
252
254
254
255
254
254
254
254
255
255
255
254
254
254
255
255
255
255
254
254
254
254
254
255
254
165
165
165
166
165
165
165
166
166
166
166
166
167
156
124
126
126
125
125
125
128
122
124
137
227
227
231
229
229
253
254
254
254
254
255
255
255
254
254
254
254
254
254
255
255
254
254
255
255
255
254
255
255
255
254
254
254
255
254
254
255
255
252
255
253
254
254
254
254
254
254
254
255
255
254
254
254
254
254
254
254
254
254
254
251
244
125
125
102
106
106
109
106
106
108
106
106
106
105
104
104
157
249
223
253
252
252
252
254
254
254
249
247
159
171
102
107
107
105
106
120
142
156
156
156
157
155
157
157
157
157
157
156
157
157
155
156
157
157
155
159
159
184
181
184
183
182
185
185
165
157
157
157
157
154
156
157
157
157
102
106
105
103
103
148
148
229
254
254
250
254
255
255
255
254
254
255
255
255
254
254
254
254
255
254
254
254
255
255
255
255
254
254
254
255
255
255
255
255
255
255
254
254
254
255
255
255
254
254
254
254
254
254
0
0
0
0
0
0
0
0
0
0
0
0
0
0
0
0
0
0
0
0
0
0
0
0
0
0
0
0
0
0
0
0
0
0
0
0
0
0
0
0
0
0
0
0
0
0
0
0
0
0
0
0
0
0
0
0
0
0
0
0
0
0
0
0
0
0
0
0
0
0
0
0
0
0
0
0
0
0
0
0
0
0
0
0
0
0
0
0
0
0
0
0
0
0
0
0
0
0
0
0
0
0
0
0
0
0
0
0
0
0
0
0
0
0
0
0
0
0
0
0
0
0
0
0
0
0
0
0
0
0
0
0
0
0
0
0
0
0
0
0
0
0
0
0
0
0
0
0
0
0
0
0
0
0
0
0
0
0
0
0
0
0
0
0
0
0
0
0
0
0
0
0
0
0
0
0
0
0
0
0
0
0
0
0
0
0
0
0
0
0
0
0
0
0
0
0
0
0
0
0
0
0
0
0
0
0
0
0
0
0
0
0
0
0
0
0
0
0
0
0
0
0
0
0
0
0
0
0
0
0
0
0
0
0
0
0
0
0
254
255
255
254
255
255
255
254
254
255
255
254
254
253
255
255
254
255
251
254
250
176
140
127
121
129
127
125
129
125
125
123
127
127
127
127
126
126
126
126
127
129
125
154
165
167
165
164
164
164
165
165
166
165
165
166
164
165
165
165
164
165
164
164
165
166
165
165
163
169
174
188
190
190
189
188
188
191
185
169
167
164
166
166
167
142
126
128
125
126
125
126
120
241
248
254
254
255
255
254
254
254
255
255
255
254
254
254
255
255
255
255
255
254
254
254
254
254
254
254
165
165
164
165
166
166
166
166
165
167
167
132
125
124
126
126
125
126
129
122
122
125
226
228
230
231
230
236
255
254
254
254
254
254
255
254
255
254
253
254
255
255
255
254
254
254
254
254
255
254
254
255
254
254
254
254
255
254
254
254
254
252
255
255
254
254
254
255
254
255
254
255
255
255
254
254
254
254
254
254
254
254
251
244
125
125
105
104
107
106
106
106
106
114
105
106
106
104
105
106
105
103
223
163
229
249
250
245
248
251
220
130
159
104
106
105
104
105
107
120
157
156
155
157
156
156
157
156
156
156
156
157
157
156
157
157
157
155
159
159
183
182
182
184
183
184
183
176
158
157
155
156
158
154
157
154
157
118
105
107
105
106
104
101
227
230
241
252
254
253
252
253
255
255
254
254
255
255
255
255
254
255
255
255
254
255
254
255
255
255
255
254
254
254
255
255
255
255
255
255
255
254
255
255
255
255
255
254
254
255
254
254
254
0
0
0
0
0
0
0
0
0
0
0
0
0
0
0
0
0
0
0
0
0
0
0
0
0
0
0
0
0
0
0
0
0
0
0
0
0
0
0
0
0
0
0
0
0
0
0
0
0
0
0
0
0
0
0
0
0
0
0
0
0
0
0
0
0
0
0
0
0
0
0
0
0
0
0
0
0
0
0
0
0
0
0
0
0
0
0
0
0
0
0
0
0
0
0
0
0
0
0
0
0
0
0
0
0
0
0
0
0
0
0
0
0
0
0
0
0
0
0
0
0
0
0
0
0
0
0
0
0
0
0
0
0
0
0
0
0
0
0
0
0
0
0
0
0
0
0
0
0
0
0
0
0
0
0
0
0
0
0
0
0
0
0
0
0
0
0
0
0
0
0
0
0
0
0
0
0
0
0
0
0
0
0
0
0
0
0
0
0
0
0
0
0
0
0
0
0
0
0
0
0
0
0
0
0
0
0
0
0
0
0
0
0
0
0
0
0
0
0
0
0
0
0
0
0
0
0
0
0
0
0
0
0
0
0
0
0
254
255
255
255
254
255
255
255
254
254
254
254
254
254
254
255
255
254
254
254
254
248
133
133
124
123
123
129
127
125
128
126
127
127
125
127
127
122
127
125
125
124
125
125
148
167
165
164
166
164
164
165
165
165
165
164
165
165
165
165
165
164
165
165
165
165
165
165
167
164
174
179
190
190
190
189
188
188
187
184
165
165
164
166
166
167
129
128
125
127
127
127
126
178
248
250
254
255
255
255
255
255
254
255
255
255
254
254
254
255
255
255
255
254
254
254
254
255
255
254
254
164
164
166
165
165
164
164
165
149
125
126
126
126
127
127
128
126
122
122
124
225
225
228
230
231
229
245
255
255
254
254
254
254
254
254
254
253
255
255
254
254
254
254
254
253
253
254
253
254
252
255
254
254
254
255
255
255
254
254
254
253
251
251
255
254
254
254
254
255
255
254
254
255
255
254
254
254
254
254
254
251
244
125
125
103
106
106
106
107
106
105
136
112
112
106
105
105
106
104
104
104
101
109
109
149
175
245
173
138
102
102
105
104
104
105
105
106
106
152
158
158
157
155
155
155
157
158
158
157
156
157
157
156
157
157
155
157
157
177
180
183
183
185
183
183
185
163
158
158
157
157
157
156
158
158
160
108
107
107
103
104
104
108
226
230
242
252
254
254
255
255
255
255
255
254
254
255
255
255
255
255
255
255
255
255
255
254
255
255
255
255
254
254
254
255
255
255
255
255
255
254
255
255
255
255
255
254
255
255
255
254
254
254
0
0
0
0
0
0
0
0
0
0
0
0
0
0
0
0
0
0
0
0
0
0
0
0
0
0
0
0
0
0
0
0
0
0
0
0
0
0
0
0
0
0
0
0
0
0
0
0
0
0
0
0
0
0
0
0
0
0
0
0
0
0
0
0
0
0
0
0
0
0
0
0
0
0
0
0
0
0
0
0
0
0
0
0
0
0
0
0
0
0
0
0
0
0
0
0
0
0
0
0
0
0
0
0
0
0
0
0
0
0
0
0
0
0
0
0
0
0
0
0
0
0
0
0
0
0
0
0
0
0
0
0
0
0
0
0
0
0
0
0
0
0
0
0
0
0
0
0
0
0
0
0
0
0
0
0
0
0
0
0
0
0
0
0
0
0
0
0
0
0
0
0
0
0
0
0
0
0
0
0
0
0
0
0
0
0
0
0
0
0
0
0
0
0
0
0
0
0
0
0
0
0
0
0
0
0
0
0
0
0
0
0
0
0
0
0
0
0
0
0
0
0
0
0
0
0
0
0
0
0
0
0
0
0
0
0
255
254
255
255
255
254
255
255
255
254
254
254
254
254
254
254
254
254
252
252
252
253
241
140
162
121
127
121
125
124
125
124
125
125
129
126
128
129
127
127
124
127
122
125
126
148
166
165
167
164
165
165
165
165
164
164
165
165
165
165
165
164
164
165
166
164
167
166
167
166
164
183
186
190
189
190
191
189
188
190
177
165
165
166
166
166
158
126
126
127
125
123
122
121
229
254
255
254
254
255
255
255
255
254
255
255
255
254
254
255
255
255
255
255
254
254
254
254
255
255
254
254
165
168
167
165
144
162
138
125
125
126
125
127
127
127
128
122
126
125
226
225
228
231
230
229
233
255
255
255
251
254
254
254
254
254
253
251
254
252
253
252
254
254
255
254
254
253
255
255
253
254
255
253
254
254
255
255
254
255
253
255
255
254
253
255
254
254
254
254
255
255
254
255
255
254
254
254
255
254
251
244
124
125
103
105
105
106
106
107
106
137
154
155
111
114
107
107
107
106
108
106
106
106
103
105
102
105
103
105
102
107
106
102
105
107
104
104
146
155
156
154
160
156
155
158
156
158
157
156
156
157
155
154
156
156
160
157
178
184
184
184
183
182
180
184
179
171
156
157
155
156
155
156
156
155
156
108
106
106
105
106
102
122
197
227
253
254
254
252
255
255
255
255
255
254
254
254
255
255
255
255
255
254
254
254
255
255
254
255
255
255
255
254
255
255
255
255
254
254
254
254
254
255
254
254
255
255
254
255
255
254
254
254
254
0
0
0
0
0
0
0
0
0
0
0
0
0
0
0
0
0
0
0
0
0
0
0
0
0
0
0
0
0
0
0
0
0
0
0
0
0
0
0
0
0
0
0
0
0
0
0
0
0
0
0
0
0
0
0
0
0
0
0
0
0
0
0
0
0
0
0
0
0
0
0
0
0
0
0
0
0
0
0
0
0
0
0
0
0
0
0
0
0
0
0
0
0
0
0
0
0
0
0
0
0
0
0
0
0
0
0
0
0
0
0
0
0
0
0
0
0
0
0
0
0
0
0
0
0
0
0
0
0
0
0
0
0
0
0
0
0
0
0
0
0
0
0
0
0
0
0
0
0
0
0
0
0
0
0
0
0
0
0
0
0
0
0
0
0
0
0
0
0
0
0
0
0
0
0
0
0
0
0
0
0
0
0
0
0
0
0
0
0
0
0
0
0
0
0
0
0
0
0
0
0
0
0
0
0
0
0
0
0
0
0
0
0
0
0
0
0
0
0
0
0
0
0
0
0
0
0
0
0
0
0
0
0
0
0
255
255
254
255
255
255
254
255
254
254
254
255
254
254
254
255
254
254
255
254
252
252
253
228
162
200
152
121
123
119
122
124
124
122
129
123
124
125
125
124
126
127
127
125
126
127
155
164
167
166
165
165
165
165
165
164
165
164
165
165
165
165
165
164
166
164
164
164
167
166
163
167
186
188
190
190
188
190
188
188
190
166
165
165
166
166
166
128
126
127
123
129
122
123
157
248
255
252
255
255
255
255
255
255
254
255
255
255
254
255
254
254
255
255
254
254
254
254
254
255
255
254
254
168
150
129
144
128
126
123
125
128
126
127
127
127
121
121
144
225
226
228
231
231
229
230
251
255
252
252
251
254
255
254
254
255
254
251
252
255
254
254
254
254
255
254
254
253
254
251
254
254
255
255
254
255
255
254
254
253
254
255
252
251
253
253
254
254
254
253
254
255
255
254
253
254
253
255
255
252
244
124
124
103
105
105
106
105
106
106
130
160
154
156
155
114
123
104
105
105
107
105
106
106
104
105
105
108
108
105
108
107
106
107
106
105
105
134
156
155
156
157
156
156
157
156
156
156
157
156
156
157
159
154
159
165
160
182
185
184
184
182
183
182
183
182
179
157
156
155
155
157
156
156
157
157
120
120
104
107
105
104
98
122
220
232
254
254
252
253
255
255
255
255
255
255
254
254
254
255
255
255
255
255
254
254
254
255
255
254
255
255
255
255
255
255
255
254
254
254
255
254
254
254
254
254
254
254
254
254
254
254
254
255
254
254
0
0
0
0
0
0
0
0
0
0
0
0
0
0
0
0
0
0
0
0
0
0
0
0
0
0
0
0
0
0
0
0
0
0
0
0
0
0
0
0
0
0
0
0
0
0
0
0
0
0
0
0
0
0
0
0
0
0
0
0
0
0
0
0
0
0
0
0
0
0
0
0
0
0
0
0
0
0
0
0
0
0
0
0
0
0
0
0
0
0
0
0
0
0
0
0
0
0
0
0
0
0
0
0
0
0
0
0
0
0
0
0
0
0
0
0
0
0
0
0
0
0
0
0
0
0
0
0
0
0
0
0
0
0
0
0
0
0
0
0
0
0
0
0
0
0
0
0
0
0
0
0
0
0
0
0
0
0
0
0
0
0
0
0
0
0
0
0
0
0
0
0
0
0
0
0
0
0
0
0
0
0
0
0
0
0
0
0
0
0
0
0
0
0
0
0
0
0
0
0
0
0
0
0
0
0
0
0
0
0
0
0
0
0
0
0
0
0
0
0
0
0
0
0
0
0
0
0
0
0
0
0
0
0
255
254
254
254
255
255
255
254
254
254
255
255
255
254
255
255
255
254
255
255
254
254
254
241
226
225
225
212
188
229
159
140
129
129
122
123
131
123
125
129
127
126
127
127
126
126
125
161
164
164
164
167
166
163
165
164
164
164
165
166
166
164
164
165
166
166
166
166
163
166
166
163
172
190
190
190
189
189
188
188
188
187
165
166
166
166
164
150
125
128
123
123
125
119
125
209
253
254
254
255
255
255
255
255
255
254
255
255
255
255
254
254
254
255
254
254
254
254
254
254
255
255
254
254
126
126
129
125
128
124
128
126
126
128
126
120
123
157
227
226
231
230
230
229
231
234
242
254
254
254
254
254
253
254
254
254
254
254
252
251
252
252
254
254
254
254
254
253
255
252
254
255
253
253
255
255
254
254
254
252
255
253
252
252
252
255
254
254
253
253
253
255
255
254
254
253
254
254
251
244
124
124
103
106
106
106
105
105
108
127
156
155
157
158
158
157
135
145
105
105
106
107
104
107
107
105
105
104
106
109
105
105
106
106
109
106
135
156
156
157
157
157
156
156
157
157
156
156
156
156
157
154
157
152
169
169
182
184
184
184
182
183
182
183
183
183
160
156
157
156
157
157
157
156
157
155
149
106
107
107
105
105
105
155
226
230
246
255
255
255
255
255
255
255
255
255
255
255
254
254
255
255
255
255
254
254
254
254
255
255
254
255
255
255
255
255
255
255
254
254
255
255
254
254
254
254
254
255
254
255
255
254
254
254
255
254
254
0
0
0
0
0
0
0
0
0
0
0
0
0
0
0
0
0
0
0
0
0
0
0
0
0
0
0
0
0
0
0
0
0
0
0
0
0
0
0
0
0
0
0
0
0
0
0
0
0
0
0
0
0
0
0
0
0
0
0
0
0
0
0
0
0
0
0
0
0
0
0
0
0
0
0
0
0
0
0
0
0
0
0
0
0
0
0
0
0
0
0
0
0
0
0
0
0
0
0
0
0
0
0
0
0
0
0
0
0
0
0
0
0
0
0
0
0
0
0
0
0
0
0
0
0
0
0
0
0
0
0
0
0
0
0
0
0
0
0
0
0
0
0
0
0
0
0
0
0
0
0
0
0
0
0
0
0
0
0
0
0
0
0
0
0
0
0
0
0
0
0
0
0
0
0
0
0
0
0
0
0
0
0
0
0
0
0
0
0
0
0
0
0
0
0
0
0
0
0
0
0
0
0
0
0
0
0
0
0
0
0
0
0
0
0
0
0
0
0
0
0
0
0
0
0
0
0
0
0
0
0
0
0
254
254
254
254
254
255
255
255
254
255
255
255
255
255
255
255
255
254
254
255
255
251
254
242
229
232
227
229
230
229
229
229
211
195
227
224
131
177
120
129
121
124
126
126
127
125
125
130
165
165
163
169
166
163
163
165
165
165
166
165
166
166
166
165
164
164
165
166
166
163
166
166
165
176
186
187
189
189
190
187
188
188
171
164
166
165
166
150
133
124
128
127
126
126
125
144
247
254
254
254
255
255
255
255
255
255
255
255
255
255
255
254
254
254
255
254
254
254
254
254
254
255
255
255
254
128
128
130
128
124
124
127
126
123
119
120
189
229
227
228
230
230
228
229
231
234
255
254
254
254
253
251
253
252
250
253
251
244
246
251
246
248
254
249
247
252
251
249
246
252
248
249
254
251
248
248
254
249
247
252
246
246
249
252
251
254
254
255
254
254
255
254
254
254
254
254
254
251
243
122
124
104
106
106
106
106
105
106
118
156
156
155
157
155
158
155
157
145
155
123
106
104
104
107
105
105
105
104
106
106
105
107
106
111
109
149
156
156
157
157
157
157
157
157
157
155
156
156
157
157
155
154
175
182
181
183
182
183
184
182
184
183
182
184
183
164
156
157
157
155
157
157
156
155
159
155
129
106
107
108
104
107
106
195
230
230
248
255
254
255
255
255
255
255
255
255
255
254
254
254
254
255
255
255
255
254
254
254
254
255
255
254
255
255
255
255
255
255
254
254
255
255
255
254
254
254
254
255
254
254
254
254
254
254
255
254
254
254
0
0
0
0
0
0
0
0
0
0
0
0
0
0
0
0
0
0
0
0
0
0
0
0
0
0
0
0
0
0
0
0
0
0
0
0
0
0
0
0
0
0
0
0
0
0
0
0
0
0
0
0
0
0
0
0
0
0
0
0
0
0
0
0
0
0
0
0
0
0
0
0
0
0
0
0
0
0
0
0
0
0
0
0
0
0
0
0
0
0
0
0
0
0
0
0
0
0
0
0
0
0
0
0
0
0
0
0
0
0
0
0
0
0
0
0
0
0
0
0
0
0
0
0
0
0
0
0
0
0
0
0
0
0
0
0
0
0
0
0
0
0
0
0
0
0
0
0
0
0
0
0
0
0
0
0
0
0
0
0
0
0
0
0
0
0
0
0
0
0
0
0
0
0
0
0
0
0
0
0
0
0
0
0
0
0
0
0
0
0
0
0
0
0
0
0
0
0
0
0
0
0
0
0
0
0
0
0
0
0
0
0
0
0
0
0
0
0
0
0
0
0
0
0
0
0
0
0
0
0
0
0
255
254
254
254
254
254
255
255
255
254
255
255
255
255
255
254
255
254
254
254
255
255
253
230
230
230
229
229
229
227
227
227
227
228
232
232
225
222
222
148
123
123
123
127
126
126
125
142
142
163
162
165
165
166
164
164
165
164
165
165
165
165
165
165
164
164
164
164
166
166
164
166
166
163
187
189
189
188
189
189
188
187
187
164
166
166
166
165
125
125
125
125
125
125
120
210
210
252
254
252
252
255
255
255
255
255
255
255
255
255
255
255
254
254
254
255
254
254
254
254
254
254
255
255
255
254
129
129
125
127
127
123
124
137
137
214
230
230
229
230
230
230
230
230
230
254
253
253
254
254
251
251
246
233
233
223
215
210
210
213
212
212
211
215
215
212
217
218
218
220
220
220
220
220
221
221
219
222
222
226
228
228
226
238
252
252
251
254
254
255
254
254
254
254
255
255
252
239
111
111
104
106
106
106
106
106
105
114
156
156
157
156
156
156
158
154
154
157
159
159
146
119
119
105
105
108
108
105
107
107
110
107
127
127
156
156
156
156
157
156
156
158
156
156
157
156
156
157
156
157
157
178
182
182
184
182
184
184
183
184
184
183
184
184
170
156
156
156
155
158
158
155
156
156
156
152
108
108
109
107
107
103
131
227
227
232
252
252
254
255
255
255
255
255
255
255
254
254
254
254
254
254
255
255
255
255
254
254
254
255
254
254
254
255
255
255
255
255
255
254
255
255
253
254
254
254
254
254
254
254
254
254
254
254
255
255
254
254
254
0
0
0
0
0
0
0
0
0
0
0
0
0
0
0
0
0
0
0
0
0
0
0
0
0
0
0
0
0
0
0
0
0
0
0
0
0
0
0
0
0
0
0
0
0
0
0
0
0
0
0
0
0
0
0
0
0
0
0
0
0
0
0
0
0
0
0
0
0
0
0
0
0
0
0
0
0
0
0
0
0
0
0
0
0
0
0
0
0
0
0
0
0
0
0
0
0
0
0
0
0
0
0
0
0
0
0
0
0
0
0
0
0
0
0
0
0
0
0
0
0
0
0
0
0
0
0
0
0
0
0
0
0
0
0
0
0
0
0
0
0
0
0
0
0
0
0
0
0
0
0
0
0
0
0
0
0
0
0
0
0
0
0
0
0
0
0
0
0
0
0
0
0
0
0
0
0
0
0
0
0
0
0
0
0
0
0
0
0
0
0
0
0
0
0
0
0
0
0
0
0
0
0
0
0
0
0
0
0
0
0
0
0
0
0
0
0
0
0
0
0
0
0
0
0
0
0
0
0
0
0
255
255
254
254
254
254
254
255
255
255
254
255
255
254
255
254
254
255
255
254
254
254
255
252
228
230
226
231
232
232
233
233
230
230
229
228
226
233
225
227
169
120
120
126
125
126
126
124
152
164
166
165
162
164
165
166
165
164
165
165
164
164
164
164
165
165
165
165
165
165
163
164
167
163
179
188
189
189
189
189
189
188
185
175
168
164
165
166
154
126
127
127
128
127
127
119
246
245
255
254
255
254
255
255
255
255
255
255
255
255
255
255
255
254
254
254
255
254
254
254
254
254
254
254
254
254
254
127
125
125
120
124
188
160
227
230
231
229
230
231
230
229
230
230
252
254
253
254
255
250
251
231
104
163
120
106
105
110
109
105
107
112
104
108
109
101
104
113
118
104
113
114
102
101
116
113
103
117
117
101
121
120
102
102
187
249
252
254
254
252
255
254
254
253
253
252
246
112
114
105
105
107
105
107
106
104
108
157
156
156
156
157
156
156
156
159
155
157
156
156
158
152
140
153
152
111
108
139
111
110
153
161
149
158
158
157
156
157
157
156
157
155
158
156
156
156
158
156
156
157
171
185
183
183
186
183
185
184
184
184
184
183
183
171
156
156
156
156
156
159
154
158
155
155
159
126
110
103
105
104
105
103
180
225
228
235
251
254
252
254
254
255
255
255
255
254
254
254
255
255
254
254
255
255
255
255
255
255
254
254
255
254
254
254
255
255
255
255
254
254
254
255
255
254
255
254
254
255
254
254
254
254
254
254
254
254
254
254
254
254
0
0
0
0
0
0
0
0
0
0
0
0
0
0
0
0
0
0
0
0
0
0
0
0
0
0
0
0
0
0
0
0
0
0
0
0
0
0
0
0
0
0
0
0
0
0
0
0
0
0
0
0
0
0
0
0
0
0
0
0
0
0
0
0
0
0
0
0
0
0
0
0
0
0
0
0
0
0
0
0
0
0
0
0
0
0
0
0
0
0
0
0
0
0
0
0
0
0
0
0
0
0
0
0
0
0
0
0
0
0
0
0
0
0
0
0
0
0
0
0
0
0
0
0
0
0
0
0
0
0
0
0
0
0
0
0
0
0
0
0
0
0
0
0
0
0
0
0
0
0
0
0
0
0
0
0
0
0
0
0
0
0
0
0
0
0
0
0
0
0
0
0
0
0
0
0
0
0
0
0
0
0
0
0
0
0
0
0
0
0
0
0
0
0
0
0
0
0
0
0
0
0
0
0
0
0
0
0
0
0
0
0
0
0
0
0
0
0
0
0
0
0
0
0
0
0
0
0
0
0
254
255
255
254
254
254
254
254
255
255
255
254
255
255
255
254
254
254
255
254
255
254
255
255
238
231
231
231
227
232
226
230
224
224
230
230
226
229
229
227
231
175
122
122
125
128
126
127
132
164
164
165
165
164
167
165
165
165
164
165
164
164
165
164
164
164
165
165
165
166
163
163
166
160
160
187
187
189
188
189
189
188
187
165
165
166
166
166
164
125
127
127
127
129
127
119
215
251
251
251
255
254
254
255
255
255
255
255
255
255
255
255
255
255
254
254
254
255
254
254
254
254
254
254
254
254
254
254
125
122
145
214
214
229
229
230
229
229
230
230
229
229
229
250
254
254
255
255
251
251
189
103
104
101
106
103
103
104
105
105
105
105
104
105
105
107
107
105
105
104
104
106
107
107
106
105
103
107
108
101
104
104
105
105
98
228
252
254
254
255
255
254
254
253
251
245
112
112
106
107
105
109
107
107
105
106
157
157
156
156
156
156
156
157
157
156
155
157
157
156
158
158
160
157
157
157
158
139
155
160
155
155
156
154
158
155
157
157
157
157
156
156
157
158
156
155
159
158
158
154
175
185
184
180
180
180
183
185
184
182
182
183
166
156
156
156
156
156
156
156
156
158
158
157
151
126
108
104
105
106
106
119
119
227
229
235
249
253
253
253
254
255
255
254
255
254
254
255
255
255
255
255
255
255
255
255
255
255
254
254
254
255
255
255
254
255
255
255
255
254
252
255
254
254
255
253
254
253
253
254
254
254
254
254
254
254
254
254
254
254
254
0
0
0
0
0
0
0
0
0
0
0
0
0
0
0
0
0
0
0
0
0
0
0
0
0
0
0
0
0
0
0
0
0
0
0
0
0
0
0
0
0
0
0
0
0
0
0
0
0
0
0
0
0
0
0
0
0
0
0
0
0
0
0
0
0
0
0
0
0
0
0
0
0
0
0
0
0
0
0
0
0
0
0
0
0
0
0
0
0
0
0
0
0
0
0
0
0
0
0
0
0
0
0
0
0
0
0
0
0
0
0
0
0
0
0
0
0
0
0
0
0
0
0
0
0
0
0
0
0
0
0
0
0
0
0
0
0
0
0
0
0
0
0
0
0
0
0
0
0
0
0
0
0
0
0
0
0
0
0
0
0
0
0
0
0
0
0
0
0
0
0
0
0
0
0
0
0
0
0
0
0
0
0
0
0
0
0
0
0
0
0
0
0
0
0
0
0
0
0
0
0
0
0
0
0
0
0
0
0
0
0
0
0
0
0
0
0
0
0
0
0
0
0
0
0
0
0
0
0
254
254
255
255
254
254
254
255
254
255
255
255
255
255
254
255
255
255
254
255
254
254
254
255
254
237
231
227
228
229
231
228
230
231
228
230
228
231
231
227
228
222
171
124
127
126
124
125
124
149
165
165
165
166
165
165
165
166
165
165
165
165
165
165
164
164
164
165
165
165
164
163
163
169
163
173
189
187
188
188
189
190
188
188
163
166
164
165
150
133
125
127
127
126
124
122
168
245
254
250
255
253
254
254
255
255
255
255
255
255
255
255
255
255
255
254
254
254
255
254
254
254
254
254
254
254
255
253
254
186
228
227
229
227
229
232
229
229
230
230
230
229
250
253
254
255
253
251
251
209
101
104
105
108
104
108
106
106
105
105
108
108
106
102
107
103
105
105
105
109
109
106
105
102
108
105
105
104
104
107
109
106
107
107
106
108
250
252
255
253
255
252
255
253
246
169
130
104
105
107
102
106
106
106
105
151
155
156
156
155
156
156
157
157
156
156
156
157
157
157
156
155
154
157
157
157
156
158
156
156
152
155
158
156
156
157
157
157
156
156
159
157
155
156
156
158
156
156
157
153
161
180
181
185
182
183
184
182
182
181
181
162
156
156
156
156
156
156
156
156
156
158
156
156
158
106
105
105
106
106
103
104
225
225
232
242
253
255
255
254
255
255
254
255
255
255
255
255
255
255
255
255
255
255
255
255
255
255
255
254
254
254
255
255
255
254
255
255
255
254
255
254
254
254
255
254
254
253
254
254
254
254
255
255
254
254
253
255
254
254
254
254
0
0
0
0
0
0
0
0
0
0
0
0
0
0
0
0
0
0
0
0
0
0
0
0
0
0
0
0
0
0
0
0
0
0
0
0
0
0
0
0
0
0
0
0
0
0
0
0
0
0
0
0
0
0
0
0
0
0
0
0
0
0
0
0
0
0
0
0
0
0
0
0
0
0
0
0
0
0
0
0
0
0
0
0
0
0
0
0
0
0
0
0
0
0
0
0
0
0
0
0
0
0
0
0
0
0
0
0
0
0
0
0
0
0
0
0
0
0
0
0
0
0
0
0
0
0
0
0
0
0
0
0
0
0
0
0
0
0
0
0
0
0
0
0
0
0
0
0
0
0
0
0
0
0
0
0
0
0
0
0
0
0
0
0
0
0
0
0
0
0
0
0
0
0
0
0
0
0
0
0
0
0
0
0
0
0
0
0
0
0
0
0
0
0
0
0
0
0
0
0
0
0
0
0
0
0
0
0
0
0
0
0
0
0
0
0
0
0
0
0
0
0
0
0
0
0
0
0
254
254
254
255
255
254
254
255
255
254
255
255
254
254
254
255
255
255
255
254
254
254
254
254
254
254
253
227
236
234
233
228
226
230
228
227
228
231
230
233
230
222
230
122
127
125
126
126
124
135
165
165
166
165
165
165
166
165
165
165
165
165
165
165
164
164
164
164
165
164
164
166
163
164
162
173
183
188
189
189
187
188
188
188
165
166
164
166
160
133
127
127
127
128
127
120
168
230
254
250
254
254
254
254
254
255
255
255
255
255
254
254
255
255
255
254
254
254
254
255
254
255
254
254
254
254
255
255
255
255
228
230
228
227
232
229
229
230
231
232
230
251
253
253
254
255
254
251
246
113
101
103
108
107
104
106
105
106
108
105
106
106
103
106
107
103
107
105
107
107
106
106
104
102
108
107
105
110
107
102
106
106
108
104
106
119
249
255
255
255
254
252
254
254
233
169
102
108
105
102
103
106
105
107
149
151
155
157
156
156
156
156
157
157
156
156
157
155
157
156
155
157
154
155
157
157
156
157
160
156
157
155
158
157
155
158
157
157
156
156
156
156
155
156
156
157
156
155
159
153
155
172
183
185
183
183
184
177
168
175
159
157
156
156
156
156
156
156
156
156
156
156
158
156
142
106
107
103
107
104
103
126
226
225
224
243
255
255
254
255
255
254
254
254
255
255
255
255
255
255
255
255
255
255
255
255
255
255
255
255
254
254
254
255
255
255
254
255
254
253
254
254
254
254
255
255
253
254
254
254
254
254
254
255
254
254
254
254
254
254
254
254
254
0
0
0
0
0
0
0
0
0
0
0
0
0
0
0
0
0
0
0
0
0
0
0
0
0
0
0
0
0
0
0
0
0
0
0
0
0
0
0
0
0
0
0
0
0
0
0
0
0
0
0
0
0
0
0
0
0
0
0
0
0
0
0
0
0
0
0
0
0
0
0
0
0
0
0
0
0
0
0
0
0
0
0
0
0
0
0
0
0
0
0
0
0
0
0
0
0
0
0
0
0
0
0
0
0
0
0
0
0
0
0
0
0
0
0
0
0
0
0
0
0
0
0
0
0
0
0
0
0
0
0
0
0
0
0
0
0
0
0
0
0
0
0
0
0
0
0
0
0
0
0
0
0
0
0
0
0
0
0
0
0
0
0
0
0
0
0
0
0
0
0
0
0
0
0
0
0
0
0
0
0
0
0
0
0
0
0
0
0
0
0
0
0
0
0
0
0
0
0
0
0
0
0
0
0
0
0
0
0
0
0
0
0
0
0
0
0
0
0
0
0
0
0
0
0
0
0
255
255
255
254
255
255
254
254
255
255
254
255
255
254
254
255
255
254
255
255
254
254
254
254
254
254
254
254
250
255
245
241
236
236
236
234
234
229
228
231
231
229
219
219
121
125
128
127
125
156
156
164
166
166
164
164
164
164
165
164
164
166
165
165
165
165
164
164
164
164
164
164
166
166
166
164
188
188
186
188
188
188
188
186
186
163
165
166
164
143
125
125
126
126
126
127
132
251
251
254
255
255
254
254
254
254
255
255
255
255
254
254
254
254
255
255
254
254
254
254
255
255
255
254
254
254
254
255
255
255
255
229
229
231
230
230
228
232
233
233
251
253
253
254
255
255
255
250
158
158
106
105
108
106
108
106
106
104
105
105
106
110
102
102
109
106
106
104
102
114
105
106
109
109
104
105
105
101
107
106
106
106
106
106
101
234
251
249
252
253
253
253
253
254
250
106
106
106
103
107
107
107
104
145
145
154
157
157
156
156
156
156
156
156
156
156
156
156
156
157
155
155
158
156
156
157
157
157
159
155
155
155
154
156
155
156
154
157
157
158
156
156
158
164
177
165
157
155
155
158
157
157
169
177
173
173
165
160
160
155
156
157
157
156
156
156
156
156
156
156
156
156
156
154
105
105
106
104
106
106
100
223
223
229
237
250
253
254
254
254
254
253
255
254
255
255
255
255
255
255
255
255
255
255
255
254
254
255
255
255
255
254
254
254
255
255
255
254
255
252
252
254
255
255
255
252
254
254
255
254
254
254
254
254
255
254
254
254
254
255
255
254
254
254
0
0
0
0
0
0
0
0
0
0
0
0
0
0
0
0
0
0
0
0
0
0
0
0
0
0
0
0
0
0
0
0
0
0
0
0
0
0
0
0
0
0
0
0
0
0
0
0
0
0
0
0
0
0
0
0
0
0
0
0
0
0
0
0
0
0
0
0
0
0
0
0
0
0
0
0
0
0
0
0
0
0
0
0
0
0
0
0
0
0
0
0
0
0
0
0
0
0
0
0
0
0
0
0
0
0
0
0
0
0
0
0
0
0
0
0
0
0
0
0
0
0
0
0
0
0
0
0
0
0
0
0
0
0
0
0
0
0
0
0
0
0
0
0
0
0
0
0
0
0
0
0
0
0
0
0
0
0
0
0
0
0
0
0
0
0
0
0
0
0
0
0
0
0
0
0
0
0
0
0
0
0
0
0
0
0
0
0
0
0
0
0
0
0
0
0
0
0
0
0
0
0
0
0
0
0
0
0
0
0
0
0
0
0
0
0
0
0
0
0
0
0
0
0
0
0
255
255
255
255
255
255
255
254
254
255
254
255
255
255
255
254
254
254
254
255
255
255
254
255
255
254
254
254
255
255
255
254
255
250
252
244
244
251
246
231
227
228
229
180
128
125
128
124
126
124
167
165
167
166
167
165
165
164
165
164
164
165
165
165
165
165
164
164
164
165
164
165
165
164
167
166
173
191
189
188
190
188
187
191
175
163
166
166
165
158
127
125
128
126
126
127
122
191
253
255
251
254
254
254
254
254
254
255
255
255
255
254
254
254
254
255
255
254
254
254
254
255
255
255
255
254
254
254
255
255
254
254
228
230
230
229
230
238
234
253
254
254
254
255
254
255
254
248
225
102
105
105
108
106
123
113
115
147
110
110
145
148
111
111
148
107
112
149
145
114
150
150
113
113
152
114
114
150
145
104
104
107
107
107
104
247
251
253
254
254
254
253
250
254
249
107
104
107
109
105
105
106
108
112
153
153
158
156
156
156
156
156
157
157
157
156
156
156
156
156
157
155
155
158
156
157
157
157
156
155
157
158
155
157
155
159
156
157
157
155
159
157
182
183
177
183
177
158
155
155
157
157
153
154
159
158
157
156
155
156
156
157
156
156
156
156
156
156
156
156
157
156
158
123
108
107
105
106
108
104
140
192
228
229
238
250
254
254
254
255
255
255
255
254
255
255
255
255
255
255
255
255
255
255
254
254
254
254
255
255
255
255
254
254
254
254
255
254
254
254
253
254
254
254
252
254
254
254
255
254
254
254
254
254
254
255
254
254
254
255
255
255
254
254
254
0
0
0
0
0
0
0
0
0
0
0
0
0
0
0
0
0
0
0
0
0
0
0
0
0
0
0
0
0
0
0
0
0
0
0
0
0
0
0
0
0
0
0
0
0
0
0
0
0
0
0
0
0
0
0
0
0
0
0
0
0
0
0
0
0
0
0
0
0
0
0
0
0
0
0
0
0
0
0
0
0
0
0
0
0
0
0
0
0
0
0
0
0
0
0
0
0
0
0
0
0
0
0
0
0
0
0
0
0
0
0
0
0
0
0
0
0
0
0
0
0
0
0
0
0
0
0
0
0
0
0
0
0
0
0
0
0
0
0
0
0
0
0
0
0
0
0
0
0
0
0
0
0
0
0
0
0
0
0
0
0
0
0
0
0
0
0
0
0
0
0
0
0
0
0
0
0
0
0
0
0
0
0
0
0
0
0
0
0
0
0
0
0
0
0
0
0
0
0
0
0
0
0
0
0
0
0
0
0
0
0
0
0
0
0
0
0
0
0
0
0
0
0
0
0
255
255
255
255
255
254
255
255
254
254
254
254
255
255
255
255
254
254
255
255
255
255
255
255
255
255
254
255
255
255
255
255
255
255
252
255
255
254
254
253
241
228
229
221
120
120
125
129
129
125
164
163
163
164
166
166
165
165
165
165
164
166
166
165
164
165
165
164
165
165
165
164
164
165
166
166
163
188
188
188
188
187
187
189
182
162
162
164
165
165
132
126
129
129
125
122
122
155
250
255
255
254
254
254
255
254
254
254
255
255
255
254
254
254
254
255
255
255
254
254
254
254
255
255
255
254
254
254
254
255
255
254
254
230
228
230
245
245
255
254
254
254
254
254
254
253
251
251
157
105
108
108
107
108
108
159
160
147
160
158
158
158
158
161
148
160
157
160
160
160
157
157
162
158
152
159
154
155
155
110
103
107
106
105
207
207
253
251
251
252
251
253
253
253
217
217
104
106
109
102
105
107
107
106
107
153
146
156
157
157
156
157
157
157
156
156
156
156
156
156
155
157
155
154
157
157
157
156
156
156
154
154
157
157
156
157
157
155
157
155
156
181
184
184
184
186
186
172
158
158
158
156
159
159
157
157
157
158
156
156
156
157
157
156
156
156
156
156
156
157
157
155
136
123
104
106
105
105
103
108
140
227
231
233
233
254
254
254
254
255
254
254
254
254
254
255
255
255
255
255
255
255
255
255
254
255
255
255
255
255
255
255
255
254
254
254
254
253
253
253
252
254
255
254
250
250
253
254
254
252
255
254
254
254
254
254
255
254
254
254
255
255
255
255
254
254
0
0
0
0
0
0
0
0
0
0
0
0
0
0
0
0
0
0
0
0
0
0
0
0
0
0
0
0
0
0
0
0
0
0
0
0
0
0
0
0
0
0
0
0
0
0
0
0
0
0
0
0
0
0
0
0
0
0
0
0
0
0
0
0
0
0
0
0
0
0
0
0
0
0
0
0
0
0
0
0
0
0
0
0
0
0
0
0
0
0
0
0
0
0
0
0
0
0
0
0
0
0
0
0
0
0
0
0
0
0
0
0
0
0
0
0
0
0
0
0
0
0
0
0
0
0
0
0
0
0
0
0
0
0
0
0
0
0
0
0
0
0
0
0
0
0
0
0
0
0
0
0
0
0
0
0
0
0
0
0
0
0
0
0
0
0
0
0
0
0
0
0
0
0
0
0
0
0
0
0
0
0
0
0
0
0
0
0
0
0
0
0
0
0
0
0
0
0
0
0
0
0
0
0
0
0
0
0
0
0
0
0
0
0
0
0
0
0
0
0
0
0
0
0
254
255
255
255
255
254
254
255
254
254
254
255
255
255
255
255
255
254
254
254
255
255
255
255
255
255
255
254
255
255
255
254
255
255
254
255
254
255
254
254
255
247
227
229
155
126
125
123
125
125
161
165
168
166
166
166
165
165
165
165
166
165
166
166
165
164
165
165
165
165
164
164
165
165
165
166
177
184
191
187
189
189
188
190
185
171
167
164
168
167
147
130
124
127
126
126
121
128
230
255
255
254
254
254
254
255
254
255
255
255
254
254
254
255
255
255
255
255
255
254
254
255
255
255
255
255
254
254
254
255
255
255
254
254
235
255
253
255
255
253
254
254
255
255
254
252
255
231
113
104
107
105
105
104
148
160
153
155
155
156
154
156
156
155
155
155
157
156
152
156
154
152
156
154
158
157
153
161
132
105
106
107
103
104
114
238
238
255
254
253
254
252
254
254
252
160
123
102
107
108
106
106
107
107
103
105
141
140
158
157
155
156
156
156
156
156
156
157
156
156
156
155
158
157
157
157
157
157
156
156
156
158
157
156
158
156
156
157
156
156
167
181
180
185
182
181
184
179
155
155
157
156
157
156
156
157
156
156
156
156
156
156
157
156
156
157
156
156
157
157
154
158
150
103
107
106
105
108
103
102
213
231
228
229
248
255
253
254
254
254
253
255
255
254
255
254
255
255
255
255
255
255
255
255
255
255
255
255
255
255
255
255
255
254
253
254
254
254
254
254
252
254
254
244
250
251
245
251
255
252
252
254
254
254
254
254
254
254
254
254
254
255
255
255
255
254
254
0
0
0
0
0
0
0
0
0
0
0
0
0
0
0
0
0
0
0
0
0
0
0
0
0
0
0
0
0
0
0
0
0
0
0
0
0
0
0
0
0
0
0
0
0
0
0
0
0
0
0
0
0
0
0
0
0
0
0
0
0
0
0
0
0
0
0
0
0
0
0
0
0
0
0
0
0
0
0
0
0
0
0
0
0
0
0
0
0
0
0
0
0
0
0
0
0
0
0
0
0
0
0
0
0
0
0
0
0
0
0
0
0
0
0
0
0
0
0
0
0
0
0
0
0
0
0
0
0
0
0
0
0
0
0
0
0
0
0
0
0
0
0
0
0
0
0
0
0
0
0
0
0
0
0
0
0
0
0
0
0
0
0
0
0
0
0
0
0
0
0
0
0
0
0
0
0
0
0
0
0
0
0
0
0
0
0
0
0
0
0
0
0
0
0
0
0
0
0
0
0
0
0
0
0
0
0
0
0
0
0
0
0
0
0
0
0
0
0
0
0
0
0
254
254
255
255
255
254
254
255
254
254
254
254
255
255
255
255
255
254
252
254
254
254
255
255
254
255
255
255
254
255
255
255
255
255
255
255
254
254
254
254
254
254
248
229
178
124
125
128
127
140
140
167
165
166
166
166
165
165
164
166
166
165
165
166
165
164
164
165
165
165
164
164
165
165
165
168
169
184
188
188
189
189
187
190
185
179
164
164
166
165
125
125
126
127
126
125
122
128
204
253
254
254
254
254
254
255
255
255
255
254
255
254
254
255
255
255
254
254
255
255
255
255
255
255
255
255
254
254
254
254
255
255
255
254
254
255
253
255
255
255
255
255
255
253
254
252
252
188
105
105
107
105
105
107
156
160
154
158
158
156
160
155
156
157
157
157
157
156
161
156
159
161
156
157
156
158
153
156
118
105
105
106
105
104
138
225
238
243
254
255
255
252
253
254
254
242
123
117
103
105
106
107
104
107
107
106
107
140
138
155
155
156
156
156
156
156
157
157
157
156
156
157
156
156
157
157
157
157
157
156
157
157
155
153
158
159
155
157
159
154
172
181
186
185
182
180
186
166
166
155
156
156
156
156
156
158
156
156
156
156
156
156
156
156
156
157
157
157
157
157
158
158
108
106
106
106
106
104
103
138
226
229
228
230
254
255
253
255
254
254
254
255
255
254
254
254
254
255
254
255
255
255
255
255
255
255
255
255
255
255
255
255
255
255
253
252
254
252
254
254
251
244
219
244
164
145
245
168
227
246
246
251
254
254
254
254
254
254
254
255
254
255
254
255
254
255
254
254
0
0
0
0
0
0
0
0
0
0
0
0
0
0
0
0
0
0
0
0
0
0
0
0
0
0
0
0
0
0
0
0
0
0
0
0
0
0
0
0
0
0
0
0
0
0
0
0
0
0
0
0
0
0
0
0
0
0
0
0
0
0
0
0
0
0
0
0
0
0
0
0
0
0
0
0
0
0
0
0
0
0
0
0
0
0
0
0
0
0
0
0
0
0
0
0
0
0
0
0
0
0
0
0
0
0
0
0
0
0
0
0
0
0
0
0
0
0
0
0
0
0
0
0
0
0
0
0
0
0
0
0
0
0
0
0
0
0
0
0
0
0
0
0
0
0
0
0
0
0
0
0
0
0
0
0
0
0
0
0
0
0
0
0
0
0
0
0
0
0
0
0
0
0
0
0
0
0
0
0
0
0
0
0
0
0
0
0
0
0
0
0
0
0
0
0
0
0
0
0
0
0
0
0
0
0
0
0
0
0
0
0
0
0
0
0
0
0
0
0
0
0
255
254
254
255
255
255
254
255
255
254
255
254
255
255
255
255
255
254
253
253
254
254
254
255
254
254
255
255
255
254
255
255
255
254
253
255
255
254
254
255
253
254
255
239
123
123
127
127
123
125
161
168
165
168
165
165
166
165
165
164
166
166
166
165
165
165
165
165
164
164
165
165
165
165
165
167
163
180
187
187
187
188
188
187
188
167
167
164
165
166
151
125
128
125
127
127
127
124
240
252
254
255
255
255
255
255
255
255
255
255
255
255
254
254
255
255
255
254
254
255
255
255
255
255
255
255
254
254
254
254
254
255
254
254
254
254
255
255
255
254
254
254
254
253
253
253
242
140
100
105
105
110
106
145
145
155
156
154
157
153
158
158
157
157
157
155
158
156
156
156
155
155
152
158
156
155
155
150
150
103
106
106
107
103
224
224
230
254
254
254
254
254
253
254
252
252
242
116
124
102
107
106
106
104
106
104
105
105
138
138
156
156
156
156
156
157
157
157
156
156
155
156
156
156
157
157
157
157
157
157
157
157
156
158
155
158
158
155
159
157
155
181
181
181
184
184
183
179
157
156
157
156
157
157
157
156
157
156
156
156
156
156
156
156
156
157
157
157
157
155
155
116
106
107
107
106
104
104
108
222
230
231
229
247
247
252
255
254
254
254
254
254
254
254
254
254
254
254
254
255
255
255
255
255
255
255
255
255
255
255
255
255
254
253
254
255
255
255
255
246
222
92
138
97
97
97
94
106
92
171
242
231
250
255
254
254
254
254
254
254
255
255
255
254
254
255
254
254
254
0
0
0
0
0
0
0
0
0
0
0
0
0
0
0
0
0
0
0
0
0
0
0
0
0
0
0
0
0
0
0
0
0
0
0
0
0
0
0
0
0
0
0
0
0
0
0
0
0
0
0
0
0
0
0
0
0
0
0
0
0
0
0
0
0
0
0
0
0
0
0
0
0
0
0
0
0
0
0
0
0
0
0
0
0
0
0
0
0
0
0
0
0
0
0
0
0
0
0
0
0
0
0
0
0
0
0
0
0
0
0
0
0
0
0
0
0
0
0
0
0
0
0
0
0
0
0
0
0
0
0
0
0
0
0
0
0
0
0
0
0
0
0
0
0
0
0
0
0
0
0
0
0
0
0
0
0
0
0
0
0
0
0
0
0
0
0
0
0
0
0
0
0
0
0
0
0
0
0
0
0
0
0
0
0
0
0
0
0
0
0
0
0
0
0
0
0
0
0
0
0
0
0
0
0
0
0
0
0
0
0
0
0
0
0
0
0
0
0
0
0
255
255
254
255
255
254
254
255
255
255
255
255
255
255
255
255
254
254
254
255
254
254
254
254
254
254
254
255
254
255
254
255
255
255
253
254
254
254
254
255
255
254
255
245
185
119
129
130
123
125
164
168
165
167
165
165
165
165
165
165
165
165
165
165
165
165
165
164
164
164
164
164
165
165
166
167
165
175
188
187
188
190
188
189
187
183
165
163
164
166
159
125
128
126
126
126
123
121
234
252
254
254
255
255
254
254
255
255
255
255
255
255
255
254
254
255
255
254
255
255
255
255
255
255
254
255
255
254
254
254
255
255
254
254
254
255
255
255
253
255
254
252
252
253
251
252
224
140
101
105
105
105
106
115
158
153
153
154
161
154
157
153
157
157
157
157
156
155
156
157
153
156
157
158
156
154
154
158
111
107
106
106
106
103
155
228
232
254
254
254
254
254
255
254
254
251
249
225
124
143
101
107
105
106
106
104
105
106
103
138
145
156
156
156
156
157
157
156
156
156
156
156
156
156
156
157
157
157
157
157
157
157
156
156
156
157
156
155
157
157
156
163
184
185
182
184
183
157
155
156
156
156
157
156
157
157
157
157
157
156
156
156
156
156
156
156
157
157
157
156
125
106
106
107
105
106
105
104
192
228
230
229
231
237
253
255
254
254
255
255
254
254
254
254
254
254
254
254
254
255
254
254
254
255
255
255
255
255
255
255
255
254
253
253
254
251
249
253
245
113
93
92
99
99
97
98
103
105
92
97
106
231
229
250
254
254
254
254
254
254
254
255
255
255
255
255
255
254
254
254
0
0
0
0
0
0
0
0
0
0
0
0
0
0
0
0
0
0
0
0
0
0
0
0
0
0
0
0
0
0
0
0
0
0
0
0
0
0
0
0
0
0
0
0
0
0
0
0
0
0
0
0
0
0
0
0
0
0
0
0
0
0
0
0
0
0
0
0
0
0
0
0
0
0
0
0
0
0
0
0
0
0
0
0
0
0
0
0
0
0
0
0
0
0
0
0
0
0
0
0
0
0
0
0
0
0
0
0
0
0
0
0
0
0
0
0
0
0
0
0
0
0
0
0
0
0
0
0
0
0
0
0
0
0
0
0
0
0
0
0
0
0
0
0
0
0
0
0
0
0
0
0
0
0
0
0
0
0
0
0
0
0
0
0
0
0
0
0
0
0
0
0
0
0
0
0
0
0
0
0
0
0
0
0
0
0
0
0
0
0
0
0
0
0
0
0
0
0
0
0
0
0
0
0
0
0
0
0
0
0
0
0
0
0
0
0
0
0
0
0
254
254
254
254
254
254
254
254
255
255
255
255
255
255
255
254
254
254
254
254
255
254
254
254
254
254
254
254
255
255
255
254
255
255
255
254
254
254
255
250
250
251
249
249
159
123
126
126
124
147
147
165
166
166
167
167
164
164
165
166
166
166
166
165
165
165
165
165
164
164
164
165
165
164
164
165
164
164
185
187
188
188
189
190
190
187
162
166
166
167
136
136
128
125
125
127
128
156
156
247
251
251
254
254
254
254
254
255
255
254
254
255
255
255
255
255
255
255
255
254
255
255
255
255
254
254
255
255
254
254
255
254
254
254
254
254
255
254
255
255
255
255
255
254
251
248
248
111
106
106
105
105
105
129
155
158
158
152
158
158
158
157
157
157
157
157
157
156
155
157
156
156
156
156
158
159
159
156
108
104
104
107
103
103
168
228
244
244
253
254
254
255
254
254
253
255
236
236
226
168
168
102
105
106
106
106
108
108
106
106
145
151
156
157
157
157
156
156
156
156
156
156
156
156
156
156
157
157
157
157
157
157
157
156
156
156
156
157
157
157
156
156
162
171
172
172
157
155
155
157
156
156
158
157
157
157
157
157
157
156
156
156
156
156
156
156
157
155
157
132
105
106
106
106
106
106
102
170
227
227
229
229
229
249
255
254
254
254
255
255
254
254
254
254
254
255
255
254
254
254
254
254
254
254
255
255
255
255
255
255
255
254
254
254
249
247
247
184
97
100
100
100
103
103
105
101
102
102
104
99
99
98
226
226
251
255
254
254
254
254
254
255
254
254
254
255
255
255
254
254
254
0
0
0
0
0
0
0
0
0
0
0
0
0
0
0
0
0
0
0
0
0
0
0
0
0
0
0
0
0
0
0
0
0
0
0
0
0
0
0
0
0
0
0
0
0
0
0
0
0
0
0
0
0
0
0
0
0
0
0
0
0
0
0
0
0
0
0
0
0
0
0
0
0
0
0
0
0
0
0
0
0
0
0
0
0
0
0
0
0
0
0
0
0
0
0
0
0
0
0
0
0
0
0
0
0
0
0
0
0
0
0
0
0
0
0
0
0
0
0
0
0
0
0
0
0
0
0
0
0
0
0
0
0
0
0
0
0
0
0
0
0
0
0
0
0
0
0
0
0
0
0
0
0
0
0
0
0
0
0
0
0
0
0
0
0
0
0
0
0
0
0
0
0
0
0
0
0
0
0
0
0
0
0
0
0
0
0
0
0
0
0
0
0
0
0
0
0
0
0
0
0
0
0
0
0
0
0
0
0
0
0
0
0
0
0
0
0
0
0
254
254
254
255
254
254
254
254
255
255
255
255
255
255
253
254
254
254
254
255
255
254
254
254
254
254
255
255
254
255
255
255
254
255
255
254
254
254
255
253
253
253
251
231
125
125
125
126
121
128
165
165
163
165
164
165
163
164
164
165
166
166
166
165
165
165
165
165
166
164
164
164
164
164
165
167
163
173
184
189
187
187
188
189
188
190
162
165
162
165
159
122
128
124
128
126
123
121
228
251
255
254
255
254
254
254
255
255
254
254
254
254
254
254
255
255
255
255
254
254
254
254
255
254
255
254
254
255
254
254
255
255
254
254
254
254
254
254
254
255
253
255
254
252
251
251
188
103
102
106
105
105
107
149
155
157
158
156
159
154
155
156
157
157
156
157
156
156
157
157
155
157
157
157
158
154
158
158
106
107
107
106
106
105
165
226
234
254
254
254
253
254
255
254
254
254
249
230
226
228
192
211
117
104
104
103
107
110
108
104
108
156
157
157
157
156
156
156
156
156
156
156
156
156
156
156
156
156
157
156
156
157
157
157
156
156
157
156
157
156
155
156
156
153
161
159
154
158
157
157
157
156
157
157
157
157
157
157
156
156
156
156
155
156
156
156
156
155
138
105
106
106
106
106
107
104
121
227
226
233
230
230
239
254
254
254
254
254
254
255
254
254
254
254
254
255
254
254
254
254
254
254
254
255
255
255
255
254
254
254
255
253
253
249
220
240
143
93
104
97
101
101
103
100
103
100
103
103
100
99
95
95
101
230
236
252
254
254
254
254
255
255
255
254
254
254
255
255
255
254
254
254
0
0
0
0
0
0
0
0
0
0
0
0
0
0
0
0
0
0
0
0
0
0
0
0
0
0
0
0
0
0
0
0
0
0
0
0
0
0
0
0
0
0
0
0
0
0
0
0
0
0
0
0
0
0
0
0
0
0
0
0
0
0
0
0
0
0
0
0
0
0
0
0
0
0
0
0
0
0
0
0
0
0
0
0
0
0
0
0
0
0
0
0
0
0
0
0
0
0
0
0
0
0
0
0
0
0
0
0
0
0
0
0
0
0
0
0
0
0
0
0
0
0
0
0
0
0
0
0
0
0
0
0
0
0
0
0
0
0
0
0
0
0
0
0
0
0
0
0
0
0
0
0
0
0
0
0
0
0
0
0
0
0
0
0
0
0
0
0
0
0
0
0
0
0
0
0
0
0
0
0
0
0
0
0
0
0
0
0
0
0
0
0
0
0
0
0
0
0
0
0
0
0
0
0
0
0
0
0
0
0
0
0
0
0
0
0
0
0
254
254
255
255
255
254
254
254
254
255
255
255
255
254
254
254
254
254
254
254
254
254
255
253
254
254
255
255
255
254
255
255
255
254
255
255
254
252
252
253
255
253
246
184
124
124
125
126
121
139
167
165
164
166
166
166
166
165
164
164
166
166
166
166
165
165
165
166
166
166
165
165
164
164
164
167
164
171
190
190
188
188
188
190
185
171
171
166
167
165
165
124
128
128
132
130
130
122
216
251
251
255
254
254
254
255
255
254
254
254
254
254
254
254
254
255
255
255
255
254
254
254
254
254
254
254
254
254
254
254
255
255
255
254
255
254
254
254
254
254
253
254
253
253
253
250
148
103
105
106
105
106
115
156
156
154
155
156
158
157
156
156
156
156
156
156
156
156
156
154
152
157
158
157
158
155
155
134
134
104
107
106
107
103
229
229
236
255
254
251
254
254
255
255
251
251
253
230
226
229
227
224
224
127
107
103
107
107
108
106
106
129
157
156
157
156
156
156
156
156
156
156
156
156
156
156
156
156
156
156
156
156
157
157
157
156
156
157
156
156
155
157
156
156
155
157
154
155
155
157
158
157
157
157
157
157
157
157
157
156
156
156
156
156
156
156
156
140
105
105
106
106
106
106
106
110
225
225
230
228
230
229
254
254
254
255
254
254
254
254
254
254
254
254
254
254
254
254
254
254
254
254
255
254
255
255
254
254
254
252
253
253
246
197
220
95
99
103
103
103
103
101
100
101
104
104
102
102
100
102
103
95
95
106
243
243
252
255
254
254
254
254
254
255
254
254
254
254
255
255
254
254
254
0
0
0
0
0
0
0
0
0
0
0
0
0
0
0
0
0
0
0
0
0
0
0
0
0
0
0
0
0
0
0
0
0
0
0
0
0
0
0
0
0
0
0
0
0
0
0
0
0
0
0
0
0
0
0
0
0
0
0
0
0
0
0
0
0
0
0
0
0
0
0
0
0
0
0
0
0
0
0
0
0
0
0
0
0
0
0
0
0
0
0
0
0
0
0
0
0
0
0
0
0
0
0
0
0
0
0
0
0
0
0
0
0
0
0
0
0
0
0
0
0
0
0
0
0
0
0
0
0
0
0
0
0
0
0
0
0
0
0
0
0
0
0
0
0
0
0
0
0
0
0
0
0
0
0
0
0
0
0
0
0
0
0
0
0
0
0
0
0
0
0
0
0
0
0
0
0
0
0
0
0
0
0
0
0
0
0
0
0
0
0
0
0
0
0
0
0
0
0
0
0
0
0
0
0
0
0
0
0
0
0
0
0
0
0
0
0
253
254
254
255
255
255
254
254
255
255
255
255
254
254
254
255
254
254
253
253
254
255
254
254
253
255
255
255
255
255
254
255
255
255
254
255
255
255
254
254
253
255
233
126
123
127
126
127
125
163
163
165
167
165
165
167
164
164
166
165
166
166
166
166
166
166
165
165
166
165
165
165
166
163
163
164
161
171
182
187
188
189
189
189
188
189
162
169
166
166
137
137
129
124
129
124
125
121
138
246
251
254
255
253
255
255
255
254
254
254
254
255
254
254
254
254
255
255
255
254
254
254
254
254
254
254
255
254
254
254
255
255
255
255
255
255
255
255
255
254
254
254
253
254
252
252
234
102
106
106
105
103
133
156
158
157
157
158
156
156
156
156
156
156
156
156
156
156
157
157
157
155
152
152
161
159
155
157
106
105
109
102
104
103
144
228
243
253
254
254
254
254
254
253
253
254
254
248
229
231
231
228
228
226
137
102
105
105
106
105
105
103
147
156
156
156
156
156
156
156
156
156
156
156
156
156
156
156
156
156
156
156
156
157
157
157
156
156
158
156
157
156
156
157
157
159
158
157
157
158
157
157
157
157
157
157
157
157
157
156
157
157
156
157
157
157
138
105
106
106
106
106
106
106
105
207
219
231
230
229
229
244
254
254
255
255
255
254
254
254
254
254
254
254
254
254
254
254
255
255
254
254
254
254
254
255
255
254
251
249
251
243
157
157
95
99
102
104
103
101
103
101
101
103
103
101
101
103
102
101
101
101
95
96
121
246
249
253
255
254
254
254
255
255
255
254
254
254
255
254
255
254
254
254
0
0
0
0
0
0
0
0
0
0
0
0
0
0
0
0
0
0
0
0
0
0
0
0
0
0
0
0
0
0
0
0
0
0
0
0
0
0
0
0
0
0
0
0
0
0
0
0
0
0
0
0
0
0
0
0
0
0
0
0
0
0
0
0
0
0
0
0
0
0
0
0
0
0
0
0
0
0
0
0
0
0
0
0
0
0
0
0
0
0
0
0
0
0
0
0
0
0
0
0
0
0
0
0
0
0
0
0
0
0
0
0
0
0
0
0
0
0
0
0
0
0
0
0
0
0
0
0
0
0
0
0
0
0
0
0
0
0
0
0
0
0
0
0
0
0
0
0
0
0
0
0
0
0
0
0
0
0
0
0
0
0
0
0
0
0
0
0
0
0
0
0
0
0
0
0
0
0
0
0
0
0
0
0
0
0
0
0
0
0
0
0
0
0
0
0
0
0
0
0
0
0
0
0
0
0
0
0
0
0
0
0
0
0
0
0
254
254
254
255
255
255
254
254
254
255
254
254
254
254
254
255
255
254
253
253
254
254
254
254
254
254
255
255
255
255
255
254
255
255
254
253
255
254
253
254
254
251
153
126
125
125
126
125
135
155
166
165
165
165
167
164
164
165
165
166
166
166
166
166
166
166
166
166
166
165
165
165
164
166
164
166
167
171
186
190
188
188
185
188
188
186
160
169
163
168
162
123
128
125
129
126
128
121
137
236
254
254
254
254
255
255
255
255
254
254
255
255
255
255
255
254
254
255
255
255
254
254
254
254
254
255
255
255
254
254
255
255
255
255
255
255
254
254
255
255
254
254
253
253
252
252
204
104
105
107
106
106
133
156
156
157
155
157
157
156
156
156
156
156
156
156
156
156
157
157
156
156
161
155
158
154
155
154
108
105
105
105
107
103
122
230
243
252
254
253
254
253
253
253
253
254
254
253
238
229
231
230
229
226
226
123
106
104
107
107
105
104
127
156
156
157
156
156
156
156
156
156
156
156
156
156
157
156
156
156
156
156
156
157
157
157
157
156
157
156
158
156
155
157
157
154
156
155
159
157
157
157
157
157
157
157
157
157
157
156
157
157
159
157
157
134
105
107
106
107
106
106
106
103
198
207
230
230
230
231
230
254
254
253
254
255
254
254
254
254
254
254
254
254
254
254
254
254
255
255
254
254
254
254
254
254
254
251
244
249
191
98
120
96
100
101
102
101
104
101
102
100
107
103
120
123
101
106
103
102
102
102
102
96
96
174
249
250
254
253
254
254
254
255
255
255
254
254
254
255
255
254
254
254
254
0
0
0
0
0
0
0
0
0
0
0
0
0
0
0
0
0
0
0
0
0
0
0
0
0
0
0
0
0
0
0
0
0
0
0
0
0
0
0
0
0
0
0
0
0
0
0
0
0
0
0
0
0
0
0
0
0
0
0
0
0
0
0
0
0
0
0
0
0
0
0
0
0
0
0
0
0
0
0
0
0
0
0
0
0
0
0
0
0
0
0
0
0
0
0
0
0
0
0
0
0
0
0
0
0
0
0
0
0
0
0
0
0
0
0
0
0
0
0
0
0
0
0
0
0
0
0
0
0
0
0
0
0
0
0
0
0
0
0
0
0
0
0
0
0
0
0
0
0
0
0
0
0
0
0
0
0
0
0
0
0
0
0
0
0
0
0
0
0
0
0
0
0
0
0
0
0
0
0
0
0
0
0
0
0
0
0
0
0
0
0
0
0
0
0
0
0
0
0
0
0
0
0
0
0
0
0
0
0
0
0
0
0
0
0
255
255
254
255
255
254
254
254
254
254
253
253
254
254
254
254
255
254
254
253
254
254
254
254
254
254
254
255
255
255
255
255
255
254
254
254
253
254
254
253
249
214
192
123
126
126
124
130
130
166
165
166
166
167
164
164
165
165
165
165
166
166
166
166
166
166
166
166
166
166
165
165
165
165
163
166
166
170
190
190
187
189
190
189
192
174
174
167
165
165
159
125
127
127
126
127
127
121
219
231
251
253
255
255
254
255
255
255
255
255
255
255
254
254
255
255
254
254
255
254
254
254
254
254
254
255
255
255
255
255
255
255
255
255
255
255
254
254
254
255
255
254
254
251
251
247
105
105
107
107
105
105
143
154
154
154
157
156
157
157
157
157
157
156
156
156
156
157
157
156
156
156
157
156
155
155
158
150
150
107
104
106
104
102
186
186
247
254
254
255
254
255
255
255
255
255
254
253
253
237
228
230
230
235
225
225
107
103
107
107
107
110
110
151
156
157
157
156
156
156
156
156
156
156
156
157
157
156
156
156
156
156
156
156
157
157
157
157
155
156
156
156
157
157
156
155
155
158
156
157
157
157
157
157
157
157
157
157
157
157
157
156
157
157
120
105
107
107
105
107
107
106
104
192
192
229
230
230
229
227
249
253
253
255
255
254
254
254
255
254
254
254
254
254
254
255
254
254
254
254
254
254
254
254
254
255
249
236
236
140
92
92
100
101
102
102
101
101
101
102
101
138
121
133
139
139
135
111
111
103
102
102
102
102
95
95
204
253
249
254
255
254
254
255
255
255
255
254
254
254
254
254
254
254
254
254
0
0
0
0
0
0
0
0
0
0
0
0
0
0
0
0
0
0
0
0
0
0
0
0
0
0
0
0
0
0
0
0
0
0
0
0
0
0
0
0
0
0
0
0
0
0
0
0
0
0
0
0
0
0
0
0
0
0
0
0
0
0
0
0
0
0
0
0
0
0
0
0
0
0
0
0
0
0
0
0
0
0
0
0
0
0
0
0
0
0
0
0
0
0
0
0
0
0
0
0
0
0
0
0
0
0
0
0
0
0
0
0
0
0
0
0
0
0
0
0
0
0
0
0
0
0
0
0
0
0
0
0
0
0
0
0
0
0
0
0
0
0
0
0
0
0
0
0
0
0
0
0
0
0
0
0
0
0
0
0
0
0
0
0
0
0
0
0
0
0
0
0
0
0
0
0
0
0
0
0
0
0
0
0
0
0
0
0
0
0
0
0
0
0
0
0
0
0
0
0
0
0
0
0
0
0
0
0
0
0
0
0
0
0
255
255
255
255
254
254
255
254
254
253
253
253
254
254
254
254
254
254
254
253
254
254
254
255
255
255
255
254
255
255
255
255
255
254
254
254
253
254
253
249
227
214
123
124
126
125
126
126
159
166
163
167
165
165
165
165
165
165
165
165
165
166
165
165
165
166
166
166
166
166
166
166
165
165
165
165
164
176
186
189
187
188
190
188
187
185
165
164
165
168
158
124
128
125
129
125
123
121
220
231
248
255
255
255
255
254
254
254
255
255
255
255
254
254
254
255
255
254
254
255
254
254
254
254
255
255
255
255
255
255
255
255
255
255
255
255
254
254
254
254
255
255
254
254
249
242
172
104
106
105
105
115
152
158
157
156
156
156
156
157
157
157
157
157
156
157
157
156
156
156
156
156
156
156
161
157
158
158
122
107
105
106
106
105
104
227
246
250
252
253
255
253
255
255
254
255
254
255
253
254
243
229
227
225
227
214
161
105
104
105
105
106
116
146
156
155
155
158
156
156
156
156
156
156
156
156
156
156
156
156
156
156
156
156
156
157
158
155
153
156
157
157
156
158
157
155
158
156
158
158
156
158
157
157
156
157
157
157
156
157
156
144
155
116
106
107
107
105
106
106
106
101
183
183
228
230
229
229
231
241
249
254
254
255
254
254
254
253
253
255
254
254
253
254
254
254
255
254
254
254
254
254
252
253
254
242
167
208
103
100
96
102
102
103
103
101
101
101
101
123
137
138
136
138
139
138
137
135
108
104
103
101
103
103
101
95
96
242
249
255
252
255
254
254
255
255
255
255
254
254
254
254
254
255
254
254
254
0
0
0
0
0
0
0
0
0
0
0
0
0
0
0
0
0
0
0
0
0
0
0
0
0
0
0
0
0
0
0
0
0
0
0
0
0
0
0
0
0
0
0
0
0
0
0
0
0
0
0
0
0
0
0
0
0
0
0
0
0
0
0
0
0
0
0
0
0
0
0
0
0
0
0
0
0
0
0
0
0
0
0
0
0
0
0
0
0
0
0
0
0
0
0
0
0
0
0
0
0
0
0
0
0
0
0
0
0
0
0
0
0
0
0
0
0
0
0
0
0
0
0
0
0
0
0
0
0
0
0
0
0
0
0
0
0
0
0
0
0
0
0
0
0
0
0
0
0
0
0
0
0
0
0
0
0
0
0
0
0
0
0
0
0
0
0
0
0
0
0
0
0
0
0
0
0
0
0
0
0
0
0
0
0
0
0
0
0
0
0
0
0
0
0
0
0
0
0
0
0
0
0
0
0
0
0
0
0
0
0
0
0
254
255
255
255
255
254
254
254
254
254
253
254
254
254
254
254
254
253
254
254
253
254
254
254
255
255
255
254
254
255
255
254
254
254
252
253
253
254
250
235
235
123
123
123
126
127
126
140
165
164
164
165
168
165
166
165
165
165
165
165
165
165
166
165
165
166
166
166
166
166
166
166
165
165
165
164
166
176
187
188
186
186
188
189
189
186
164
164
164
168
129
129
127
126
129
122
125
154
154
234
252
252
254
255
255
255
255
255
255
255
255
255
255
254
254
254
255
255
254
254
254
254
255
255
255
255
255
255
255
255
255
255
255
255
254
255
255
255
254
254
254
255
255
254
254
242
147
103
105
105
105
122
152
155
155
156
156
156
156
156
156
156
157
157
157
157
157
156
156
156
156
156
157
157
156
154
158
157
138
106
106
106
104
104
105
181
246
252
253
253
253
255
253
255
254
254
253
253
254
255
255
247
232
225
228
224
108
108
106
108
105
106
112
160
160
156
156
158
155
156
156
156
156
156
156
156
156
156
156
156
156
156
156
157
156
155
157
158
158
158
154
154
157
155
157
157
157
157
157
155
153
158
155
156
156
156
156
156
156
157
131
144
105
106
107
107
105
106
106
106
101
185
185
228
229
230
230
232
235
235
254
255
255
254
254
254
252
253
254
254
255
254
253
254
253
255
255
252
254
254
254
251
252
245
230
116
116
97
98
100
100
102
101
101
103
102
101
112
130
135
135
138
136
136
140
137
137
137
133
103
103
102
103
103
103
101
107
107
246
255
255
254
254
254
254
254
254
254
255
254
254
254
255
255
255
254
254
254
0
0
0
0
0
0
0
0
0
0
0
0
0
0
0
0
0
0
0
0
0
0
0
0
0
0
0
0
0
0
0
0
0
0
0
0
0
0
0
0
0
0
0
0
0
0
0
0
0
0
0
0
0
0
0
0
0
0
0
0
0
0
0
0
0
0
0
0
0
0
0
0
0
0
0
0
0
0
0
0
0
0
0
0
0
0
0
0
0
0
0
0
0
0
0
0
0
0
0
0
0
0
0
0
0
0
0
0
0
0
0
0
0
0
0
0
0
0
0
0
0
0
0
0
0
0
0
0
0
0
0
0
0
0
0
0
0
0
0
0
0
0
0
0
0
0
0
0
0
0
0
0
0
0
0
0
0
0
0
0
0
0
0
0
0
0
0
0
0
0
0
0
0
0
0
0
0
0
0
0
0
0
0
0
0
0
0
0
0
0
0
0
0
0
0
0
0
0
0
0
0
0
0
0
0
0
0
0
0
0
0
0
254
254
254
254
255
254
255
254
255
254
254
254
254
254
254
254
253
254
253
254
254
254
254
255
255
255
255
255
254
254
255
254
253
253
254
253
254
250
232
235
126
122
122
126
127
127
132
164
166
167
165
165
165
166
166
166
165
165
165
165
165
165
165
166
166
166
166
166
166
166
166
166
166
165
164
166
164
177
190
189
187
189
190
190
189
180
165
165
164
168
152
125
129
125
124
131
124
121
222
232
244
255
255
254
254
255
255
254
255
255
255
255
255
254
254
254
254
255
255
254
254
255
255
255
255
255
255
255
255
255
255
255
255
254
254
254
255
255
255
254
254
254
255
255
254
254
104
102
105
108
104
105
154
156
156
156
156
156
156
156
156
156
156
157
157
157
157
157
156
156
156
156
156
157
157
155
157
156
154
117
106
106
109
105
107
103
228
252
255
254
254
254
254
254
255
254
255
253
254
254
254
254
251
235
232
224
190
103
105
105
106
102
116
147
155
158
158
158
156
156
156
156
156
156
156
156
156
156
156
156
156
156
156
156
158
156
159
153
156
153
161
157
157
156
156
156
157
157
154
160
159
157
159
154
156
156
154
159
148
111
120
105
107
106
103
105
106
106
105
102
196
189
227
231
229
230
230
228
231
253
254
254
254
254
254
254
253
254
253
254
255
254
254
254
254
255
253
255
253
254
249
250
244
186
93
92
97
99
99
103
101
102
101
103
113
106
122
136
138
137
136
137
137
135
137
136
137
136
136
127
102
102
101
103
102
101
101
131
164
247
254
255
255
255
254
254
254
255
255
255
254
254
254
255
255
254
254
254
254
0
0
0
0
0
0
0
0
0
0
0
0
0
0
0
0
0
0
0
0
0
0
0
0
0
0
0
0
0
0
0
0
0
0
0
0
0
0
0
0
0
0
0
0
0
0
0
0
0
0
0
0
0
0
0
0
0
0
0
0
0
0
0
0
0
0
0
0
0
0
0
0
0
0
0
0
0
0
0
0
0
0
0
0
0
0
0
0
0
0
0
0
0
0
0
0
0
0
0
0
0
0
0
0
0
0
0
0
0
0
0
0
0
0
0
0
0
0
0
0
0
0
0
0
0
0
0
0
0
0
0
0
0
0
0
0
0
0
0
0
0
0
0
0
0
0
0
0
0
0
0
0
0
0
0
0
0
0
0
0
0
0
0
0
0
0
0
0
0
0
0
0
0
0
0
0
0
0
0
0
0
0
0
0
0
0
0
0
0
0
0
0
0
0
0
0
0
0
0
0
0
0
0
0
0
0
0
0
0
0
0
254
255
254
254
255
255
254
254
254
255
254
254
254
254
254
254
254
254
252
255
254
255
255
254
255
254
255
255
255
255
255
254
255
255
254
255
249
229
232
127
122
122
125
125
127
126
160
165
166
165
165
165
166
165
166
166
166
165
165
165
165
165
165
166
166
166
166
166
166
166
166
166
166
166
164
166
162
187
189
189
189
189
190
187
190
180
164
164
164
168
147
125
129
128
124
124
124
122
228
232
245
255
255
255
255
255
255
254
255
255
255
255
255
254
254
254
254
254
255
255
254
254
255
255
255
255
255
255
255
255
255
255
255
254
254
254
255
255
255
254
254
254
254
255
255
254
254
102
105
105
104
105
158
156
156
156
156
156
156
156
156
156
156
156
157
157
157
157
157
156
156
156
156
157
157
157
156
157
154
144
106
106
105
105
107
106
118
247
255
253
254
254
254
254
255
254
254
254
254
252
251
254
255
253
238
224
162
104
105
106
103
100
116
151
155
158
155
156
155
156
158
156
156
156
156
156
156
156
156
156
156
156
156
158
158
155
159
155
157
153
157
155
157
156
157
157
157
157
153
160
157
155
154
154
157
145
154
118
106
111
106
106
105
106
107
106
106
106
109
205
196
228
232
231
229
230
229
228
252
254
254
254
254
254
254
255
254
254
254
254
255
255
255
252
254
253
254
255
252
246
249
200
99
96
93
100
101
99
103
103
104
102
109
125
113
139
135
137
138
137
136
137
134
136
137
135
137
137
136
137
114
102
101
103
102
101
101
94
164
196
249
255
254
253
254
254
253
253
255
254
254
254
254
254
254
254
254
255
254
254
0
0
0
0
0
0
0
0
0
0
0
0
0
0
0
0
0
0
0
0
0
0
0
0
0
0
0
0
0
0
0
0
0
0
0
0
0
0
0
0
0
0
0
0
0
0
0
0
0
0
0
0
0
0
0
0
0
0
0
0
0
0
0
0
0
0
0
0
0
0
0
0
0
0
0
0
0
0
0
0
0
0
0
0
0
0
0
0
0
0
0
0
0
0
0
0
0
0
0
0
0
0
0
0
0
0
0
0
0
0
0
0
0
0
0
0
0
0
0
0
0
0
0
0
0
0
0
0
0
0
0
0
0
0
0
0
0
0
0
0
0
0
0
0
0
0
0
0
0
0
0
0
0
0
0
0
0
0
0
0
0
0
0
0
0
0
0
0
0
0
0
0
0
0
0
0
0
0
0
0
0
0
0
0
0
0
0
0
0
0
0
0
0
0
0
0
0
0
0
0
0
0
0
0
0
0
0
0
0
0
255
255
255
254
255
253
253
252
253
253
255
254
254
254
254
254
254
254
254
254
252
255
255
255
254
254
254
254
255
255
251
253
252
252
255
249
199
219
125
122
122
125
127
127
125
155
165
164
165
164
164
166
166
166
165
166
166
166
165
165
165
165
166
166
166
166
166
166
166
166
166
166
166
164
164
161
180
190
188
188
188
188
188
189
189
173
164
165
167
163
125
125
126
124
128
126
121
191
191
228
252
252
254
254
254
255
255
255
255
255
255
254
255
255
255
255
254
254
254
255
255
254
254
255
255
255
255
255
254
254
255
255
255
255
255
255
254
254
255
255
255
254
254
254
255
255
254
254
107
107
111
133
158
155
156
156
156
156
156
156
156
156
156
156
156
157
157
157
157
157
156
156
156
156
157
157
157
157
156
124
124
106
106
106
104
105
103
134
246
254
254
252
254
253
254
253
254
254
254
254
254
252
255
255
254
229
104
104
108
105
106
108
128
157
157
156
156
159
158
157
156
156
156
156
156
156
156
156
156
157
156
156
156
154
139
160
154
160
160
152
160
160
157
157
155
157
155
157
157
159
157
139
156
146
122
122
106
105
105
106
106
105
104
107
106
106
103
113
220
214
228
230
230
229
229
229
229
245
253
253
255
254
254
254
255
255
255
254
255
255
254
255
253
252
254
253
253
249
242
242
154
94
100
98
102
103
103
101
102
104
103
116
134
134
140
135
137
136
136
136
136
135
147
147
149
136
140
138
137
139
139
109
99
101
101
103
99
99
94
221
221
248
254
251
255
255
253
253
253
254
254
254
254
254
254
254
254
254
255
254
254
0
0
0
0
0
0
0
0
0
0
0
0
0
0
0
0
0
0
0
0
0
0
0
0
0
0
0
0
0
0
0
0
0
0
0
0
0
0
0
0
0
0
0
0
0
0
0
0
0
0
0
0
0
0
0
0
0
0
0
0
0
0
0
0
0
0
0
0
0
0
0
0
0
0
0
0
0
0
0
0
0
0
0
0
0
0
0
0
0
0
0
0
0
0
0
0
0
0
0
0
0
0
0
0
0
0
0
0
0
0
0
0
0
0
0
0
0
0
0
0
0
0
0
0
0
0
0
0
0
0
0
0
0
0
0
0
0
0
0
0
0
0
0
0
0
0
0
0
0
0
0
0
0
0
0
0
0
0
0
0
0
0
0
0
0
0
0
0
0
0
0
0
0
0
0
0
0
0
0
0
0
0
0
0
0
0
0
0
0
0
0
0
0
0
0
0
0
0
0
0
0
0
0
0
0
0
0
0
0
255
255
255
254
254
253
255
254
251
254
255
254
254
253
255
254
254
254
253
254
254
253
255
254
254
254
254
254
254
255
253
250
252
252
244
169
199
120
124
123
126
126
126
126
147
165
165
167
165
163
166
166
166
166
166
165
166
166
166
165
165
166
166
166
166
166
166
166
166
166
166
166
167
166
163
166
186
190
189
191
189
189
187
187
185
165
165
165
167
161
137
127
127
126
128
129
119
126
227
227
246
255
255
254
254
254
255
255
255
255
255
254
254
255
255
255
255
254
254
254
255
255
254
254
255
255
255
255
254
254
254
255
255
255
254
255
254
254
254
255
255
255
254
254
254
255
255
254
254
105
109
136
158
155
156
156
156
156
156
156
157
156
156
156
156
156
157
157
157
157
156
156
156
156
157
157
157
156
157
156
108
105
105
107
104
104
103
105
130
246
254
251
253
253
254
255
253
254
253
254
253
254
255
255
246
133
110
102
106
105
106
106
149
157
156
158
155
159
155
157
157
156
156
157
156
156
156
156
156
157
157
157
156
124
139
105
105
143
149
126
156
156
139
142
155
142
140
155
155
123
110
139
104
106
105
106
107
106
107
106
107
105
108
104
104
104
150
225
220
232
229
230
229
229
230
229
243
255
255
255
255
254
254
254
254
255
254
254
255
255
253
255
253
254
250
251
247
173
220
115
96
99
100
102
102
102
99
100
113
104
135
137
137
137
138
138
137
138
137
136
137
140
153
160
161
163
140
146
136
137
136
133
104
101
100
100
102
98
98
94
239
243
251
251
254
254
254
253
253
254
254
254
254
254
254
254
254
254
254
255
254
254
0
0
0
0
0
0
0
0
0
0
0
0
0
0
0
0
0
0
0
0
0
0
0
0
0
0
0
0
0
0
0
0
0
0
0
0
0
0
0
0
0
0
0
0
0
0
0
0
0
0
0
0
0
0
0
0
0
0
0
0
0
0
0
0
0
0
0
0
0
0
0
0
0
0
0
0
0
0
0
0
0
0
0
0
0
0
0
0
0
0
0
0
0
0
0
0
0
0
0
0
0
0
0
0
0
0
0
0
0
0
0
0
0
0
0
0
0
0
0
0
0
0
0
0
0
0
0
0
0
0
0
0
0
0
0
0
0
0
0
0
0
0
0
0
0
0
0
0
0
0
0
0
0
0
0
0
0
0
0
0
0
0
0
0
0
0
0
0
0
0
0
0
0
0
0
0
0
0
0
0
0
0
0
0
0
0
0
0
0
0
0
0
0
0
0
0
0
0
0
0
0
0
0
0
0
0
0
0
255
255
254
254
254
253
255
255
253
251
254
254
253
254
254
253
252
254
254
255
254
254
253
254
254
253
255
252
252
254
252
252
247
223
141
141
124
123
123
128
126
126
125
147
167
167
166
165
165
166
166
166
166
166
166
166
165
166
166
166
166
166
166
166
166
166
166
166
166
166
166
166
166
165
163
181
181
187
188
188
185
189
187
187
175
165
165
165
165
165
126
124
125
125
125
122
122
146
229
227
247
254
254
254
255
255
255
255
255
255
255
254
254
254
255
255
255
254
254
254
254
255
255
254
254
255
255
255
255
254
254
254
255
255
255
254
254
254
255
255
255
255
255
254
254
254
255
255
254
254
108
108
156
159
159
158
156
156
156
157
157
157
156
156
156
156
156
157
157
157
156
156
156
157
157
157
156
156
156
158
147
105
105
104
106
106
105
105
105
118
227
249
249
253
253
253
255
254
253
255
254
252
252
248
156
156
106
106
105
105
106
124
124
154
157
156
156
156
157
157
157
157
156
156
157
156
156
156
156
156
155
154
123
123
104
105
105
106
106
126
105
106
107
107
112
111
111
108
105
104
104
105
109
109
108
104
107
108
105
106
106
106
104
104
103
177
226
226
228
229
229
229
230
230
230
241
255
255
254
253
255
254
254
254
254
253
254
254
254
255
254
254
253
248
248
225
126
173
96
100
102
102
101
102
102
103
102
125
125
138
138
138
137
137
137
137
137
137
137
137
134
140
155
160
159
159
162
150
150
135
137
127
127
103
101
101
100
101
98
96
134
245
245
254
254
254
255
255
254
254
254
254
254
254
255
254
254
254
254
254
254
254
254
0
0
0
0
0
0
0
0
0
0
0
0
0
0
0
0
0
0
0
0
0
0
0
0
0
0
0
0
0
0
0
0
0
0
0
0
0
0
0
0
0
0
0
0
0
0
0
0
0
0
0
0
0
0
0
0
0
0
0
0
0
0
0
0
0
0
0
0
0
0
0
0
0
0
0
0
0
0
0
0
0
0
0
0
0
0
0
0
0
0
0
0
0
0
0
0
0
0
0
0
0
0
0
0
0
0
0
0
0
0
0
0
0
0
0
0
0
0
0
0
0
0
0
0
0
0
0
0
0
0
0
0
0
0
0
0
0
0
0
0
0
0
0
0
0
0
0
0
0
0
0
0
0
0
0
0
0
0
0
0
0
0
0
0
0
0
0
0
0
0
0
0
0
0
0
0
0
0
0
0
0
0
0
0
0
0
0
0
0
0
0
0
0
0
0
0
0
0
0
0
0
0
0
0
0
0
0
254
255
252
251
254
249
254
251
254
254
254
255
253
253
254
255
254
255
252
254
252
252
255
254
254
250
248
253
250
245
249
239
132
125
122
123
126
124
127
125
126
125
148
165
166
165
166
164
166
166
166
166
166
166
166
166
166
165
166
166
166
166
166
166
166
166
166
166
166
166
165
165
165
165
169
176
187
190
189
189
188
189
188
188
164
164
164
165
167
146
125
125
125
125
124
130
122
174
225
229
254
254
254
254
254
255
255
255
255
255
255
255
254
254
254
255
255
254
255
254
254
254
255
255
254
254
255
255
255
255
254
254
254
255
255
255
254
255
254
254
255
255
255
255
254
254
254
255
255
254
254
135
157
155
155
154
158
156
156
156
157
157
157
156
156
157
156
156
157
157
157
156
157
156
157
157
156
156
156
156
156
138
103
104
106
105
105
107
105
106
102
194
242
227
250
252
249
251
252
246
245
252
244
129
148
104
107
107
107
106
102
112
158
157
153
157
157
156
156
157
157
157
157
156
156
156
156
156
156
157
156
159
137
107
103
106
106
104
107
106
106
105
106
102
109
105
107
106
108
110
107
105
105
104
107
107
105
104
104
106
104
103
102
116
219
228
227
229
231
229
230
231
230
231
240
253
254
254
254
253
255
254
255
254
253
254
254
255
252
254
254
254
241
244
189
94
100
97
103
100
101
101
102
102
102
123
135
133
137
137
137
136
137
139
138
136
139
138
137
136
138
138
162
163
158
159
159
161
149
146
136
137
122
114
103
101
101
101
102
95
97
168
250
253
253
254
254
255
255
254
254
254
254
254
254
255
254
254
254
255
255
254
254
254
0
0
0
0
0
0
0
0
0
0
0
0
0
0
0
0
0
0
0
0
0
0
0
0
0
0
0
0
0
0
0
0
0
0
0
0
0
0
0
0
0
0
0
0
0
0
0
0
0
0
0
0
0
0
0
0
0
0
0
0
0
0
0
0
0
0
0
0
0
0
0
0
0
0
0
0
0
0
0
0
0
0
0
0
0
0
0
0
0
0
0
0
0
0
0
0
0
0
0
0
0
0
0
0
0
0
0
0
0
0
0
0
0
0
0
0
0
0
0
0
0
0
0
0
0
0
0
0
0
0
0
0
0
0
0
0
0
0
0
0
0
0
0
0
0
0
0
0
0
0
0
0
0
0
0
0
0
0
0
0
0
0
0
0
0
0
0
0
0
0
0
0
0
0
0
0
0
0
0
0
0
0
0
0
0
0
0
0
0
0
0
0
0
0
0
0
0
0
0
0
0
0
0
0
0
0
234
245
252
246
249
249
249
250
249
249
253
254
253
254
252
255
254
253
253
254
252
254
255
251
249
248
248
238
205
245
142
121
123
123
125
127
126
127
125
125
127
155
165
165
166
165
166
165
166
166
166
166
166
166
166
166
166
166
165
166
166
166
166
166
166
166
166
166
166
167
165
165
167
166
166
188
189
190
189
187
188
190
188
174
164
165
167
165
167
134
125
125
124
127
124
122
123
174
228
230
252
254
254
254
254
255
255
255
255
255
255
255
255
254
254
254
255
255
255
255
254
254
254
255
255
254
255
255
255
255
255
254
254
254
255
255
255
254
254
254
254
255
255
255
255
254
254
254
254
254
254
254
157
157
159
154
160
156
156
156
156
157
157
156
157
157
157
156
157
157
157
157
157
157
156
156
156
156
156
156
156
157
129
104
105
106
105
106
107
106
106
101
105
227
154
212
249
230
230
218
245
161
107
129
105
106
104
104
106
103
102
149
154
158
158
157
156
156
156
156
157
157
157
157
156
156
156
156
154
153
156
156
119
105
103
109
103
104
107
106
108
105
106
107
109
106
106
107
107
107
105
105
109
106
107
105
106
103
104
104
110
103
188
226
231
231
228
231
231
229
231
230
230
240
253
253
255
254
254
255
255
254
255
255
255
254
249
253
252
252
247
219
241
109
95
94
100
100
101
100
98
102
102
111
135
136
136
136
138
137
137
138
139
139
136
138
139
138
138
136
136
136
152
163
160
161
159
160
160
139
139
135
136
114
109
101
101
101
101
101
97
95
234
253
253
255
254
254
255
254
254
254
254
254
254
255
254
254
254
254
255
255
254
254
254
0
0
0
0
0
0
0
0
0
0
0
0
0
0
0
0
0
0
0
0
0
0
0
0
0
0
0
0
0
0
0
0
0
0
0
0
0
0
0
0
0
0
0
0
0
0
0
0
0
0
0
0
0
0
0
0
0
0
0
0
0
0
0
0
0
0
0
0
0
0
0
0
0
0
0
0
0
0
0
0
0
0
0
0
0
0
0
0
0
0
0
0
0
0
0
0
0
0
0
0
0
0
0
0
0
0
0
0
0
0
0
0
0
0
0
0
0
0
0
0
0
0
0
0
0
0
0
0
0
0
0
0
0
0
0
0
0
0
0
0
0
0
0
0
0
0
0
0
0
0
0
0
0
0
0
0
0
0
0
0
0
0
0
0
0
0
0
0
0
0
0
0
0
0
0
0
0
0
0
0
0
0
0
0
0
0
0
0
0
0
0
0
0
0
0
0
0
0
0
0
0
0
0
0
0
122
157
195
225
225
241
245
205
249
251
233
250
249
249
249
250
248
236
250
250
246
246
250
240
146
221
178
122
133
118
125
125
122
127
125
126
124
126
126
130
159
166
166
165
164
164
166
166
166
166
166
166
166
166
166
166
166
165
166
165
166
166
166
166
166
166
166
166
164
166
164
166
164
165
187
186
186
189
188
188
189
189
188
187
163
166
166
164
150
125
124
125
125
125
127
126
126
209
230
234
250
253
254
254
254
255
255
255
255
255
255
255
255
255
255
254
254
255
255
255
255
254
254
254
255
255
254
254
255
255
255
255
254
255
254
255
254
254
255
254
254
254
255
255
255
255
254
254
254
254
254
254
254
156
156
155
156
154
156
156
156
156
156
156
156
156
156
156
156
157
157
157
157
156
156
156
156
156
156
156
156
156
156
127
107
107
106
108
108
106
107
104
103
103
105
105
117
132
104
123
109
100
100
103
105
108
105
107
104
106
137
154
157
159
154
157
156
156
156
156
156
157
157
157
157
156
156
156
159
155
158
155
124
107
105
106
106
108
105
110
105
106
106
106
105
111
103
106
107
104
105
104
106
106
105
103
103
102
102
147
147
220
227
229
230
230
230
231
229
231
229
229
241
255
254
255
254
254
255
255
254
254
254
255
255
251
254
249
250
244
130
177
95
100
100
98
102
102
103
102
103
103
121
137
137
137
137
136
138
140
138
137
138
136
138
138
138
138
138
136
140
138
136
161
155
155
162
160
161
163
139
137
135
136
106
106
101
101
101
102
101
94
94
244
252
251
255
253
253
253
254
255
255
254
254
254
255
254
254
254
254
255
254
254
254
254
0
0
0
0
0
0
0
0
0
0
0
0
0
0
0
0
0
0
0
0
0
0
0
0
0
0
0
0
0
0
0
0
0
0
0
0
0
0
0
0
0
0
0
0
0
0
0
0
0
0
0
0
0
0
0
0
0
0
0
0
0
0
0
0
0
0
0
0
0
0
0
0
0
0
0
0
0
0
0
0
0
0
0
0
0
0
0
0
0
0
0
0
0
0
0
0
0
0
0
0
0
0
0
0
0
0
0
0
0
0
0
0
0
0
0
0
0
0
0
0
0
0
0
0
0
0
0
0
0
0
0
0
0
0
0
0
0
0
0
0
0
0
0
0
0
0
0
0
0
0
0
0
0
0
0
0
0
0
0
0
0
0
0
0
0
0
0
0
0
0
0
0
0
0
0
0
0
0
0
0
0
0
0
0
0
0
0
0
0
0
0
0
0
0
0
0
0
0
0
0
0
0
0
0
122
126
126
128
147
119
122
205
126
135
233
141
152
239
237
157
154
236
152
138
224
206
121
120
146
120
123
122
127
128
126
125
126
126
125
127
123
124
132
166
165
166
164
164
164
166
166
166
166
166
166
166
166
166
166
166
166
166
166
166
166
166
166
166
166
166
166
164
164
165
165
166
164
181
188
186
190
188
189
188
189
188
188
170
166
165
164
166
133
125
126
124
125
126
125
123
150
223
225
234
251
253
254
254
254
254
255
255
255
255
255
255
255
255
255
255
254
254
255
255
255
255
254
254
255
255
255
254
254
255
255
255
255
255
255
255
254
254
255
255
254
254
254
255
255
255
254
254
254
254
254
254
254
254
158
155
156
154
157
157
156
156
156
156
156
156
156
156
156
157
157
157
157
157
156
156
156
156
156
156
156
156
156
158
127
107
106
105
108
107
108
104
105
107
106
105
103
106
104
106
108
104
108
108
107
108
105
103
104
126
158
154
157
159
156
157
157
156
156
156
156
156
157
157
157
157
156
156
156
155
156
154
124
106
104
105
104
106
105
110
104
107
106
105
106
107
103
105
106
104
106
106
106
104
100
120
103
179
224
193
227
231
228
229
230
230
230
229
231
229
229
246
255
255
255
253
253
255
255
254
254
255
254
254
255
252
247
249
204
97
130
95
102
100
101
100
102
102
103
114
107
130
136
137
137
137
137
136
137
138
137
137
137
138
138
137
137
137
136
138
137
138
136
144
163
157
161
159
161
159
155
137
135
138
133
103
103
100
101
102
103
102
118
152
247
251
255
254
253
255
254
254
255
255
254
254
254
254
254
254
254
254
254
254
255
254
254
0
0
0
0
0
0
0
0
0
0
0
0
0
0
0
0
0
0
0
0
0
0
0
0
0
0
0
0
0
0
0
0
0
0
0
0
0
0
0
0
0
0
0
0
0
0
0
0
0
0
0
0
0
0
0
0
0
0
0
0
0
0
0
0
0
0
0
0
0
0
0
0
0
0
0
0
0
0
0
0
0
0
0
0
0
0
0
0
0
0
0
0
0
0
0
0
0
0
0
0
0
0
0
0
0
0
0
0
0
0
0
0
0
0
0
0
0
0
0
0
0
0
0
0
0
0
0
0
0
0
0
0
0
0
0
0
0
0
0
0
0
0
0
0
0
0
0
0
0
0
0
0
0
0
0
0
0
0
0
0
0
0
0
0
0
0
0
0
0
0
0
0
0
0
0
0
0
0
0
0
0
0
0
0
0
0
0
0
0
0
0
0
0
0
0
0
0
0
0
0
0
0
0
128
126
126
123
125
126
126
122
124
124
124
122
122
123
120
124
124
121
119
119
122
124
123
123
127
127
127
128
124
125
125
126
127
127
125
126
126
151
166
166
166
165
165
165
164
165
166
166
166
166
166
166
166
166
166
166
166
166
166
166
166
166
166
166
166
166
166
166
167
167
164
166
177
190
190
189
189
189
189
187
188
188
177
164
164
164
167
151
151
125
126
126
127
125
125
124
196
232
232
237
254
254
254
254
254
254
255
255
255
255
255
255
255
255
255
255
255
254
254
255
255
255
255
254
255
255
255
255
254
254
255
255
255
255
255
255
255
255
255
255
255
254
254
254
255
254
254
254
254
254
254
255
255
254
254
157
157
157
157
157
156
157
156
156
156
156
156
156
156
156
157
157
157
157
156
156
156
156
156
156
156
156
157
157
158
139
107
107
105
106
106
107
106
106
105
106
104
104
105
106
106
105
107
104
104
106
105
105
128
156
157
154
158
156
156
156
156
156
156
156
156
156
156
157
157
155
157
157
157
157
156
156
142
107
107
106
105
105
105
103
102
102
107
102
104
104
105
104
104
101
102
102
104
130
176
176
221
230
230
228
231
230
230
231
230
230
230
232
231
229
249
253
253
255
253
253
255
255
254
254
255
254
254
254
253
244
244
159
92
92
99
104
104
101
102
105
105
105
124
124
138
135
139
139
137
137
137
137
138
139
138
137
138
138
137
137
137
137
138
137
137
136
136
136
152
159
158
158
158
160
160
147
135
135
140
119
101
101
100
102
102
101
97
181
181
249
255
255
254
254
254
254
255
255
255
254
254
254
254
254
254
254
254
255
255
255
254
254
0
0
0
0
0
0
0
0
0
0
0
0
0
0
0
0
0
0
0
0
0
0
0
0
0
0
0
0
0
0
0
0
0
0
0
0
0
0
0
0
0
0
0
0
0
0
0
0
0
0
0
0
0
0
0
0
0
0
0
0
0
0
0
0
0
0
0
0
0
0
0
0
0
0
0
0
0
0
0
0
0
0
0
0
0
0
0
0
0
0
0
0
0
0
0
0
0
0
0
0
0
0
0
0
0
0
0
0
0
0
0
0
0
0
0
0
0
0
0
0
0
0
0
0
0
0
0
0
0
0
0
0
0
0
0
0
0
0
0
0
0
0
0
0
0
0
0
0
0
0
0
0
0
0
0
0
0
0
0
0
0
0
0
0
0
0
0
0
0
0
0
0
0
0
0
0
0
0
0
0
0
0
0
0
0
0
0
0
0
0
0
0
0
0
0
0
0
0
0
0
0
0
126
125
125
128
126
128
124
126
124
122
126
126
125
124
127
120
124
125
123
129
122
129
123
126
124
124
124
127
124
125
126
126
126
123
152
136
162
165
167
167
165
166
164
164
165
165
166
166
166
166
166
166
166
166
166
166
166
166
166
166
166
166
165
166
166
165
165
166
165
164
164
181
189
189
188
188
189
190
187
188
188
185
164
164
164
165
165
165
124
125
127
126
125
126
124
126
224
226
228
242
252
254
255
255
255
254
254
255
254
255
255
255
255
255
255
255
255
255
254
254
255
255
255
255
254
254
254
255
255
254
254
255
255
255
255
255
255
255
255
255
255
255
254
254
254
255
254
255
254
254
254
254
255
255
254
254
156
156
156
156
156
157
157
156
156
156
156
156
156
156
156
156
157
157
157
157
156
156
156
156
156
157
157
157
156
157
147
113
120
106
109
106
106
107
103
107
106
106
107
106
107
106
107
105
107
103
106
131
158
156
157
157
157
157
156
157
156
156
156
156
156
156
156
156
157
156
157
156
156
156
155
156
154
107
106
106
110
106
108
108
105
104
133
130
107
102
151
101
106
191
117
149
227
227
225
230
228
228
229
228
229
228
231
230
232
229
230
235
231
253
254
250
254
254
253
254
254
254
254
254
255
254
254
247
197
232
123
99
97
100
102
101
102
103
102
103
113
135
133
137
138
139
140
137
137
137
137
137
137
139
137
137
138
137
137
137
137
137
138
138
137
139
137
134
136
160
162
162
159
163
159
161
140
135
138
138
112
101
101
101
100
99
98
94
215
237
246
254
254
254
255
255
255
255
255
255
254
254
254
255
255
254
254
254
255
255
254
254
254
0
0
0
0
0
0
0
0
0
0
0
0
0
0
0
0
0
0
0
0
0
0
0
0
0
0
0
0
0
0
0
0
0
0
0
0
0
0
0
0
0
0
0
0
0
0
0
0
0
0
0
0
0
0
0
0
0
0
0
0
0
0
0
0
0
0
0
0
0
0
0
0
0
0
0
0
0
0
0
0
0
0
0
0
0
0
0
0
0
0
0
0
0
0
0
0
0
0
0
0
0
0
0
0
0
0
0
0
0
0
0
0
0
0
0
0
0
0
0
0
0
0
0
0
0
0
0
0
0
0
0
0
0
0
0
0
0
0
0
0
0
0
0
0
0
0
0
0
0
0
0
0
0
0
0
0
0
0
0
0
0
0
0
0
0
0
0
0
0
0
0
0
0
0
0
0
0
0
0
0
0
0
0
0
0
0
0
0
0
0
0
0
0
0
0
0
0
0
0
0
0
126
126
125
126
126
124
125
126
126
128
126
124
130
127
127
127
125
125
127
129
126
126
127
127
124
127
127
128
128
126
128
128
146
163
152
164
163
165
165
167
166
166
165
166
165
165
165
166
166
166
166
166
166
166
166
166
166
166
166
166
166
166
166
165
166
165
164
164
165
165
184
188
188
189
188
188
188
189
188
188
189
167
164
167
165
164
164
144
125
125
126
125
125
127
120
182
182
231
230
242
253
254
254
254
255
254
254
255
254
255
255
255
255
255
255
255
255
255
254
254
254
255
255
255
255
254
254
254
255
255
254
254
255
255
255
255
255
255
255
255
255
255
255
254
254
254
255
255
255
254
254
254
255
255
255
254
254
156
156
156
157
157
157
156
156
156
156
156
156
156
156
156
156
156
157
157
157
156
156
156
156
157
156
156
156
156
156
158
120
142
110
106
105
108
106
106
105
104
107
108
105
104
104
103
112
103
152
156
153
153
158
157
157
157
157
157
157
156
156
156
156
156
156
155
156
155
155
158
154
156
156
153
154
113
107
101
101
103
104
108
190
219
219
219
220
219
151
222
228
191
229
226
227
227
228
230
228
229
229
232
232
229
228
230
231
229
240
240
254
254
254
254
254
254
253
254
254
254
254
255
255
248
243
155
155
95
100
99
99
103
102
103
102
106
106
130
136
135
136
137
138
138
138
137
137
137
137
137
137
137
135
135
137
137
137
137
137
137
137
136
136
139
137
138
146
146
162
160
159
156
160
161
147
134
140
140
137
103
101
100
102
101
101
97
97
237
240
254
254
255
253
255
255
255
254
255
255
255
255
255
255
254
254
254
255
255
255
254
253
254
0
0
0
0
0
0
0
0
0
0
0
0
0
0
0
0
0
0
0
0
0
0
0
0
0
0
0
0
0
0
0
0
0
0
0
0
0
0
0
0
0
0
0
0
0
0
0
0
0
0
0
0
0
0
0
0
0
0
0
0
0
0
0
0
0
0
0
0
0
0
0
0
0
0
0
0
0
0
0
0
0
0
0
0
0
0
0
0
0
0
0
0
0
0
0
0
0
0
0
0
0
0
0
0
0
0
0
0
0
0
0
0
0
0
0
0
0
0
0
0
0
0
0
0
0
0
0
0
0
0
0
0
0
0
0
0
0
0
0
0
0
0
0
0
0
0
0
0
0
0
0
0
0
0
0
0
0
0
0
0
0
0
0
0
0
0
0
0
0
0
0
0
0
0
0
0
0
0
0
0
0
0
0
0
0
0
0
0
0
0
0
0
0
0
0
0
0
0
0
0
125
125
130
125
128
125
127
128
125
125
124
127
124
129
125
128
124
125
126
124
126
126
125
126
124
126
136
122
127
158
145
161
165
166
163
166
165
164
168
164
165
166
166
166
166
165
165
165
166
166
166
166
166
166
166
166
166
166
166
166
166
166
164
165
165
165
165
175
170
186
189
187
188
189
189
188
190
188
188
189
175
170
165
164
167
166
161
126
126
126
127
127
126
124
121
139
231
228
230
247
254
253
254
255
255
255
254
255
255
255
255
255
255
255
255
255
255
255
255
254
254
254
255
255
255
255
254
254
254
255
255
254
254
255
255
255
255
255
255
255
255
255
255
255
254
254
255
255
255
255
255
255
255
255
255
255
255
254
156
156
157
157
157
157
156
156
156
156
156
156
156
156
156
156
156
157
157
157
156
156
156
156
156
156
156
156
157
156
153
154
154
134
113
138
105
104
112
108
105
106
123
104
112
153
135
159
158
157
156
159
157
157
157
157
157
158
157
157
156
157
158
156
157
157
157
156
156
156
158
157
156
156
157
104
107
107
109
109
104
107
226
225
228
231
225
234
227
230
230
227
230
229
231
232
229
229
229
231
227
230
228
232
229
230
230
251
245
254
254
254
254
254
255
252
254
254
254
254
254
253
249
226
96
120
95
102
103
101
102
102
102
103
125
115
136
137
137
137
136
137
138
137
137
137
137
137
136
136
137
137
137
137
137
137
137
137
137
137
136
136
136
137
137
137
134
157
159
161
162
162
162
159
138
133
137
138
139
131
102
100
102
102
102
103
97
124
246
246
253
255
255
251
255
254
254
255
255
254
254
255
255
255
254
254
254
255
255
255
254
254
254
0
0
0
0
0
0
0
0
0
0
0
0
0
0
0
0
0
0
0
0
0
0
0
0
0
0
0
0
0
0
0
0
0
0
0
0
0
0
0
0
0
0
0
0
0
0
0
0
0
0
0
0
0
0
0
0
0
0
0
0
0
0
0
0
0
0
0
0
0
0
0
0
0
0
0
0
0
0
0
0
0
0
0
0
0
0
0
0
0
0
0
0
0
0
0
0
0
0
0
0
0
0
0
0
0
0
0
0
0
0
0
0
0
0
0
0
0
0
0
0
0
0
0
0
0
0
0
0
0
0
0
0
0
0
0
0
0
0
0
0
0
0
0
0
0
0
0
0
0
0
0
0
0
0
0
0
0
0
0
0
0
0
0
0
0
0
0
0
0
0
0
0
0
0
0
0
0
0
0
0
0
0
0
0
0
0
0
0
0
0
0
0
0
0
0
0
0
0
0
161
155
130
151
139
125
135
132
123
124
129
124
124
123
124
128
126
127
123
124
129
129
125
136
146
160
136
163
167
158
168
166
165
166
167
166
165
166
165
164
166
165
165
166
166
166
165
165
166
166
166
166
166
166
166
166
166
166
166
166
166
165
165
165
164
168
181
175
189
189
189
189
188
189
188
190
187
188
190
176
175
165
165
165
167
165
135
126
125
126
127
125
127
120
121
195
226
228
233
252
253
253
254
254
255
254
255
255
254
255
255
255
255
255
255
255
255
255
255
255
255
254
254
255
255
255
255
254
254
254
254
254
254
254
255
255
255
255
255
255
255
255
255
255
254
254
255
255
255
255
255
255
255
255
254
255
255
255
254
156
156
157
157
156
157
156
156
156
156
156
156
156
156
156
156
156
157
156
156
156
156
156
156
156
156
157
157
156
158
156
155
157
157
138
155
154
112
148
150
149
123
154
157
153
156
155
157
157
156
156
157
157
157
157
156
157
157
157
156
157
158
156
154
156
157
155
156
156
155
157
157
157
156
106
107
105
106
109
108
101
226
225
232
227
225
233
231
229
230
231
232
229
229
230
229
231
229
228
227
231
231
232
229
243
254
251
254
254
254
254
253
254
255
255
254
254
253
251
254
242
158
93
96
97
102
102
101
101
102
103
110
132
125
136
137
137
137
138
137
137
137
137
137
137
137
136
136
136
137
137
137
136
137
137
137
137
137
136
136
136
137
138
137
137
135
150
159
157
157
161
161
159
142
133
136
139
139
139
113
103
102
102
101
103
103
95
162
249
251
254
255
254
254
254
254
255
254
254
254
255
255
255
254
254
254
255
255
255
254
254
254
254
0
0
0
0
0
0
0
0
0
0
0
0
0
0
0
0
0
0
0
0
0
0
0
0
0
0
0
0
0
0
0
0
0
0
0
0
0
0
0
0
0
0
0
0
0
0
0
0
0
0
0
0
0
0
0
0
0
0
0
0
0
0
0
0
0
0
0
0
0
0
0
0
0
0
0
0
0
0
0
0
0
0
0
0
0
0
0
0
0
0
0
0
0
0
0
0
0
0
0
0
0
0
0
0
0
0
0
0
0
0
0
0
0
0
0
0
0
0
0
0
0
0
0
0
0
0
0
0
0
0
0
0
0
0
0
0
0
0
0
0
0
0
0
0
0
0
0
0
0
0
0
0
0
0
0
0
0
0
0
0
0
0
0
0
0
0
0
0
0
0
0
0
0
0
0
0
0
0
0
0
0
0
0
0
0
0
0
0
0
0
0
0
0
0
0
0
0
0
164
168
165
163
163
161
157
157
153
148
144
144
146
143
143
140
143
166
145
152
156
156
164
166
166
166
163
166
166
167
167
167
164
164
163
164
165
166
166
165
165
165
165
166
166
166
165
165
165
166
166
166
166
166
166
166
166
166
166
166
165
166
166
165
181
192
188
190
189
189
190
189
189
188
189
188
187
189
177
177
165
166
165
164
166
147
147
124
125
125
126
126
125
125
152
229
229
231
239
252
254
254
254
254
253
255
255
254
254
255
255
255
255
255
255
255
255
255
255
255
255
254
254
254
255
255
255
255
254
255
255
254
255
254
254
255
255
255
255
255
254
254
254
254
254
254
255
255
255
255
255
255
255
254
254
254
255
255
254
254
156
156
156
156
156
157
156
156
156
156
156
156
156
156
157
156
156
156
156
156
156
157
156
156
156
156
156
156
156
154
155
154
154
158
153
153
158
153
156
154
157
156
156
157
159
157
156
157
156
156
156
157
157
156
156
156
157
157
156
156
158
157
165
163
157
155
155
155
156
156
155
158
134
134
106
104
104
103
102
104
163
229
232
232
231
228
228
231
224
227
227
229
231
231
231
227
231
233
231
229
229
235
250
253
254
254
255
255
254
254
254
255
255
252
254
252
246
246
221
118
98
98
97
103
103
99
101
101
103
118
137
137
135
137
137
137
137
137
137
137
137
137
137
137
136
136
136
137
137
137
137
137
137
137
136
137
137
136
136
137
137
135
136
135
136
136
165
158
158
162
160
161
161
135
136
136
138
138
137
109
103
103
103
100
101
101
94
238
254
254
254
254
254
254
255
255
255
254
255
255
255
255
255
254
255
255
255
254
254
254
254
254
254
0
0
0
0
0
0
0
0
0
0
0
0
0
0
0
0
0
0
0
0
0
0
0
0
0
0
0
0
0
0
0
0
0
0
0
0
0
0
0
0
0
0
0
0
0
0
0
0
0
0
0
0
0
0
0
0
0
0
0
0
0
0
0
0
0
0
0
0
0
0
0
0
0
0
0
0
0
0
0
0
0
0
0
0
0
0
0
0
0
0
0
0
0
0
0
0
0
0
0
0
0
0
0
0
0
0
0
0
0
0
0
0
0
0
0
0
0
0
0
0
0
0
0
0
0
0
0
0
0
0
0
0
0
0
0
0
0
0
0
0
0
0
0
0
0
0
0
0
0
0
0
0
0
0
0
0
0
0
0
0
0
0
0
0
0
0
0
0
0
0
0
0
0
0
0
0
0
0
0
0
0
0
0
0
0
0
0
0
0
0
0
0
0
0
0
0
0
164
165
164
167
168
164
164
169
166
164
167
163
167
162
166
168
165
166
165
168
165
167
162
164
166
162
165
166
165
164
165
165
167
166
163
167
164
166
165
166
164
165
165
165
165
166
165
165
165
166
166
166
166
166
166
166
166
166
166
165
165
165
172
190
189
192
188
190
188
189
189
190
188
189
188
188
189
180
181
166
164
166
165
166
165
158
123
126
126
125
127
124
126
123
214
230
227
229
248
252
253
253
254
253
254
254
254
255
254
254
255
255
255
255
255
255
255
255
255
255
255
255
255
254
255
255
255
255
255
254
254
254
255
254
254
254
255
255
255
255
254
254
254
254
255
255
254
254
254
254
255
255
255
255
254
254
254
255
255
254
254
156
157
156
156
156
157
156
156
156
156
157
157
157
157
156
156
156
156
157
157
157
156
156
156
157
157
156
156
156
157
158
154
160
157
155
157
157
156
158
157
156
157
156
156
157
156
157
157
156
156
156
157
157
156
156
157
157
157
158
153
161
165
184
182
159
157
157
156
158
157
159
151
103
105
105
105
108
104
104
148
230
226
229
232
230
231
232
230
232
230
231
228
232
229
227
231
230
241
233
245
254
254
253
253
254
254
253
254
254
254
253
254
252
247
224
242
174
96
101
98
100
101
103
101
103
104
105
135
137
137
136
137
137
137
137
137
137
137
137
137
137
137
137
136
137
137
137
137
137
137
137
136
137
136
137
137
137
137
137
136
135
138
133
135
152
162
161
161
159
157
160
143
133
135
140
136
137
137
131
104
102
103
101
103
98
100
163
246
254
255
253
254
253
254
255
255
255
254
255
255
255
255
255
255
255
254
254
254
255
255
254
254
254
0
0
0
0
0
0
0
0
0
0
0
0
0
0
0
0
0
0
0
0
0
0
0
0
0
0
0
0
0
0
0
0
0
0
0
0
0
0
0
0
0
0
0
0
0
0
0
0
0
0
0
0
0
0
0
0
0
0
0
0
0
0
0
0
0
0
0
0
0
0
0
0
0
0
0
0
0
0
0
0
0
0
0
0
0
0
0
0
0
0
0
0
0
0
0
0
0
0
0
0
0
0
0
0
0
0
0
0
0
0
0
0
0
0
0
0
0
0
0
0
0
0
0
0
0
0
0
0
0
0
0
0
0
0
0
0
0
0
0
0
0
0
0
0
0
0
0
0
0
0
0
0
0
0
0
0
0
0
0
0
0
0
0
0
0
0
0
0
0
0
0
0
0
0
0
0
0
0
0
0
0
0
0
0
0
0
0
0
0
0
0
0
0
0
0
0
167
166
166
168
167
164
164
167
167
167
165
163
167
164
163
164
164
167
166
166
166
168
167
167
168
164
164
164
165
164
166
167
164
164
165
165
165
166
166
164
164
165
165
165
164
164
165
165
166
166
166
166
166
166
166
166
166
166
165
166
166
188
189
187
187
186
189
189
187
189
189
189
188
189
189
189
179
179
165
165
166
166
166
167
167
126
126
126
127
127
128
128
123
176
214
231
231
240
240
254
254
254
255
254
254
254
255
254
254
255
254
255
255
255
255
255
255
255
255
255
255
255
255
255
255
255
255
255
255
255
254
254
254
255
254
254
254
255
255
255
254
254
254
254
255
255
254
254
254
254
254
254
255
254
255
254
254
254
255
255
254
254
157
157
156
156
156
157
156
156
156
157
156
156
157
156
156
156
156
157
157
156
156
156
156
157
157
156
156
156
156
156
151
160
154
156
157
157
157
157
157
156
159
154
154
157
157
157
157
157
156
156
156
157
157
157
157
157
155
158
157
157
172
183
183
169
157
157
155
157
153
153
156
107
105
111
105
104
104
103
221
221
229
231
232
227
229
229
229
232
231
231
229
228
232
232
245
252
252
254
254
254
254
254
255
255
254
254
254
255
254
253
253
246
184
184
95
96
102
102
101
101
101
101
103
103
122
137
137
137
136
136
137
137
137
137
137
137
137
137
137
137
137
137
137
137
137
137
137
137
137
137
137
137
138
137
137
137
136
135
135
135
138
138
159
161
162
162
159
162
162
161
140
133
137
139
137
137
137
125
125
104
105
101
105
99
92
92
226
251
255
254
254
254
254
254
255
255
255
254
255
255
254
254
254
254
254
254
254
254
255
255
254
254
254
0
0
0
0
0
0
0
0
0
0
0
0
0
0
0
0
0
0
0
0
0
0
0
0
0
0
0
0
0
0
0
0
0
0
0
0
0
0
0
0
0
0
0
0
0
0
0
0
0
0
0
0
0
0
0
0
0
0
0
0
0
0
0
0
0
0
0
0
0
0
0
0
0
0
0
0
0
0
0
0
0
0
0
0
0
0
0
0
0
0
0
0
0
0
0
0
0
0
0
0
0
0
0
0
0
0
0
0
0
0
0
0
0
0
0
0
0
0
0
0
0
0
0
0
0
0
0
0
0
0
0
0
0
0
0
0
0
0
0
0
0
0
0
0
0
0
0
0
0
0
0
0
0
0
0
0
0
0
0
0
0
0
0
0
0
0
0
0
0
0
0
0
0
0
0
0
0
0
0
0
0
0
0
0
0
0
0
0
0
0
0
0
0
0
0
166
166
165
167
164
164
167
164
163
166
164
167
167
165
164
168
165
164
164
167
163
164
165
164
165
165
163
166
167
165
165
165
164
164
165
166
165
165
165
165
165
165
165
165
165
164
164
166
166
166
166
166
166
166
166
166
166
165
165
165
186
189
189
189
188
189
189
188
188
191
190
188
188
189
189
174
177
165
165
165
165
166
164
166
133
125
125
127
128
128
127
123
124
142
229
229
228
231
254
253
255
254
254
254
254
254
254
254
254
254
254
254
255
254
255
255
255
255
255
255
255
255
255
255
255
255
254
255
255
254
254
254
253
254
255
254
254
254
255
255
255
254
254
254
254
254
254
255
255
255
254
254
254
255
255
255
254
254
254
255
255
255
254
157
157
156
156
157
157
156
156
156
156
156
156
156
156
156
156
156
156
156
156
156
156
157
157
156
156
156
156
157
156
159
156
157
156
156
156
156
156
157
157
155
158
156
157
157
157
157
157
157
157
156
157
157
157
157
156
156
156
159
178
183
182
181
158
157
155
159
155
157
158
139
101
105
105
107
106
103
143
228
234
229
230
229
237
231
226
243
227
234
237
254
245
254
253
251
254
252
252
254
255
254
255
254
254
254
254
249
246
247
232
99
130
94
97
100
102
101
101
101
102
114
107
132
136
138
137
135
138
137
139
139
136
137
137
137
137
137
137
137
137
137
137
137
137
137
137
137
137
137
137
136
137
135
136
134
141
135
140
161
152
162
159
159
162
157
161
158
159
160
155
138
138
136
137
139
133
136
121
112
106
103
102
103
98
104
188
244
255
253
255
255
254
254
254
255
255
255
254
254
253
254
254
254
254
254
254
254
254
255
254
254
254
254
0
0
0
0
0
0
0
0
0
0
0
0
0
0
0
0
0
0
0
0
0
0
0
0
0
0
0
0
0
0
0
0
0
0
0
0
0
0
0
0
0
0
0
0
0
0
0
0
0
0
0
0
0
0
0
0
0
0
0
0
0
0
0
0
0
0
0
0
0
0
0
0
0
0
0
0
0
0
0
0
0
0
0
0
0
0
0
0
0
0
0
0
0
0
0
0
0
0
0
0
0
0
0
0
0
0
0
0
0
0
0
0
0
0
0
0
0
0
0
0
0
0
0
0
0
0
0
0
0
0
0
0
0
0
0
0
0
0
0
0
0
0
0
0
0
0
0
0
0
0
0
0
0
0
0
0
0
0
0
0
0
0
0
0
0
0
0
0
0
0
0
0
0
0
0
0
0
0
0
0
0
0
0
0
0
0
0
0
0
0
0
0
0
0
166
166
166
167
165
167
168
164
166
167
164
165
164
164
164
166
163
164
165
166
167
167
166
164
165
165
166
166
164
163
167
165
166
165
165
166
165
165
165
165
164
165
164
164
165
165
163
165
166
165
165
166
166
166
166
166
166
164
165
168
189
186
186
189
188
189
192
189
188
188
191
188
188
186
171
174
167
165
165
165
164
166
164
148
125
125
127
127
126
128
125
122
124
210
230
229
228
236
253
253
254
254
254
254
254
254
254
254
254
254
254
254
254
254
253
255
255
255
255
255
255
255
255
255
255
252
254
254
255
254
254
254
254
254
254
255
254
254
254
254
255
255
255
254
254
254
255
255
255
255
254
254
254
254
255
255
254
254
254
254
255
255
255
254
157
157
156
157
157
157
156
156
156
156
156
156
156
156
156
156
156
156
156
156
156
157
157
156
156
156
156
157
157
157
157
157
157
156
156
156
157
157
157
157
156
156
157
157
157
157
157
157
157
157
157
157
155
155
157
157
156
164
178
186
183
181
170
157
154
159
157
154
158
139
105
108
105
106
105
103
142
236
234
253
253
253
237
253
255
243
255
255
254
254
252
255
253
254
255
254
254
255
255
254
255
254
254
253
249
234
246
143
93
99
99
99
100
100
102
102
101
102
122
114
136
135
138
138
137
139
138
136
137
137
136
137
137
137
137
137
137
137
137
137
137
137
135
137
137
137
137
137
137
137
137
135
136
149
149
160
160
161
159
160
159
161
160
159
161
160
158
160
143
137
135
136
135
137
133
137
134
112
103
104
101
103
97
92
188
245
254
255
255
255
255
254
254
254
255
255
255
254
253
254
254
254
255
255
254
254
254
254
254
254
255
254
253
0
0
0
0
0
0
0
0
0
0
0
0
0
0
0
0
0
0
0
0
0
0
0
0
0
0
0
0
0
0
0
0
0
0
0
0
0
0
0
0
0
0
0
0
0
0
0
0
0
0
0
0
0
0
0
0
0
0
0
0
0
0
0
0
0
0
0
0
0
0
0
0
0
0
0
0
0
0
0
0
0
0
0
0
0
0
0
0
0
0
0
0
0
0
0
0
0
0
0
0
0
0
0
0
0
0
0
0
0
0
0
0
0
0
0
0
0
0
0
0
0
0
0
0
0
0
0
0
0
0
0
0
0
0
0
0
0
0
0
0
0
0
0
0
0
0
0
0
0
0
0
0
0
0
0
0
0
0
0
0
0
0
0
0
0
0
0
0
0
0
0
0
0
0
0
0
0
0
0
0
0
0
0
0
0
0
0
0
0
0
0
0
0
166
166
166
166
165
167
163
166
166
166
164
165
165
164
164
166
166
168
167
163
166
164
165
165
165
166
166
166
163
166
166
166
166
166
165
164
164
165
166
166
166
164
165
165
164
166
167
165
164
165
165
165
166
166
166
166
166
166
164
177
183
187
187
190
188
189
188
188
188
188
189
186
186
167
167
166
164
165
165
165
165
166
150
125
125
126
127
126
126
126
122
122
186
227
232
230
230
253
253
255
254
254
254
255
255
254
254
255
255
254
255
254
254
255
254
254
254
255
254
255
255
254
255
255
255
255
254
252
255
254
255
253
253
254
254
254
255
254
254
254
255
255
255
255
254
255
255
255
255
255
255
254
255
254
254
255
255
255
254
254
254
255
255
255
254
156
156
156
157
156
156
156
156
156
156
156
156
156
156
156
156
156
156
156
156
157
157
157
156
156
156
157
157
157
156
157
157
157
156
157
157
157
156
156
156
156
157
157
157
157
157
157
157
157
157
156
158
156
156
157
157
156
182
184
184
180
158
155
156
157
156
156
158
109
102
107
105
107
107
101
221
221
251
249
255
254
254
251
251
254
252
255
253
254
255
255
254
255
254
255
255
253
255
255
254
254
251
246
157
207
105
96
96
99
101
102
101
103
102
103
107
129
129
137
139
137
137
137
138
138
136
138
138
137
137
137
137
137
137
137
137
137
137
137
137
136
136
138
136
139
138
137
136
136
133
147
161
161
163
162
158
161
161
161
160
159
161
161
160
162
162
149
138
137
138
137
136
136
136
129
129
109
102
102
101
104
93
93
174
251
254
254
255
255
255
255
254
254
254
255
255
255
255
254
254
254
255
255
255
254
254
254
254
254
255
254
253
254
0
0
0
0
0
0
0
0
0
0
0
0
0
0
0
0
0
0
0
0
0
0
0
0
0
0
0
0
0
0
0
0
0
0
0
0
0
0
0
0
0
0
0
0
0
0
0
0
0
0
0
0
0
0
0
0
0
0
0
0
0
0
0
0
0
0
0
0
0
0
0
0
0
0
0
0
0
0
0
0
0
0
0
0
0
0
0
0
0
0
0
0
0
0
0
0
0
0
0
0
0
0
0
0
0
0
0
0
0
0
0
0
0
0
0
0
0
0
0
0
0
0
0
0
0
0
0
0
0
0
0
0
0
0
0
0
0
0
0
0
0
0
0
0
0
0
0
0
0
0
0
0
0
0
0
0
0
0
0
0
0
0
0
0
0
0
0
0
0
0
0
0
0
0
0
0
0
0
0
0
0
0
0
0
0
0
0
0
0
0
0
0
166
166
166
166
166
167
165
169
162
165
165
165
165
165
165
164
164
164
163
163
166
165
165
165
166
165
166
166
166
166
165
165
164
165
164
165
164
165
164
166
166
166
165
164
167
163
167
167
166
165
165
165
166
166
166
164
164
165
163
166
183
179
190
190
187
191
187
189
190
184
189
171
163
166
166
164
166
165
167
165
165
156
125
125
126
126
126
126
127
125
123
156
230
229
232
231
239
248
255
253
253
254
254
254
255
254
255
254
254
254
255
254
252
253
253
254
254
254
254
254
254
254
254
251
255
255
251
251
255
253
255
255
254
255
254
254
254
254
253
254
254
255
255
255
255
255
254
254
255
254
254
254
255
254
254
254
255
254
255
254
254
254
255
255
254
254
156
156
156
156
156
156
157
157
157
156
156
156
156
156
156
156
156
156
157
157
157
157
157
156
156
157
156
157
156
156
157
157
156
157
157
156
156
156
157
156
156
157
157
157
157
157
157
157
157
157
156
156
157
158
157
158
182
183
184
184
167
155
157
158
158
155
158
104
102
108
105
107
106
104
145
234
245
252
255
255
255
255
255
255
254
255
254
253
255
254
254
254
254
254
254
253
254
250
251
249
222
113
157
97
98
96
101
102
103
102
104
103
102
123
137
136
137
137
137
137
137
138
137
136
138
138
138
137
137
137
137
137
137
137
137
137
137
137
138
136
141
133
140
139
137
135
135
138
161
159
161
160
159
162
159
158
159
159
160
160
161
159
160
159
147
136
136
137
136
138
136
131
103
116
102
103
102
102
105
100
102
94
210
251
254
252
255
255
255
255
255
254
254
254
255
254
255
255
254
254
255
255
255
254
254
255
253
254
255
255
254
254
255
0
0
0
0
0
0
0
0
0
0
0
0
0
0
0
0
0
0
0
0
0
0
0
0
0
0
0
0
0
0
0
0
0
0
0
0
0
0
0
0
0
0
0
0
0
0
0
0
0
0
0
0
0
0
0
0
0
0
0
0
0
0
0
0
0
0
0
0
0
0
0
0
0
0
0
0
0
0
0
0
0
0
0
0
0
0
0
0
0
0
0
0
0
0
0
0
0
0
0
0
0
0
0
0
0
0
0
0
0
0
0
0
0
0
0
0
0
0
0
0
0
0
0
0
0
0
0
0
0
0
0
0
0
0
0
0
0
0
0
0
0
0
0
0
0
0
0
0
0
0
0
0
0
0
0
0
0
0
0
0
0
0
0
0
0
0
0
0
0
0
0
0
0
0
0
0
0
0
0
0
0
0
0
0
0
0
0
0
0
0
0
166
166
166
166
166
166
165
165
163
166
166
166
165
165
165
166
165
166
166
166
165
165
165
165
165
166
165
166
166
163
166
166
165
165
164
164
165
165
165
164
166
166
166
165
163
163
164
161
161
167
166
166
166
166
165
165
166
166
163
163
166
170
170
181
186
186
185
181
172
172
163
165
165
163
165
167
167
167
166
166
156
124
124
126
125
127
127
127
126
126
123
228
228
228
230
229
229
252
254
253
255
254
254
254
254
255
255
255
254
254
254
255
255
255
255
255
254
254
254
255
255
254
255
255
254
254
254
254
254
253
253
255
255
255
255
254
254
254
254
254
254
254
254
255
255
255
254
254
254
254
254
254
254
254
254
255
255
254
254
255
254
254
254
255
255
254
254
156
156
156
156
156
156
157
156
156
156
156
156
156
156
156
156
157
157
157
157
157
157
156
157
156
156
156
156
156
156
156
156
156
157
156
156
157
157
157
156
157
157
157
157
157
157
157
157
156
156
156
157
157
154
178
178
182
181
182
182
154
159
159
154
156
129
129
106
106
106
108
106
104
150
232
254
254
252
252
252
254
255
254
254
254
253
253
254
255
254
254
254
255
255
253
250
250
244
176
97
97
100
99
99
103
102
103
103
104
106
106
131
137
137
138
137
137
137
137
139
139
138
137
137
137
137
137
137
136
136
137
137
137
137
137
137
139
139
136
137
138
138
137
138
138
159
160
159
159
160
160
160
161
160
160
158
161
160
160
161
160
160
144
136
135
135
136
127
127
106
104
103
107
102
103
103
100
101
101
98
144
243
243
255
252
252
253
255
255
255
255
254
254
254
254
254
255
254
254
254
254
254
254
254
253
254
254
254
255
255
255
255
254
0
0
0
0
0
0
0
0
0
0
0
0
0
0
0
0
0
0
0
0
0
0
0
0
0
0
0
0
0
0
0
0
0
0
0
0
0
0
0
0
0
0
0
0
0
0
0
0
0
0
0
0
0
0
0
0
0
0
0
0
0
0
0
0
0
0
0
0
0
0
0
0
0
0
0
0
0
0
0
0
0
0
0
0
0
0
0
0
0
0
0
0
0
0
0
0
0
0
0
0
0
0
0
0
0
0
0
0
0
0
0
0
0
0
0
0
0
0
0
0
0
0
0
0
0
0
0
0
0
0
0
0
0
0
0
0
0
0
0
0
0
0
0
0
0
0
0
0
0
0
0
0
0
0
0
0
0
0
0
0
0
0
0
0
0
0
0
0
0
0
0
0
0
0
0
0
0
0
0
0
0
0
0
0
0
0
0
0
0
0
166
166
166
166
166
166
165
167
165
165
166
166
166
165
166
166
165
164
164
165
164
165
165
165
165
165
165
165
166
165
166
165
164
165
164
166
166
166
164
165
165
166
165
166
164
165
174
166
163
165
166
164
166
165
163
167
165
165
166
163
164
163
164
165
168
173
164
166
165
165
164
165
166
166
163
166
166
165
166
154
125
124
126
125
128
127
126
128
127
120
203
229
229
230
229
228
254
254
254
254
255
254
253
254
254
254
255
254
254
254
254
254
255
254
253
254
253
254
255
255
254
255
253
254
255
255
254
255
254
252
254
255
255
255
255
255
254
254
254
255
254
254
253
255
255
255
254
254
254
254
254
254
254
254
255
254
255
255
254
254
255
254
254
254
255
255
255
254
156
156
156
156
156
157
157
156
156
156
157
157
156
156
156
157
157
157
157
157
157
157
157
156
156
156
156
156
156
156
156
157
156
156
156
156
157
156
157
157
157
157
157
157
156
156
156
157
156
156
156
158
156
168
184
184
179
184
169
157
153
155
155
158
157
104
105
106
102
111
102
106
226
233
250
252
254
254
254
253
255
255
254
253
253
254
254
254
253
254
254
255
253
247
248
229
98
95
97
98
102
101
102
102
102
103
103
121
111
136
137
137
138
137
137
137
137
137
137
138
138
137
137
137
136
136
136
137
137
137
137
137
137
137
136
137
135
137
137
138
137
135
140
161
159
160
159
160
159
160
160
158
159
161
159
159
158
162
144
155
139
137
132
135
132
104
112
103
102
106
103
102
99
102
98
101
99
93
126
225
230
252
255
255
255
255
255
255
255
255
255
254
254
254
254
254
255
254
254
254
254
254
254
254
254
254
254
255
255
255
255
254
254
0
0
0
0
0
0
0
0
0
0
0
0
0
0
0
0
0
0
0
0
0
0
0
0
0
0
0
0
0
0
0
0
0
0
0
0
0
0
0
0
0
0
0
0
0
0
0
0
0
0
0
0
0
0
0
0
0
0
0
0
0
0
0
0
0
0
0
0
0
0
0
0
0
0
0
0
0
0
0
0
0
0
0
0
0
0
0
0
0
0
0
0
0
0
0
0
0
0
0
0
0
0
0
0
0
0
0
0
0
0
0
0
0
0
0
0
0
0
0
0
0
0
0
0
0
0
0
0
0
0
0
0
0
0
0
0
0
0
0
0
0
0
0
0
0
0
0
0
0
0
0
0
0
0
0
0
0
0
0
0
0
0
0
0
0
0
0
0
0
0
0
0
0
0
0
0
0
0
0
0
0
0
0
0
0
0
0
0
0
166
166
166
166
166
166
166
166
165
165
165
166
166
166
166
166
166
165
164
165
165
164
165
165
165
165
165
165
165
165
166
164
164
164
165
166
166
165
166
165
166
165
166
166
165
182
174
186
184
168
168
166
167
165
164
164
165
165
164
167
164
166
165
165
167
168
166
166
164
164
164
167
164
165
165
166
166
165
142
125
125
128
125
127
127
127
127
128
121
187
230
230
230
229
229
235
254
254
254
254
254
254
254
254
254
254
254
254
254
254
255
254
252
254
254
254
255
254
255
253
255
255
255
254
252
252
255
251
254
255
255
254
254
255
255
255
254
254
254
254
254
254
253
255
255
255
255
254
254
254
254
254
254
254
254
254
254
255
255
254
254
255
254
254
254
255
255
255
254
156
156
156
156
156
157
157
156
156
157
157
156
156
156
156
157
157
157
157
157
157
157
156
156
156
156
156
157
157
156
156
156
157
156
156
156
157
157
157
157
157
157
156
157
156
156
157
156
156
156
157
156
175
182
183
183
184
173
157
156
158
158
158
153
105
105
107
106
111
105
108
228
233
247
254
254
254
254
254
254
255
255
253
254
254
255
255
255
254
254
253
244
247
157
96
97
97
101
101
102
99
103
102
102
106
127
121
137
135
137
137
137
137
137
137
137
137
137
137
138
138
138
137
136
136
137
137
137
137
137
137
137
137
136
137
138
137
137
137
134
135
158
160
159
159
160
158
159
158
160
158
160
161
161
161
149
136
144
136
138
124
124
108
103
104
104
103
102
103
102
101
99
100
98
101
89
138
226
226
227
242
255
254
253
255
255
255
255
255
255
255
254
254
254
255
255
255
254
254
254
254
254
254
254
254
254
254
255
255
255
254
254
254
0
0
0
0
0
0
0
0
0
0
0
0
0
0
0
0
0
0
0
0
0
0
0
0
0
0
0
0
0
0
0
0
0
0
0
0
0
0
0
0
0
0
0
0
0
0
0
0
0
0
0
0
0
0
0
0
0
0
0
0
0
0
0
0
0
0
0
0
0
0
0
0
0
0
0
0
0
0
0
0
0
0
0
0
0
0
0
0
0
0
0
0
0
0
0
0
0
0
0
0
0
0
0
0
0
0
0
0
0
0
0
0
0
0
0
0
0
0
0
0
0
0
0
0
0
0
0
0
0
0
0
0
0
0
0
0
0
0
0
0
0
0
0
0
0
0
0
0
0
0
0
0
0
0
0
0
0
0
0
0
0
0
0
0
0
0
0
0
0
0
0
0
0
0
0
0
0
0
0
0
0
0
0
0
0
0
0
0
165
166
166
166
166
166
166
166
166
165
165
165
166
166
166
166
166
165
164
164
165
165
164
165
165
165
165
165
165
166
166
166
165
165
165
165
164
165
165
166
167
165
164
164
185
184
190
187
190
190
166
165
162
163
164
165
165
165
166
165
166
168
168
164
164
165
164
164
167
167
164
165
166
165
166
160
165
138
125
125
127
126
127
126
127
125
126
123
177
229
229
229
229
229
230
254
254
254
255
254
254
254
254
254
254
254
254
254
254
254
254
253
254
253
254
254
254
254
254
254
254
254
255
252
252
254
253
254
254
254
253
253
254
255
255
255
254
254
254
254
254
254
254
253
253
255
255
255
254
254
254
254
254
255
255
254
254
254
255
255
254
254
255
254
255
255
255
255
254
254
157
157
156
156
156
157
156
156
156
156
156
156
156
156
156
157
157
157
157
157
157
156
156
156
156
156
157
157
156
156
157
157
157
156
156
157
157
157
157
156
155
156
157
157
157
157
157
156
157
157
160
184
182
186
182
184
186
158
158
156
154
157
146
114
107
105
105
106
102
115
186
228
254
254
254
254
254
254
255
254
254
255
255
255
254
254
252
253
251
233
233
121
96
100
98
101
101
101
100
103
103
102
111
138
135
137
137
137
137
137
137
137
137
137
137
137
137
137
137
138
138
138
136
137
136
137
136
137
137
137
136
136
136
137
138
139
138
140
136
147
164
157
159
160
159
158
160
160
160
161
161
144
155
139
136
134
138
133
103
112
100
104
105
104
103
103
103
102
95
99
100
93
93
94
172
227
226
231
229
230
252
253
255
255
254
255
253
254
255
255
255
254
254
254
255
255
255
254
254
254
254
254
254
254
254
254
254
254
254
255
254
254
254
0
0
0
0
0
0
0
0
0
0
0
0
0
0
0
0
0
0
0
0
0
0
0
0
0
0
0
0
0
0
0
0
0
0
0
0
0
0
0
0
0
0
0
0
0
0
0
0
0
0
0
0
0
0
0
0
0
0
0
0
0
0
0
0
0
0
0
0
0
0
0
0
0
0
0
0
0
0
0
0
0
0
0
0
0
0
0
0
0
0
0
0
0
0
0
0
0
0
0
0
0
0
0
0
0
0
0
0
0
0
0
0
0
0
0
0
0
0
0
0
0
0
0
0
0
0
0
0
0
0
0
0
0
0
0
0
0
0
0
0
0
0
0
0
0
0
0
0
0
0
0
0
0
0
0
0
0
0
0
0
0
0
0
0
0
0
0
0
0
0
0
0
0
0
0
0
0
0
0
0
0
0
0
0
0
0
0
165
166
166
166
166
165
166
166
166
166
165
166
166
166
166
166
165
165
165
164
164
164
165
165
165
165
166
165
165
165
166
166
166
165
165
164
164
164
166
165
164
165
164
173
185
189
188
189
190
185
179
165
165
167
166
165
166
164
166
166
165
165
165
167
165
165
166
165
167
166
165
165
166
166
150
160
129
126
126
127
126
127
127
127
126
125
122
163
225
229
229
231
229
230
244
251
254
255
254
254
253
254
254
254
254
254
254
253
254
254
254
255
253
253
252
254
254
251
250
255
251
248
247
252
246
247
253
247
251
253
253
254
253
255
254
254
255
254
254
254
254
254
255
253
255
255
255
255
255
255
254
255
254
255
255
255
254
254
254
255
255
254
254
255
255
255
255
255
254
255
254
157
157
156
156
157
157
156
156
156
156
156
156
156
156
156
157
156
157
157
157
156
156
156
156
156
156
156
156
156
156
157
156
157
157
157
157
157
157
156
157
156
157
156
157
157
157
156
156
158
176
181
182
183
181
184
183
158
159
156
157
154
146
106
105
104
104
108
101
115
214
231
249
254
253
255
254
255
253
254
254
255
254
255
255
251
252
246
178
208
101
100
101
100
103
100
101
100
103
105
103
126
137
138
137
136
136
137
137
137
137
137
137
137
137
137
137
137
137
137
138
137
136
136
136
136
138
137
137
139
135
135
138
136
138
138
137
140
135
142
163
157
159
160
159
161
160
160
161
150
135
144
135
133
136
125
108
102
103
101
101
104
103
102
101
102
99
98
95
96
142
97
145
226
227
227
232
231
229
227
249
254
255
255
254
255
255
254
254
255
255
255
254
254
254
255
255
255
254
254
254
254
254
255
255
254
254
254
255
255
255
254
254
254
0
0
0
0
0
0
0
0
0
0
0
0
0
0
0
0
0
0
0
0
0
0
0
0
0
0
0
0
0
0
0
0
0
0
0
0
0
0
0
0
0
0
0
0
0
0
0
0
0
0
0
0
0
0
0
0
0
0
0
0
0
0
0
0
0
0
0
0
0
0
0
0
0
0
0
0
0
0
0
0
0
0
0
0
0
0
0
0
0
0
0
0
0
0
0
0
0
0
0
0
0
0
0
0
0
0
0
0
0
0
0
0
0
0
0
0
0
0
0
0
0
0
0
0
0
0
0
0
0
0
0
0
0
0
0
0
0
0
0
0
0
0
0
0
0
0
0
0
0
0
0
0
0
0
0
0
0
0
0
0
0
0
0
0
0
0
0
0
0
0
0
0
0
0
0
0
0
0
0
0
0
0
0
0
0
0
165
166
166
166
166
166
166
166
166
166
165
166
166
165
166
166
166
165
166
166
164
165
166
166
166
166
166
165
165
165
165
166
166
166
165
164
164
164
164
167
167
163
168
168
184
190
188
188
188
189
189
170
165
164
167
165
166
166
164
166
166
166
165
167
167
165
167
167
167
164
165
166
163
138
138
126
127
127
124
126
126
126
126
126
126
123
159
227
226
232
232
232
230
237
237
254
255
254
254
254
253
253
254
254
254
254
255
254
254
253
253
255
254
254
251
251
249
247
247
235
220
208
208
210
222
222
232
244
175
246
248
251
251
251
254
254
253
254
254
254
252
254
254
254
254
254
254
255
255
255
255
254
254
254
255
255
255
254
254
254
255
255
254
254
255
255
255
255
254
254
255
254
157
157
157
157
157
157
156
156
156
156
156
156
156
157
157
157
156
157
157
156
156
156
156
156
157
157
157
157
157
156
157
157
157
157
156
156
156
156
157
157
156
156
156
157
157
157
156
165
183
183
183
184
184
184
170
155
155
158
157
157
130
108
108
107
106
107
107
139
225
225
247
254
255
255
255
255
255
254
254
254
254
254
249
249
245
158
158
93
101
101
101
103
100
100
101
102
114
107
132
136
136
136
137
137
137
137
137
137
137
137
137
137
137
137
137
137
137
137
137
137
138
137
136
139
139
140
155
155
156
138
137
137
137
137
137
137
136
137
148
160
162
162
158
157
157
154
139
133
133
135
130
130
111
103
102
103
103
99
99
102
103
103
97
93
97
97
150
205
205
225
223
230
230
230
229
229
228
235
249
254
252
253
253
255
255
255
254
255
255
255
255
254
254
254
255
255
255
254
254
254
254
255
255
255
254
254
254
254
254
254
254
254
255
0
0
0
0
0
0
0
0
0
0
0
0
0
0
0
0
0
0
0
0
0
0
0
0
0
0
0
0
0
0
0
0
0
0
0
0
0
0
0
0
0
0
0
0
0
0
0
0
0
0
0
0
0
0
0
0
0
0
0
0
0
0
0
0
0
0
0
0
0
0
0
0
0
0
0
0
0
0
0
0
0
0
0
0
0
0
0
0
0
0
0
0
0
0
0
0
0
0
0
0
0
0
0
0
0
0
0
0
0
0
0
0
0
0
0
0
0
0
0
0
0
0
0
0
0
0
0
0
0
0
0
0
0
0
0
0
0
0
0
0
0
0
0
0
0
0
0
0
0
0
0
0
0
0
0
0
0
0
0
0
0
0
0
0
0
0
0
0
0
0
0
0
0
0
0
0
0
0
0
0
0
0
0
0
0
165
166
166
166
166
166
166
166
166
165
165
166
166
165
165
166
166
166
166
166
166
166
165
166
166
166
165
165
165
165
165
166
165
166
166
164
164
163
166
165
167
166
162
176
183
190
188
187
187
189
180
166
163
164
165
166
165
165
165
163
165
165
165
167
164
167
168
167
165
162
165
141
126
131
125
127
128
125
126
124
127
125
125
125
122
165
229
227
230
229
229
229
230
233
253
254
254
254
254
254
254
254
255
254
254
254
255
253
253
254
253
255
251
245
246
238
125
205
149
103
105
109
110
104
109
119
105
101
175
101
122
235
247
207
249
251
246
249
254
255
255
255
255
255
253
252
254
253
255
255
254
254
254
254
254
255
255
255
255
254
254
254
254
254
254
255
255
254
254
254
255
254
254
157
157
157
157
157
156
156
156
156
156
156
156
156
157
157
157
156
157
157
156
156
156
157
157
157
157
157
156
156
157
157
157
157
156
157
157
157
157
157
157
156
156
156
157
155
155
183
183
184
183
181
183
184
165
155
154
158
158
153
112
101
105
106
106
105
100
175
226
234
248
254
254
252
255
255
254
254
254
254
254
252
253
246
158
155
95
99
101
102
102
102
101
102
103
121
114
135
139
137
136
137
137
137
137
137
137
137
137
137
137
137
137
137
137
137
137
137
137
137
138
138
137
138
141
161
160
164
159
161
141
136
136
137
139
138
137
137
135
141
157
154
137
151
143
136
137
135
135
105
118
105
101
101
102
104
100
99
100
100
101
96
133
205
149
214
228
228
230
230
231
230
227
231
229
229
230
242
249
255
254
254
254
254
255
255
255
254
255
255
255
254
254
254
254
255
255
255
254
254
254
254
255
255
254
254
254
254
254
255
254
255
255
255
0
0
0
0
0
0
0
0
0
0
0
0
0
0
0
0
0
0
0
0
0
0
0
0
0
0
0
0
0
0
0
0
0
0
0
0
0
0
0
0
0
0
0
0
0
0
0
0
0
0
0
0
0
0
0
0
0
0
0
0
0
0
0
0
0
0
0
0
0
0
0
0
0
0
0
0
0
0
0
0
0
0
0
0
0
0
0
0
0
0
0
0
0
0
0
0
0
0
0
0
0
0
0
0
0
0
0
0
0
0
0
0
0
0
0
0
0
0
0
0
0
0
0
0
0
0
0
0
0
0
0
0
0
0
0
0
0
0
0
0
0
0
0
0
0
0
0
0
0
0
0
0
0
0
0
0
0
0
0
0
0
0
0
0
0
0
0
0
0
0
0
0
0
0
0
0
0
0
0
0
0
0
0
0
165
165
165
166
166
166
166
166
166
166
166
166
166
165
165
165
166
166
166
166
166
166
165
164
166
165
165
165
165
165
166
166
166
165
166
165
166
164
164
166
165
166
166
166
186
186
187
189
189
188
173
164
164
166
165
165
167
166
165
166
167
164
164
163
164
167
164
165
150
150
130
126
126
127
126
127
127
125
125
125
128
126
125
120
178
229
229
230
230
230
230
230
230
252
254
254
254
254
254
254
254
255
255
255
254
255
255
254
254
253
253
250
224
224
137
102
125
106
105
105
105
105
107
104
107
105
105
105
107
102
102
103
104
207
128
182
233
233
245
249
255
252
251
253
253
252
254
253
255
254
255
255
255
254
254
254
254
255
255
255
254
254
254
254
254
254
254
254
254
254
255
255
254
254
157
157
157
157
157
157
156
156
156
156
156
156
156
157
157
156
156
157
157
157
157
157
157
157
157
157
156
156
156
157
157
157
157
157
157
157
157
157
157
156
156
156
156
155
179
179
181
184
183
184
184
175
175
155
155
155
157
137
112
108
105
106
106
107
112
175
230
235
254
254
254
255
255
255
254
254
254
254
251
251
251
169
158
93
102
101
101
102
102
102
103
108
131
131
134
136
136
137
137
137
137
137
137
137
137
137
137
137
137
137
137
137
137
137
137
137
137
137
137
137
137
136
160
161
159
159
158
158
158
135
136
136
136
137
137
140
135
135
134
134
137
134
135
131
131
111
103
105
104
102
101
101
100
99
99
96
90
100
117
197
228
228
230
229
228
227
228
229
229
230
231
231
229
231
232
232
252
254
254
254
255
254
254
255
255
255
254
255
255
255
255
254
254
254
255
255
255
254
254
254
254
254
254
254
254
254
254
254
254
254
255
254
254
0
0
0
0
0
0
0
0
0
0
0
0
0
0
0
0
0
0
0
0
0
0
0
0
0
0
0
0
0
0
0
0
0
0
0
0
0
0
0
0
0
0
0
0
0
0
0
0
0
0
0
0
0
0
0
0
0
0
0
0
0
0
0
0
0
0
0
0
0
0
0
0
0
0
0
0
0
0
0
0
0
0
0
0
0
0
0
0
0
0
0
0
0
0
0
0
0
0
0
0
0
0
0
0
0
0
0
0
0
0
0
0
0
0
0
0
0
0
0
0
0
0
0
0
0
0
0
0
0
0
0
0
0
0
0
0
0
0
0
0
0
0
0
0
0
0
0
0
0
0
0
0
0
0
0
0
0
0
0
0
0
0
0
0
0
0
0
0
0
0
0
0
0
0
0
0
0
0
0
0
0
0
0
166
166
166
165
166
166
166
166
166
166
166
166
167
166
165
166
166
166
166
166
166
166
166
165
165
165
166
165
166
166
166
166
165
166
165
165
163
165
164
165
165
165
165
165
167
187
178
189
188
171
165
165
167
164
164
165
165
166
165
166
163
164
164
168
166
168
158
125
137
125
127
127
126
127
126
126
126
128
127
126
124
126
121
193
229
229
229
229
230
231
230
230
244
253
254
254
254
254
253
254
255
255
255
254
255
253
254
254
253
255
247
160
192
110
106
102
105
105
103
111
111
101
108
102
103
105
105
106
109
105
108
108
106
105
102
104
110
166
111
233
245
251
247
253
254
253
253
250
253
255
254
255
255
255
254
255
254
254
255
254
255
254
254
254
254
254
254
254
254
254
255
255
255
254
254
157
156
157
157
157
157
156
156
156
156
156
156
156
156
156
156
156
157
157
157
156
156
156
157
156
156
156
156
157
156
157
157
157
157
157
157
156
156
156
156
157
155
167
173
181
184
184
183
183
184
182
159
159
154
160
158
154
107
104
105
108
106
105
103
213
226
236
250
254
255
253
254
253
254
253
255
254
255
253
235
201
96
101
102
102
101
101
102
104
115
139
137
135
139
137
137
138
136
137
137
137
137
137
137
137
137
137
137
137
137
137
137
137
137
137
137
137
137
137
135
136
147
161
160
162
159
163
159
148
135
138
136
139
137
137
138
138
137
135
135
132
108
119
104
102
104
106
103
101
102
101
97
101
95
156
104
177
225
230
225
227
229
230
229
232
231
230
230
230
231
229
231
230
230
254
254
255
254
254
254
255
254
254
255
255
255
254
255
255
255
255
254
254
254
255
255
255
254
254
254
254
254
254
254
254
254
254
254
254
255
254
254
254
0
0
0
0
0
0
0
0
0
0
0
0
0
0
0
0
0
0
0
0
0
0
0
0
0
0
0
0
0
0
0
0
0
0
0
0
0
0
0
0
0
0
0
0
0
0
0
0
0
0
0
0
0
0
0
0
0
0
0
0
0
0
0
0
0
0
0
0
0
0
0
0
0
0
0
0
0
0
0
0
0
0
0
0
0
0
0
0
0
0
0
0
0
0
0
0
0
0
0
0
0
0
0
0
0
0
0
0
0
0
0
0
0
0
0
0
0
0
0
0
0
0
0
0
0
0
0
0
0
0
0
0
0
0
0
0
0
0
0
0
0
0
0
0
0
0
0
0
0
0
0
0
0
0
0
0
0
0
0
0
0
0
0
0
0
0
0
0
0
0
0
0
0
0
0
0
0
0
0
0
0
0
166
165
166
165
165
166
166
166
166
166
166
165
167
166
165
166
166
166
166
166
165
166
166
166
166
167
166
166
166
166
166
165
165
165
166
164
163
167
164
165
166
166
165
165
164
168
178
166
166
164
164
164
164
164
165
164
165
164
167
163
163
165
163
168
144
128
124
125
128
124
127
128
129
127
125
129
126
128
125
122
124
138
219
229
229
229
230
229
230
229
230
238
255
254
254
254
254
254
253
255
255
255
255
255
255
251
253
252
253
243
135
160
104
107
106
105
105
107
103
108
108
101
108
105
105
105
107
105
109
105
102
108
105
106
110
104
109
101
111
100
107
162
247
228
246
253
248
252
255
255
251
254
255
255
255
255
255
254
255
254
254
255
254
254
255
254
254
254
254
254
254
254
255
255
254
254
156
156
157
157
157
156
156
156
156
156
156
156
156
156
156
156
156
157
156
156
156
156
156
156
156
156
157
157
159
156
156
157
157
157
157
156
156
156
156
155
163
167
183
184
184
185
182
185
184
173
158
159
155
156
158
136
107
104
105
106
104
105
106
224
230
236
252
254
255
255
255
251
254
255
255
254
255
248
235
101
100
104
102
103
102
101
104
128
138
139
137
139
139
136
138
138
137
137
137
137
137
137
137
137
137
137
137
137
137
137
137
137
137
137
137
137
137
137
136
136
150
163
158
162
158
161
159
139
138
137
136
138
137
137
135
135
137
131
115
101
108
100
101
102
101
98
100
101
96
93
97
132
209
156
225
229
229
230
229
231
229
232
228
230
231
229
230
230
229
229
234
230
254
254
254
254
255
254
254
254
255
254
254
255
255
255
254
255
255
255
255
254
254
254
255
255
255
255
254
254
254
254
255
255
254
254
254
254
255
255
254
254
254
0
0
0
0
0
0
0
0
0
0
0
0
0
0
0
0
0
0
0
0
0
0
0
0
0
0
0
0
0
0
0
0
0
0
0
0
0
0
0
0
0
0
0
0
0
0
0
0
0
0
0
0
0
0
0
0
0
0
0
0
0
0
0
0
0
0
0
0
0
0
0
0
0
0
0
0
0
0
0
0
0
0
0
0
0
0
0
0
0
0
0
0
0
0
0
0
0
0
0
0
0
0
0
0
0
0
0
0
0
0
0
0
0
0
0
0
0
0
0
0
0
0
0
0
0
0
0
0
0
0
0
0
0
0
0
0
0
0
0
0
0
0
0
0
0
0
0
0
0
0
0
0
0
0
0
0
0
0
0
0
0
0
0
0
0
0
0
0
0
0
0
0
0
0
0
0
0
0
0
0
0
166
165
165
165
165
165
166
165
166
166
165
165
167
165
165
167
166
166
166
165
165
165
167
166
165
166
166
166
166
166
165
165
165
165
166
166
167
166
166
165
166
166
166
165
164
164
163
164
166
165
166
164
163
167
166
166
164
168
164
166
167
151
151
129
125
126
126
125
126
126
128
125
125
126
127
125
125
124
121
121
160
225
229
228
229
230
230
230
229
229
236
254
254
254
254
254
254
255
255
255
255
255
255
255
254
252
254
254
240
122
122
103
105
105
105
104
103
103
106
109
109
107
105
128
106
105
108
108
106
106
106
104
110
105
104
104
108
108
107
106
103
103
110
170
170
236
249
242
254
254
255
255
254
255
255
255
255
253
255
255
255
255
254
255
255
255
254
254
254
254
254
254
254
255
254
254
254
156
156
157
156
156
156
156
156
156
157
156
156
156
156
157
156
156
156
156
156
157
157
156
156
157
157
156
154
159
156
156
157
157
157
156
156
156
155
164
163
184
184
184
185
184
183
184
181
157
157
156
156
156
154
105
107
107
106
106
106
103
205
228
228
243
254
254
255
254
255
253
255
253
253
255
249
249
164
99
103
101
103
102
102
103
132
135
137
137
137
137
136
137
137
137
137
137
137
137
137
137
137
137
137
137
137
137
137
137
137
137
137
137
137
137
137
137
137
135
155
155
163
160
162
162
149
135
137
137
136
136
136
137
132
132
119
105
104
102
101
101
101
101
99
97
99
92
111
111
187
223
223
227
228
230
227
230
231
231
231
231
232
229
230
231
231
229
231
249
241
255
255
255
255
254
254
255
254
254
254
255
254
254
255
255
255
254
255
255
255
255
254
254
254
255
255
255
255
254
254
255
255
255
254
254
254
254
254
255
255
254
254
254
0
0
0
0
0
0
0
0
0
0
0
0
0
0
0
0
0
0
0
0
0
0
0
0
0
0
0
0
0
0
0
0
0
0
0
0
0
0
0
0
0
0
0
0
0
0
0
0
0
0
0
0
0
0
0
0
0
0
0
0
0
0
0
0
0
0
0
0
0
0
0
0
0
0
0
0
0
0
0
0
0
0
0
0
0
0
0
0
0
0
0
0
0
0
0
0
0
0
0
0
0
0
0
0
0
0
0
0
0
0
0
0
0
0
0
0
0
0
0
0
0
0
0
0
0
0
0
0
0
0
0
0
0
0
0
0
0
0
0
0
0
0
0
0
0
0
0
0
0
0
0
0
0
0
0
0
0
0
0
0
0
0
0
0
0
0
0
0
0
0
0
0
0
0
0
0
0
0
0
0
166
166
165
165
165
165
165
165
165
165
167
167
166
167
165
164
165
166
166
165
165
166
166
166
165
166
166
165
166
165
165
165
166
166
166
165
164
165
165
167
166
166
164
167
165
168
165
166
166
163
164
164
166
164
165
166
163
153
164
134
129
131
124
127
126
126
127
127
130
124
126
124
125
124
126
125
123
139
123
186
228
229
229
230
229
231
229
230
229
235
253
255
254
255
254
254
255
255
255
255
254
255
255
255
255
251
254
239
113
117
103
106
104
106
106
103
103
108
127
108
113
154
156
128
153
155
118
114
152
113
109
130
118
105
106
106
107
107
104
105
103
106
104
105
109
102
123
242
204
244
252
255
250
254
255
255
255
253
253
253
254
255
255
254
255
254
254
254
255
255
254
253
254
254
254
255
254
254
156
157
157
156
156
157
156
157
157
157
156
156
157
157
156
156
156
156
157
157
157
157
156
156
156
159
153
159
155
156
156
157
157
157
156
156
168
164
183
185
184
184
185
183
183
182
167
160
154
159
158
160
125
105
107
106
106
107
105
106
229
228
230
244
252
255
253
255
255
254
254
255
254
255
252
233
113
100
103
102
104
101
102
122
135
135
135
136
137
137
136
137
137
137
137
137
137
137
137
137
137
137
137
137
137
137
137
137
137
137
137
137
137
137
137
137
137
137
136
155
150
153
161
152
135
136
137
135
136
136
135
110
125
107
101
102
104
103
101
102
101
96
92
97
132
216
164
222
226
229
229
228
228
230
229
229
228
226
229
229
232
228
232
228
230
245
254
249
255
255
255
255
255
255
254
254
255
254
254
254
255
254
254
255
255
255
254
255
255
255
255
254
254
254
255
255
255
254
254
254
254
255
254
255
255
254
254
254
255
255
254
254
254
0
0
0
0
0
0
0
0
0
0
0
0
0
0
0
0
0
0
0
0
0
0
0
0
0
0
0
0
0
0
0
0
0
0
0
0
0
0
0
0
0
0
0
0
0
0
0
0
0
0
0
0
0
0
0
0
0
0
0
0
0
0
0
0
0
0
0
0
0
0
0
0
0
0
0
0
0
0
0
0
0
0
0
0
0
0
0
0
0
0
0
0
0
0
0
0
0
0
0
0
0
0
0
0
0
0
0
0
0
0
0
0
0
0
0
0
0
0
0
0
0
0
0
0
0
0
0
0
0
0
0
0
0
0
0
0
0
0
0
0
0
0
0
0
0
0
0
0
0
0
0
0
0
0
0
0
0
0
0
0
0
0
0
0
0
0
0
0
0
0
0
0
0
0
0
0
0
0
0
166
165
165
165
165
166
166
165
164
164
164
163
166
165
165
165
165
165
166
166
165
166
166
166
166
166
166
166
166
165
165
165
165
165
165
165
165
166
167
165
165
165
165
165
165
165
165
165
166
169
169
167
165
165
162
153
137
137
126
126
126
126
124
127
127
128
125
125
129
124
126
123
126
122
122
123
176
176
227
228
229
229
229
229
229
230
231
230
233
253
254
254
255
255
255
254
254
255
255
254
252
252
255
253
251
251
242
117
117
106
105
106
105
106
104
104
116
145
145
160
159
156
156
154
160
160
156
157
152
157
158
155
155
151
133
133
118
107
106
106
107
105
105
106
105
102
102
99
139
139
228
248
250
254
252
255
255
255
254
254
255
255
255
255
254
254
254
255
255
255
255
254
253
253
255
255
255
254
254
157
157
157
157
157
157
156
157
157
157
156
156
157
156
156
156
157
158
158
157
156
156
157
155
155
155
158
157
157
156
156
157
156
157
173
173
183
184
184
183
183
184
184
181
174
174
156
158
159
157
147
106
106
104
106
106
105
101
211
211
228
229
229
254
254
255
255
253
252
252
254
254
255
252
217
94
94
100
98
98
102
112
136
136
134
137
137
137
137
136
137
137
137
137
137
137
137
137
137
137
137
137
137
137
137
137
137
137
137
137
137
137
138
138
137
137
137
137
136
142
142
139
133
136
136
136
133
133
118
103
110
102
100
101
101
102
100
100
101
93
107
107
188
229
229
225
228
226
230
229
228
228
228
229
229
230
231
228
228
233
239
239
248
253
255
255
254
254
254
255
255
255
255
255
254
254
255
254
254
254
254
254
254
255
255
255
254
255
255
255
255
254
254
254
255
255
255
254
254
254
254
255
255
255
254
254
254
254
255
255
254
254
254
0
0
0
0
0
0
0
0
0
0
0
0
0
0
0
0
0
0
0
0
0
0
0
0
0
0
0
0
0
0
0
0
0
0
0
0
0
0
0
0
0
0
0
0
0
0
0
0
0
0
0
0
0
0
0
0
0
0
0
0
0
0
0
0
0
0
0
0
0
0
0
0
0
0
0
0
0
0
0
0
0
0
0
0
0
0
0
0
0
0
0
0
0
0
0
0
0
0
0
0
0
0
0
0
0
0
0
0
0
0
0
0
0
0
0
0
0
0
0
0
0
0
0
0
0
0
0
0
0
0
0
0
0
0
0
0
0
0
0
0
0
0
0
0
0
0
0
0
0
0
0
0
0
0
0
0
0
0
0
0
0
0
0
0
0
0
0
0
0
0
0
0
0
0
0
0
0
0
166
166
165
166
164
165
166
164
166
163
167
165
164
167
166
166
165
163
164
166
164
166
166
166
166
166
166
166
166
167
165
166
165
165
167
166
167
166
165
164
167
166
163
167
166
165
167
166
163
165
164
153
164
155
124
125
127
125
127
126
125
128
127
127
126
126
125
129
124
122
125
125
125
118
143
227
212
230
232
230
230
229
229
229
231
229
229
234
253
254
254
255
254
255
255
255
254
254
254
254
252
255
255
254
254
245
138
125
105
105
104
106
105
106
105
130
156
159
156
156
156
156
159
158
156
155
155
159
161
156
156
158
157
154
155
154
156
155
124
110
123
103
106
104
108
102
107
107
103
105
104
174
245
250
244
251
255
254
254
255
255
254
253
255
255
254
253
253
255
255
254
254
254
255
255
255
255
254
254
254
157
157
157
157
157
157
156
157
156
156
156
156
156
156
156
157
157
157
157
157
156
158
156
158
157
158
156
155
158
156
155
161
181
178
184
182
183
184
183
185
184
182
179
177
158
156
156
159
152
113
103
106
106
107
106
104
121
167
229
229
229
250
255
254
254
254
254
254
254
254
253
255
248
220
105
101
101
100
101
103
109
133
136
136
139
136
137
137
137
137
137
137
137
137
137
137
137
137
137
137
137
137
137
137
137
137
137
137
137
137
138
138
138
137
137
137
137
137
136
134
136
136
136
135
112
124
107
102
102
103
101
100
101
101
99
101
101
114
199
149
220
226
225
229
230
232
228
232
230
229
232
231
229
230
229
234
233
237
255
247
252
254
254
254
255
254
254
255
255
255
255
255
255
255
255
255
255
254
255
255
254
254
254
255
255
255
254
255
255
255
255
254
254
254
255
255
254
254
254
254
254
254
254
255
254
254
254
254
255
255
254
254
254
0
0
0
0
0
0
0
0
0
0
0
0
0
0
0
0
0
0
0
0
0
0
0
0
0
0
0
0
0
0
0
0
0
0
0
0
0
0
0
0
0
0
0
0
0
0
0
0
0
0
0
0
0
0
0
0
0
0
0
0
0
0
0
0
0
0
0
0
0
0
0
0
0
0
0
0
0
0
0
0
0
0
0
0
0
0
0
0
0
0
0
0
0
0
0
0
0
0
0
0
0
0
0
0
0
0
0
0
0
0
0
0
0
0
0
0
0
0
0
0
0
0
0
0
0
0
0
0
0
0
0
0
0
0
0
0
0
0
0
0
0
0
0
0
0
0
0
0
0
0
0
0
0
0
0
0
0
0
0
0
0
0
0
0
0
0
0
0
0
0
0
0
0
0
0
0
0
166
165
165
165
165
165
167
164
167
164
167
167
164
165
166
165
167
163
166
162
165
165
166
166
166
166
166
166
165
164
161
166
165
166
167
165
164
165
165
166
168
166
165
165
164
164
167
162
163
152
133
153
123
125
126
126
126
127
127
125
128
127
127
127
125
126
127
127
124
120
122
160
125
220
229
227
230
229
229
229
228
231
229
230
230
229
237
255
255
254
254
253
254
254
255
255
255
254
254
254
255
255
254
254
248
161
138
102
105
105
105
107
105
106
143
153
156
158
157
156
156
156
154
158
154
156
155
160
158
159
156
156
155
154
157
158
156
156
155
160
123
152
127
105
105
105
106
107
106
104
104
104
106
173
244
241
251
254
254
254
254
254
254
253
255
254
254
253
253
254
254
254
254
255
255
255
255
254
254
254
254
157
156
157
157
157
157
156
156
156
156
156
157
156
156
156
157
157
157
156
157
156
156
158
157
158
155
159
158
165
179
182
181
184
182
182
183
184
184
184
182
182
179
157
156
156
157
155
124
113
106
105
106
106
105
102
102
222
229
229
229
251
253
253
254
254
254
253
255
254
252
254
248
220
120
96
101
99
105
101
101
119
138
136
134
137
137
137
137
137
137
137
137
137
137
137
137
137
137
137
137
137
137
137
137
137
137
137
137
137
138
138
137
137
137
137
137
137
137
136
135
135
122
104
112
103
103
102
100
103
101
100
101
93
99
93
161
226
226
229
230
226
230
229
230
228
229
229
230
229
228
231
231
232
244
244
253
254
255
253
254
253
253
255
253
254
254
255
255
255
255
255
255
255
255
255
255
255
255
255
255
254
254
254
255
255
255
254
255
255
255
255
254
254
254
254
254
254
254
254
254
254
254
254
255
254
254
254
254
255
255
255
254
254
0
0
0
0
0
0
0
0
0
0
0
0
0
0
0
0
0
0
0
0
0
0
0
0
0
0
0
0
0
0
0
0
0
0
0
0
0
0
0
0
0
0
0
0
0
0
0
0
0
0
0
0
0
0
0
0
0
0
0
0
0
0
0
0
0
0
0
0
0
0
0
0
0
0
0
0
0
0
0
0
0
0
0
0
0
0
0
0
0
0
0
0
0
0
0
0
0
0
0
0
0
0
0
0
0
0
0
0
0
0
0
0
0
0
0
0
0
0
0
0
0
0
0
0
0
0
0
0
0
0
0
0
0
0
0
0
0
0
0
0
0
0
0
0
0
0
0
0
0
0
0
0
0
0
0
0
0
0
0
0
0
0
0
0
0
0
0
0
0
0
0
0
0
0
0
0
165
165
165
165
165
164
167
161
164
164
165
163
164
164
164
165
165
164
166
166
165
166
166
166
166
165
165
164
166
167
167
168
167
167
166
165
166
164
167
166
167
162
167
146
165
157
124
143
129
124
124
127
129
124
126
124
126
126
126
126
124
125
126
124
126
128
122
122
123
148
226
206
229
229
229
230
229
231
229
228
230
231
230
230
230
240
255
255
255
254
253
253
254
255
254
254
254
254
253
255
255
255
254
251
224
194
103
105
105
105
106
107
105
144
159
159
158
156
155
155
156
156
156
156
156
156
157
154
156
157
156
156
156
157
156
156
158
159
160
158
155
155
157
146
117
140
102
105
106
106
106
102
104
103
136
228
228
249
254
254
254
253
254
254
255
254
254
254
253
253
254
254
254
254
255
255
255
255
254
254
254
254
156
156
157
157
156
155
156
156
156
157
156
156
156
157
157
157
157
156
156
157
153
166
156
161
169
169
177
182
185
183
182
183
183
182
184
183
183
183
182
182
158
156
156
157
156
144
135
105
105
105
107
107
106
104
201
228
228
228
243
254
255
254
255
255
254
250
250
255
254
255
249
238
92
92
99
102
102
103
106
105
128
135
139
139
137
137
137
137
137
137
137
137
137
137
137
137
137
137
137
137
137
137
137
137
137
137
137
137
138
137
137
137
137
137
137
137
137
136
137
115
106
103
103
102
102
101
103
99
101
99
91
91
120
204
227
228
229
228
230
230
229
229
230
229
229
230
230
227
227
232
240
246
251
248
233
251
251
252
254
251
250
255
255
254
255
255
255
255
255
255
255
255
255
255
254
254
255
255
255
255
254
254
254
255
255
255
254
255
255
255
255
254
254
254
254
254
254
255
254
254
254
254
254
255
254
254
254
254
255
255
255
254
254
0
0
0
0
0
0
0
0
0
0
0
0
0
0
0
0
0
0
0
0
0
0
0
0
0
0
0
0
0
0
0
0
0
0
0
0
0
0
0
0
0
0
0
0
0
0
0
0
0
0
0
0
0
0
0
0
0
0
0
0
0
0
0
0
0
0
0
0
0
0
0
0
0
0
0
0
0
0
0
0
0
0
0
0
0
0
0
0
0
0
0
0
0
0
0
0
0
0
0
0
0
0
0
0
0
0
0
0
0
0
0
0
0
0
0
0
0
0
0
0
0
0
0
0
0
0
0
0
0
0
0
0
0
0
0
0
0
0
0
0
0
0
0
0
0
0
0
0
0
0
0
0
0
0
0
0
0
0
0
0
0
0
0
0
0
0
0
0
0
0
0
0
0
0
0
166
165
165
165
164
164
167
166
165
164
167
167
164
167
169
165
165
165
166
166
165
164
166
166
164
165
166
165
164
167
164
163
166
165
166
163
166
163
156
166
153
139
127
146
128
124
124
126
129
126
125
126
128
124
126
126
126
126
128
125
124
127
122
124
119
133
121
139
222
227
226
230
230
230
230
230
230
231
230
231
230
228
230
230
244
255
255
255
254
255
254
255
255
255
254
253
255
254
254
255
253
255
250
242
224
102
104
105
105
105
105
107
131
154
160
155
157
156
155
156
156
156
156
155
158
156
157
155
156
157
157
156
158
157
157
156
158
153
160
154
157
156
157
158
155
140
158
126
106
104
105
106
104
106
101
105
197
160
244
254
253
254
254
254
254
255
253
253
254
253
253
254
254
254
254
255
255
255
255
254
255
255
254
156
156
156
156
156
157
156
156
156
156
156
156
156
157
158
164
169
156
175
180
166
182
182
179
185
183
183
185
182
186
184
182
185
182
183
183
181
182
159
155
157
157
156
151
144
105
106
106
106
106
106
106
124
229
228
230
231
251
254
254
255
255
254
255
255
255
255
252
255
254
246
180
95
98
103
102
103
103
105
105
137
134
136
137
137
137
137
137
137
137
137
137
137
137
137
137
137
137
137
137
137
137
137
137
137
137
137
137
137
137
137
137
137
137
137
138
136
122
104
106
102
102
102
101
102
96
99
95
110
98
166
227
228
227
230
229
228
229
231
230
229
230
228
229
230
235
231
237
248
228
246
168
127
233
129
193
242
254
252
254
255
255
254
254
255
255
255
255
255
255
255
255
255
255
254
254
255
255
255
255
254
254
254
255
255
255
254
255
255
255
255
254
254
254
254
254
255
255
254
254
254
254
254
255
254
254
254
254
255
255
254
254
254
0
0
0
0
0
0
0
0
0
0
0
0
0
0
0
0
0
0
0
0
0
0
0
0
0
0
0
0
0
0
0
0
0
0
0
0
0
0
0
0
0
0
0
0
0
0
0
0
0
0
0
0
0
0
0
0
0
0
0
0
0
0
0
0
0
0
0
0
0
0
0
0
0
0
0
0
0
0
0
0
0
0
0
0
0
0
0
0
0
0
0
0
0
0
0
0
0
0
0
0
0
0
0
0
0
0
0
0
0
0
0
0
0
0
0
0
0
0
0
0
0
0
0
0
0
0
0
0
0
0
0
0
0
0
0
0
0
0
0
0
0
0
0
0
0
0
0
0
0
0
0
0
0
0
0
0
0
0
0
0
0
0
0
0
0
0
0
0
0
0
0
0
0
0
167
165
165
167
167
165
165
165
164
166
166
166
162
162
162
163
166
166
166
167
168
168
167
164
164
164
168
167
167
167
165
165
165
161
155
155
146
137
137
132
122
129
124
124
127
127
128
126
126
128
129
125
125
127
123
123
127
128
123
125
123
119
119
129
175
175
220
229
230
230
230
230
230
230
230
230
230
230
230
230
229
234
234
251
255
255
255
254
255
255
254
255
254
254
253
255
255
255
255
255
253
254
248
248
126
104
104
106
107
104
104
122
157
157
157
157
156
156
156
156
156
156
155
155
156
155
156
156
156
156
156
155
155
154
154
156
156
156
161
156
155
158
156
158
158
153
156
156
144
110
106
106
107
106
106
103
105
132
132
236
251
251
254
255
255
254
255
253
253
253
253
253
254
254
254
254
255
255
255
254
255
255
254
254
157
157
157
157
157
157
156
156
156
156
156
156
165
178
182
183
182
184
184
183
182
182
183
184
182
182
183
184
184
184
184
183
183
183
180
180
158
156
156
157
156
153
153
106
107
107
105
107
105
105
107
228
228
231
228
234
242
254
254
254
254
254
254
251
252
255
255
253
254
254
238
91
104
104
101
103
103
101
105
105
135
137
137
137
137
137
137
137
137
137
137
137
137
137
137
137
137
137
137
137
137
137
137
137
137
137
137
137
137
137
137
137
137
139
135
132
104
104
103
103
103
102
101
94
94
92
143
143
224
225
228
228
232
230
230
234
232
232
229
229
229
229
232
242
242
253
246
180
180
101
96
96
97
93
96
117
221
247
247
253
253
253
254
255
255
255
255
255
255
255
255
255
255
255
254
254
255
255
255
255
254
254
254
255
255
255
254
255
255
255
255
254
254
254
254
255
255
255
254
254
254
254
254
255
254
254
254
254
254
254
254
254
254
0
0
0
0
0
0
0
0
0
0
0
0
0
0
0
0
0
0
0
0
0
0
0
0
0
0
0
0
0
0
0
0
0
0
0
0
0
0
0
0
0
0
0
0
0
0
0
0
0
0
0
0
0
0
0
0
0
0
0
0
0
0
0
0
0
0
0
0
0
0
0
0
0
0
0
0
0
0
0
0
0
0
0
0
0
0
0
0
0
0
0
0
0
0
0
0
0
0
0
0
0
0
0
0
0
0
0
0
0
0
0
0
0
0
0
0
0
0
0
0
0
0
0
0
0
0
0
0
0
0
0
0
0
0
0
0
0
0
0
0
0
0
0
0
0
0
0
0
0
0
0
0
0
0
0
0
0
0
0
0
0
0
0
0
0
0
0
0
0
0
0
0
0
167
165
162
166
162
167
166
164
163
165
162
151
123
146
148
127
128
156
159
132
161
161
133
161
161
132
130
155
152
126
148
141
126
127
126
124
125
125
123
127
123
129
125
128
125
128
126
126
126
125
126
124
126
125
127
126
124
120
123
128
169
126
170
229
219
232
230
228
229
229
229
230
230
230
228
229
229
229
229
229
249
241
254
255
255
255
254
255
255
254
255
254
253
253
254
255
253
252
255
255
252
252
247
166
102
104
106
105
106
105
111
156
159
157
154
156
156
156
156
156
156
156
156
156
156
156
157
156
156
156
155
165
167
157
154
162
154
155
156
155
155
157
156
157
159
158
157
152
158
156
121
107
106
107
106
106
105
104
114
102
227
251
249
254
255
253
254
255
252
252
253
254
254
254
253
253
254
255
254
254
254
255
255
254
254
157
156
157
157
157
157
156
156
156
155
164
179
187
182
183
182
185
185
184
183
184
182
183
183
184
184
185
181
184
182
183
183
174
177
157
158
158
157
156
157
154
109
106
106
105
105
107
106
103
196
215
230
229
229
234
252
255
254
254
255
254
254
254
254
253
255
255
253
250
249
149
98
104
102
103
100
101
103
113
115
137
138
137
137
137
137
137
137
137
137
137
137
137
137
137
137
137
137
137
137
137
138
137
137
137
137
137
137
137
137
137
136
139
136
128
110
103
103
102
102
101
99
96
98
219
191
231
229
231
231
228
231
230
230
230
232
228
231
235
229
240
252
253
251
202
93
123
92
101
93
98
103
101
96
102
93
194
247
244
250
254
255
254
254
255
255
254
255
255
255
255
255
255
255
254
255
255
255
255
255
254
254
254
255
255
254
254
255
255
255
255
254
254
254
255
255
255
255
254
254
254
254
255
254
254
254
254
254
254
254
254
254
254
0
0
0
0
0
0
0
0
0
0
0
0
0
0
0
0
0
0
0
0
0
0
0
0
0
0
0
0
0
0
0
0
0
0
0
0
0
0
0
0
0
0
0
0
0
0
0
0
0
0
0
0
0
0
0
0
0
0
0
0
0
0
0
0
0
0
0
0
0
0
0
0
0
0
0
0
0
0
0
0
0
0
0
0
0
0
0
0
0
0
0
0
0
0
0
0
0
0
0
0
0
0
0
0
0
0
0
0
0
0
0
0
0
0
0
0
0
0
0
0
0
0
0
0
0
0
0
0
0
0
0
0
0
0
0
0
0
0
0
0
0
0
0
0
0
0
0
0
0
0
0
0
0
0
0
0
0
0
0
0
0
0
0
0
0
0
0
0
0
0
0
0
166
165
165
168
166
167
167
164
168
168
147
125
123
125
124
126
126
125
125
132
127
127
133
126
127
121
121
124
124
126
126
128
123
123
126
126
125
124
124
123
123
125
126
126
128
128
126
128
127
126
126
125
128
125
124
119
135
135
180
222
222
231
227
229
230
230
228
228
230
231
229
230
230
228
228
229
230
229
241
251
249
255
255
255
255
254
255
255
255
255
254
254
255
255
254
255
255
255
255
254
254
254
240
102
102
107
106
106
106
103
140
156
152
158
156
156
156
156
156
156
156
156
156
156
156
156
156
157
156
159
175
177
177
179
176
162
172
168
158
158
157
159
159
155
156
158
156
157
157
157
156
141
106
105
107
107
107
105
107
102
103
186
249
247
253
253
253
254
255
252
254
254
254
254
254
254
254
255
254
254
254
254
254
254
254
254
156
156
156
156
156
157
156
156
155
177
185
185
183
182
182
187
181
184
183
182
182
182
183
182
184
183
183
183
183
182
168
174
156
157
158
155
156
156
156
113
106
106
107
105
106
106
103
173
196
228
230
230
230
243
255
255
254
255
255
254
254
254
254
254
255
255
254
254
247
247
114
98
102
104
101
101
102
101
119
119
136
137
137
137
137
137
137
137
137
137
137
137
137
137
137
137
137
137
137
137
138
137
137
137
137
137
137
137
137
135
135
137
137
137
107
105
103
101
102
100
100
153
224
219
226
228
228
228
231
227
231
231
228
230
229
233
244
244
255
251
252
244
166
95
95
103
99
101
98
102
102
102
100
102
102
98
147
244
243
251
255
255
255
255
255
254
255
255
255
255
255
255
255
255
255
255
255
255
255
255
254
254
254
255
254
254
254
255
255
255
254
254
254
254
255
255
255
255
254
254
255
255
255
254
254
254
254
254
254
254
254
254
254
0
0
0
0
0
0
0
0
0
0
0
0
0
0
0
0
0
0
0
0
0
0
0
0
0
0
0
0
0
0
0
0
0
0
0
0
0
0
0
0
0
0
0
0
0
0
0
0
0
0
0
0
0
0
0
0
0
0
0
0
0
0
0
0
0
0
0
0
0
0
0
0
0
0
0
0
0
0
0
0
0
0
0
0
0
0
0
0
0
0
0
0
0
0
0
0
0
0
0
0
0
0
0
0
0
0
0
0
0
0
0
0
0
0
0
0
0
0
0
0
0
0
0
0
0
0
0
0
0
0
0
0
0
0
0
0
0
0
0
0
0
0
0
0
0
0
0
0
0
0
0
0
0
0
0
0
0
0
0
0
0
0
0
0
0
0
0
0
0
0
0
187
172
164
165
164
164
164
165
164
162
133
124
126
126
127
125
125
127
125
125
124
124
123
124
128
124
127
126
125
125
123
128
125
127
126
125
126
128
125
128
128
126
125
126
123
127
125
122
122
126
125
124
120
119
144
224
189
218
232
226
225
227
228
231
230
228
228
231
229
230
228
230
230
230
231
241
234
248
253
253
254
255
255
255
254
255
255
255
255
255
255
255
255
255
254
255
254
254
255
255
254
248
183
125
106
106
107
107
104
109
122
155
159
157
157
156
156
156
156
156
156
156
156
156
156
156
156
156
156
177
186
185
184
186
185
186
185
182
177
170
182
161
156
157
157
155
156
158
155
156
156
156
151
109
117
105
106
105
105
107
102
102
169
246
246
251
255
255
253
255
255
255
255
254
254
254
255
255
254
254
254
254
254
254
254
254
254
156
156
156
157
157
157
158
161
179
180
181
182
184
181
187
181
185
184
184
183
183
185
183
183
182
183
185
179
159
162
156
157
157
155
157
155
156
112
106
106
106
106
106
106
105
134
151
228
229
230
229
236
253
255
255
255
255
254
253
255
254
254
254
254
255
253
251
253
230
213
98
98
101
101
102
102
103
103
122
126
137
137
138
138
137
137
137
137
137
137
137
137
137
137
137
137
137
137
137
137
137
137
137
137
137
137
137
137
138
139
137
135
136
127
101
101
104
102
100
93
94
195
226
232
231
229
229
232
231
232
230
230
229
238
253
251
254
246
249
238
136
95
96
100
101
98
101
102
102
101
101
100
101
102
102
96
132
244
244
250
255
254
254
254
255
255
255
255
255
255
255
255
255
255
255
254
255
255
255
255
254
254
254
255
254
254
254
255
255
255
255
254
254
254
255
255
255
255
255
254
255
255
254
254
254
254
254
254
254
255
255
254
254
0
0
0
0
0
0
0
0
0
0
0
0
0
0
0
0
0
0
0
0
0
0
0
0
0
0
0
0
0
0
0
0
0
0
0
0
0
0
0
0
0
0
0
0
0
0
0
0
0
0
0
0
0
0
0
0
0
0
0
0
0
0
0
0
0
0
0
0
0
0
0
0
0
0
0
0
0
0
0
0
0
0
0
0
0
0
0
0
0
0
0
0
0
0
0
0
0
0
0
0
0
0
0
0
0
0
0
0
0
0
0
0
0
0
0
0
0
0
0
0
0
0
0
0
0
0
0
0
0
0
0
0
0
0
0
0
0
0
0
0
0
0
0
0
0
0
0
0
0
0
0
0
0
0
0
0
0
0
0
0
0
0
0
0
0
0
0
0
0
0
187
187
187
165
168
167
167
165
164
155
133
126
128
127
127
128
124
127
125
126
127
127
125
128
128
125
124
126
125
129
126
128
127
128
126
129
124
126
125
126
123
126
125
123
123
121
116
124
122
146
182
124
219
230
230
224
228
229
232
230
231
227
233
228
232
228
229
230
229
232
230
230
230
236
249
241
254
254
254
254
254
254
255
255
254
255
255
255
255
255
255
255
255
255
255
254
254
252
254
255
251
231
183
101
106
105
107
105
105
109
152
155
157
157
157
156
156
156
156
156
156
156
156
156
156
156
156
156
160
182
186
182
183
186
180
184
185
182
181
184
182
183
180
157
165
155
154
158
159
157
156
155
158
154
117
122
106
105
107
106
108
102
102
150
246
246
251
255
254
255
254
255
255
254
254
254
254
254
254
254
255
254
254
254
254
254
254
254
156
157
157
157
158
156
157
179
182
186
182
184
184
187
181
181
181
184
181
184
185
183
182
176
183
160
156
159
154
157
158
156
157
151
155
109
107
106
107
106
106
106
104
120
134
228
229
230
230
229
247
253
254
253
255
255
254
254
255
253
254
254
254
254
255
251
255
242
213
203
91
99
102
101
102
103
102
103
126
129
136
136
138
136
137
137
137
137
137
137
137
137
137
137
137
137
137
137
137
137
137
137
137
137
137
137
137
137
137
137
140
138
127
113
102
102
102
102
99
94
102
226
227
231
230
228
232
231
230
232
231
254
254
253
254
248
246
200
93
95
95
101
101
101
102
106
106
102
108
101
100
103
103
102
104
97
116
244
244
249
254
253
254
255
255
255
255
255
255
255
255
255
255
255
254
254
255
255
255
255
254
254
254
255
254
255
254
255
255
255
255
254
255
255
255
255
254
255
254
254
254
254
254
254
254
254
254
254
255
255
254
254
254
0
0
0
0
0
0
0
0
0
0
0
0
0
0
0
0
0
0
0
0
0
0
0
0
0
0
0
0
0
0
0
0
0
0
0
0
0
0
0
0
0
0
0
0
0
0
0
0
0
0
0
0
0
0
0
0
0
0
0
0
0
0
0
0
0
0
0
0
0
0
0
0
0
0
0
0
0
0
0
0
0
0
0
0
0
0
0
0
0
0
0
0
0
0
0
0
0
0
0
0
0
0
0
0
0
0
0
0
0
0
0
0
0
0
0
0
0
0
0
0
0
0
0
0
0
0
0
0
0
0
0
0
0
0
0
0
0
0
0
0
0
0
0
0
0
0
0
0
0
0
0
0
0
0
0
0
0
0
0
0
0
0
0
0
0
0
0
0
0
188
189
189
189
173
177
163
164
167
167
135
125
125
127
126
127
127
125
124
124
126
127
122
122
126
126
126
125
126
123
127
125
128
128
124
126
122
123
123
123
123
121
118
118
124
142
226
173
203
225
225
230
225
229
231
230
228
228
230
230
230
229
231
226
232
228
229
229
231
228
243
234
245
255
255
255
254
254
254
255
255
255
254
255
255
255
255
255
255
255
255
255
255
255
254
255
254
254
254
254
246
246
106
106
107
106
108
104
104
132
157
156
156
157
156
156
156
156
156
156
156
156
156
157
156
156
156
156
156
165
183
183
183
184
181
183
182
187
183
183
182
183
183
185
173
180
159
155
158
158
158
156
156
158
155
124
124
104
105
105
106
107
102
102
142
246
246
249
253
253
255
254
255
255
253
254
254
254
254
254
254
255
254
254
254
254
255
254
254
157
157
157
155
156
157
164
184
184
181
184
184
182
184
182
185
183
184
184
179
176
156
164
157
154
154
156
156
156
157
156
147
147
107
107
107
106
106
107
107
102
114
114
225
227
230
231
228
241
241
255
252
252
255
255
255
255
254
254
254
254
255
254
254
254
255
255
229
180
180
94
101
102
102
102
102
102
103
132
133
136
137
137
137
137
137
137
137
137
137
137
137
137
137
137
137
137
137
137
137
137
137
137
137
137
137
137
137
136
136
136
135
103
102
104
102
103
103
97
128
162
227
231
230
230
228
231
231
245
254
253
253
254
246
246
157
93
99
97
101
103
103
102
102
125
115
135
124
124
104
104
104
102
103
100
95
115
242
242
249
255
254
254
255
255
255
255
255
255
255
255
255
255
255
254
254
255
255
255
255
254
254
254
255
255
255
254
255
255
255
255
255
255
255
254
255
255
255
254
254
254
254
255
255
254
254
254
254
254
254
254
254
254
0
0
0
0
0
0
0
0
0
0
0
0
0
0
0
0
0
0
0
0
0
0
0
0
0
0
0
0
0
0
0
0
0
0
0
0
0
0
0
0
0
0
0
0
0
0
0
0
0
0
0
0
0
0
0
0
0
0
0
0
0
0
0
0
0
0
0
0
0
0
0
0
0
0
0
0
0
0
0
0
0
0
0
0
0
0
0
0
0
0
0
0
0
0
0
0
0
0
0
0
0
0
0
0
0
0
0
0
0
0
0
0
0
0
0
0
0
0
0
0
0
0
0
0
0
0
0
0
0
0
0
0
0
0
0
0
0
0
0
0
0
0
0
0
0
0
0
0
0
0
0
0
0
0
0
0
0
0
0
0
0
0
0
0
0
0
0
0
189
188
188
187
187
177
179
165
166
167
165
133
125
124
125
126
127
127
129
128
128
126
126
129
120
121
126
121
123
123
124
122
121
123
121
130
122
143
167
122
128
213
145
174
231
230
226
226
229
230
231
229
229
229
229
227
229
231
229
229
226
230
230
226
232
230
229
228
241
251
243
254
255
255
255
255
255
255
255
254
255
255
255
254
255
255
255
255
254
254
255
255
255
254
254
254
255
255
254
252
250
158
101
104
107
104
105
105
112
153
157
156
156
156
156
156
156
156
155
156
156
156
156
157
156
156
156
154
156
157
161
179
181
176
183
183
185
181
183
183
181
183
184
184
184
180
181
168
156
158
157
157
156
156
156
158
133
134
103
106
105
107
107
103
103
140
246
246
250
253
254
255
254
255
255
254
254
254
255
254
254
254
254
254
254
254
255
255
254
254
157
155
157
156
158
156
163
182
161
180
184
168
167
182
165
160
179
174
154
157
156
157
157
157
157
156
157
157
156
135
140
106
107
106
106
107
106
107
103
101
111
223
228
231
230
230
231
235
254
254
254
255
255
254
255
254
254
254
255
255
254
254
254
254
252
250
241
228
164
151
96
102
102
102
102
102
103
103
133
133
136
137
137
137
137
137
137
137
137
137
137
137
137
137
137
137
137
137
137
137
137
137
137
137
137
137
137
137
137
132
138
124
102
100
101
104
100
100
95
162
195
231
230
233
248
238
254
253
251
251
249
208
232
123
97
99
99
103
101
101
103
104
132
125
137
136
135
132
135
107
103
102
101
100
99
97
115
240
238
250
254
255
255
255
255
255
255
255
255
255
255
255
255
255
254
254
255
255
255
255
254
254
254
255
255
255
254
255
255
255
255
255
254
254
255
255
255
254
254
254
254
255
255
255
255
254
254
254
254
255
255
254
254
0
0
0
0
0
0
0
0
0
0
0
0
0
0
0
0
0
0
0
0
0
0
0
0
0
0
0
0
0
0
0
0
0
0
0
0
0
0
0
0
0
0
0
0
0
0
0
0
0
0
0
0
0
0
0
0
0
0
0
0
0
0
0
0
0
0
0
0
0
0
0
0
0
0
0
0
0
0
0
0
0
0
0
0
0
0
0
0
0
0
0
0
0
0
0
0
0
0
0
0
0
0
0
0
0
0
0
0
0
0
0
0
0
0
0
0
0
0
0
0
0
0
0
0
0
0
0
0
0
0
0
0
0
0
0
0
0
0
0
0
0
0
0
0
0
0
0
0
0
0
0
0
0
0
0
0
0
0
0
0
0
0
0
0
0
0
0
189
188
190
186
186
187
179
179
165
165
164
164
133
123
123
125
126
127
127
124
130
130
138
139
120
133
133
137
137
145
155
155
169
182
202
202
214
226
226
224
228
213
228
227
223
223
229
229
229
228
230
230
230
228
228
228
229
228
229
232
231
230
230
229
230
230
239
252
253
253
253
255
255
255
254
255
255
255
255
255
255
255
255
255
254
255
255
254
254
254
255
255
255
255
254
254
254
255
255
252
244
103
105
105
107
107
107
104
136
157
157
157
157
157
156
156
156
156
156
156
156
156
156
157
157
156
157
157
154
155
155
155
155
164
164
174
184
184
182
187
181
181
184
184
184
184
182
182
173
157
155
155
156
157
157
157
156
134
137
105
105
105
107
105
103
103
150
248
248
251
254
254
255
254
255
255
254
255
255
255
254
254
254
254
254
254
254
255
255
254
254
156
156
157
158
158
158
156
161
153
158
156
156
156
154
154
158
156
160
160
156
156
156
156
154
156
157
153
120
120
104
106
107
105
108
106
106
104
103
103
224
229
230
230
230
229
229
252
255
254
255
255
254
254
254
255
255
255
255
254
254
254
255
255
251
251
241
233
226
135
135
97
100
102
101
103
102
102
105
134
134
137
137
137
137
137
137
137
137
137
137
137
137
137
137
137
137
137
137
137
137
137
137
137
137
137
137
137
137
135
137
137
116
100
100
101
102
103
103
91
221
221
237
252
248
254
255
250
250
241
172
208
93
99
101
101
102
101
101
104
107
136
136
133
138
138
136
136
135
136
108
102
102
101
102
102
96
107
233
233
250
255
255
255
254
255
255
254
255
255
255
255
255
255
255
254
254
255
255
255
254
254
254
254
255
255
255
254
255
255
255
255
254
254
254
254
254
254
254
254
254
254
255
255
255
254
254
254
254
255
255
254
254
0
0
0
0
0
0
0
0
0
0
0
0
0
0
0
0
0
0
0
0
0
0
0
0
0
0
0
0
0
0
0
0
0
0
0
0
0
0
0
0
0
0
0
0
0
0
0
0
0
0
0
0
0
0
0
0
0
0
0
0
0
0
0
0
0
0
0
0
0
0
0
0
0
0
0
0
0
0
0
0
0
0
0
0
0
0
0
0
0
0
0
0
0
0
0
0
0
0
0
0
0
0
0
0
0
0
0
0
0
0
0
0
0
0
0
0
0
0
0
0
0
0
0
0
0
0
0
0
0
0
0
0
0
0
0
0
0
0
0
0
0
0
0
0
0
0
0
0
0
0
0
0
0
0
0
0
0
0
0
0
0
0
0
0
0
0
0
186
187
188
191
188
190
188
181
182
166
166
164
165
133
124
125
128
127
125
125
124
188
208
207
208
214
230
216
219
230
222
225
231
231
231
229
230
226
223
230
230
229
231
228
230
229
230
230
230
230
228
231
229
229
230
231
233
231
230
228
229
231
229
248
241
250
253
254
254
252
255
255
254
254
254
254
255
255
255
255
255
255
255
255
255
254
255
255
255
255
255
254
255
255
255
254
255
255
253
249
141
104
105
106
106
105
106
105
155
157
157
156
156
157
157
156
156
156
157
156
156
156
156
157
156
156
157
158
157
156
154
156
157
157
154
155
162
177
166
181
186
183
181
184
184
184
183
183
184
180
157
156
157
156
156
156
157
157
140
140
106
106
106
108
104
102
101
158
249
249
251
254
254
254
254
255
254
254
255
254
255
255
255
255
254
254
254
254
254
254
254
254
158
158
155
156
156
158
158
156
157
155
157
157
157
157
157
153
158
156
155
154
156
158
156
156
144
104
112
105
107
107
108
107
105
105
104
112
108
224
227
230
228
230
230
229
247
255
255
255
255
255
255
254
254
254
255
255
255
254
254
255
255
255
254
255
254
231
230
227
121
112
101
99
102
103
103
103
102
105
135
135
136
137
138
138
137
137
137
137
137
137
137
137
137
137
137
137
137
138
137
137
137
137
137
137
137
137
137
138
137
136
134
108
102
102
101
101
101
98
108
236
247
252
254
254
246
248
234
103
135
94
101
101
100
102
102
102
103
121
138
137
137
137
136
137
136
137
137
137
136
107
102
102
102
103
102
96
104
228
224
250
254
254
255
254
254
255
255
255
255
255
255
255
255
255
254
254
255
255
255
255
254
254
254
255
255
255
254
255
255
255
255
254
254
254
254
254
255
254
254
255
255
255
255
255
254
254
254
255
255
255
254
0
0
0
0
0
0
0
0
0
0
0
0
0
0
0
0
0
0
0
0
0
0
0
0
0
0
0
0
0
0
0
0
0
0
0
0
0
0
0
0
0
0
0
0
0
0
0
0
0
0
0
0
0
0
0
0
0
0
0
0
0
0
0
0
0
0
0
0
0
0
0
0
0
0
0
0
0
0
0
0
0
0
0
0
0
0
0
0
0
0
0
0
0
0
0
0
0
0
0
0
0
0
0
0
0
0
0
0
0
0
0
0
0
0
0
0
0
0
0
0
0
0
0
0
0
0
0
0
0
0
0
0
0
0
0
0
0
0
0
0
0
0
0
0
0
0
0
0
0
0
0
0
0
0
0
0
0
0
0
0
0
0
0
0
0
0
0
167
188
188
190
187
190
189
190
185
185
166
166
165
166
133
125
126
128
127
125
124
119
208
211
231
229
230
229
230
230
228
232
229
229
229
230
230
231
228
230
230
229
230
228
231
230
230
229
230
230
230
231
231
229
231
229
233
226
235
238
229
250
254
248
252
255
255
255
254
252
255
252
254
254
254
255
254
255
254
255
255
255
255
255
255
255
255
255
255
255
254
254
254
255
255
255
255
255
252
241
106
104
104
107
106
105
106
133
133
153
158
156
156
156
157
156
156
156
157
156
156
156
156
155
156
156
156
156
157
156
156
156
156
156
157
155
159
156
166
159
177
187
181
181
184
184
184
183
183
183
182
161
157
155
157
156
156
155
158
140
140
105
106
106
104
106
101
103
188
249
250
253
255
255
254
254
254
255
255
254
254
254
255
255
255
254
254
255
255
254
254
254
254
158
157
157
156
156
157
157
157
153
156
157
157
155
157
157
158
156
155
159
155
158
144
115
103
104
106
106
107
106
103
106
105
103
120
112
225
227
229
229
228
231
230
235
255
255
254
255
255
255
255
254
254
254
254
255
255
255
255
255
255
254
254
255
255
240
230
230
226
112
107
101
101
103
102
102
102
103
106
135
135
136
137
138
138
137
137
137
137
137
137
137
137
137
137
137
137
137
138
137
137
137
137
137
137
137
138
138
137
139
134
131
102
101
101
101
103
98
96
187
247
249
255
248
246
179
94
103
97
103
102
101
103
102
102
105
128
137
137
137
137
137
137
137
136
136
137
138
136
135
106
102
102
101
101
101
95
96
224
218
250
254
253
255
255
255
255
255
255
255
255
255
255
255
255
254
254
255
255
255
255
254
254
254
255
255
255
254
254
255
255
255
254
254
254
254
254
255
255
255
255
255
255
255
254
254
254
255
255
255
0
0
0
0
0
0
0
0
0
0
0
0
0
0
0
0
0
0
0
0
0
0
0
0
0
0
0
0
0
0
0
0
0
0
0
0
0
0
0
0
0
0
0
0
0
0
0
0
0
0
0
0
0
0
0
0
0
0
0
0
0
0
0
0
0
0
0
0
0
0
0
0
0
0
0
0
0
0
0
0
0
0
0
0
0
0
0
0
0
0
0
0
0
0
0
0
0
0
0
0
0
0
0
0
0
0
0
0
0
0
0
0
0
0
0
0
0
0
0
0
0
0
0
0
0
0
0
0
0
0
0
0
0
0
0
0
0
0
0
0
0
0
0
0
0
0
0
0
0
0
0
0
0
0
0
0
0
0
0
0
0
0
0
0
0
0
0
0
165
169
189
191
191
189
188
188
189
187
188
166
166
164
164
132
127
126
127
126
123
123
120
213
211
230
229
229
229
230
230
232
228
229
231
230
231
231
231
230
230
228
230
229
227
227
232
227
228
231
230
230
231
228
230
230
233
243
254
251
255
255
255
254
255
254
253
252
254
253
254
253
253
254
254
255
255
254
254
254
255
255
255
255
255
255
255
255
255
255
255
254
254
254
255
254
254
251
248
196
130
103
106
106
106
105
107
110
157
157
157
156
156
156
156
156
156
156
157
157
157
156
155
155
156
156
156
156
154
156
156
156
156
156
156
155
159
159
156
154
159
164
184
182
182
184
184
184
183
182
182
184
163
156
156
157
156
156
155
157
140
140
105
107
108
106
105
104
104
208
251
253
254
255
254
254
255
255
255
255
254
254
254
254
255
255
255
255
255
254
254
254
254
254
157
157
158
157
155
157
157
158
158
160
157
156
158
157
159
154
158
150
150
124
106
107
105
107
105
105
107
107
106
107
102
135
135
227
229
229
229
229
230
229
230
255
255
255
254
255
255
254
255
255
254
254
254
254
254
254
254
255
254
254
255
254
255
255
235
230
230
222
101
99
100
101
102
102
102
102
103
107
136
136
135
137
137
137
137
137
137
137
137
137
137
137
137
137
137
137
137
137
138
137
137
137
137
137
137
138
137
137
138
127
116
102
101
104
103
103
89
89
222
249
228
244
146
95
95
98
103
101
102
103
102
102
109
134
135
135
137
137
138
137
136
136
137
137
137
138
138
135
135
107
103
103
101
101
101
97
93
213
213
250
253
254
253
253
255
255
255
255
255
255
255
255
255
255
254
254
255
255
255
255
254
254
254
255
255
255
254
254
255
255
255
254
254
254
255
255
255
254
254
254
254
254
255
255
255
255
255
0
0
0
0
0
0
0
0
0
0
0
0
0
0
0
0
0
0
0
0
0
0
0
0
0
0
0
0
0
0
0
0
0
0
0
0
0
0
0
0
0
0
0
0
0
0
0
0
0
0
0
0
0
0
0
0
0
0
0
0
0
0
0
0
0
0
0
0
0
0
0
0
0
0
0
0
0
0
0
0
0
0
0
0
0
0
0
0
0
0
0
0
0
0
0
0
0
0
0
0
0
0
0
0
0
0
0
0
0
0
0
0
0
0
0
0
0
0
0
0
0
0
0
0
0
0
0
0
0
0
0
0
0
0
0
0
0
0
0
0
0
0
0
0
0
0
0
0
0
0
0
0
0
0
0
0
0
0
0
0
0
0
0
0
0
0
0
0
0
165
166
171
189
189
189
189
188
187
190
188
189
167
165
163
164
132
126
126
126
126
123
123
117
211
212
228
232
232
230
231
232
228
232
231
227
229
228
231
228
230
228
232
232
227
228
229
231
228
231
235
230
242
250
239
247
255
254
254
252
252
253
254
252
255
254
253
254
254
254
253
253
254
254
254
255
255
255
255
254
254
255
255
255
255
255
255
254
255
255
255
255
254
255
254
254
255
253
242
196
103
107
107
105
106
104
107
123
157
157
151
157
154
156
157
156
156
156
156
156
156
156
155
155
156
156
157
156
157
156
156
156
156
156
156
156
155
157
157
155
159
158
157
180
183
184
184
184
183
185
182
183
183
163
156
156
158
156
156
156
155
140
133
105
108
107
106
107
102
102
238
253
254
255
254
254
254
255
255
255
254
254
254
254
254
255
255
255
255
255
254
254
255
254
254
154
160
155
155
157
153
156
159
153
160
156
151
141
159
123
110
126
106
107
107
107
104
105
105
107
106
105
106
101
169
153
227
227
230
229
230
230
230
230
252
255
255
254
255
255
254
254
255
255
255
254
254
254
254
254
254
254
255
254
254
254
255
255
254
234
229
228
218
99
95
101
102
101
101
102
103
102
109
136
137
136
137
136
136
137
137
137
137
137
137
137
137
137
137
137
137
137
137
137
137
137
138
137
138
137
137
137
137
138
116
106
100
104
103
103
100
98
132
196
228
99
101
97
99
101
102
101
101
103
101
114
137
136
135
139
137
137
137
137
137
137
137
137
137
137
138
137
135
135
107
103
103
102
101
101
98
91
210
209
249
254
255
253
255
255
255
255
255
255
255
255
255
255
254
254
254
255
255
255
254
254
254
254
255
255
255
254
254
255
255
255
254
254
255
255
254
254
254
254
254
254
255
255
255
255
0
0
0
0
0
0
0
0
0
0
0
0
0
0
0
0
0
0
0
0
0
0
0
0
0
0
0
0
0
0
0
0
0
0
0
0
0
0
0
0
0
0
0
0
0
0
0
0
0
0
0
0
0
0
0
0
0
0
0
0
0
0
0
0
0
0
0
0
0
0
0
0
0
0
0
0
0
0
0
0
0
0
0
0
0
0
0
0
0
0
0
0
0
0
0
0
0
0
0
0
0
0
0
0
0
0
0
0
0
0
0
0
0
0
0
0
0
0
0
0
0
0
0
0
0
0
0
0
0
0
0
0
0
0
0
0
0
0
0
0
0
0
0
0
0
0
0
0
0
0
0
0
0
0
0
0
0
0
0
0
0
0
0
0
0
0
0
0
0
0
164
166
166
173
188
190
190
189
187
187
189
188
188
168
165
164
164
130
125
125
126
127
124
124
121
209
209
229
229
230
230
231
229
229
228
232
232
228
230
232
232
230
228
228
227
230
233
233
241
246
246
252
254
254
255
254
254
254
254
254
254
254
254
255
255
255
254
254
255
254
254
254
254
254
254
254
255
255
255
255
254
254
255
255
255
255
255
254
254
255
255
255
255
254
254
254
254
249
249
125
102
102
105
105
107
107
111
159
159
160
158
158
159
158
157
157
157
156
156
157
157
156
156
155
155
155
154
156
157
157
156
156
156
156
156
156
156
156
156
156
155
156
156
156
170
184
184
183
182
182
183
184
184
184
165
155
155
157
156
156
157
158
130
130
105
106
106
106
105
116
116
246
255
255
255
254
254
254
255
255
255
254
254
254
254
255
255
255
255
254
254
255
255
255
254
254
149
149
154
152
152
156
151
142
142
127
115
115
107
104
104
105
107
106
106
105
105
105
106
105
105
105
107
194
194
228
229
229
229
230
229
229
230
251
251
255
253
255
255
255
254
254
254
255
255
255
254
254
254
254
254
254
255
254
254
254
255
255
255
251
231
229
229
211
94
94
103
102
101
101
102
103
103
109
136
136
136
137
137
137
137
137
137
137
137
137
137
137
137
137
137
137
137
137
137
137
137
138
137
137
137
137
138
138
137
101
101
100
101
101
105
97
121
121
95
102
102
101
101
102
102
102
105
105
128
134
137
137
139
137
137
137
137
137
137
137
137
137
137
137
137
137
136
135
135
108
103
103
101
101
101
99
92
209
209
247
255
255
254
255
255
255
255
255
255
255
255
255
255
254
254
254
255
255
255
254
254
254
254
255
255
255
254
255
255
255
255
255
255
254
254
254
255
255
254
254
254
255
255
0
0
0
0
0
0
0
0
0
0
0
0
0
0
0
0
0
0
0
0
0
0
0
0
0
0
0
0
0
0
0
0
0
0
0
0
0
0
0
0
0
0
0
0
0
0
0
0
0
0
0
0
0
0
0
0
0
0
0
0
0
0
0
0
0
0
0
0
0
0
0
0
0
0
0
0
0
0
0
0
0
0
0
0
0
0
0
0
0
0
0
0
0
0
0
0
0
0
0
0
0
0
0
0
0
0
0
0
0
0
0
0
0
0
0
0
0
0
0
0
0
0
0
0
0
0
0
0
0
0
0
0
0
0
0
0
0
0
0
0
0
0
0
0
0
0
0
0
0
0
0
0
0
0
0
0
0
0
0
0
0
0
0
0
0
0
0
0
0
0
0
165
164
164
164
174
189
189
189
189
187
187
189
189
187
167
165
164
164
130
125
125
127
127
123
123
119
215
213
227
228
232
231
226
232
232
228
230
232
233
227
229
245
230
235
252
252
247
251
255
253
255
254
254
255
255
254
255
255
255
255
254
255
254
254
254
255
255
255
254
254
255
255
254
254
254
255
254
255
255
255
255
255
254
255
255
255
255
254
254
255
255
254
254
254
251
253
254
251
197
104
107
109
106
106
107
106
119
146
154
156
155
156
159
155
157
157
156
156
157
157
156
156
156
156
156
155
155
156
156
157
156
156
156
156
156
156
156
156
156
156
157
155
155
156
156
166
183
183
183
184
184
183
184
184
183
163
156
155
157
156
158
157
157
123
115
106
107
107
106
105
133
167
247
255
255
255
254
254
254
255
255
255
254
254
254
254
254
255
254
254
255
255
255
255
255
255
254
114
105
114
112
109
105
104
105
104
107
104
107
107
110
104
106
105
107
106
105
106
104
101
104
124
225
212
230
231
229
229
229
229
229
229
250
250
254
255
255
255
255
255
255
254
254
254
255
255
255
254
255
254
254
255
255
255
254
254
255
255
255
254
249
230
229
228
205
93
92
103
102
101
101
102
102
103
109
136
136
136
137
137
137
137
137
137
137
137
137
137
137
137
137
137
137
137
137
137
138
138
138
137
137
137
138
137
136
129
104
101
105
103
103
102
98
100
101
102
100
101
101
101
102
114
109
133
137
137
137
138
137
137
137
137
137
137
137
137
137
137
137
137
137
137
137
136
136
136
108
102
102
102
102
102
101
90
213
226
248
254
254
252
255
255
254
255
255
255
255
255
255
255
254
254
254
255
255
255
255
254
254
254
255
255
255
254
254
254
255
255
254
254
254
255
255
254
254
254
254
254
0
0
0
0
0
0
0
0
0
0
0
0
0
0
0
0
0
0
0
0
0
0
0
0
0
0
0
0
0
0
0
0
0
0
0
0
0
0
0
0
0
0
0
0
0
0
0
0
0
0
0
0
0
0
0
0
0
0
0
0
0
0
0
0
0
0
0
0
0
0
0
0
0
0
0
0
0
0
0
0
0
0
0
0
0
0
0
0
0
0
0
0
0
0
0
0
0
0
0
0
0
0
0
0
0
0
0
0
0
0
0
0
0
0
0
0
0
0
0
0
0
0
0
0
0
0
0
0
0
0
0
0
0
0
0
0
0
0
0
0
0
0
0
0
0
0
0
0
0
0
0
0
0
0
0
0
0
0
0
0
0
0
0
0
0
0
0
0
0
0
0
0
165
165
166
165
165
175
189
189
188
190
187
187
190
190
190
166
165
164
164
129
125
125
127
126
123
123
118
217
217
237
237
231
238
240
232
243
248
250
250
252
254
245
254
253
255
255
254
254
255
255
254
254
255
255
252
252
255
254
255
255
254
254
254
254
254
255
255
254
254
254
254
255
255
254
254
255
255
254
255
255
255
255
254
254
255
255
255
255
255
255
255
254
254
253
254
255
255
247
147
104
103
106
102
102
105
107
119
149
158
156
160
153
157
157
157
157
156
156
157
157
157
156
156
156
156
157
157
157
156
156
156
156
156
156
156
156
156
156
156
156
157
157
156
157
157
156
161
183
182
184
184
184
184
184
184
182
162
155
154
156
157
157
157
156
115
108
107
106
106
106
103
167
201
251
255
255
255
254
254
253
254
255
255
254
254
254
254
254
254
254
255
255
255
255
255
255
255
254
105
103
104
105
105
108
105
104
109
105
107
105
106
105
105
106
106
106
106
103
110
110
189
228
225
229
232
229
229
229
229
229
230
250
250
253
255
255
255
255
254
255
255
255
254
254
254
255
255
255
254
254
254
254
255
255
255
255
255
255
254
254
254
245
229
228
226
190
93
93
102
101
101
102
102
103
102
109
136
136
136
138
137
137
137
137
137
137
137
137
137
137
137
137
137
137
137
137
138
138
138
138
138
138
138
137
136
136
114
101
101
104
103
103
103
103
101
104
101
102
102
102
121
114
137
137
137
137
137
137
137
137
137
137
137
137
137
137
137
137
137
137
138
137
137
136
136
136
136
107
102
102
102
103
103
97
90
226
235
250
254
254
253
254
254
254
255
255
255
255
255
255
255
255
254
254
255
255
255
255
254
254
254
255
255
255
254
255
255
254
254
254
254
255
254
254
254
255
254
0
0
0
0
0
0
0
0
0
0
0
0
0
0
0
0
0
0
0
0
0
0
0
0
0
0
0
0
0
0
0
0
0
0
0
0
0
0
0
0
0
0
0
0
0
0
0
0
0
0
0
0
0
0
0
0
0
0
0
0
0
0
0
0
0
0
0
0
0
0
0
0
0
0
0
0
0
0
0
0
0
0
0
0
0
0
0
0
0
0
0
0
0
0
0
0
0
0
0
0
0
0
0
0
0
0
0
0
0
0
0
0
0
0
0
0
0
0
0
0
0
0
0
0
0
0
0
0
0
0
0
0
0
0
0
0
0
0
0
0
0
0
0
0
0
0
0
0
0
0
0
0
0
0
0
0
0
0
0
0
0
0
0
0
0
0
0
0
0
0
0
0
0
165
166
166
166
165
165
177
189
188
188
190
187
188
189
190
185
165
164
165
165
131
125
126
127
126
124
124
120
228
234
248
250
254
254
254
252
255
255
254
254
254
254
254
254
255
254
254
254
254
254
254
255
251
255
254
255
255
255
254
255
255
255
254
254
254
255
255
255
255
254
254
254
255
255
254
254
255
255
254
255
255
255
255
254
254
255
255
255
255
255
255
255
253
254
255
255
254
249
242
104
108
108
106
105
107
106
109
118
118
122
141
107
153
154
144
157
155
157
157
157
156
156
156
156
154
157
157
157
156
156
156
156
156
156
156
157
156
156
156
156
156
157
157
156
158
158
156
159
182
182
184
184
184
184
184
183
181
161
155
156
156
156
156
156
155
105
105
106
105
106
106
103
232
232
252
255
255
255
254
254
254
255
255
255
254
254
254
254
254
255
255
255
255
255
255
255
255
254
254
106
105
105
105
108
107
106
103
103
108
103
107
104
109
105
104
106
102
188
147
216
229
227
230
230
229
230
229
230
230
230
251
251
254
255
255
255
255
255
255
254
255
255
255
254
254
254
255
255
255
255
254
254
254
255
255
255
255
254
254
254
254
254
243
229
226
228
183
93
94
103
102
102
102
102
103
102
109
137
136
136
138
137
137
137
137
137
137
137
137
137
137
137
137
137
137
137
137
138
138
138
138
138
137
137
137
137
137
106
102
103
101
104
103
107
103
101
104
103
105
135
130
137
136
136
137
137
137
137
137
137
137
137
137
137
137
137
138
137
137
137
138
138
137
136
137
137
135
135
106
102
102
101
101
102
103
100
243
248
251
254
255
254
254
254
255
255
255
255
255
255
255
255
255
255
255
255
255
255
255
254
254
254
255
255
255
254
255
254
254
254
254
254
254
254
255
255
0
0
0
0
0
0
0
0
0
0
0
0
0
0
0
0
0
0
0
0
0
0
0
0
0
0
0
0
0
0
0
0
0
0
0
0
0
0
0
0
0
0
0
0
0
0
0
0
0
0
0
0
0
0
0
0
0
0
0
0
0
0
0
0
0
0
0
0
0
0
0
0
0
0
0
0
0
0
0
0
0
0
0
0
0
0
0
0
0
0
0
0
0
0
0
0
0
0
0
0
0
0
0
0
0
0
0
0
0
0
0
0
0
0
0
0
0
0
0
0
0
0
0
0
0
0
0
0
0
0
0
0
0
0
0
0
0
0
0
0
0
0
0
0
0
0
0
0
0
0
0
0
0
0
0
0
0
0
0
0
0
0
0
0
0
0
0
0
0
0
0
0
0
0
165
165
166
166
165
165
165
177
188
188
190
189
188
188
187
185
185
165
166
165
165
131
126
126
126
126
124
124
124
234
232
251
255
254
254
254
255
253
254
254
254
253
254
254
255
255
254
254
254
254
254
255
255
255
253
255
255
255
254
254
255
255
255
254
254
253
253
254
254
255
254
254
254
255
255
254
254
255
255
255
255
255
255
255
254
255
255
255
255
253
255
255
254
255
255
254
252
249
234
104
106
108
101
105
107
105
107
106
105
106
106
107
105
109
144
118
143
157
157
157
157
156
156
157
157
157
158
156
156
156
156
156
156
156
157
157
157
156
156
156
156
156
157
156
155
158
157
157
159
182
181
184
184
183
184
183
182
179
157
156
157
157
156
156
158
132
105
106
107
106
107
104
109
246
250
254
255
255
254
254
254
254
255
255
255
255
254
254
254
254
255
255
255
255
255
255
255
255
254
254
105
101
106
108
104
106
108
102
111
105
107
105
101
105
111
168
223
188
226
231
229
227
229
229
229
230
230
230
230
251
251
254
255
255
255
255
255
255
255
254
254
255
255
255
254
254
254
255
255
255
255
254
254
255
255
255
255
254
254
254
254
254
254
238
231
228
227
170
94
95
102
102
102
102
102
102
103
109
136
136
135
137
137
137
137
137
137
137
137
137
137
137
137
137
137
137
137
138
138
138
138
137
137
137
137
137
135
132
102
103
98
100
103
103
104
103
104
115
136
135
134
137
137
136
137
136
137
137
137
137
137
137
137
137
137
138
138
137
138
137
138
137
136
136
136
137
137
135
135
107
102
101
103
102
102
96
168
248
251
253
255
253
254
254
255
255
255
255
255
255
255
255
255
254
255
255
255
255
255
255
254
254
254
255
255
255
254
254
255
255
254
254
254
255
255
0
0
0
0
0
0
0
0
0
0
0
0
0
0
0
0
0
0
0
0
0
0
0
0
0
0
0
0
0
0
0
0
0
0
0
0
0
0
0
0
0
0
0
0
0
0
0
0
0
0
0
0
0
0
0
0
0
0
0
0
0
0
0
0
0
0
0
0
0
0
0
0
0
0
0
0
0
0
0
0
0
0
0
0
0
0
0
0
0
0
0
0
0
0
0
0
0
0
0
0
0
0
0
0
0
0
0
0
0
0
0
0
0
0
0
0
0
0
0
0
0
0
0
0
0
0
0
0
0
0
0
0
0
0
0
0
0
0
0
0
0
0
0
0
0
0
0
0
0
0
0
0
0
0
0
0
0
0
0
0
0
0
0
0
0
0
0
0
0
0
0
0
0
0
0
165
165
166
165
165
164
165
165
177
189
190
190
189
191
191
188
180
169
165
166
165
165
129
125
125
126
126
124
124
125
233
233
250
254
254
254
255
255
255
255
254
254
255
255
255
255
255
254
254
254
255
250
250
254
254
254
255
254
254
254
254
255
255
254
252
252
254
254
254
254
255
254
254
254
255
255
254
255
255
255
255
255
255
255
255
255
255
255
255
255
253
255
254
254
254
254
254
251
142
105
101
108
106
106
106
106
106
105
107
105
105
108
103
103
102
101
106
120
149
157
157
156
157
157
156
157
158
158
156
157
157
156
156
157
157
157
157
157
156
156
156
156
157
155
155
155
157
157
156
159
182
182
184
184
184
184
182
184
174
157
157
157
157
156
156
158
121
103
103
107
106
106
105
190
252
252
254
255
255
255
254
254
254
255
255
255
255
254
254
255
255
255
255
255
254
254
255
255
255
254
253
105
105
106
108
108
106
107
102
102
97
109
109
158
214
226
223
229
230
230
228
232
230
230
230
229
229
231
254
254
254
255
255
255
255
255
255
255
254
254
254
254
255
255
255
254
254
255
255
255
255
255
254
254
255
254
254
255
254
254
254
254
254
254
237
231
227
227
169
95
95
102
102
102
102
103
102
102
108
135
136
136
137
137
137
137
137
137
137
137
137
137
137
137
137
137
137
137
137
137
137
137
137
137
137
138
138
131
131
101
101
101
103
102
107
102
123
138
138
138
138
139
138
137
136
136
137
137
137
137
137
137
137
137
138
138
137
137
135
136
132
135
135
136
136
136
137
137
134
134
107
103
103
102
100
101
90
227
254
254
255
255
252
255
254
255
255
255
255
255
255
255
255
255
254
255
255
255
254
254
255
254
254
254
255
255
255
254
255
254
254
254
255
255
0
0
0
0
0
0
0
0
0
0
0
0
0
0
0
0
0
0
0
0
0
0
0
0
0
0
0
0
0
0
0
0
0
0
0
0
0
0
0
0
0
0
0
0
0
0
0
0
0
0
0
0
0
0
0
0
0
0
0
0
0
0
0
0
0
0
0
0
0
0
0
0
0
0
0
0
0
0
0
0
0
0
0
0
0
0
0
0
0
0
0
0
0
0
0
0
0
0
0
0
0
0
0
0
0
0
0
0
0
0
0
0
0
0
0
0
0
0
0
0
0
0
0
0
0
0
0
0
0
0
0
0
0
0
0
0
0
0
0
0
0
0
0
0
0
0
0
0
0
0
0
0
0
0
0
0
0
0
0
0
0
0
0
0
0
0
0
0
0
0
0
0
0
0
0
0
165
165
166
165
165
165
165
165
164
174
190
189
190
190
187
189
185
169
163
165
165
165
164
129
125
125
127
126
123
123
124
234
236
251
255
255
254
255
255
254
255
254
254
255
255
255
255
254
254
254
254
255
255
254
254
254
254
254
254
254
254
254
254
254
254
254
255
254
254
254
254
255
254
254
254
255
255
255
255
255
255
255
255
255
255
255
255
254
254
255
255
254
254
255
255
254
254
251
206
105
103
108
106
104
103
107
108
106
106
107
107
102
106
108
108
107
106
108
105
130
156
144
156
157
157
156
156
156
155
157
157
155
156
156
156
156
157
156
156
156
156
156
156
157
157
157
154
157
157
156
161
182
183
184
184
184
182
184
185
162
156
157
157
156
156
156
154
109
106
106
106
104
106
104
235
254
254
254
255
255
255
254
254
254
255
255
255
255
255
254
255
255
255
255
254
254
254
254
255
255
254
254
103
106
102
104
126
155
102
122
223
166
215
226
229
226
231
228
229
231
227
230
230
230
229
229
234
255
254
253
254
255
255
255
255
255
255
254
254
254
254
255
254
255
255
255
255
255
255
255
255
255
255
254
254
255
254
255
255
254
254
254
254
254
254
233
230
227
229
158
95
95
102
102
102
102
103
103
102
107
136
135
136
137
137
137
137
137
137
137
137
137
137
137
137
137
137
137
137
136
136
137
137
137
137
138
139
137
130
131
103
103
110
119
107
133
138
137
137
136
136
139
136
139
138
137
135
136
137
137
137
137
137
138
138
137
138
133
135
148
148
135
136
141
136
136
136
137
136
135
133
109
101
103
102
101
100
184
245
254
252
253
252
255
252
254
255
255
255
255
254
255
255
255
255
254
255
255
255
254
254
255
254
254
254
255
255
255
254
254
254
255
255
0
0
0
0
0
0
0
0
0
0
0
0
0
0
0
0
0
0
0
0
0
0
0
0
0
0
0
0
0
0
0
0
0
0
0
0
0
0
0
0
0
0
0
0
0
0
0
0
0
0
0
0
0
0
0
0
0
0
0
0
0
0
0
0
0
0
0
0
0
0
0
0
0
0
0
0
0
0
0
0
0
0
0
0
0
0
0
0
0
0
0
0
0
0
0
0
0
0
0
0
0
0
0
0
0
0
0
0
0
0
0
0
0
0
0
0
0
0
0
0
0
0
0
0
0
0
0
0
0
0
0
0
0
0
0
0
0
0
0
0
0
0
0
0
0
0
0
0
0
0
0
0
0
0
0
0
0
0
0
0
0
0
0
0
0
0
0
0
0
0
0
0
0
0
0
0
0
165
165
165
166
166
165
166
164
167
167
169
185
190
189
188
188
188
169
164
164
165
165
163
163
128
125
125
127
126
123
123
130
235
235
250
254
254
253
255
254
254
254
254
254
255
255
255
255
254
254
254
254
255
254
254
254
254
254
254
255
255
254
254
254
255
255
255
255
254
254
254
254
255
254
254
255
255
255
255
255
255
255
255
255
255
255
254
254
254
254
255
255
254
255
255
255
254
246
246
155
103
103
106
107
103
108
106
106
106
108
106
102
107
105
104
104
104
104
104
104
104
130
130
156
157
157
157
157
155
154
156
155
155
156
156
156
156
156
156
156
156
156
156
156
156
157
157
157
157
157
157
165
183
185
185
184
184
181
185
185
159
156
158
158
156
157
157
142
106
106
107
106
107
107
151
249
254
255
254
255
255
255
254
254
254
255
255
255
255
254
254
254
255
255
255
254
254
254
254
255
255
254
254
106
186
207
215
215
227
226
223
224
228
229
229
229
228
228
230
228
230
230
230
229
229
243
254
255
255
254
255
255
255
254
255
255
254
254
254
254
255
255
254
254
255
255
255
255
255
255
254
255
255
255
255
255
255
255
255
255
254
254
254
254
254
254
232
229
229
229
157
95
95
103
102
102
102
102
103
103
106
135
135
136
137
137
137
137
137
137
137
137
137
137
137
137
137
137
137
137
137
137
137
137
137
137
137
138
136
131
136
133
131
131
136
137
137
137
137
136
136
138
139
139
137
136
135
137
137
137
137
137
137
138
137
136
135
135
155
159
159
140
136
141
136
137
137
137
137
136
133
112
102
104
104
103
96
96
243
253
255
255
254
255
255
252
255
255
255
255
254
254
255
255
255
255
254
255
255
255
255
255
255
254
254
254
255
255
255
254
255
255
0
0
0
0
0
0
0
0
0
0
0
0
0
0
0
0
0
0
0
0
0
0
0
0
0
0
0
0
0
0
0
0
0
0
0
0
0
0
0
0
0
0
0
0
0
0
0
0
0
0
0
0
0
0
0
0
0
0
0
0
0
0
0
0
0
0
0
0
0
0
0
0
0
0
0
0
0
0
0
0
0
0
0
0
0
0
0
0
0
0
0
0
0
0
0
0
0
0
0
0
0
0
0
0
0
0
0
0
0
0
0
0
0
0
0
0
0
0
0
0
0
0
0
0
0
0
0
0
0
0
0
0
0
0
0
0
0
0
0
0
0
0
0
0
0
0
0
0
0
0
0
0
0
0
0
0
0
0
0
0
0
0
0
0
0
0
0
0
0
0
0
0
0
0
0
0
0
0
166
166
165
165
166
165
165
165
164
163
166
164
184
187
177
188
166
164
165
166
165
166
165
163
163
128
125
126
127
126
123
124
130
235
238
251
254
255
255
255
254
254
255
254
254
255
255
255
255
254
254
254
255
255
255
255
255
254
254
255
255
255
255
254
255
255
255
255
255
254
254
254
254
255
255
255
254
255
255
255
255
254
254
255
255
255
255
254
254
253
254
255
255
254
255
255
254
254
248
248
136
102
100
108
106
104
104
105
106
105
107
107
106
106
106
108
109
103
106
103
105
106
114
106
155
156
156
157
159
154
156
156
156
157
156
156
156
156
156
156
156
156
156
156
156
155
157
156
157
156
156
157
166
183
183
184
184
184
181
181
175
157
156
158
159
153
157
157
122
104
107
106
103
105
101
207
251
251
254
254
255
255
255
254
254
254
255
255
255
255
254
254
254
255
254
254
254
254
255
255
255
254
254
254
230
231
229
229
231
229
229
230
231
230
228
229
229
229
229
230
229
230
232
231
248
254
254
255
254
255
255
254
255
254
255
254
254
254
254
255
255
254
254
254
255
255
255
255
255
255
254
254
255
255
255
254
254
255
255
255
255
254
254
254
254
254
253
231
229
228
228
157
96
96
102
102
102
102
102
102
103
106
134
133
136
137
137
137
137
137
137
137
137
137
137
137
137
137
137
137
137
138
137
137
137
137
137
137
136
137
138
137
138
137
136
137
137
138
138
137
138
137
137
138
137
137
138
136
135
136
137
137
137
136
135
147
140
159
159
161
149
138
136
137
135
138
138
137
133
135
110
104
103
105
104
96
96
203
248
251
255
254
250
254
254
254
254
255
255
255
255
254
254
255
255
255
255
254
255
254
255
255
255
255
254
254
254
255
255
255
254
0
0
0
0
0
0
0
0
0
0
0
0
0
0
0
0
0
0
0
0
0
0
0
0
0
0
0
0
0
0
0
0
0
0
0
0
0
0
0
0
0
0
0
0
0
0
0
0
0
0
0
0
0
0
0
0
0
0
0
0
0
0
0
0
0
0
0
0
0
0
0
0
0
0
0
0
0
0
0
0
0
0
0
0
0
0
0
0
0
0
0
0
0
0
0
0
0
0
0
0
0
0
0
0
0
0
0
0
0
0
0
0
0
0
0
0
0
0
0
0
0
0
0
0
0
0
0
0
0
0
0
0
0
0
0
0
0
0
0
0
0
0
0
0
0
0
0
0
0
0
0
0
0
0
0
0
0
0
0
0
0
0
0
0
0
0
0
0
0
0
0
0
0
0
0
0
0
0
0
166
166
166
165
165
166
165
165
166
165
166
167
162
166
177
165
165
164
163
166
165
165
166
165
163
163
129
126
125
127
127
124
123
133
238
240
252
254
255
254
254
254
255
255
254
254
255
255
255
255
255
254
254
255
255
255
255
255
254
255
255
255
255
254
254
255
255
255
255
255
254
254
254
254
255
255
254
254
255
255
255
254
254
254
255
255
255
255
255
253
254
254
255
255
254
254
254
254
254
248
240
172
100
113
101
102
104
103
104
105
103
106
108
106
106
102
109
104
106
106
106
104
103
106
105
138
156
157
153
156
156
157
156
157
156
156
156
156
156
156
156
156
156
156
156
156
155
156
156
157
156
156
154
179
183
183
183
184
183
184
167
167
157
156
159
158
157
157
151
105
106
106
106
107
101
129
249
254
254
255
254
255
255
254
254
254
254
254
255
255
255
254
254
254
254
254
254
255
255
255
254
254
254
254
254
231
227
231
231
232
230
229
231
232
229
229
232
230
229
229
231
245
232
255
254
254
255
254
255
255
255
255
255
254
254
254
254
255
255
255
255
254
254
255
255
255
255
255
255
255
255
254
254
255
255
255
254
254
254
255
255
254
254
254
254
254
253
252
231
228
228
228
157
96
96
102
103
102
101
102
103
102
104
133
131
136
138
137
137
137
137
137
137
137
137
137
137
137
137
137
137
137
137
137
137
137
137
137
137
137
137
137
137
137
136
136
137
139
139
137
137
137
138
136
137
138
136
136
135
136
137
137
135
139
156
147
160
161
159
142
136
138
138
137
137
138
136
133
133
106
103
99
103
103
100
96
98
239
254
254
252
254
250
254
254
254
255
255
255
255
255
255
254
254
255
255
255
255
255
254
254
255
255
255
255
254
254
254
255
255
0
0
0
0
0
0
0
0
0
0
0
0
0
0
0
0
0
0
0
0
0
0
0
0
0
0
0
0
0
0
0
0
0
0
0
0
0
0
0
0
0
0
0
0
0
0
0
0
0
0
0
0
0
0
0
0
0
0
0
0
0
0
0
0
0
0
0
0
0
0
0
0
0
0
0
0
0
0
0
0
0
0
0
0
0
0
0
0
0
0
0
0
0
0
0
0
0
0
0
0
0
0
0
0
0
0
0
0
0
0
0
0
0
0
0
0
0
0
0
0
0
0
0
0
0
0
0
0
0
0
0
0
0
0
0
0
0
0
0
0
0
0
0
0
0
0
0
0
0
0
0
0
0
0
0
0
0
0
0
0
0
0
0
0
0
0
0
0
0
0
0
0
0
0
0
0
0
0
0
0
166
166
166
165
165
165
166
165
166
166
165
165
167
163
164
166
166
163
168
164
165
166
164
165
166
163
163
129
125
126
127
126
123
123
135
241
245
252
252
254
254
255
254
254
255
254
254
255
255
255
255
255
254
254
255
255
255
255
254
255
255
255
255
255
254
254
255
255
255
255
255
254
254
254
254
254
254
254
254
255
255
255
254
254
254
255
255
255
255
255
254
254
255
254
254
254
254
255
255
254
231
231
214
162
225
130
113
111
111
110
102
157
100
101
101
101
108
107
107
106
106
107
105
105
105
105
131
159
156
154
155
157
157
155
156
156
156
156
156
156
156
156
156
156
156
156
156
156
156
156
157
154
157
155
182
183
183
183
184
184
183
160
157
157
156
156
156
159
136
117
106
106
106
106
102
198
243
251
254
254
254
254
255
255
254
254
254
254
254
255
255
255
254
254
254
254
255
255
255
254
254
254
254
254
254
254
231
231
230
227
230
228
227
230
230
229
231
231
227
235
252
248
252
254
254
255
254
255
255
255
255
255
255
254
254
254
255
255
255
255
254
254
255
254
254
255
255
255
255
255
255
255
254
255
255
255
255
254
254
254
254
254
254
254
254
254
254
251
251
231
228
228
228
157
96
95
102
101
102
102
102
103
103
103
132
130
136
135
137
137
137
137
137
137
137
137
137
137
137
137
137
137
137
137
137
137
137
138
137
137
137
137
136
136
137
137
138
139
137
137
137
137
137
137
140
136
137
136
135
136
136
134
147
160
159
160
162
162
139
136
136
137
137
137
136
136
127
127
105
104
103
101
101
98
98
91
214
230
251
254
254
254
254
255
255
255
255
254
255
255
255
255
255
254
254
255
255
255
255
255
254
254
255
255
255
255
254
254
254
0
0
0
0
0
0
0
0
0
0
0
0
0
0
0
0
0
0
0
0
0
0
0
0
0
0
0
0
0
0
0
0
0
0
0
0
0
0
0
0
0
0
0
0
0
0
0
0
0
0
0
0
0
0
0
0
0
0
0
0
0
0
0
0
0
0
0
0
0
0
0
0
0
0
0
0
0
0
0
0
0
0
0
0
0
0
0
0
0
0
0
0
0
0
0
0
0
0
0
0
0
0
0
0
0
0
0
0
0
0
0
0
0
0
0
0
0
0
0
0
0
0
0
0
0
0
0
0
0
0
0
0
0
0
0
0
0
0
0
0
0
0
0
0
0
0
0
0
0
0
0
0
0
0
0
0
0
0
0
0
0
0
0
0
0
0
0
0
0
0
0
0
0
0
0
0
0
0
0
0
0
164
165
166
165
166
165
165
165
165
166
166
165
167
164
163
163
164
165
165
164
167
169
164
166
166
166
164
164
130
126
126
126
125
123
123
153
245
247
254
254
254
254
255
253
254
254
254
254
255
255
255
255
255
254
254
255
255
255
255
254
254
254
255
255
255
254
254
255
255
255
255
254
254
254
254
254
254
254
254
254
255
255
255
254
254
254
255
255
255
255
255
254
254
251
254
253
253
255
254
253
245
227
230
227
225
227
228
194
182
226
226
157
224
205
111
102
112
102
107
106
104
107
107
104
106
105
105
126
156
156
156
154
158
158
156
156
156
156
156
156
156
156
156
156
156
156
156
156
156
155
155
157
157
158
170
184
183
182
184
184
184
173
157
156
157
157
155
156
155
117
106
106
108
107
106
127
243
248
254
255
254
255
254
255
255
254
254
254
254
254
255
255
255
254
254
254
255
255
255
255
254
254
254
254
255
254
254
229
231
232
230
230
229
230
227
232
239
231
250
254
252
255
255
254
255
254
255
255
254
254
254
255
255
254
254
254
255
255
255
254
254
255
255
254
254
254
255
255
255
255
255
255
255
255
255
255
255
255
254
254
254
254
254
255
254
254
254
253
251
251
230
228
228
229
156
95
95
102
102
101
101
102
102
103
103
130
129
137
136
136
136
137
137
137
137
137
137
137
137
137
137
137
137
137
137
137
138
138
137
137
137
137
137
137
138
138
138
137
137
137
138
139
138
138
137
135
137
135
137
135
138
158
161
160
160
156
157
134
137
138
137
138
137
137
136
119
123
103
104
103
103
101
95
99
93
201
227
230
233
255
254
252
254
255
253
255
254
254
254
255
255
254
254
255
254
254
255
255
255
255
255
254
254
255
255
255
255
254
0
0
0
0
0
0
0
0
0
0
0
0
0
0
0
0
0
0
0
0
0
0
0
0
0
0
0
0
0
0
0
0
0
0
0
0
0
0
0
0
0
0
0
0
0
0
0
0
0
0
0
0
0
0
0
0
0
0
0
0
0
0
0
0
0
0
0
0
0
0
0
0
0
0
0
0
0
0
0
0
0
0
0
0
0
0
0
0
0
0
0
0
0
0
0
0
0
0
0
0
0
0
0
0
0
0
0
0
0
0
0
0
0
0
0
0
0
0
0
0
0
0
0
0
0
0
0
0
0
0
0
0
0
0
0
0
0
0
0
0
0
0
0
0
0
0
0
0
0
0
0
0
0
0
0
0
0
0
0
0
0
0
0
0
0
0
0
0
0
0
0
0
0
0
0
0
0
0
0
0
0
0
164
164
166
166
166
166
165
165
165
165
165
165
165
167
167
166
165
166
166
175
183
183
179
165
165
165
166
165
165
130
126
126
126
125
122
122
170
250
250
251
253
254
254
255
254
254
253
254
254
255
255
255
255
255
254
254
255
255
255
255
254
254
254
255
255
255
254
254
255
255
255
255
255
254
254
254
254
254
255
255
255
255
255
255
254
254
254
255
255
255
255
254
253
253
254
254
254
254
254
253
244
225
232
232
229
228
228
229
229
228
228
226
232
232
228
217
157
157
108
104
104
106
106
106
104
104
106
106
124
156
156
158
155
157
157
157
156
156
156
156
156
156
156
156
156
156
156
156
156
157
156
156
156
156
156
180
184
182
182
184
182
182
164
156
156
155
157
158
158
135
105
105
108
107
106
106
200
247
247
254
254
255
254
255
255
255
254
254
254
254
254
255
255
255
254
254
254
255
255
255
254
254
254
255
255
255
255
254
229
229
228
228
228
233
238
249
249
255
255
255
255
255
255
255
255
255
255
254
255
255
254
254
255
255
254
254
254
255
254
254
254
254
254
254
254
255
255
255
255
255
255
255
255
255
255
255
255
255
254
254
254
254
255
255
254
254
254
254
254
251
251
230
228
229
229
158
94
94
102
101
101
101
102
102
102
104
128
128
137
139
137
137
137
137
137
137
137
137
137
137
137
137
137
137
137
137
137
137
137
137
137
137
137
138
138
138
138
138
138
138
138
138
137
137
137
137
136
137
137
153
160
162
162
159
152
152
135
136
137
137
137
137
137
136
114
114
103
103
105
105
102
96
96
98
202
229
229
228
241
241
254
255
255
255
255
255
255
254
254
254
254
254
255
255
255
255
255
255
255
255
255
255
254
254
255
255
255
0
0
0
0
0
0
0
0
0
0
0
0
0
0
0
0
0
0
0
0
0
0
0
0
0
0
0
0
0
0
0
0
0
0
0
0
0
0
0
0
0
0
0
0
0
0
0
0
0
0
0
0
0
0
0
0
0
0
0
0
0
0
0
0
0
0
0
0
0
0
0
0
0
0
0
0
0
0
0
0
0
0
0
0
0
0
0
0
0
0
0
0
0
0
0
0
0
0
0
0
0
0
0
0
0
0
0
0
0
0
0
0
0
0
0
0
0
0
0
0
0
0
0
0
0
0
0
0
0
0
0
0
0
0
0
0
0
0
0
0
0
0
0
0
0
0
0
0
0
0
0
0
0
0
0
0
0
0
0
0
0
0
0
0
0
0
0
0
0
0
0
0
0
0
0
0
0
0
0
0
0
0
0
165
165
165
166
165
166
165
166
166
165
165
165
165
164
163
164
162
163
178
188
190
190
191
184
166
165
165
166
165
165
129
125
125
126
126
122
124
193
250
252
251
254
255
255
255
255
253
254
254
254
255
255
255
255
255
254
254
255
254
255
255
254
254
254
255
255
255
254
254
255
255
255
255
255
254
254
254
254
255
255
254
254
255
255
255
254
254
254
255
255
255
255
254
254
254
255
254
255
255
255
236
233
228
230
228
230
228
235
228
230
233
228
229
229
230
229
225
204
225
126
102
100
107
107
108
106
105
106
106
124
157
156
157
156
156
155
157
156
155
156
156
156
156
156
156
156
156
156
156
156
156
157
158
156
155
162
182
185
182
182
183
182
177
157
157
157
157
155
157
154
117
106
108
108
105
98
142
246
252
254
251
251
253
255
255
255
255
254
254
254
254
254
255
255
254
254
254
254
255
255
255
255
255
255
255
255
255
255
254
229
244
232
241
255
254
253
255
255
255
254
255
255
255
255
255
254
254
254
255
255
255
254
254
254
255
254
254
254
254
254
254
254
254
254
254
255
255
254
254
255
255
255
255
255
255
255
255
255
255
254
254
254
254
255
254
254
254
255
255
254
250
249
230
228
228
226
162
94
94
102
100
101
102
102
102
101
102
130
135
136
137
137
137
137
137
137
137
137
137
137
137
137
137
137
137
137
137
137
137
138
138
137
137
138
138
138
137
137
137
137
137
137
137
136
137
135
150
144
159
160
160
161
160
148
151
135
137
136
136
135
135
137
135
106
109
103
104
103
104
100
97
96
101
218
230
227
231
229
232
251
254
254
253
255
254
254
255
255
254
254
254
255
255
255
255
254
255
255
255
255
255
255
255
254
254
255
0
0
0
0
0
0
0
0
0
0
0
0
0
0
0
0
0
0
0
0
0
0
0
0
0
0
0
0
0
0
0
0
0
0
0
0
0
0
0
0
0
0
0
0
0
0
0
0
0
0
0
0
0
0
0
0
0
0
0
0
0
0
0
0
0
0
0
0
0
0
0
0
0
0
0
0
0
0
0
0
0
0
0
0
0
0
0
0
0
0
0
0
0
0
0
0
0
0
0
0
0
0
0
0
0
0
0
0
0
0
0
0
0
0
0
0
0
0
0
0
0
0
0
0
0
0
0
0
0
0
0
0
0
0
0
0
0
0
0
0
0
0
0
0
0
0
0
0
0
0
0
0
0
0
0
0
0
0
0
0
0
0
0
0
0
0
0
0
0
0
0
0
0
0
0
0
0
0
0
0
0
0
0
0
165
165
165
166
166
166
165
166
166
166
165
166
165
166
165
166
166
169
190
188
184
188
191
191
183
163
163
165
167
165
164
128
125
125
125
124
124
122
241
252
254
254
254
255
254
253
253
254
255
254
254
255
255
255
255
255
254
254
254
255
255
255
254
254
254
255
255
255
254
254
255
255
255
255
255
254
254
254
254
254
254
254
254
255
255
255
254
254
254
255
255
255
255
254
254
254
255
255
253
253
245
233
229
230
228
229
230
233
233
230
233
228
232
230
229
229
229
229
225
228
193
100
105
100
107
107
106
107
106
106
133
155
155
156
157
155
155
158
155
154
156
156
156
156
156
156
156
156
156
156
156
156
158
157
158
175
175
179
184
182
183
184
177
164
156
156
156
157
157
154
138
102
106
106
104
102
142
221
254
254
252
253
253
255
254
255
255
255
254
254
254
254
255
255
255
254
254
254
254
255
255
255
255
255
255
254
254
254
255
254
244
254
255
254
254
255
255
255
254
255
255
255
254
255
255
255
254
254
254
255
255
255
254
254
255
255
255
254
254
254
255
254
254
253
254
255
255
254
254
255
255
255
255
255
255
255
254
254
255
255
254
254
254
255
255
255
254
254
255
255
253
249
249
229
228
226
227
174
94
94
101
101
102
103
101
101
102
106
138
138
136
137
137
138
139
137
137
137
137
137
137
137
137
137
137
137
137
137
138
138
138
138
138
138
138
137
137
138
137
137
138
136
134
134
141
158
150
161
161
160
160
161
146
148
137
136
137
136
136
137
135
131
104
106
103
103
103
103
101
94
97
123
225
228
228
231
230
229
229
247
254
254
254
254
254
254
255
255
254
254
254
254
255
254
255
255
254
255
255
255
255
255
255
255
254
0
0
0
0
0
0
0
0
0
0
0
0
0
0
0
0
0
0
0
0
0
0
0
0
0
0
0
0
0
0
0
0
0
0
0
0
0
0
0
0
0
0
0
0
0
0
0
0
0
0
0
0
0
0
0
0
0
0
0
0
0
0
0
0
0
0
0
0
0
0
0
0
0
0
0
0
0
0
0
0
0
0
0
0
0
0
0
0
0
0
0
0
0
0
0
0
0
0
0
0
0
0
0
0
0
0
0
0
0
0
0
0
0
0
0
0
0
0
0
0
0
0
0
0
0
0
0
0
0
0
0
0
0
0
0
0
0
0
0
0
0
0
0
0
0
0
0
0
0
0
0
0
0
0
0
0
0
0
0
0
0
0
0
0
0
0
0
0
0
0
0
0
0
0
0
0
0
0
0
0
0
0
0
0
0
165
166
166
165
165
166
166
166
166
166
164
165
165
165
165
165
162
169
185
188
193
193
187
188
183
172
166
168
165
166
163
162
127
128
126
124
128
131
131
248
254
255
254
254
253
253
255
255
255
255
254
254
255
255
255
255
254
254
255
255
255
255
255
254
254
254
255
255
255
254
254
255
255
255
255
255
254
254
255
255
254
254
254
254
255
255
255
254
255
255
254
255
255
255
254
254
254
255
254
254
254
242
230
230
228
231
230
230
229
230
232
226
231
229
231
231
231
230
229
227
227
213
113
121
103
105
105
106
106
105
104
141
155
157
157
158
156
156
159
155
156
156
156
156
156
156
157
157
156
156
156
156
156
156
156
159
186
182
182
185
184
184
182
157
155
156
156
157
155
155
113
104
105
105
105
108
107
248
248
252
252
253
253
253
253
253
255
255
255
254
254
255
255
255
255
255
254
254
254
254
255
255
255
255
254
254
254
254
255
254
254
252
255
254
255
255
254
255
255
255
255
253
255
255
254
255
255
254
254
255
255
255
255
254
254
255
255
254
254
254
255
255
254
254
254
255
255
254
255
255
254
255
255
255
255
254
254
254
254
255
255
254
255
255
255
254
255
254
254
255
254
254
249
249
230
228
226
226
180
94
95
102
103
104
104
102
102
100
111
138
136
137
138
135
135
137
137
137
137
137
137
137
137
137
137
137
137
137
138
138
137
137
137
137
137
137
137
137
137
138
136
139
136
150
161
162
160
160
159
160
162
143
143
137
137
137
137
136
135
136
123
103
103
103
103
102
103
103
95
94
133
225
229
225
230
226
228
229
238
238
254
254
254
254
254
254
254
254
254
255
254
254
254
255
255
255
255
254
255
255
255
255
255
255
0
0
0
0
0
0
0
0
0
0
0
0
0
0
0
0
0
0
0
0
0
0
0
0
0
0
0
0
0
0
0
0
0
0
0
0
0
0
0
0
0
0
0
0
0
0
0
0
0
0
0
0
0
0
0
0
0
0
0
0
0
0
0
0
0
0
0
0
0
0
0
0
0
0
0
0
0
0
0
0
0
0
0
0
0
0
0
0
0
0
0
0
0
0
0
0
0
0
0
0
0
0
0
0
0
0
0
0
0
0
0
0
0
0
0
0
0
0
0
0
0
0
0
0
0
0
0
0
0
0
0
0
0
0
0
0
0
0
0
0
0
0
0
0
0
0
0
0
0
0
0
0
0
0
0
0
0
0
0
0
0
0
0
0
0
0
0
0
0
0
0
0
0
0
0
0
0
0
0
0
0
0
0
0
0
0
165
165
166
165
165
165
165
166
165
166
164
164
164
165
165
166
165
169
185
185
189
189
189
188
183
168
162
168
164
166
165
162
155
128
126
125
125
126
172
223
253
255
255
255
254
254
255
255
255
255
255
254
254
255
255
255
255
255
255
255
254
255
255
255
254
254
255
255
255
255
254
254
255
255
255
255
254
254
254
255
255
254
254
254
254
255
255
255
254
255
255
254
255
255
255
254
254
254
255
254
254
254
243
231
234
232
230
227
230
230
228
230
230
229
230
227
231
228
229
230
227
230
225
121
126
105
105
106
108
104
104
107
159
157
159
156
157
154
155
157
156
156
156
156
156
156
156
157
157
156
156
156
156
156
156
157
177
182
184
184
183
184
183
158
155
157
158
157
156
158
131
104
109
105
105
106
101
169
252
254
253
253
255
255
255
253
254
255
255
255
255
255
254
255
255
255
255
255
254
254
254
255
255
255
254
254
254
254
255
255
254
254
255
254
255
255
255
254
255
255
254
255
255
255
254
255
255
255
254
255
255
255
255
255
254
254
254
255
254
254
254
255
255
254
254
255
255
254
255
255
254
254
255
255
255
254
254
254
254
254
255
255
255
255
254
254
255
254
254
254
254
254
254
249
249
230
229
227
226
189
95
93
103
102
102
101
104
100
102
130
136
135
137
137
136
138
137
137
137
137
137
137
137
137
137
137
137
137
137
137
137
137
137
137
137
138
138
137
136
137
143
139
160
160
161
160
160
159
159
161
141
143
136
136
137
137
136
136
135
115
104
105
103
101
103
102
102
95
95
160
228
230
229
227
231
226
229
231
233
254
254
254
254
255
254
254
254
254
255
255
255
254
254
254
255
255
255
255
254
255
255
255
255
0
0
0
0
0
0
0
0
0
0
0
0
0
0
0
0
0
0
0
0
0
0
0
0
0
0
0
0
0
0
0
0
0
0
0
0
0
0
0
0
0
0
0
0
0
0
0
0
0
0
0
0
0
0
0
0
0
0
0
0
0
0
0
0
0
0
0
0
0
0
0
0
0
0
0
0
0
0
0
0
0
0
0
0
0
0
0
0
0
0
0
0
0
0
0
0
0
0
0
0
0
0
0
0
0
0
0
0
0
0
0
0
0
0
0
0
0
0
0
0
0
0
0
0
0
0
0
0
0
0
0
0
0
0
0
0
0
0
0
0
0
0
0
0
0
0
0
0
0
0
0
0
0
0
0
0
0
0
0
0
0
0
0
0
0
0
0
0
0
0
0
0
0
0
0
0
0
0
0
0
0
0
0
0
0
0
0
165
165
165
165
165
165
165
165
165
165
166
165
165
165
166
166
166
165
188
188
187
190
190
190
176
163
163
165
165
166
166
166
146
146
123
128
128
124
122
247
247
255
254
254
255
255
254
254
254
255
255
254
254
254
255
255
255
255
255
254
254
254
255
255
255
255
254
254
255
255
255
254
254
255
255
255
254
254
254
254
255
255
254
254
254
254
255
255
254
254
255
255
254
255
255
255
254
254
254
254
254
254
254
251
243
243
240
236
236
231
228
246
228
230
231
231
231
229
229
228
228
227
227
226
125
125
104
106
106
106
106
110
110
155
156
156
157
156
156
156
156
157
157
156
156
156
156
156
157
157
156
156
156
156
157
160
160
182
184
184
183
183
175
175
154
155
155
156
156
156
157
105
106
106
106
104
104
128
248
255
255
254
254
254
254
255
254
254
255
255
255
255
254
254
254
255
255
255
255
254
254
254
255
255
255
254
254
254
254
255
255
254
254
254
254
255
255
255
255
254
255
255
255
254
254
254
255
255
255
254
255
255
255
255
255
254
255
255
255
254
254
254
254
255
255
255
254
255
255
255
254
254
254
255
255
255
254
254
254
254
255
255
255
255
254
254
255
254
254
254
254
254
254
254
249
249
229
230
228
228
198
96
96
99
104
102
102
102
109
109
140
135
135
137
137
138
138
137
137
137
137
137
137
137
137
137
137
137
137
137
137
137
137
137
138
137
137
137
135
147
147
160
160
160
160
160
161
160
160
139
139
136
137
137
137
136
135
135
111
104
104
103
102
104
104
102
95
95
172
228
228
229
227
230
230
232
230
230
245
254
254
254
254
255
255
254
254
254
254
255
255
255
254
254
254
255
254
255
255
254
255
255
0
0
0
0
0
0
0
0
0
0
0
0
0
0
0
0
0
0
0
0
0
0
0
0
0
0
0
0
0
0
0
0
0
0
0
0
0
0
0
0
0
0
0
0
0
0
0
0
0
0
0
0
0
0
0
0
0
0
0
0
0
0
0
0
0
0
0
0
0
0
0
0
0
0
0
0
0
0
0
0
0
0
0
0
0
0
0
0
0
0
0
0
0
0
0
0
0
0
0
0
0
0
0
0
0
0
0
0
0
0
0
0
0
0
0
0
0
0
0
0
0
0
0
0
0
0
0
0
0
0
0
0
0
0
0
0
0
0
0
0
0
0
0
0
0
0
0
0
0
0
0
0
0
0
0
0
0
0
0
0
0
0
0
0
0
0
0
0
0
0
0
0
0
0
0
0
0
0
0
0
0
0
0
0
0
0
0
0
166
165
165
165
165
166
165
166
164
165
165
166
165
165
165
166
165
166
165
188
180
181
188
174
165
166
168
167
163
166
164
167
165
135
126
127
124
122
122
159
251
254
254
254
255
254
255
254
254
254
254
254
254
254
255
255
255
255
255
255
254
254
255
255
255
255
254
254
254
255
255
255
254
254
255
254
255
254
254
254
254
255
255
254
254
254
255
255
255
254
254
255
255
254
255
255
255
254
254
255
254
254
254
254
254
253
254
249
250
254
250
246
254
255
239
231
245
231
229
227
228
231
228
228
227
115
107
103
106
106
103
106
128
144
157
154
155
157
156
157
157
155
158
157
156
156
156
156
156
157
157
156
156
156
155
154
169
180
183
182
182
184
184
163
153
157
159
153
157
156
160
115
105
105
107
109
104
107
245
255
254
254
254
252
254
254
254
255
254
255
255
255
255
254
254
254
255
255
255
255
254
254
254
254
254
254
254
254
254
255
255
255
255
254
255
255
255
255
255
254
255
254
254
254
254
254
254
255
255
255
254
255
254
255
254
254
255
255
255
255
254
254
254
255
255
254
254
254
255
255
254
254
255
255
255
255
254
254
254
253
254
255
255
255
255
254
255
255
254
254
254
254
254
254
255
249
249
229
230
230
229
202
95
95
100
100
105
102
103
117
134
138
136
137
136
136
137
137
137
137
137
137
137
137
137
137
137
137
137
137
137
137
137
137
137
136
137
136
152
149
162
157
162
160
160
161
161
158
135
136
136
139
140
140
137
130
134
107
102
104
103
102
100
102
102
97
96
186
228
228
228
228
230
231
230
229
228
245
254
255
254
254
254
254
254
254
254
254
254
254
255
255
255
254
254
254
255
254
255
255
254
0
0
0
0
0
0
0
0
0
0
0
0
0
0
0
0
0
0
0
0
0
0
0
0
0
0
0
0
0
0
0
0
0
0
0
0
0
0
0
0
0
0
0
0
0
0
0
0
0
0
0
0
0
0
0
0
0
0
0
0
0
0
0
0
0
0
0
0
0
0
0
0
0
0
0
0
0
0
0
0
0
0
0
0
0
0
0
0
0
0
0
0
0
0
0
0
0
0
0
0
0
0
0
0
0
0
0
0
0
0
0
0
0
0
0
0
0
0
0
0
0
0
0
0
0
0
0
0
0
0
0
0
0
0
0
0
0
0
0
0
0
0
0
0
0
0
0
0
0
0
0
0
0
0
0
0
0
0
0
0
0
0
0
0
0
0
0
0
0
0
0
0
0
0
0
0
0
0
0
0
0
0
0
0
0
0
0
0
0
166
165
165
165
165
165
166
166
166
165
165
165
165
164
164
164
165
166
165
165
167
167
169
162
165
166
163
166
166
165
165
165
162
147
126
123
125
126
126
128
247
254
253
255
254
254
254
254
254
254
254
254
254
255
255
255
255
255
255
255
255
255
255
254
255
255
255
254
254
254
255
255
255
254
254
254
254
255
254
254
254
254
255
255
254
255
255
254
255
255
254
254
255
255
254
255
255
254
254
255
254
254
254
254
251
254
254
255
254
254
254
254
251
251
254
254
245
254
244
234
234
230
229
228
228
222
104
104
103
108
108
105
104
144
156
156
157
157
154
156
157
155
157
157
157
156
156
156
156
156
157
157
156
155
155
159
168
180
186
181
183
183
182
166
153
155
156
157
157
154
153
153
106
106
107
106
105
187
187
251
252
254
255
254
254
254
253
255
254
254
255
255
255
255
254
254
254
255
255
255
255
254
254
254
255
254
255
254
254
254
255
255
255
254
254
255
254
254
255
255
254
255
254
254
254
254
254
254
255
255
255
254
254
254
254
255
255
255
255
255
255
254
254
254
255
254
254
255
255
254
254
254
255
255
254
254
254
255
254
253
253
254
255
255
255
254
255
255
255
254
254
254
254
254
254
255
249
249
231
228
229
228
124
100
100
101
104
102
103
116
134
137
136
137
137
137
138
137
138
137
137
137
137
137
137
137
137
137
137
137
137
137
138
137
137
138
135
151
151
161
160
157
161
159
160
160
155
135
135
135
137
139
137
138
126
126
104
103
102
103
102
100
100
101
98
97
204
228
229
229
230
231
231
229
229
229
246
254
254
254
255
254
254
254
254
254
254
254
255
255
254
255
255
255
254
254
254
255
255
255
0
0
0
0
0
0
0
0
0
0
0
0
0
0
0
0
0
0
0
0
0
0
0
0
0
0
0
0
0
0
0
0
0
0
0
0
0
0
0
0
0
0
0
0
0
0
0
0
0
0
0
0
0
0
0
0
0
0
0
0
0
0
0
0
0
0
0
0
0
0
0
0
0
0
0
0
0
0
0
0
0
0
0
0
0
0
0
0
0
0
0
0
0
0
0
0
0
0
0
0
0
0
0
0
0
0
0
0
0
0
0
0
0
0
0
0
0
0
0
0
0
0
0
0
0
0
0
0
0
0
0
0
0
0
0
0
0
0
0
0
0
0
0
0
0
0
0
0
0
0
0
0
0
0
0
0
0
0
0
0
0
0
0
0
0
0
0
0
0
0
0
0
0
0
0
0
0
0
0
0
0
0
0
0
0
0
0
0
0
0
166
166
165
165
165
165
165
166
166
166
165
166
166
165
164
164
164
165
165
166
165
164
165
163
166
163
166
166
166
165
164
166
165
167
128
124
125
125
123
122
205
252
250
254
255
255
255
255
254
253
253
254
255
255
255
254
254
255
255
255
255
255
254
254
254
255
254
254
254
254
254
255
255
254
254
254
255
255
255
254
254
254
254
255
255
255
255
254
254
255
255
254
254
255
255
254
254
255
255
254
254
254
254
254
255
252
254
253
255
254
255
255
254
251
254
253
253
253
254
251
239
246
231
230
229
230
204
104
104
104
108
105
107
116
157
154
157
156
156
156
156
156
156
156
156
156
156
156
156
156
156
157
157
156
157
156
154
180
185
184
184
184
184
180
155
157
156
158
158
154
157
122
101
106
105
105
103
102
240
250
251
255
254
253
254
254
254
254
255
254
254
255
255
255
255
254
254
254
255
255
255
254
254
254
254
255
255
255
254
254
254
255
255
255
254
254
254
254
254
255
255
255
255
254
254
254
254
254
254
255
255
255
255
255
255
255
255
255
255
255
255
254
254
254
254
254
254
255
254
254
254
255
255
255
255
253
254
255
254
254
253
253
254
254
255
255
254
255
255
255
255
254
254
254
254
254
255
250
249
229
228
176
97
94
102
102
105
104
102
102
132
136
134
135
137
136
137
139
137
137
137
137
137
137
137
137
137
137
137
137
137
137
136
137
137
134
138
144
161
158
161
159
160
159
159
151
135
135
137
136
136
138
137
116
121
102
105
104
102
102
99
100
99
108
101
216
229
228
229
231
231
231
229
231
230
247
254
254
254
254
255
255
254
254
254
254
254
255
255
254
254
254
255
255
255
254
254
254
255
0
0
0
0
0
0
0
0
0
0
0
0
0
0
0
0
0
0
0
0
0
0
0
0
0
0
0
0
0
0
0
0
0
0
0
0
0
0
0
0
0
0
0
0
0
0
0
0
0
0
0
0
0
0
0
0
0
0
0
0
0
0
0
0
0
0
0
0
0
0
0
0
0
0
0
0
0
0
0
0
0
0
0
0
0
0
0
0
0
0
0
0
0
0
0
0
0
0
0
0
0
0
0
0
0
0
0
0
0
0
0
0
0
0
0
0
0
0
0
0
0
0
0
0
0
0
0
0
0
0
0
0
0
0
0
0
0
0
0
0
0
0
0
0
0
0
0
0
0
0
0
0
0
0
0
0
0
0
0
0
0
0
0
0
0
0
0
0
0
0
0
0
0
0
0
0
0
0
0
0
0
0
0
0
0
0
0
0
0
0
0
165
166
165
166
166
165
165
165
166
166
166
166
166
165
166
164
165
165
166
166
165
165
165
167
166
166
166
165
166
165
164
166
165
165
127
127
125
129
125
122
195
249
250
254
251
255
255
254
254
254
254
255
254
255
255
255
254
254
255
255
255
255
254
254
254
254
254
254
255
254
254
255
254
254
254
254
254
255
254
255
254
254
254
255
255
255
255
254
254
254
255
255
254
254
255
254
254
255
255
255
254
254
254
255
255
255
251
253
255
253
254
255
253
254
254
254
254
252
254
254
254
246
252
233
230
230
229
141
104
107
107
105
108
106
154
154
154
157
156
156
156
156
156
156
156
156
156
156
156
156
156
157
157
155
158
156
159
182
182
184
182
182
184
180
157
155
156
155
155
154
159
132
101
106
107
105
103
101
231
250
251
255
253
253
254
254
254
254
255
254
254
254
255
255
255
255
254
254
254
255
255
254
254
254
255
255
255
255
254
254
254
254
255
255
255
254
254
254
255
255
255
255
254
255
254
254
254
254
254
254
255
255
255
255
255
255
255
255
255
255
255
254
254
254
254
254
255
255
254
254
254
255
255
253
255
253
254
254
254
254
254
253
253
253
254
255
255
255
255
255
255
254
255
254
255
254
255
252
249
247
185
94
97
102
105
102
102
101
101
123
138
137
134
137
137
136
135
137
137
137
137
137
137
137
137
137
137
137
137
137
135
137
136
137
138
134
138
159
159
158
159
160
158
159
146
136
135
137
137
136
138
136
114
116
101
101
105
101
103
99
99
97
119
108
226
229
229
228
229
230
231
228
232
231
251
255
254
254
254
254
255
255
255
254
254
254
254
255
255
254
254
254
254
255
255
255
254
254
0
0
0
0
0
0
0
0
0
0
0
0
0
0
0
0
0
0
0
0
0
0
0
0
0
0
0
0
0
0
0
0
0
0
0
0
0
0
0
0
0
0
0
0
0
0
0
0
0
0
0
0
0
0
0
0
0
0
0
0
0
0
0
0
0
0
0
0
0
0
0
0
0
0
0
0
0
0
0
0
0
0
0
0
0
0
0
0
0
0
0
0
0
0
0
0
0
0
0
0
0
0
0
0
0
0
0
0
0
0
0
0
0
0
0
0
0
0
0
0
0
0
0
0
0
0
0
0
0
0
0
0
0
0
0
0
0
0
0
0
0
0
0
0
0
0
0
0
0
0
0
0
0
0
0
0
0
0
0
0
0
0
0
0
0
0
0
0
0
0
0
0
0
0
0
0
0
0
0
0
0
0
0
0
0
0
0
0
0
0
0
0
165
166
165
166
166
166
165
165
165
166
166
166
165
165
165
166
165
165
166
165
166
166
165
167
165
164
164
167
167
164
166
166
165
146
124
125
124
125
125
120
250
253
255
254
254
254
254
254
254
255
255
254
254
254
255
255
255
254
255
255
255
255
255
254
254
254
254
254
255
255
255
254
254
254
255
255
254
254
254
254
255
254
255
254
254
255
255
255
254
254
254
255
255
254
254
254
254
254
255
254
254
254
254
254
253
254
252
254
255
255
255
254
255
255
254
254
254
255
253
255
255
254
255
255
236
229
224
224
107
109
109
106
106
108
119
155
157
157
155
156
156
156
156
156
156
156
156
156
156
156
157
157
155
156
156
156
164
181
181
182
180
180
185
164
155
155
154
158
158
156
156
156
107
107
101
108
104
136
136
246
254
255
254
255
255
255
254
254
254
255
254
254
254
255
255
255
255
254
254
254
254
254
254
254
255
255
255
254
254
254
254
254
254
255
255
254
255
254
254
254
255
255
255
254
255
254
254
254
254
254
254
255
255
255
254
255
255
255
254
254
254
254
254
254
254
255
255
255
255
254
254
254
255
255
255
252
252
253
254
254
254
254
253
254
253
254
255
255
255
255
255
255
254
255
255
255
253
253
249
192
94
96
105
102
102
101
103
103
101
133
139
139
137
138
138
135
138
137
137
137
137
137
137
137
137
137
137
137
137
137
136
136
137
136
135
134
148
162
162
161
157
159
162
145
135
135
137
137
137
138
136
110
111
101
104
104
104
103
98
99
96
131
131
228
230
229
230
230
230
230
229
233
233
253
255
254
254
254
254
254
254
255
254
255
254
254
254
254
254
254
254
255
255
254
255
255
255
0
0
0
0
0
0
0
0
0
0
0
0
0
0
0
0
0
0
0
0
0
0
0
0
0
0
0
0
0
0
0
0
0
0
0
0
0
0
0
0
0
0
0
0
0
0
0
0
0
0
0
0
0
0
0
0
0
0
0
0
0
0
0
0
0
0
0
0
0
0
0
0
0
0
0
0
0
0
0
0
0
0
0
0
0
0
0
0
0
0
0
0
0
0
0
0
0
0
0
0
0
0
0
0
0
0
0
0
0
0
0
0
0
0
0
0
0
0
0
0
0
0
0
0
0
0
0
0
0
0
0
0
0
0
0
0
0
0
0
0
0
0
0
0
0
0
0
0
0
0
0
0
0
0
0
0
0
0
0
0
0
0
0
0
0
0
0
0
0
0
0
0
0
0
0
0
0
0
0
0
0
0
0
0
0
0
0
0
0
0
0
0
0
165
166
165
165
165
166
166
165
165
165
166
166
166
165
165
165
166
165
166
165
166
165
165
165
165
167
165
167
165
165
165
165
167
126
124
126
127
127
124
131
242
253
252
255
252
255
253
254
255
255
255
255
255
255
255
255
255
255
255
254
254
255
255
255
254
254
254
254
254
255
254
254
254
254
254
255
255
254
254
254
254
255
255
255
254
254
254
254
255
254
255
255
255
254
255
254
254
254
254
254
255
255
255
254
249
245
252
246
251
254
253
254
251
255
255
254
254
255
253
254
255
254
254
255
254
241
230
211
150
102
102
111
107
108
110
157
158
157
157
156
156
156
156
156
156
156
156
156
156
155
156
157
156
156
157
157
173
181
183
182
186
182
186
163
155
159
157
158
155
154
158
136
105
108
101
109
102
104
221
246
253
255
251
255
255
255
254
254
254
254
254
254
254
254
255
255
255
255
254
254
254
254
255
255
255
255
254
254
254
254
255
254
254
254
254
254
254
254
254
254
254
255
255
255
254
255
254
254
254
254
254
254
255
255
255
254
255
255
254
254
255
255
254
254
255
255
255
254
255
254
254
254
254
253
253
254
252
254
255
254
255
255
255
254
254
254
254
255
254
254
254
254
255
255
254
254
252
248
167
94
94
102
104
100
106
100
101
99
122
139
138
137
138
137
136
137
137
137
137
137
137
137
137
137
137
137
137
137
137
137
138
136
136
136
135
134
160
162
160
159
160
159
158
140
134
138
137
137
136
136
115
110
107
101
102
102
101
98
98
94
156
144
226
229
228
229
230
229
227
231
236
234
253
254
254
254
254
255
254
254
254
254
254
254
255
254
254
253
254
255
255
255
255
254
254
255
0
0
0
0
0
0
0
0
0
0
0
0
0
0
0
0
0
0
0
0
0
0
0
0
0
0
0
0
0
0
0
0
0
0
0
0
0
0
0
0
0
0
0
0
0
0
0
0
0
0
0
0
0
0
0
0
0
0
0
0
0
0
0
0
0
0
0
0
0
0
0
0
0
0
0
0
0
0
0
0
0
0
0
0
0
0
0
0
0
0
0
0
0
0
0
0
0
0
0
0
0
0
0
0
0
0
0
0
0
0
0
0
0
0
0
0
0
0
0
0
0
0
0
0
0
0
0
0
0
0
0
0
0
0
0
0
0
0
0
0
0
0
0
0
0
0
0
0
0
0
0
0
0
0
0
0
0
0
0
0
0
0
0
0
0
0
0
0
0
0
0
0
0
0
0
0
0
0
0
0
0
0
0
0
0
0
0
0
0
0
0
0
0
0
166
165
165
165
165
165
165
166
165
165
165
165
166
166
165
165
165
166
166
166
166
165
165
165
165
162
162
166
165
165
166
169
129
129
127
127
127
125
123
221
221
251
251
251
253
253
253
255
255
255
255
255
254
255
255
255
255
255
254
254
254
255
255
255
255
254
254
254
254
254
254
254
254
254
254
255
255
255
254
254
255
255
255
254
254
254
254
254
255
255
255
255
254
254
254
255
254
254
254
254
255
255
252
245
219
219
181
206
206
244
251
254
255
255
255
255
254
254
254
252
255
254
254
254
254
254
241
225
150
99
104
103
103
106
143
143
155
159
156
156
156
156
156
156
156
156
156
156
157
157
157
158
156
155
158
159
159
182
182
182
183
183
177
177
154
158
158
157
155
154
159
141
107
107
107
105
105
101
212
251
251
255
254
254
255
255
254
254
254
254
254
255
254
254
254
254
255
255
255
254
254
254
255
255
255
254
254
254
254
255
255
255
255
254
254
254
255
255
254
254
254
254
255
255
255
254
255
254
254
254
254
254
254
255
255
255
254
254
254
255
255
255
255
255
255
255
255
254
254
254
255
254
254
254
252
252
252
254
254
255
254
255
255
255
254
254
254
255
254
254
254
254
254
255
253
253
246
157
96
96
102
102
102
103
100
100
103
114
138
138
138
137
138
135
137
137
137
137
137
137
137
137
137
137
137
137
137
140
136
137
138
136
137
137
135
143
143
158
160
156
156
160
149
149
134
138
137
134
136
121
121
101
101
101
103
105
102
102
95
162
162
228
230
229
229
230
230
230
230
240
236
254
255
254
254
254
255
255
254
254
254
254
254
255
255
254
254
253
254
255
255
255
254
254
254
0
0
0
0
0
0
0
0
0
0
0
0
0
0
0
0
0
0
0
0
0
0
0
0
0
0
0
0
0
0
0
0
0
0
0
0
0
0
0
0
0
0
0
0
0
0
0
0
0
0
0
0
0
0
0
0
0
0
0
0
0
0
0
0
0
0
0
0
0
0
0
0
0
0
0
0
0
0
0
0
0
0
0
0
0
0
0
0
0
0
0
0
0
0
0
0
0
0
0
0
0
0
0
0
0
0
0
0
0
0
0
0
0
0
0
0
0
0
0
0
0
0
0
0
0
0
0
0
0
0
0
0
0
0
0
0
0
0
0
0
0
0
0
0
0
0
0
0
0
0
0
0
0
0
0
0
0
0
0
0
0
0
0
0
0
0
0
0
0
0
0
0
0
0
0
0
0
0
0
0
0
0
0
0
0
0
0
0
0
0
0
0
0
0
0
138
167
165
166
165
165
166
165
166
165
165
166
166
166
166
165
166
166
166
165
165
166
165
164
164
164
166
166
165
166
166
137
132
127
125
126
125
125
135
180
229
238
254
254
254
255
254
255
254
254
254
253
255
255
254
254
255
254
255
255
254
254
255
255
255
255
254
254
254
254
254
255
255
254
255
254
254
255
254
255
254
255
254
255
254
254
254
254
255
255
255
254
254
254
254
254
254
254
254
254
254
252
244
129
161
101
104
101
143
117
239
249
254
254
251
255
255
253
254
254
253
255
254
254
255
254
253
238
180
103
106
103
104
109
108
158
156
159
155
156
156
156
156
156
157
156
156
155
156
156
156
157
155
155
157
152
179
183
182
183
181
181
182
159
154
156
156
156
158
158
153
140
105
107
104
108
106
101
215
237
253
250
255
255
254
254
255
255
255
254
254
254
255
254
254
254
254
255
255
255
254
254
254
255
255
255
254
254
254
254
255
255
255
255
254
254
255
255
255
254
254
254
254
255
255
255
254
254
254
255
255
254
254
254
255
255
255
254
255
255
255
255
254
255
255
255
255
254
254
250
254
248
251
246
254
254
253
254
252
254
254
254
255
255
255
254
255
255
255
254
254
254
255
251
251
246
148
97
96
102
105
103
102
101
102
101
110
135
136
138
137
138
136
138
137
137
137
136
136
137
137
137
137
137
137
137
136
137
137
135
138
137
136
138
136
136
154
159
160
160
157
160
161
140
136
135
137
136
137
134
102
102
103
105
102
104
96
95
169
161
228
230
231
230
230
230
230
230
243
241
254
254
255
255
254
254
254
254
254
254
254
254
255
254
254
254
254
254
254
254
255
255
254
254
0
0
0
0
0
0
0
0
0
0
0
0
0
0
0
0
0
0
0
0
0
0
0
0
0
0
0
0
0
0
0
0
0
0
0
0
0
0
0
0
0
0
0
0
0
0
0
0
0
0
0
0
0
0
0
0
0
0
0
0
0
0
0
0
0
0
0
0
0
0
0
0
0
0
0
0
0
0
0
0
0
0
0
0
0
0
0
0
0
0
0
0
0
0
0
0
0
0
0
0
0
0
0
0
0
0
0
0
0
0
0
0
0
0
0
0
0
0
0
0
0
0
0
0
0
0
0
0
0
0
0
0
0
0
0
0
0
0
0
0
0
0
0
0
0
0
0
0
0
0
0
0
0
0
0
0
0
0
0
0
0
0
0
0
0
0
0
0
0
0
0
0
0
0
0
0
0
0
0
0
0
0
0
0
0
0
0
0
0
0
0
0
0
0
0
0
138
137
166
166
166
165
165
165
166
166
165
165
166
166
166
165
166
166
166
165
165
165
165
164
164
166
167
166
165
164
139
137
125
125
125
128
124
122
122
225
232
238
254
255
254
254
254
254
254
254
254
253
253
254
255
254
254
254
255
255
254
254
254
255
255
255
255
255
254
254
254
255
255
254
254
254
254
254
254
254
254
254
254
254
254
254
254
254
255
255
254
255
254
254
254
254
254
255
255
254
251
244
113
113
104
103
104
107
105
117
103
224
246
254
254
254
255
255
254
255
255
254
254
254
255
254
253
251
172
100
106
107
105
109
111
160
157
157
157
157
156
156
156
157
157
157
156
155
156
156
156
156
159
158
157
156
183
183
184
180
185
185
183
157
154
158
155
156
156
157
156
140
107
105
104
109
105
127
127
233
254
250
254
254
254
252
255
255
255
255
254
254
254
254
254
254
254
254
255
255
255
254
254
254
255
255
255
254
254
254
254
255
255
255
254
254
254
255
255
255
254
254
254
255
255
255
255
255
254
255
255
255
254
254
254
255
255
255
254
255
255
254
254
254
255
255
255
254
251
250
244
208
208
246
235
249
253
251
255
252
252
255
254
255
255
255
255
255
254
255
254
255
251
251
244
141
97
97
103
104
105
101
101
101
101
115
136
135
136
136
137
137
138
137
137
137
137
136
137
137
137
137
137
137
137
137
137
137
138
137
138
137
137
137
136
135
152
161
161
159
160
160
160
156
136
136
137
138
137
124
103
102
100
101
100
100
99
175
169
225
230
230
230
230
231
230
229
245
243
254
254
254
255
255
255
254
254
254
255
255
255
255
255
254
254
254
254
255
254
254
254
254
254
0
0
0
0
0
0
0
0
0
0
0
0
0
0
0
0
0
0
0
0
0
0
0
0
0
0
0
0
0
0
0
0
0
0
0
0
0
0
0
0
0
0
0
0
0
0
0
0
0
0
0
0
0
0
0
0
0
0
0
0
0
0
0
0
0
0
0
0
0
0
0
0
0
0
0
0
0
0
0
0
0
0
0
0
0
0
0
0
0
0
0
0
0
0
0
0
0
0
0
0
0
0
0
0
0
0
0
0
0
0
0
0
0
0
0
0
0
0
0
0
0
0
0
0
0
0
0
0
0
0
0
0
0
0
0
0
0
0
0
0
0
0
0
0
0
0
0
0
0
0
0
0
0
0
0
0
0
0
0
0
0
0
0
0
0
0
0
0
0
0
0
0
0
0
0
0
0
0
0
0
0
0
0
0
0
0
0
0
0
0
0
0
0
0
0
0
0
126
136
135
166
166
166
165
165
166
166
166
165
164
165
165
165
165
166
166
166
166
164
165
164
166
165
165
166
166
133
136
126
126
126
128
125
121
121
204
228
230
237
251
251
254
254
255
255
255
254
254
253
254
254
254
255
255
255
255
255
254
254
254
254
255
255
254
254
255
254
255
255
254
254
254
254
254
254
254
255
255
254
254
255
255
255
255
255
254
254
255
255
255
254
254
254
255
255
255
252
244
114
114
104
106
110
107
106
106
101
102
101
222
246
254
254
254
253
254
254
255
254
255
255
252
252
251
239
119
103
105
105
105
105
146
158
154
158
154
155
153
156
157
157
157
157
156
156
157
157
155
157
156
154
154
179
179
183
183
182
186
181
175
164
153
157
157
156
157
156
155
136
106
106
105
105
105
101
219
233
246
254
254
254
255
254
252
255
255
254
254
254
254
254
254
254
254
254
254
255
255
255
254
254
254
255
255
255
254
254
254
254
255
254
254
254
254
254
255
254
254
254
254
255
255
255
255
255
255
254
255
255
255
254
254
255
255
255
255
254
254
254
254
254
255
255
253
250
250
216
119
97
96
105
172
172
241
250
249
255
253
255
253
254
255
255
255
255
255
255
254
251
251
243
137
97
96
103
100
101
102
101
101
102
116
136
136
136
137
137
137
137
137
137
137
137
137
137
137
136
136
137
137
137
137
137
137
137
138
137
137
138
137
137
136
133
141
156
162
160
159
159
160
160
153
135
136
138
135
108
108
100
104
102
101
104
98
95
200
229
229
230
228
230
230
229
247
247
254
254
254
254
254
255
255
255
254
254
254
255
255
255
255
254
254
254
255
255
255
254
253
253
0
0
0
0
0
0
0
0
0
0
0
0
0
0
0
0
0
0
0
0
0
0
0
0
0
0
0
0
0
0
0
0
0
0
0
0
0
0
0
0
0
0
0
0
0
0
0
0
0
0
0
0
0
0
0
0
0
0
0
0
0
0
0
0
0
0
0
0
0
0
0
0
0
0
0
0
0
0
0
0
0
0
0
0
0
0
0
0
0
0
0
0
0
0
0
0
0
0
0
0
0
0
0
0
0
0
0
0
0
0
0
0
0
0
0
0
0
0
0
0
0
0
0
0
0
0
0
0
0
0
0
0
0
0
0
0
0
0
0
0
0
0
0
0
0
0
0
0
0
0
0
0
0
0
0
0
0
0
0
0
0
0
0
0
0
0
0
0
0
0
0
0
0
0
0
0
0
0
0
0
0
0
0
0
0
0
0
0
0
0
0
0
0
0
0
0
0
0
127
125
135
134
165
166
165
165
165
166
166
165
164
165
165
166
165
166
166
166
166
166
165
166
165
164
165
161
127
133
125
127
128
126
128
122
121
156
226
228
231
234
250
254
254
254
255
255
255
255
254
254
254
254
254
254
255
254
255
255
254
255
254
254
254
255
254
255
254
254
255
255
254
254
254
254
253
254
253
254
255
255
254
254
255
255
255
255
254
254
254
255
254
254
254
254
254
255
252
244
118
114
105
102
106
107
104
105
108
105
104
101
100
191
249
252
253
253
254
255
255
254
254
255
254
254
246
154
119
106
106
109
107
105
158
158
156
156
154
158
156
156
157
157
157
157
156
157
157
155
156
156
156
155
161
170
182
182
181
182
184
183
175
159
157
157
155
154
157
156
155
130
105
107
106
106
105
103
222
233
244
254
252
254
255
255
252
255
254
254
254
254
254
254
254
254
254
254
254
254
255
255
255
254
254
254
255
255
255
255
254
254
255
254
254
254
254
254
255
254
254
254
254
254
254
254
255
255
255
254
254
255
255
255
254
254
254
255
255
255
254
254
254
254
255
252
248
247
182
89
100
97
100
100
91
117
96
201
249
246
253
255
254
255
254
255
255
255
255
254
251
251
242
121
97
97
103
101
100
102
101
101
101
116
136
136
138
137
138
137
137
137
137
137
137
137
137
137
137
136
137
137
137
137
137
137
137
137
137
137
137
137
137
137
135
137
141
151
161
160
158
160
158
160
160
147
136
136
135
129
100
100
101
102
100
100
98
101
90
200
229
226
231
230
230
252
250
255
254
254
254
255
254
254
255
255
255
254
254
255
255
255
255
254
255
254
254
255
254
254
253
0
0
0
0
0
0
0
0
0
0
0
0
0
0
0
0
0
0
0
0
0
0
0
0
0
0
0
0
0
0
0
0
0
0
0
0
0
0
0
0
0
0
0
0
0
0
0
0
0
0
0
0
0
0
0
0
0
0
0
0
0
0
0
0
0
0
0
0
0
0
0
0
0
0
0
0
0
0
0
0
0
0
0
0
0
0
0
0
0
0
0
0
0
0
0
0
0
0
0
0
0
0
0
0
0
0
0
0
0
0
0
0
0
0
0
0
0
0
0
0
0
0
0
0
0
0
0
0
0
0
0
0
0
0
0
0
0
0
0
0
0
0
0
0
0
0
0
0
0
0
0
0
0
0
0
0
0
0
0
0
0
0
0
0
0
0
0
0
0
0
0
0
0
0
0
0
0
0
0
0
0
0
0
0
0
0
0
0
0
0
0
0
0
0
0
0
0
0
0
126
126
125
134
134
165
165
165
166
165
165
165
166
165
165
165
166
165
165
165
166
166
166
166
166
167
156
126
126
126
125
125
125
128
124
124
137
227
227
231
229
229
253
254
254
254
254
255
255
255
254
254
254
254
254
254
255
255
254
254
255
255
255
254
255
255
255
254
254
254
255
254
254
255
255
255
255
253
254
254
254
254
254
254
254
255
255
254
254
254
254
254
254
254
254
254
254
251
244
125
125
102
106
106
109
106
106
108
106
106
106
105
104
104
157
249
253
253
252
252
252
254
254
254
249
247
171
171
102
107
107
105
106
142
142
156
156
156
157
155
157
157
157
157
157
156
157
157
155
156
157
157
155
159
159
184
181
183
183
182
185
185
165
157
157
157
157
156
156
157
157
157
102
106
103
103
103
148
148
229
254
254
250
254
255
255
255
254
254
255
255
254
254
254
254
254
255
254
254
254
255
255
255
255
254
254
254
255
255
255
255
255
255
255
254
254
254
255
255
255
254
254
254
254
254
254
254
255
255
255
254
254
255
255
255
254
254
254
255
255
255
254
254
254
251
248
248
151
96
101
101
103
102
102
102
96
94
94
181
247
247
254
254
254
255
254
255
255
254
251
251
239
113
97
97
103
101
101
101
101
101
102
117
136
136
138
137
137
136
139
137
137
137
137
137
137
137
137
137
137
137
137
137
137
137
137
137
137
137
137
137
137
137
137
136
136
136
159
159
161
159
159
159
162
161
161
146
136
136
134
107
102
102
103
104
104
103
97
99
94
185
229
229
229
254
254
254
254
255
255
255
255
255
255
255
255
255
255
255
255
254
255
255
255
255
254
254
254
254
254
0
0
0
0
0
0
0
0
0
0
0
0
0
0
0
0
0
0
0
0
0
0
0
0
0
0
0
0
0
0
0
0
0
0
0
0
0
0
0
0
0
0
0
0
0
0
0
0
0
0
0
0
0
0
0
0
0
0
0
0
0
0
0
0
0
0
0
0
0
0
0
0
0
0
0
0
0
0
0
0
0
0
0
0
0
0
0
0
0
0
0
0
0
0
0
0
0
0
0
0
0
0
0
0
0
0
0
0
0
0
0
0
0
0
0
0
0
0
0
0
0
0
0
0
0
0
0
0
0
0
0
0
0
0
0
0
0
0
0
0
0
0
0
0
0
0
0
0
0
0
0
0
0
0
0
0
0
0
0
0
0
0
0
0
0
0
0
0
0
0
0
0
0
0
0
0
0
0
0
0
0
0
0
0
0
0
0
0
0
0
0
0
0
0
0
0
0
0
0
0
126
126
126
125
135
135
165
166
168
165
164
166
165
165
165
165
164
165
163
166
166
166
165
167
167
132
125
124
125
126
125
126
129
122
122
128
226
228
230
231
230
236
255
254
254
254
254
254
255
254
255
254
254
254
255
255
255
254
254
254
254
254
255
254
254
255
254
254
254
254
255
254
254
254
254
252
255
255
254
254
254
255
254
255
254
255
255
255
254
254
254
254
254
254
254
254
251
244
125
125
105
104
107
106
106
106
106
114
105
106
104
104
105
106
105
103
223
243
229
249
250
245
248
251
220
130
159
104
106
105
104
105
107
120
156
156
155
157
156
156
157
156
156
156
156
157
157
156
157
157
157
155
159
159
183
182
182
184
182
184
183
176
158
157
155
156
158
154
159
154
157
118
105
107
105
110
104
101
227
230
241
252
254
253
252
253
255
255
254
254
255
255
254
255
254
255
255
255
254
254
254
255
255
255
255
254
254
254
255
255
255
255
255
255
255
254
255
255
255
255
255
254
254
255
254
254
254
254
255
255
255
254
254
255
255
255
254
254
254
255
255
254
254
251
244
245
148
95
102
103
102
103
104
100
101
103
99
93
94
164
247
244
254
253
253
254
254
254
250
251
234
103
96
95
102
100
100
101
100
100
103
118
136
136
138
137
137
137
137
137
137
137
137
137
137
138
138
138
137
137
137
137
137
137
137
137
137
137
137
137
137
137
138
137
136
136
136
136
161
162
160
160
160
159
160
160
160
141
137
136
132
101
103
102
102
101
102
102
99
96
94
169
231
247
255
253
255
255
255
254
254
255
255
254
254
254
254
255
255
254
254
254
255
255
254
254
254
254
253
0
0
0
0
0
0
0
0
0
0
0
0
0
0
0
0
0
0
0
0
0
0
0
0
0
0
0
0
0
0
0
0
0
0
0
0
0
0
0
0
0
0
0
0
0
0
0
0
0
0
0
0
0
0
0
0
0
0
0
0
0
0
0
0
0
0
0
0
0
0
0
0
0
0
0
0
0
0
0
0
0
0
0
0
0
0
0
0
0
0
0
0
0
0
0
0
0
0
0
0
0
0
0
0
0
0
0
0
0
0
0
0
0
0
0
0
0
0
0
0
0
0
0
0
0
0
0
0
0
0
0
0
0
0
0
0
0
0
0
0
0
0
0
0
0
0
0
0
0
0
0
0
0
0
0
0
0
0
0
0
0
0
0
0
0
0
0
0
0
0
0
0
0
0
0
0
0
0
0
0
0
0
0
0
0
0
0
0
0
0
0
0
0
0
0
0
0
0
0
0
0
127
126
126
127
125
135
135
165
166
166
165
166
165
165
165
164
164
166
165
166
164
164
165
149
125
126
126
126
127
126
128
126
122
122
124
225
226
228
230
231
229
245
255
255
254
254
254
254
254
254
254
253
255
254
254
254
254
254
254
253
254
254
253
254
252
255
254
254
254
255
255
255
254
254
254
253
251
255
255
254
254
254
254
255
255
254
254
255
255
254
254
254
254
254
254
251
244
125
125
103
106
106
106
107
106
105
136
112
112
106
105
104
106
104
104
104
101
109
229
149
175
245
173
138
102
102
105
104
106
105
105
106
106
152
158
156
157
155
155
155
157
158
158
157
156
157
157
156
157
157
155
157
159
177
180
183
183
185
183
184
185
163
158
158
157
157
157
156
158
154
160
108
107
107
103
104
104
108
226
230
242
252
254
254
255
255
255
255
255
254
254
255
255
255
255
255
255
255
255
255
254
254
255
255
255
255
254
254
254
255
255
255
255
255
255
254
255
255
255
255
255
254
255
255
255
254
254
254
254
255
255
255
254
254
255
255
255
254
254
254
254
254
251
244
244
138
97
102
102
104
102
103
101
103
103
103
103
101
94
95
146
244
245
254
253
253
253
249
250
221
99
98
98
99
101
100
101
100
100
102
117
136
136
137
137
137
138
137
137
137
137
137
137
137
137
138
138
137
137
137
137
137
137
137
137
137
137
137
137
137
137
137
137
137
137
138
136
135
144
162
161
160
159
159
159
161
160
162
135
136
136
133
106
102
103
103
100
100
101
97
97
98
133
247
245
253
254
254
254
254
254
254
254
254
254
254
255
255
254
254
254
255
255
254
254
254
254
254
0
0
0
0
0
0
0
0
0
0
0
0
0
0
0
0
0
0
0
0
0
0
0
0
0
0
0
0
0
0
0
0
0
0
0
0
0
0
0
0
0
0
0
0
0
0
0
0
0
0
0
0
0
0
0
0
0
0
0
0
0
0
0
0
0
0
0
0
0
0
0
0
0
0
0
0
0
0
0
0
0
0
0
0
0
0
0
0
0
0
0
0
0
0
0
0
0
0
0
0
0
0
0
0
0
0
0
0
0
0
0
0
0
0
0
0
0
0
0
0
0
0
0
0
0
0
0
0
0
0
0
0
0
0
0
0
0
0
0
0
0
0
0
0
0
0
0
0
0
0
0
0
0
0
0
0
0
0
0
0
0
0
0
0
0
0
0
0
0
0
0
0
0
0
0
0
0
0
0
0
0
0
0
0
0
0
0
0
0
0
0
0
0
0
0
0
0
0
0
0
0
0
126
126
125
125
126
125
132
130
165
164
167
165
166
165
164
164
165
168
167
165
162
162
138
125
125
126
125
127
127
127
126
122
126
125
226
225
228
230
230
229
233
255
255
255
251
254
254
254
254
254
253
251
254
252
252
252
254
254
255
254
254
255
255
255
253
254
255
253
254
254
255
255
254
255
253
255
255
254
255
255
254
254
254
254
255
255
254
255
255
254
254
254
255
254
251
244
124
125
103
105
105
106
106
107
106
137
154
155
111
114
107
107
106
106
108
106
106
106
103
102
102
105
103
105
102
107
106
102
105
107
104
104
146
155
156
154
156
156
155
158
156
158
157
156
156
157
155
154
156
156
160
157
178
182
184
184
183
182
180
184
171
171
156
157
155
156
155
156
156
155
137
108
106
106
105
106
102
197
197
227
253
254
254
252
255
255
255
255
255
254
254
254
255
255
255
255
255
254
254
254
255
254
254
255
255
255
255
254
255
255
255
255
254
254
254
254
254
255
254
254
255
255
254
255
255
254
254
254
254
254
255
255
255
254
254
255
255
255
254
254
254
250
242
242
137
95
100
103
102
103
101
104
101
103
103
103
102
102
101
93
93
146
246
245
255
254
247
249
216
96
97
98
102
103
102
101
101
101
101
119
137
137
137
136
137
138
137
137
137
137
137
137
137
137
137
137
137
137
137
137
137
137
137
137
137
137
137
137
137
137
137
137
137
137
137
137
138
135
135
149
159
160
160
159
159
159
160
161
154
133
137
136
134
106
103
103
101
101
101
102
99
99
101
114
242
232
254
254
254
254
254
254
254
254
254
255
255
254
254
254
255
255
254
254
254
255
255
0
0
0
0
0
0
0
0
0
0
0
0
0
0
0
0
0
0
0
0
0
0
0
0
0
0
0
0
0
0
0
0
0
0
0
0
0
0
0
0
0
0
0
0
0
0
0
0
0
0
0
0
0
0
0
0
0
0
0
0
0
0
0
0
0
0
0
0
0
0
0
0
0
0
0
0
0
0
0
0
0
0
0
0
0
0
0
0
0
0
0
0
0
0
0
0
0
0
0
0
0
0
0
0
0
0
0
0
0
0
0
0
0
0
0
0
0
0
0
0
0
0
0
0
0
0
0
0
0
0
0
0
0
0
0
0
0
0
0
0
0
0
0
0
0
0
0
0
0
0
0
0
0
0
0
0
0
0
0
0
0
0
0
0
0
0
0
0
0
0
0
0
0
0
0
0
0
0
0
0
0
0
0
0
0
0
0
0
0
0
0
0
0
0
0
0
0
0
0
0
0
0
0
126
126
125
125
125
126
125
130
128
155
167
169
165
165
164
169
163
168
150
129
144
126
126
123
125
128
126
127
127
127
121
122
144
225
226
228
231
231
229
230
251
255
252
252
251
254
255
254
254
255
254
251
252
255
254
252
254
254
255
254
254
253
254
251
254
254
255
255
254
255
255
254
254
253
254
255
252
251
253
254
254
254
254
253
254
255
255
254
253
254
253
255
255
252
244
124
124
103
105
105
106
105
106
106
130
160
154
156
155
114
123
104
105
106
107
105
106
106
104
105
105
108
108
105
108
107
106
107
106
105
104
134
156
155
156
157
156
156
157
156
156
156
157
156
156
157
159
154
159
165
160
182
185
184
184
182
183
182
183
182
179
155
156
155
155
157
156
156
157
157
120
108
104
107
105
104
98
122
229
232
254
254
252
253
255
255
255
255
255
255
254
254
254
255
255
255
255
255
254
254
254
255
254
254
255
255
255
255
255
255
255
254
254
254
255
254
254
254
254
254
254
254
254
254
254
254
254
255
254
254
255
255
255
255
254
254
255
255
254
254
250
241
242
113
97
102
100
105
104
103
103
114
110
103
103
103
102
101
102
100
94
97
134
245
247
249
247
194
94
97
97
102
103
103
101
102
103
101
122
138
137
137
136
136
137
137
137
137
137
138
137
137
137
137
137
137
137
137
137
137
136
137
137
137
137
137
137
137
137
137
137
137
137
137
137
138
137
137
135
135
159
160
160
161
159
159
160
159
154
144
136
136
135
136
109
103
103
101
101
101
101
99
100
100
92
232
220
253
254
254
255
254
254
254
255
255
255
254
254
255
255
254
254
254
255
255
0
0
0
0
0
0
0
0
0
0
0
0
0
0
0
0
0
0
0
0
0
0
0
0
0
0
0
0
0
0
0
0
0
0
0
0
0
0
0
0
0
0
0
0
0
0
0
0
0
0
0
0
0
0
0
0
0
0
0
0
0
0
0
0
0
0
0
0
0
0
0
0
0
0
0
0
0
0
0
0
0
0
0
0
0
0
0
0
0
0
0
0
0
0
0
0
0
0
0
0
0
0
0
0
0
0
0
0
0
0
0
0
0
0
0
0
0
0
0
0
0
0
0
0
0
0
0
0
0
0
0
0
0
0
0
0
0
0
0
0
0
0
0
0
0
0
0
0
0
0
0
0
0
0
0
0
0
0
0
0
0
0
0
0
0
0
0
0
0
0
0
0
0
0
0
0
0
0
0
0
0
0
0
0
0
0
0
0
0
0
0
0
0
0
0
0
0
0
0
0
0
0
0
0
124
126
126
125
127
129
125
126
125
125
145
160
145
166
158
152
152
135
126
126
129
125
124
124
128
126
126
128
126
120
123
157
226
226
231
230
230
229
231
242
242
254
254
254
254
254
253
254
254
254
254
254
252
251
252
252
254
254
254
254
254
253
255
254
254
255
253
253
255
255
254
254
254
255
255
253
252
252
252
255
254
254
253
253
253
255
255
254
254
253
254
254
251
244
124
124
103
106
106
106
105
105
108
127
156
155
157
158
158
157
135
145
105
105
107
107
104
107
107
105
105
106
106
109
105
105
106
106
109
106
135
156
156
157
157
157
156
156
157
157
156
156
156
156
157
154
157
152
169
169
182
184
184
184
182
182
182
183
183
183
160
156
156
156
157
157
157
156
157
155
149
106
107
107
105
105
105
155
226
246
246
255
255
255
255
255
255
255
255
255
255
255
254
254
255
255
255
255
254
254
254
254
255
254
254
255
255
255
255
255
255
255
254
255
255
255
254
254
254
254
255
255
254
255
255
254
254
254
255
254
255
255
255
255
255
254
254
254
254
250
237
237
101
97
102
102
103
103
103
104
125
137
135
110
102
102
103
101
101
101
100
98
98
130
240
240
166
95
95
97
101
102
102
102
100
100
104
124
138
138
137
137
137
137
137
137
137
137
138
138
137
137
137
137
137
137
137
137
137
137
137
137
137
137
137
137
137
137
137
137
137
137
137
137
138
137
137
137
137
136
136
159
160
160
161
159
160
161
160
136
136
136
136
138
136
111
103
103
101
101
101
103
103
103
103
93
219
219
254
254
255
254
254
255
255
255
254
254
254
255
254
254
254
255
255
0
0
0
0
0
0
0
0
0
0
0
0
0
0
0
0
0
0
0
0
0
0
0
0
0
0
0
0
0
0
0
0
0
0
0
0
0
0
0
0
0
0
0
0
0
0
0
0
0
0
0
0
0
0
0
0
0
0
0
0
0
0
0
0
0
0
0
0
0
0
0
0
0
0
0
0
0
0
0
0
0
0
0
0
0
0
0
0
0
0
0
0
0
0
0
0
0
0
0
0
0
0
0
0
0
0
0
0
0
0
0
0
0
0
0
0
0
0
0
0
0
0
0
0
0
0
0
0
0
0
0
0
0
0
0
0
0
0
0
0
0
0
0
0
0
0
0
0
0
0
0
0
0
0
0
0
0
0
0
0
0
0
0
0
0
0
0
0
0
0
0
0
0
0
0
0
0
0
0
0
0
0
0
0
0
0
0
0
0
0
0
0
0
0
0
0
0
0
0
0
0
0
0
0
0
143
124
126
125
126
129
127
126
127
124
126
123
145
128
124
135
125
125
126
128
128
130
128
127
124
127
126
123
119
120
189
229
227
228
230
230
228
229
231
234
255
254
254
254
253
251
253
252
250
253
251
244
246
251
246
248
254
253
247
252
251
249
246
252
251
249
254
251
248
248
254
249
247
252
253
246
249
252
251
254
254
254
254
254
255
254
254
254
254
254
254
251
243
122
124
104
106
106
106
106
105
106
118
156
156
155
157
155
158
155
157
145
155
123
106
106
104
107
105
105
105
104
105
106
105
107
106
111
109
149
156
156
157
157
157
157
157
157
157
156
156
156
157
157
155
154
175
182
181
183
182
183
184
182
184
183
182
184
183
164
156
157
157
157
157
157
156
155
159
155
129
106
107
106
104
107
106
195
230
230
252
255
254
255
255
255
255
255
255
255
255
254
254
254
254
255
255
255
255
254
254
254
254
255
254
254
255
255
255
255
255
255
254
254
255
255
255
254
254
254
254
255
254
254
254
254
254
254
255
254
254
255
254
254
255
255
254
254
249
220
230
92
98
102
102
103
102
101
106
135
136
137
137
136
109
102
102
103
101
101
101
101
99
101
120
150
97
97
95
99
100
101
103
103
101
101
126
137
138
137
137
137
138
137
137
137
137
138
138
137
137
137
137
137
137
137
138
137
137
137
137
138
138
137
137
137
137
137
137
137
137
137
137
137
137
138
137
137
137
137
140
148
160
159
159
161
160
160
161
160
136
135
137
138
138
136
114
102
101
103
103
103
103
103
103
100
95
230
242
254
255
254
255
255
254
254
254
255
255
255
255
254
255
255
0
0
0
0
0
0
0
0
0
0
0
0
0
0
0
0
0
0
0
0
0
0
0
0
0
0
0
0
0
0
0
0
0
0
0
0
0
0
0
0
0
0
0
0
0
0
0
0
0
0
0
0
0
0
0
0
0
0
0
0
0
0
0
0
0
0
0
0
0
0
0
0
0
0
0
0
0
0
0
0
0
0
0
0
0
0
0
0
0
0
0
0
0
0
0
0
0
0
0
0
0
0
0
0
0
0
0
0
0
0
0
0
0
0
0
0
0
0
0
0
0
0
0
0
0
0
0
0
0
0
0
0
0
0
0
0
0
0
0
0
0
0
0
0
0
0
0
0
0
0
0
0
0
0
0
0
0
0
0
0
0
0
0
0
0
0
0
0
0
0
0
0
0
0
0
0
0
0
0
0
0
0
0
0
0
0
0
0
0
0
0
0
0
0
0
0
0
0
0
0
0
0
0
0
0
0
143
149
122
124
124
125
125
125
127
125
128
128
125
126
126
126
126
125
127
127
129
129
125
127
124
123
124
137
137
214
230
230
229
230
230
230
230
230
230
254
253
254
254
254
251
251
246
233
233
223
215
210
210
213
212
212
211
215
247
212
217
218
218
220
220
249
220
220
221
221
219
222
222
226
228
246
226
238
252
252
251
254
254
255
254
254
254
254
255
255
252
239
111
111
104
106
106
106
106
106
105
114
156
156
157
156
156
156
158
154
154
157
159
159
146
119
104
105
105
108
108
105
107
106
110
107
127
127
156
156
156
156
157
156
156
158
156
156
157
156
156
157
156
157
157
178
182
182
184
182
184
184
183
184
184
183
184
184
170
156
156
156
155
158
157
155
156
156
156
152
108
108
109
107
104
103
131
227
227
232
252
255
254
255
255
255
255
255
255
255
254
254
254
254
254
254
255
255
255
255
254
254
254
255
254
254
254
255
255
255
255
255
255
254
255
255
253
254
254
254
254
254
254
254
254
254
254
254
255
255
254
254
254
254
254
255
255
249
212
220
90
98
102
102
103
102
102
110
137
137
137
136
137
137
136
110
102
102
103
101
101
101
104
101
105
100
103
103
100
98
98
102
104
103
104
129
136
136
137
138
137
137
137
137
137
137
138
138
137
137
137
137
137
137
137
138
138
137
137
137
137
137
138
137
137
137
137
137
137
137
137
137
137
137
137
137
138
137
137
137
135
148
155
161
159
159
161
160
160
161
139
136
136
137
138
138
137
121
101
103
102
104
104
103
102
102
100
97
245
245
254
255
255
255
254
254
254
255
255
255
254
254
255
0
0
0
0
0
0
0
0
0
0
0
0
0
0
0
0
0
0
0
0
0
0
0
0
0
0
0
0
0
0
0
0
0
0
0
0
0
0
0
0
0
0
0
0
0
0
0
0
0
0
0
0
0
0
0
0
0
0
0
0
0
0
0
0
0
0
0
0
0
0
0
0
0
0
0
0
0
0
0
0
0
0
0
0
0
0
0
0
0
0
0
0
0
0
0
0
0
0
0
0
0
0
0
0
0
0
0
0
0
0
0
0
0
0
0
0
0
0
0
0
0
0
0
0
0
0
0
0
0
0
0
0
0
0
0
0
0
0
0
0
0
0
0
0
0
0
0
0
0
0
0
0
0
0
0
0
0
0
0
0
0
0
0
0
0
0
0
0
0
0
0
0
0
0
0
0
0
0
0
0
0
0
0
0
0
0
0
0
0
0
0
0
0
0
0
0
0
0
0
0
0
0
0
0
0
0
0
230
154
162
120
125
125
124
126
126
128
125
127
126
129
125
126
128
126
125
125
126
127
125
125
120
124
188
160
227
230
231
229
230
231
230
230
230
230
252
254
253
254
254
250
251
231
104
163
120
106
105
110
109
105
107
112
104
108
109
116
104
113
118
104
113
114
115
101
116
113
103
117
117
101
121
120
121
102
187
249
252
254
254
255
255
254
254
253
253
252
246
112
114
105
105
107
105
107
106
104
111
157
156
156
156
157
156
156
156
159
155
157
156
156
158
152
140
123
152
111
108
139
111
110
127
161
149
158
158
157
156
157
157
156
158
155
158
156
156
156
158
155
156
157
171
185
183
183
186
183
185
184
184
184
184
183
183
171
156
156
156
156
156
159
154
158
155
155
159
126
110
103
105
104
105
103
180
225
228
235
251
254
254
254
254
255
255
255
255
254
254
254
255
255
254
254
255
255
255
255
255
255
254
254
255
254
254
254
255
255
255
255
254
254
254
255
251
254
255
254
254
255
254
254
254
254
254
254
254
254
254
254
254
254
254
254
250
211
211
91
98
103
103
103
100
102
112
136
138
137
137
137
136
137
137
136
110
102
102
103
101
101
100
101
103
104
99
101
99
104
104
102
103
105
131
137
136
137
137
137
137
137
137
137
137
138
138
137
137
136
136
137
138
137
137
139
138
137
137
137
137
138
138
138
137
138
135
137
137
137
137
137
137
137
137
137
138
138
137
137
136
136
161
161
161
159
159
161
161
162
138
135
137
138
136
139
139
137
124
102
102
104
103
102
103
101
100
97
141
247
250
255
255
254
254
254
255
255
255
255
254
254
0
0
0
0
0
0
0
0
0
0
0
0
0
0
0
0
0
0
0
0
0
0
0
0
0
0
0
0
0
0
0
0
0
0
0
0
0
0
0
0
0
0
0
0
0
0
0
0
0
0
0
0
0
0
0
0
0
0
0
0
0
0
0
0
0
0
0
0
0
0
0
0
0
0
0
0
0
0
0
0
0
0
0
0
0
0
0
0
0
0
0
0
0
0
0
0
0
0
0
0
0
0
0
0
0
0
0
0
0
0
0
0
0
0
0
0
0
0
0
0
0
0
0
0
0
0
0
0
0
0
0
0
0
0
0
0
0
0
0
0
0
0
0
0
0
0
0
0
0
0
0
0
0
0
0
0
0
0
0
0
0
0
0
0
0
0
0
0
0
0
0
0
0
0
0
0
0
0
0
0
0
0
0
0
0
0
0
0
0
0
0
0
0
0
0
0
0
0
0
0
0
0
0
0
0
0
0
0
229
230
162
174
118
125
125
127
126
126
126
125
126
128
121
126
124
126
127
125
124
126
125
122
145
214
188
229
229
230
229
229
230
230
229
229
230
250
254
254
255
255
251
250
189
103
104
101
106
103
103
104
105
105
105
105
104
105
105
107
104
105
105
104
104
106
107
101
106
105
103
107
108
101
104
104
105
102
98
228
252
254
254
255
255
254
254
253
251
245
112
112
106
107
105
109
107
107
105
106
157
157
156
156
156
156
156
157
157
156
155
157
157
156
158
158
160
157
152
157
158
139
155
160
155
161
156
154
158
155
157
157
157
157
156
155
157
158
156
155
159
158
156
154
175
185
184
180
180
180
183
185
184
182
182
183
166
156
156
156
156
156
156
156
156
158
155
157
151
126
108
104
105
106
106
119
180
227
229
235
249
253
253
254
254
255
255
254
255
254
254
255
255
255
255
255
255
255
255
255
255
255
254
254
254
255
255
254
254
255
255
255
255
254
252
255
254
254
255
253
254
253
253
254
254
254
254
254
254
254
254
254
254
254
254
249
220
211
95
100
102
103
102
100
100
117
137
137
137
137
136
137
137
137
137
137
136
110
102
102
102
101
102
104
101
104
103
101
99
102
103
102
106
134
136
137
138
137
137
136
137
137
137
137
137
138
137
136
136
136
137
137
138
139
138
139
135
135
136
137
137
138
138
138
137
138
135
137
137
137
137
136
137
137
137
138
138
138
137
137
138
136
150
161
160
160
159
160
163
152
152
135
138
138
137
137
139
138
137
128
102
102
103
102
103
102
98
98
93
242
250
253
254
254
254
255
255
255
254
254
254
0
0
0
0
0
0
0
0
0
0
0
0
0
0
0
0
0
0
0
0
0
0
0
0
0
0
0
0
0
0
0
0
0
0
0
0
0
0
0
0
0
0
0
0
0
0
0
0
0
0
0
0
0
0
0
0
0
0
0
0
0
0
0
0
0
0
0
0
0
0
0
0
0
0
0
0
0
0
0
0
0
0
0
0
0
0
0
0
0
0
0
0
0
0
0
0
0
0
0
0
0
0
0
0
0
0
0
0
0
0
0
0
0
0
0
0
0
0
0
0
0
0
0
0
0
0
0
0
0
0
0
0
0
0
0
0
0
0
0
0
0
0
0
0
0
0
0
0
0
0
0
0
0
0
0
0
0
0
0
0
0
0
0
0
0
0
0
0
0
0
0
0
0
0
0
0
0
0
0
0
0
0
0
0
0
0
0
0
0
0
0
0
0
0
0
0
0
0
0
0
0
0
0
0
0
0
0
0
0
230
230
228
185
185
118
123
122
126
123
126
126
127
128
128
131
125
128
126
122
120
120
127
186
228
227
229
229
229
232
229
229
230
230
230
229
250
254
254
255
253
251
251
209
104
104
105
108
104
108
106
106
105
105
108
108
106
102
107
103
105
105
105
109
109
106
105
102
105
105
105
104
104
107
109
106
107
107
108
108
250
252
255
253
255
255
255
253
246
169
130
104
105
107
102
106
106
106
105
151
155
156
155
155
156
156
157
157
156
156
156
157
157
157
156
155
154
157
157
156
156
158
156
156
152
155
156
156
156
157
157
157
156
156
159
157
156
156
156
158
156
156
157
161
161
180
181
185
182
183
184
182
182
181
181
162
156
156
156
156
156
156
156
156
156
158
156
158
158
106
105
105
106
106
103
104
225
232
232
242
253
255
255
254
255
255
254
255
255
255
255
255
255
255
255
255
255
255
255
255
255
255
255
254
254
254
255
255
254
254
255
255
255
254
255
254
254
254
254
254
254
253
254
254
254
255
255
255
254
254
253
255
254
254
254
235
235
90
92
101
103
102
102
102
121
137
136
136
137
136
136
136
138
138
137
137
137
136
112
102
102
101
102
102
101
101
97
97
103
104
104
108
134
136
136
138
139
139
137
136
137
137
137
137
137
137
137
136
136
137
137
137
139
135
135
137
135
136
135
136
137
137
138
140
137
138
137
135
135
137
137
137
136
136
136
137
138
137
137
137
137
137
137
158
159
159
159
158
161
160
135
136
135
136
137
137
137
138
136
137
129
102
102
104
103
102
102
98
94
131
248
254
254
253
255
255
255
254
254
254
0
0
0
0
0
0
0
0
0
0
0
0
0
0
0
0
0
0
0
0
0
0
0
0
0
0
0
0
0
0
0
0
0
0
0
0
0
0
0
0
0
0
0
0
0
0
0
0
0
0
0
0
0
0
0
0
0
0
0
0
0
0
0
0
0
0
0
0
0
0
0
0
0
0
0
0
0
0
0
0
0
0
0
0
0
0
0
0
0
0
0
0
0
0
0
0
0
0
0
0
0
0
0
0
0
0
0
0
0
0
0
0
0
0
0
0
0
0
0
0
0
0
0
0
0
0
0
0
0
0
0
0
0
0
0
0
0
0
0
0
0
0
0
0
0
0
0
0
0
0
0
0
0
0
0
0
0
0
0
0
0
0
0
0
0
0
0
0
0
0
0
0
0
0
0
0
0
0
0
0
0
0
0
0
0
0
0
0
0
0
0
0
0
0
0
0
0
0
0
0
0
0
0
0
0
0
0
0
0
0
230
230
229
226
199
213
138
122
120
124
126
123
126
124
125
126
122
128
120
140
123
159
229
232
228
230
228
227
228
229
229
230
231
232
230
251
253
253
254
255
254
251
246
113
101
102
108
107
104
106
105
106
108
105
106
106
103
106
107
103
107
105
107
107
106
106
104
102
108
106
105
110
107
102
106
106
108
104
106
205
249
255
255
255
254
252
255
254
233
169
102
108
105
102
103
106
105
107
149
151
155
157
156
156
156
156
157
157
156
156
157
155
157
156
155
157
154
155
157
157
157
157
160
156
157
155
158
159
155
158
157
157
156
156
156
156
155
156
156
157
156
155
159
153
168
172
183
185
183
183
184
177
168
175
159
157
156
156
156
156
156
156
156
156
156
156
158
156
118
106
107
103
107
104
103
126
226
225
231
243
255
255
254
255
255
253
254
254
255
255
255
255
255
255
255
255
255
255
255
255
255
255
255
255
254
254
254
255
255
254
254
255
254
253
254
254
254
254
255
254
253
254
254
254
254
254
255
255
254
254
254
254
254
254
254
254
91
96
101
101
102
102
103
127
136
138
136
137
136
136
136
138
137
138
137
137
137
136
137
111
104
103
103
102
102
103
104
103
102
102
108
138
136
136
137
139
138
138
137
137
137
137
137
137
137
137
137
136
137
137
137
138
138
136
138
139
134
136
134
137
137
138
140
138
137
137
138
136
138
135
137
137
137
136
136
136
137
137
137
137
137
137
137
139
162
161
162
162
161
148
134
136
136
136
136
137
135
138
136
135
130
123
102
103
103
102
102
98
94
120
249
253
254
255
255
255
254
254
254
0
0
0
0
0
0
0
0
0
0
0
0
0
0
0
0
0
0
0
0
0
0
0
0
0
0
0
0
0
0
0
0
0
0
0
0
0
0
0
0
0
0
0
0
0
0
0
0
0
0
0
0
0
0
0
0
0
0
0
0
0
0
0
0
0
0
0
0
0
0
0
0
0
0
0
0
0
0
0
0
0
0
0
0
0
0
0
0
0
0
0
0
0
0
0
0
0
0
0
0
0
0
0
0
0
0
0
0
0
0
0
0
0
0
0
0
0
0
0
0
0
0
0
0
0
0
0
0
0
0
0
0
0
0
0
0
0
0
0
0
0
0
0
0
0
0
0
0
0
0
0
0
0
0
0
0
0
0
0
0
0
0
0
0
0
0
0
0
0
0
0
0
0
0
0
0
0
0
0
0
0
0
0
0
0
0
0
0
0
0
0
0
0
0
0
0
0
0
0
0
0
0
0
0
0
0
0
0
0
0
0
239
230
230
231
229
225
225
174
126
126
122
120
120
123
122
121
121
142
194
194
227
229
229
229
230
229
229
231
230
229
228
232
233
233
251
253
253
254
255
255
255
250
158
158
106
105
106
106
108
106
106
104
105
105
106
110
102
102
109
106
106
104
102
105
105
106
109
109
104
105
105
101
107
106
106
106
106
106
101
234
249
249
252
253
253
253
253
250
250
106
106
106
103
107
107
107
104
145
145
154
157
157
156
156
156
156
156
156
156
156
156
156
156
157
155
155
158
156
156
157
157
159
159
155
155
155
154
156
156
156
154
157
157
158
156
156
158
164
165
165
157
155
155
158
157
169
169
177
173
173
165
160
160
155
156
157
157
156
156
156
156
156
156
156
156
156
156
154
105
106
106
104
106
106
100
223
223
229
237
253
253
254
254
254
254
253
254
254
255
255
255
255
255
255
255
255
255
255
255
254
254
255
255
255
255
254
254
254
255
255
254
254
255
252
252
254
255
255
255
252
254
254
255
254
254
254
254
255
255
254
254
254
254
255
255
254
254
103
103
102
106
106
136
136
138
138
137
136
136
137
138
138
137
137
137
137
137
137
137
137
121
101
101
104
103
103
104
102
102
112
137
137
137
137
137
137
136
137
137
137
137
137
137
137
137
138
138
137
137
137
137
139
139
134
146
155
155
134
136
136
137
136
136
136
142
137
137
136
137
135
136
137
137
137
136
137
137
137
137
137
137
137
136
136
136
160
159
159
150
136
136
135
135
135
138
138
136
136
136
124
124
101
101
103
103
104
104
104
95
233
233
252
252
252
252
254
254
254
0
0
0
0
0
0
0
0
0
0
0
0
0
0
0
0
0
0
0
0
0
0
0
0
0
0
0
0
0
0
0
0
0
0
0
0
0
0
0
0
0
0
0
0
0
0
0
0
0
0
0
0
0
0
0
0
0
0
0
0
0
0
0
0
0
0
0
0
0
0
0
0
0
0
0
0
0
0
0
0
0
0
0
0
0
0
0
0
0
0
0
0
0
0
0
0
0
0
0
0
0
0
0
0
0
0
0
0
0
0
0
0
0
0
0
0
0
0
0
0
0
0
0
0
0
0
0
0
0
0
0
0
0
0
0
0
0
0
0
0
0
0
0
0
0
0
0
0
0
0
0
0
0
0
0
0
0
0
0
0
0
0
0
0
0
0
0
0
0
0
0
0
0
0
0
0
0
0
0
0
0
0
0
0
0
0
0
0
0
0
0
0
0
0
0
0
0
0
0
0
0
0
0
0
0
0
0
0
0
0
0
0
254
241
230
230
229
229
228
230
209
164
220
138
126
213
217
156
194
233
222
226
230
232
226
230
228
228
228
230
230
229
231
238
234
253
254
254
254
255
254
255
253
248
225
102
105
105
108
105
123
113
115
147
110
110
145
148
111
111
148
107
112
149
145
114
112
150
113
113
152
114
114
114
145
104
104
107
107
107
104
247
251
253
254
254
254
253
250
254
191
107
104
107
109
105
105
106
108
112
153
153
158
156
156
156
156
156
157
157
157
156
156
156
156
156
157
155
155
158
156
157
157
157
154
155
157
158
155
157
155
157
156
157
157
155
159
157
182
183
177
173
177
158
155
155
157
157
165
154
159
158
157
156
155
156
156
157
156
156
156
156
156
156
156
156
157
156
158
123
108
107
104
106
108
104
140
192
228
229
238
250
254
254
254
255
255
255
255
255
255
255
255
255
255
255
255
255
255
255
254
254
254
254
255
255
255
255
254
254
254
254
255
254
254
254
253
254
254
254
252
254
254
252
255
254
254
254
254
254
255
255
254
254
254
255
255
255
254
254
101
104
106
139
138
136
137
137
137
137
137
137
137
137
137
137
137
137
137
137
137
136
135
129
104
118
105
104
115
104
121
136
135
136
137
136
136
137
137
137
137
137
137
137
137
137
137
138
137
137
137
138
136
137
132
160
159
160
158
148
138
135
136
131
135
125
105
125
133
127
136
138
138
137
137
137
137
137
137
137
137
136
137
137
137
137
136
136
150
141
135
138
135
140
137
138
137
135
137
133
108
117
101
102
101
102
103
103
105
96
93
153
251
254
255
251
254
251
254
0
0
0
0
0
0
0
0
0
0
0
0
0
0
0
0
0
0
0
0
0
0
0
0
0
0
0
0
0
0
0
0
0
0
0
0
0
0
0
0
0
0
0
0
0
0
0
0
0
0
0
0
0
0
0
0
0
0
0
0
0
0
0
0
0
0
0
0
0
0
0
0
0
0
0
0
0
0
0
0
0
0
0
0
0
0
0
0
0
0
0
0
0
0
0
0
0
0
0
0
0
0
0
0
0
0
0
0
0
0
0
0
0
0
0
0
0
0
0
0
0
0
0
0
0
0
0
0
0
0
0
0
0
0
0
0
0
0
0
0
0
0
0
0
0
0
0
0
0
0
0
0
0
0
0
0
0
0
0
0
0
0
0
0
0
0
0
0
0
0
0
0
0
0
0
0
0
0
0
0
0
0
0
0
0
0
0
0
0
0
0
0
0
0
0
0
0
0
0
0
0
0
0
0
0
0
0
0
0
0
0
0
0
254
253
243
230
230
227
228
230
228
229
220
232
229
229
229
230
226
233
229
231
228
228
230
230
228
232
231
230
228
230
245
238
255
254
254
254
254
254
254
253
251
248
157
105
108
108
107
108
123
159
160
147
160
158
158
158
158
161
148
160
157
160
160
160
157
150
162
158
152
159
154
155
145
110
103
107
106
105
207
207
253
251
254
252
251
253
253
253
217
107
104
106
109
102
105
107
107
106
107
153
146
156
157
157
156
157
157
157
156
156
156
156
156
156
155
157
155
154
157
157
157
156
156
155
154
154
157
157
156
157
156
155
157
155
156
181
184
184
184
186
177
172
158
158
158
156
159
154
157
157
157
158
156
156
156
157
157
156
156
156
156
156
156
157
157
155
136
123
104
106
105
106
103
108
140
227
231
233
233
254
254
254
254
255
254
254
254
254
255
255
255
255
255
255
255
255
255
255
254
255
255
255
255
255
255
255
255
254
254
254
254
253
254
253
252
254
255
254
250
250
253
254
255
252
255
254
254
254
254
255
255
254
254
254
255
255
255
255
254
104
131
136
137
137
136
137
137
137
138
137
137
137
137
137
137
137
137
137
137
136
136
135
136
118
134
129
115
133
136
137
135
137
137
136
138
136
137
137
137
137
137
137
137
137
137
137
137
137
137
138
136
139
160
164
164
160
157
148
132
134
126
126
99
103
105
99
101
127
121
137
136
137
138
137
137
137
137
137
137
136
136
137
138
137
137
137
135
135
135
139
137
140
139
137
137
137
130
105
108
103
100
101
101
101
103
103
99
93
93
214
251
251
251
253
254
251
0
0
0
0
0
0
0
0
0
0
0
0
0
0
0
0
0
0
0
0
0
0
0
0
0
0
0
0
0
0
0
0
0
0
0
0
0
0
0
0
0
0
0
0
0
0
0
0
0
0
0
0
0
0
0
0
0
0
0
0
0
0
0
0
0
0
0
0
0
0
0
0
0
0
0
0
0
0
0
0
0
0
0
0
0
0
0
0
0
0
0
0
0
0
0
0
0
0
0
0
0
0
0
0
0
0
0
0
0
0
0
0
0
0
0
0
0
0
0
0
0
0
0
0
0
0
0
0
0
0
0
0
0
0
0
0
0
0
0
0
0
0
0
0
0
0
0
0
0
0
0
0
0
0
0
0
0
0
0
0
0
0
0
0
0
0
0
0
0
0
0
0
0
0
0
0
0
0
0
0
0
0
0
0
0
0
0
0
0
0
0
0
0
0
0
0
0
0
0
0
0
0
0
0
0
0
0
0
0
0
0
0
0
0
255
253
254
246
230
230
232
225
229
229
227
226
232
225
229
232
228
229
231
230
228
231
227
228
230
228
228
228
235
255
253
255
253
253
254
254
255
255
254
252
255
231
101
104
107
105
105
104
148
153
153
155
155
156
154
156
156
155
155
155
157
156
152
156
154
152
154
154
158
157
153
161
132
106
106
107
103
104
114
238
238
255
254
255
254
252
254
254
252
160
102
102
107
108
106
106
107
107
103
105
141
140
158
157
155
156
156
156
156
156
156
157
156
156
156
155
158
157
157
157
157
157
156
156
159
158
157
156
158
156
156
156
156
156
167
181
180
185
182
181
184
165
155
155
157
156
157
156
157
157
156
156
156
156
156
156
157
156
156
157
156
156
157
157
154
150
150
103
107
106
105
108
102
102
213
231
228
229
248
255
253
254
255
254
253
255
255
254
255
255
255
255
255
255
255
255
255
255
255
255
255
255
255
255
255
255
254
254
253
254
254
254
254
252
252
254
254
244
250
251
245
251
255
251
252
254
254
254
254
254
254
254
254
254
254
255
255
255
255
254
138
136
134
135
136
137
137
138
138
138
136
137
137
137
137
137
137
138
138
137
138
138
136
138
137
137
137
138
135
137
137
137
137
136
137
137
137
137
138
138
137
137
137
137
137
137
137
136
137
137
144
159
162
160
162
158
157
136
140
124
121
103
101
102
101
100
100
102
114
113
138
137
138
138
137
137
137
137
137
137
136
137
137
139
138
135
136
140
137
142
142
136
137
134
136
119
105
103
104
101
100
99
99
102
103
99
94
94
180
231
238
254
255
255
254
0
0
0
0
0
0
0
0
0
0
0
0
0
0
0
0
0
0
0
0
0
0
0
0
0
0
0
0
0
0
0
0
0
0
0
0
0
0
0
0
0
0
0
0
0
0
0
0
0
0
0
0
0
0
0
0
0
0
0
0
0
0
0
0
0
0
0
0
0
0
0
0
0
0
0
0
0
0
0
0
0
0
0
0
0
0
0
0
0
0
0
0
0
0
0
0
0
0
0
0
0
0
0
0
0
0
0
0
0
0
0
0
0
0
0
0
0
0
0
0
0
0
0
0
0
0
0
0
0
0
0
0
0
0
0
0
0
0
0
0
0
0
0
0
0
0
0
0
0
0
0
0
0
0
0
0
0
0
0
0
0
0
0
0
0
0
0
0
0
0
0
0
0
0
0
0
0
0
0
0
0
0
0
0
0
0
0
0
0
0
0
0
0
0
0
0
0
0
0
0
0
0
0
0
0
0
0
0
0
0
0
0
0
0
0
254
255
254
253
247
230
230
228
228
232
230
230
232
230
230
232
230
229
229
230
228
231
227
227
229
227
230
249
255
255
253
255
255
253
255
255
255
253
254
252
252
188
105
104
107
105
105
107
156
160
156
158
158
156
160
155
156
157
157
157
157
156
161
156
159
161
156
156
156
158
153
156
118
105
105
106
105
104
138
225
238
243
254
255
254
252
253
254
254
242
123
107
103
105
106
107
104
107
107
106
107
140
138
155
155
156
156
156
156
156
157
157
157
156
156
157
156
156
157
157
157
157
157
156
157
158
155
153
158
159
155
157
155
154
172
181
186
185
182
180
186
166
155
155
156
156
156
156
156
156
156
156
156
156
156
156
156
156
156
157
157
157
157
157
158
158
103
106
106
106
106
104
103
179
226
229
228
230
254
255
253
255
254
254
254
255
255
254
254
254
255
255
254
255
255
255
255
255
255
255
255
255
255
255
255
255
255
253
253
252
254
252
254
254
253
244
219
244
164
145
245
168
227
246
252
251
254
254
254
254
254
254
254
255
254
255
254
255
254
255
254
136
136
138
136
137
138
138
138
137
137
137
137
137
137
137
137
137
138
137
137
138
136
136
137
138
136
134
135
137
136
137
136
139
137
137
137
137
138
137
137
137
137
137
137
137
136
135
135
148
160
162
162
160
158
158
133
139
124
124
104
101
101
102
101
102
102
102
102
113
113
137
137
138
137
137
137
137
137
137
137
136
139
139
136
139
136
137
137
137
137
136
130
134
107
104
105
100
103
102
100
103
101
102
99
95
93
162
229
232
238
255
254
255
0
0
0
0
0
0
0
0
0
0
0
0
0
0
0
0
0
0
0
0
0
0
0
0
0
0
0
0
0
0
0
0
0
0
0
0
0
0
0
0
0
0
0
0
0
0
0
0
0
0
0
0
0
0
0
0
0
0
0
0
0
0
0
0
0
0
0
0
0
0
0
0
0
0
0
0
0
0
0
0
0
0
0
0
0
0
0
0
0
0
0
0
0
0
0
0
0
0
0
0
0
0
0
0
0
0
0
0
0
0
0
0
0
0
0
0
0
0
0
0
0
0
0
0
0
0
0
0
0
0
0
0
0
0
0
0
0
0
0
0
0
0
0
0
0
0
0
0
0
0
0
0
0
0
0
0
0
0
0
0
0
0
0
0
0
0
0
0
0
0
0
0
0
0
0
0
0
0
0
0
0
0
0
0
0
0
0
0
0
0
0
0
0
0
0
0
0
0
0
0
0
0
0
0
0
0
0
0
0
0
0
0
0
0
0
0
253
254
255
255
255
248
231
231
228
232
228
228
229
230
230
228
229
231
230
230
230
230
231
232
232
239
253
252
252
255
255
255
255
254
254
254
254
253
253
253
242
140
100
105
110
110
106
145
145
155
156
157
157
153
158
158
157
157
157
155
158
156
156
156
155
155
152
158
155
155
155
150
150
103
106
107
107
103
224
224
230
254
254
254
254
253
253
254
252
252
242
116
102
102
107
106
106
104
106
104
105
105
138
138
156
156
156
156
156
157
157
157
156
156
155
156
156
156
157
157
157
157
157
157
157
157
158
158
155
158
158
155
159
155
155
181
181
181
184
184
183
179
157
157
157
156
157
157
157
156
156
156
156
156
156
156
156
156
156
157
157
157
157
155
155
116
106
107
107
106
104
104
108
222
231
231
229
247
247
252
255
254
254
254
254
254
254
254
254
254
254
254
254
255
255
255
255
255
255
255
255
255
255
255
255
255
254
253
255
255
255
255
255
246
222
138
138
97
97
97
94
106
92
171
242
250
250
255
254
254
254
254
254
254
255
255
255
254
254
255
254
254
136
136
139
138
138
137
136
137
137
137
137
137
137
137
137
137
137
137
137
136
138
138
137
136
135
135
138
138
138
138
137
137
137
137
137
137
137
137
137
137
137
136
136
136
136
136
158
161
161
161
161
158
158
136
137
127
127
103
101
101
102
97
97
99
102
101
101
102
111
111
136
138
137
137
137
137
137
137
136
137
138
137
139
139
138
138
138
139
136
125
125
102
102
102
101
101
99
103
102
101
101
98
97
97
158
226
225
225
225
251
251
0
0
0
0
0
0
0
0
0
0
0
0
0
0
0
0
0
0
0
0
0
0
0
0
0
0
0
0
0
0
0
0
0
0
0
0
0
0
0
0
0
0
0
0
0
0
0
0
0
0
0
0
0
0
0
0
0
0
0
0
0
0
0
0
0
0
0
0
0
0
0
0
0
0
0
0
0
0
0
0
0
0
0
0
0
0
0
0
0
0
0
0
0
0
0
0
0
0
0
0
0
0
0
0
0
0
0
0
0
0
0
0
0
0
0
0
0
0
0
0
0
0
0
0
0
0
0
0
0
0
0
0
0
0
0
0
0
0
0
0
0
0
0
0
0
0
0
0
0
0
0
0
0
0
0
0
0
0
0
0
0
0
0
0
0
0
0
0
0
0
0
0
0
0
0
0
0
0
0
0
0
0
0
0
0
0
0
0
0
0
0
0
0
0
0
0
0
0
0
0
0
0
0
0
0
0
0
0
0
0
0
0
0
0
0
0
0
253
254
254
254
255
255
252
234
238
230
227
232
229
231
229
231
230
231
228
230
227
232
244
234
251
252
255
253
255
254
255
255
253
255
254
255
252
253
251
252
224
140
101
105
105
106
106
115
158
153
153
154
157
154
157
153
157
157
157
157
156
155
156
157
153
156
157
158
156
158
154
158
111
107
106
106
105
103
155
228
232
254
254
254
254
254
254
254
254
251
249
225
124
102
101
107
105
106
106
104
105
106
103
138
145
156
156
156
156
157
157
156
156
156
156
156
156
156
156
157
157
157
157
157
157
157
156
156
156
157
156
155
157
157
158
163
184
185
182
184
183
157
155
156
155
156
157
156
157
157
157
157
157
156
156
156
156
156
156
156
157
157
157
156
125
106
106
107
105
106
105
104
192
228
230
229
231
237
253
255
254
254
255
255
254
254
254
254
254
254
254
254
254
255
254
254
254
255
255
255
255
255
255
255
255
254
253
253
254
254
249
253
245
113
93
92
96
99
97
98
103
105
92
97
106
231
250
250
254
254
254
254
254
254
254
255
255
255
255
255
255
254
254
136
136
138
138
138
136
136
138
138
137
137
137
137
137
137
137
137
138
138
138
138
137
138
137
137
138
138
137
138
137
137
137
137
137
137
137
136
137
137
136
136
136
143
140
160
161
159
159
160
155
155
134
138
132
127
99
101
100
105
96
98
98
137
96
101
100
100
101
111
112
137
138
136
136
137
137
136
135
137
136
137
137
137
138
137
138
134
106
116
100
102
101
102
102
100
99
101
103
102
97
90
94
165
229
233
232
232
229
247
0
0
0
0
0
0
0
0
0
0
0
0
0
0
0
0
0
0
0
0
0
0
0
0
0
0
0
0
0
0
0
0
0
0
0
0
0
0
0
0
0
0
0
0
0
0
0
0
0
0
0
0
0
0
0
0
0
0
0
0
0
0
0
0
0
0
0
0
0
0
0
0
0
0
0
0
0
0
0
0
0
0
0
0
0
0
0
0
0
0
0
0
0
0
0
0
0
0
0
0
0
0
0
0
0
0
0
0
0
0
0
0
0
0
0
0
0
0
0
0
0
0
0
0
0
0
0
0
0
0
0
0
0
0
0
0
0
0
0
0
0
0
0
0
0
0
0
0
0
0
0
0
0
0
0
0
0
0
0
0
0
0
0
0
0
0
0
0
0
0
0
0
0
0
0
0
0
0
0
0
0
0
0
0
0
0
0
0
0
0
0
0
0
0
0
0
0
0
0
0
0
0
0
0
0
0
0
0
0
0
0
0
0
0
0
0
0
0
254
254
254
255
254
255
254
253
245
245
232
231
229
228
229
228
228
229
235
235
241
254
244
255
255
254
254
254
255
254
254
255
255
255
255
255
252
254
251
248
248
111
106
106
105
105
106
129
155
158
158
152
158
154
158
157
157
157
157
157
157
156
155
157
156
156
156
156
158
159
154
156
108
104
104
107
103
103
168
228
244
244
253
254
254
255
254
254
253
255
236
236
226
168
101
102
105
106
106
106
108
108
106
106
145
151
156
157
157
157
156
156
156
156
156
156
156
156
156
156
157
157
157
157
157
157
157
156
156
156
156
157
157
157
156
163
162
171
172
172
157
155
155
157
156
156
158
157
157
157
157
157
157
156
156
156
156
156
156
156
157
155
157
132
105
106
106
106
106
106
102
170
227
227
229
229
231
249
255
254
254
254
255
255
254
254
254
254
254
255
255
254
254
255
254
254
254
254
255
255
255
255
255
255
255
254
254
254
249
247
249
184
97
100
100
100
103
99
105
101
102
102
104
99
99
98
226
250
251
255
254
254
254
254
254
255
254
254
254
255
255
255
254
254
136
138
136
138
138
136
137
138
138
137
137
137
137
137
137
137
137
138
139
137
137
137
137
137
138
137
137
137
137
137
137
137
137
136
137
137
137
136
136
135
147
143
159
160
160
160
160
154
155
133
135
131
131
106
101
101
102
97
96
121
216
147
147
94
100
100
100
103
111
111
135
137
136
138
136
137
137
136
137
137
137
138
138
137
123
100
100
102
102
102
102
102
102
102
100
100
100
95
97
90
202
229
228
228
230
229
229
0
0
0
0
0
0
0
0
0
0
0
0
0
0
0
0
0
0
0
0
0
0
0
0
0
0
0
0
0
0
0
0
0
0
0
0
0
0
0
0
0
0
0
0
0
0
0
0
0
0
0
0
0
0
0
0
0
0
0
0
0
0
0
0
0
0
0
0
0
0
0
0
0
0
0
0
0
0
0
0
0
0
0
0
0
0
0
0
0
0
0
0
0
0
0
0
0
0
0
0
0
0
0
0
0
0
0
0
0
0
0
0
0
0
0
0
0
0
0
0
0
0
0
0
0
0
0
0
0
0
0
0
0
0
0
0
0
0
0
0
0
0
0
0
0
0
0
0
0
0
0
0
0
0
0
0
0
0
0
0
0
0
0
0
0
0
0
0
0
0
0
0
0
0
0
0
0
0
0
0
0
0
0
0
0
0
0
0
0
0
0
0
0
0
0
0
0
0
0
0
0
0
0
0
0
0
0
0
0
0
0
0
0
0
0
0
0
0
0
255
254
254
255
255
254
255
255
254
253
254
243
238
234
247
237
237
254
243
253
254
255
255
255
255
255
254
254
255
254
255
255
255
255
253
255
254
254
251
251
188
103
102
106
105
105
107
162
155
157
158
156
159
154
154
156
157
157
156
157
156
156
157
157
155
157
157
157
158
154
158
134
106
107
107
106
106
105
225
226
234
254
254
254
253
254
255
254
252
254
249
230
226
228
192
109
117
104
104
103
107
110
108
104
108
156
157
157
157
156
156
156
156
156
156
156
156
156
156
156
156
156
157
156
156
157
157
157
156
156
157
156
157
156
155
156
158
153
161
159
154
158
157
157
157
156
157
157
157
157
157
157
156
156
156
156
155
156
156
156
156
155
138
105
106
106
106
106
107
104
142
227
226
233
230
230
239
254
254
254
254
254
254
255
254
254
254
254
254
255
254
254
254
254
253
254
254
255
255
255
255
254
254
254
255
253
253
249
220
240
143
97
104
97
101
101
103
100
102
100
103
103
100
99
95
95
101
230
251
252
254
254
254
254
255
255
255
254
254
254
255
255
255
254
254
139
140
135
137
137
137
137
138
137
137
137
137
137
137
137
137
137
139
139
136
137
139
137
137
137
137
137
138
139
137
137
136
137
137
137
136
136
134
152
151
159
160
159
159
162
154
153
134
134
132
132
106
102
101
102
99
96
107
223
225
224
136
116
94
100
101
102
102
110
109
134
136
137
139
137
137
137
137
138
137
138
135
114
99
101
103
101
102
102
101
104
104
101
101
102
96
135
109
217
227
230
227
230
230
229
0
0
0
0
0
0
0
0
0
0
0
0
0
0
0
0
0
0
0
0
0
0
0
0
0
0
0
0
0
0
0
0
0
0
0
0
0
0
0
0
0
0
0
0
0
0
0
0
0
0
0
0
0
0
0
0
0
0
0
0
0
0
0
0
0
0
0
0
0
0
0
0
0
0
0
0
0
0
0
0
0
0
0
0
0
0
0
0
0
0
0
0
0
0
0
0
0
0
0
0
0
0
0
0
0
0
0
0
0
0
0
0
0
0
0
0
0
0
0
0
0
0
0
0
0
0
0
0
0
0
0
0
0
0
0
0
0
0
0
0
0
0
0
0
0
0
0
0
0
0
0
0
0
0
0
0
0
0
0
0
0
0
0
0
0
0
0
0
0
0
0
0
0
0
0
0
0
0
0
0
0
0
0
0
0
0
0
0
0
0
0
0
0
0
0
0
0
0
0
0
0
0
0
0
0
0
0
0
0
0
0
0
0
0
0
0
0
0
0
0
255
255
255
255
255
255
255
255
252
254
254
254
255
253
247
255
255
254
255
254
254
254
254
255
255
255
254
254
254
254
254
255
255
255
253
254
253
253
251
250
148
103
105
106
105
106
115
156
155
154
155
156
158
157
156
156
156
156
156
156
156
156
156
154
152
157
158
157
158
155
155
134
106
104
107
106
107
103
229
226
236
255
254
251
254
254
255
255
251
254
253
230
226
229
227
224
117
127
107
103
107
107
108
106
106
129
157
156
157
156
156
156
156
156
156
156
156
156
156
156
156
156
156
156
156
156
157
157
157
156
157
157
156
156
155
157
156
153
155
157
154
155
155
157
158
157
157
157
157
157
157
157
157
156
156
156
156
156
156
156
156
140
105
105
106
106
106
106
106
110
225
227
230
228
230
229
254
254
254
255
254
254
254
254
254
254
254
254
254
254
254
254
254
254
254
254
255
254
255
255
254
254
254
252
253
253
246
197
220
95
99
103
104
103
103
101
100
101
104
100
102
102
100
102
103
95
95
106
243
252
252
255
254
254
254
254
255
255
254
254
254
254
255
255
254
254
140
137
137
137
137
137
137
137
137
137
137
137
137
137
137
137
137
139
139
139
139
139
136
137
137
137
139
139
138
137
137
137
137
136
136
134
156
152
160
160
158
159
162
153
154
135
135
132
132
105
103
102
102
98
99
93
215
227
225
228
224
116
102
97
102
102
102
102
109
103
128
138
139
138
137
137
137
136
137
122
100
100
99
101
102
101
102
102
103
104
102
100
101
93
158
135
225
228
232
230
229
230
230
0
0
0
0
0
0
0
0
0
0
0
0
0
0
0
0
0
0
0
0
0
0
0
0
0
0
0
0
0
0
0
0
0
0
0
0
0
0
0
0
0
0
0
0
0
0
0
0
0
0
0
0
0
0
0
0
0
0
0
0
0
0
0
0
0
0
0
0
0
0
0
0
0
0
0
0
0
0
0
0
0
0
0
0
0
0
0
0
0
0
0
0
0
0
0
0
0
0
0
0
0
0
0
0
0
0
0
0
0
0
0
0
0
0
0
0
0
0
0
0
0
0
0
0
0
0
0
0
0
0
0
0
0
0
0
0
0
0
0
0
0
0
0
0
0
0
0
0
0
0
0
0
0
0
0
0
0
0
0
0
0
0
0
0
0
0
0
0
0
0
0
0
0
0
0
0
0
0
0
0
0
0
0
0
0
0
0
0
0
0
0
0
0
0
0
0
0
0
0
0
0
0
0
0
0
0
0
0
0
0
0
0
0
0
0
0
0
0
0
0
0
255
255
255
255
255
255
255
254
252
252
255
255
255
254
255
254
254
255
253
253
254
254
254
254
254
255
255
254
254
254
254
253
255
255
254
254
253
254
252
234
234
102
106
106
105
103
133
156
158
157
157
158
156
156
156
156
156
156
156
156
156
156
157
157
157
155
152
152
161
159
155
157
106
109
109
102
104
103
144
228
253
253
254
254
254
254
254
253
253
254
248
248
229
231
231
228
228
137
137
102
105
105
106
105
105
103
147
156
156
156
156
156
156
156
156
156
156
156
156
156
156
156
156
156
156
156
156
157
157
157
156
158
158
156
157
156
156
157
159
159
158
157
157
158
157
157
157
157
157
157
157
157
157
156
157
156
156
157
157
157
138
105
106
106
106
106
106
106
105
207
219
231
229
229
229
244
254
254
255
255
255
254
254
254
254
254
254
254
254
254
254
254
255
255
254
254
254
254
254
255
255
254
251
249
251
243
157
157
95
99
102
104
103
103
103
101
101
103
103
101
103
103
102
101
101
101
95
96
121
246
253
253
255
254
254
254
255
255
255
254
254
254
255
254
255
254
254
137
137
137
137
137
137
137
137
137
137
137
137
137
137
137
137
137
137
137
139
135
136
136
137
138
138
137
137
137
136
137
136
136
137
159
159
161
160
159
159
161
152
152
135
135
133
133
104
103
103
102
100
100
93
205
226
228
230
228
228
221
97
92
99
101
102
102
104
103
103
123
137
136
136
135
132
132
115
100
102
101
101
103
103
101
103
100
102
100
99
99
95
187
187
228
227
230
228
229
229
229
0
0
0
0
0
0
0
0
0
0
0
0
0
0
0
0
0
0
0
0
0
0
0
0
0
0
0
0
0
0
0
0
0
0
0
0
0
0
0
0
0
0
0
0
0
0
0
0
0
0
0
0
0
0
0
0
0
0
0
0
0
0
0
0
0
0
0
0
0
0
0
0
0
0
0
0
0
0
0
0
0
0
0
0
0
0
0
0
0
0
0
0
0
0
0
0
0
0
0
0
0
0
0
0
0
0
0
0
0
0
0
0
0
0
0
0
0
0
0
0
0
0
0
0
0
0
0
0
0
0
0
0
0
0
0
0
0
0
0
0
0
0
0
0
0
0
0
0
0
0
0
0
0
0
0
0
0
0
0
0
0
0
0
0
0
0
0
0
0
0
0
0
0
0
0
0
0
0
0
0
0
0
0
0
0
0
0
0
0
0
0
0
0
0
0
0
0
0
0
0
0
0
0
0
0
0
0
0
0
0
0
0
0
0
0
0
0
0
0
0
0
0
254
255
255
255
255
255
255
255
255
255
255
254
255
254
255
255
253
255
255
254
255
254
254
254
255
255
255
254
254
254
254
250
253
254
254
253
253
253
252
252
120
104
105
107
106
106
133
156
156
157
154
157
157
156
156
156
156
156
156
156
156
156
157
157
156
156
161
155
158
154
155
154
108
105
105
105
107
103
122
230
243
255
254
253
254
253
253
253
253
254
254
243
238
229
231
230
229
226
138
123
106
104
107
107
105
104
127
156
156
157
156
156
156
156
156
156
156
156
156
156
157
156
156
156
156
156
156
157
157
157
157
156
156
156
158
156
155
157
157
158
156
155
159
157
157
157
157
157
157
157
157
157
157
156
157
157
158
157
157
134
105
107
106
107
106
106
106
103
198
207
230
230
230
231
230
254
254
253
254
255
254
254
254
254
254
254
254
254
254
254
254
254
255
255
254
254
254
254
254
254
254
251
244
249
191
98
120
96
100
101
102
101
104
101
104
100
107
103
120
123
101
103
103
102
102
102
102
96
96
174
249
254
254
253
254
254
254
255
255
255
254
254
254
255
255
254
254
254
137
138
138
137
137
136
137
137
137
137
137
137
137
137
137
137
137
137
139
136
136
136
138
138
137
136
137
137
137
136
136
140
161
161
161
161
158
159
160
154
150
135
137
134
133
104
104
104
102
100
99
91
176
229
226
228
229
231
227
227
206
92
92
98
102
102
103
103
103
102
107
130
131
114
130
107
102
102
102
101
104
103
103
103
101
100
97
92
96
111
225
211
230
227
229
230
231
232
229
0
0
0
0
0
0
0
0
0
0
0
0
0
0
0
0
0
0
0
0
0
0
0
0
0
0
0
0
0
0
0
0
0
0
0
0
0
0
0
0
0
0
0
0
0
0
0
0
0
0
0
0
0
0
0
0
0
0
0
0
0
0
0
0
0
0
0
0
0
0
0
0
0
0
0
0
0
0
0
0
0
0
0
0
0
0
0
0
0
0
0
0
0
0
0
0
0
0
0
0
0
0
0
0
0
0
0
0
0
0
0
0
0
0
0
0
0
0
0
0
0
0
0
0
0
0
0
0
0
0
0
0
0
0
0
0
0
0
0
0
0
0
0
0
0
0
0
0
0
0
0
0
0
0
0
0
0
0
0
0
0
0
0
0
0
0
0
0
0
0
0
0
0
0
0
0
0
0
0
0
0
0
0
0
0
0
0
0
0
0
0
0
0
0
0
0
0
0
0
0
0
0
0
0
0
0
0
0
0
0
0
0
0
0
0
0
0
0
0
0
0
0
0
254
254
255
255
255
255
254
254
255
253
253
253
255
253
253
254
253
255
255
255
254
254
254
255
255
255
254
254
254
254
254
254
255
253
254
254
254
251
251
247
105
104
107
107
105
105
143
154
154
154
157
157
157
157
157
157
157
156
156
156
156
157
157
156
156
156
157
156
155
155
158
150
150
107
104
104
104
102
186
186
247
254
254
255
254
255
255
255
255
255
254
253
237
237
228
230
230
235
225
123
107
103
107
107
107
110
110
151
156
157
157
156
156
156
156
156
156
156
156
157
157
156
156
156
156
156
156
156
157
157
157
157
155
156
156
156
157
157
156
155
156
158
156
157
157
157
157
157
157
157
157
157
157
157
157
156
157
157
120
105
107
107
105
107
107
106
104
192
192
229
230
230
229
227
253
253
253
255
255
254
254
254
255
254
254
254
254
254
254
255
254
254
254
254
254
254
254
254
254
255
249
236
236
140
92
92
100
101
102
102
101
101
101
102
101
121
121
133
139
139
135
111
103
103
102
102
102
102
95
95
204
253
254
254
255
254
254
255
255
255
255
254
254
254
254
254
254
254
254
138
138
138
137
137
136
137
137
137
137
137
137
137
137
137
137
137
136
136
136
137
137
138
138
137
137
137
136
136
146
161
161
160
160
158
158
161
152
152
134
136
134
134
105
104
104
103
101
100
96
155
227
227
229
230
230
229
227
229
229
196
92
92
99
102
102
102
102
101
101
101
105
114
101
100
102
102
101
104
104
104
103
102
102
96
92
92
175
227
225
229
228
230
230
231
230
230
0
0
0
0
0
0
0
0
0
0
0
0
0
0
0
0
0
0
0
0
0
0
0
0
0
0
0
0
0
0
0
0
0
0
0
0
0
0
0
0
0
0
0
0
0
0
0
0
0
0
0
0
0
0
0
0
0
0
0
0
0
0
0
0
0
0
0
0
0
0
0
0
0
0
0
0
0
0
0
0
0
0
0
0
0
0
0
0
0
0
0
0
0
0
0
0
0
0
0
0
0
0
0
0
0
0
0
0
0
0
0
0
0
0
0
0
0
0
0
0
0
0
0
0
0
0
0
0
0
0
0
0
0
0
0
0
0
0
0
0
0
0
0
0
0
0
0
0
0
0
0
0
0
0
0
0
0
0
0
0
0
0
0
0
0
0
0
0
0
0
0
0
0
0
0
0
0
0
0
0
0
0
0
0
0
0
0
0
0
0
0
0
0
0
0
0
0
0
0
0
0
0
0
0
0
0
0
0
0
0
0
0
0
0
0
0
0
0
0
0
0
0
0
0
254
254
254
255
255
255
254
254
254
255
255
254
255
255
254
254
254
255
255
255
255
254
254
254
255
255
254
253
255
255
254
254
254
253
255
254
254
254
249
242
172
104
108
105
105
115
152
158
157
156
156
156
157
157
157
157
157
157
156
156
157
156
156
156
156
156
156
156
161
157
158
158
122
107
105
106
104
105
104
227
246
250
252
254
255
253
255
255
254
255
254
255
253
240
243
229
227
225
227
214
102
105
104
105
105
106
116
146
156
155
155
158
156
156
156
156
156
156
156
156
156
156
156
156
156
156
156
156
156
157
158
155
153
156
156
157
156
158
157
155
158
156
158
158
156
158
157
157
156
157
157
157
156
157
156
144
155
116
106
107
107
105
106
106
106
101
183
183
228
230
229
229
231
241
249
254
254
255
254
254
254
253
254
255
254
254
253
254
254
254
255
254
254
254
254
254
252
253
254
244
167
208
103
100
96
102
102
103
103
101
101
101
101
123
137
138
135
138
139
138
137
135
108
103
103
101
103
103
101
95
96
242
249
253
252
255
254
254
255
255
255
255
254
254
254
254
254
255
254
254
138
137
137
136
138
137
137
137
137
137
137
137
137
137
137
137
136
136
137
137
137
137
138
137
137
135
135
148
158
159
160
159
159
159
161
149
150
134
136
136
133
106
102
103
102
102
102
96
139
227
227
228
231
231
232
233
244
231
227
228
188
94
93
95
99
102
103
103
101
103
100
100
102
99
101
103
102
103
104
102
98
101
95
137
107
202
228
226
228
229
228
229
231
230
229
0
0
0
0
0
0
0
0
0
0
0
0
0
0
0
0
0
0
0
0
0
0
0
0
0
0
0
0
0
0
0
0
0
0
0
0
0
0
0
0
0
0
0
0
0
0
0
0
0
0
0
0
0
0
0
0
0
0
0
0
0
0
0
0
0
0
0
0
0
0
0
0
0
0
0
0
0
0
0
0
0
0
0
0
0
0
0
0
0
0
0
0
0
0
0
0
0
0
0
0
0
0
0
0
0
0
0
0
0
0
0
0
0
0
0
0
0
0
0
0
0
0
0
0
0
0
0
0
0
0
0
0
0
0
0
0
0
0
0
0
0
0
0
0
0
0
0
0
0
0
0
0
0
0
0
0
0
0
0
0
0
0
0
0
0
0
0
0
0
0
0
0
0
0
0
0
0
0
0
0
0
0
0
0
0
0
0
0
0
0
0
0
0
0
0
0
0
0
0
0
0
0
0
0
0
0
0
0
0
0
0
0
0
0
0
0
0
0
0
0
0
0
0
0
0
254
254
254
254
255
255
255
254
254
254
255
253
255
254
253
254
255
255
255
255
255
255
254
254
255
255
255
255
255
255
255
255
254
254
254
254
254
254
251
242
147
103
105
105
105
122
152
155
155
156
156
156
156
157
156
156
157
157
157
157
157
156
156
156
156
156
157
157
156
154
158
157
138
106
106
106
104
105
105
181
246
252
253
253
255
255
253
255
254
254
253
253
254
255
243
247
232
225
228
224
108
105
106
108
105
106
112
160
160
156
156
158
155
156
156
156
156
156
156
156
156
156
156
156
156
156
156
157
156
155
157
158
158
158
154
157
157
155
157
157
157
157
158
155
153
158
155
156
156
156
156
156
156
157
131
144
105
106
107
107
105
106
106
106
101
185
185
228
229
230
230
232
235
235
254
255
254
254
254
254
252
253
254
255
255
254
253
254
253
255
255
252
254
254
254
251
252
245
230
116
167
97
98
100
100
102
101
101
103
102
101
112
130
135
135
138
136
138
140
137
137
137
133
103
103
102
103
103
103
101
107
107
246
255
252
254
254
254
254
254
254
255
255
254
254
254
255
255
255
254
254
137
137
138
138
137
137
137
137
137
137
137
137
137
137
137
137
137
137
138
137
137
137
138
136
135
154
159
158
161
159
160
159
160
148
149
135
136
136
136
108
102
102
102
102
102
100
103
225
227
229
231
231
231
230
251
251
246
227
228
227
175
93
93
96
101
103
102
104
103
103
100
101
99
103
103
102
101
99
96
96
98
179
137
225
229
228
230
229
229
228
229
231
230
0
0
0
0
0
0
0
0
0
0
0
0
0
0
0
0
0
0
0
0
0
0
0
0
0
0
0
0
0
0
0
0
0
0
0
0
0
0
0
0
0
0
0
0
0
0
0
0
0
0
0
0
0
0
0
0
0
0
0
0
0
0
0
0
0
0
0
0
0
0
0
0
0
0
0
0
0
0
0
0
0
0
0
0
0
0
0
0
0
0
0
0
0
0
0
0
0
0
0
0
0
0
0
0
0
0
0
0
0
0
0
0
0
0
0
0
0
0
0
0
0
0
0
0
0
0
0
0
0
0
0
0
0
0
0
0
0
0
0
0
0
0
0
0
0
0
0
0
0
0
0
0
0
0
0
0
0
0
0
0
0
0
0
0
0
0
0
0
0
0
0
0
0
0
0
0
0
0
0
0
0
0
0
0
0
0
0
0
0
0
0
0
0
0
0
0
0
0
0
0
0
0
0
0
0
0
0
0
0
0
0
0
0
0
0
0
0
0
0
0
0
0
0
0
0
0
255
254
254
255
255
255
255
255
254
254
254
254
254
252
252
255
255
255
255
255
255
255
255
255
255
255
255
255
255
255
255
255
255
254
254
255
255
255
255
240
104
102
105
108
105
105
154
156
156
156
156
156
156
156
156
156
156
157
157
157
157
156
156
156
156
156
156
157
157
155
157
156
154
117
106
106
109
105
103
103
228
252
255
254
254
254
254
254
255
254
255
253
254
254
254
251
251
235
232
224
190
103
105
105
106
102
116
147
155
158
158
158
156
156
156
156
156
156
156
156
156
156
156
156
156
156
156
156
158
156
159
153
156
153
161
157
156
156
156
156
157
157
154
159
159
157
159
154
156
156
154
159
148
120
120
105
107
106
103
105
106
106
105
102
196
189
227
231
229
230
230
228
231
253
254
254
254
254
254
254
253
254
253
254
254
254
254
254
254
255
253
255
253
254
250
250
244
186
93
92
97
99
99
103
101
102
101
103
113
106
122
136
138
137
136
137
137
135
136
136
137
136
136
127
102
101
101
103
102
101
101
131
164
247
254
255
255
255
254
254
254
255
255
255
254
254
254
255
255
254
254
254
138
138
137
137
137
137
137
137
137
137
137
137
137
137
137
137
138
138
138
137
137
136
136
154
159
159
161
159
159
161
159
148
148
135
136
135
135
108
101
101
101
102
102
101
96
212
221
229
230
230
231
228
251
253
253
253
247
228
229
230
177
93
90
98
100
101
101
101
103
103
106
101
104
104
101
97
94
93
118
224
210
227
228
228
229
229
229
229
229
229
229
0
0
0
0
0
0
0
0
0
0
0
0
0
0
0
0
0
0
0
0
0
0
0
0
0
0
0
0
0
0
0
0
0
0
0
0
0
0
0
0
0
0
0
0
0
0
0
0
0
0
0
0
0
0
0
0
0
0
0
0
0
0
0
0
0
0
0
0
0
0
0
0
0
0
0
0
0
0
0
0
0
0
0
0
0
0
0
0
0
0
0
0
0
0
0
0
0
0
0
0
0
0
0
0
0
0
0
0
0
0
0
0
0
0
0
0
0
0
0
0
0
0
0
0
0
0
0
0
0
0
0
0
0
0
0
0
0
0
0
0
0
0
0
0
0
0
0
0
0
0
0
0
0
0
0
0
0
0
0
0
0
0
0
0
0
0
0
0
0
0
0
0
0
0
0
0
0
0
0
0
0
0
0
0
0
0
0
0
0
0
0
0
0
0
0
0
0
0
0
0
0
0
0
0
0
0
0
0
0
0
0
0
0
0
0
0
0
0
0
0
0
0
0
0
0
0
0
255
255
255
255
254
254
255
255
255
254
254
254
254
254
255
255
255
255
255
255
255
255
255
255
255
255
254
255
255
255
255
255
255
254
254
254
254
252
248
232
104
102
105
105
104
130
158
156
156
156
156
156
156
156
156
156
156
156
157
157
157
157
156
156
156
156
156
157
157
157
156
157
154
144
106
106
105
105
107
107
118
247
255
253
254
254
254
254
255
254
254
254
254
252
251
254
255
253
238
224
162
104
105
105
103
100
116
151
155
158
155
156
155
156
158
156
156
156
156
156
156
156
156
156
156
156
156
158
158
155
159
155
157
153
157
155
157
158
157
157
157
157
153
160
158
155
154
154
157
145
154
118
106
111
106
106
105
106
107
106
106
106
109
205
196
228
232
231
229
230
229
228
252
254
254
254
254
254
254
255
254
254
254
254
255
254
255
252
254
253
254
255
252
246
249
231
99
96
93
100
101
99
103
103
104
102
109
125
113
139
135
137
138
137
136
137
134
136
137
135
137
137
136
137
114
102
101
103
102
101
101
94
164
196
249
255
254
253
254
254
253
253
255
255
254
254
254
254
254
254
254
255
254
137
136
137
137
137
137
137
137
138
138
137
137
137
137
137
138
138
138
138
136
136
155
160
158
160
160
159
159
163
151
150
135
135
136
135
108
101
101
101
101
102
102
95
197
212
231
231
231
231
230
247
251
253
254
253
253
240
229
230
229
200
90
92
99
103
101
100
103
103
98
102
100
101
94
97
94
188
228
224
231
227
228
231
229
229
229
230
230
229
0
0
0
0
0
0
0
0
0
0
0
0
0
0
0
0
0
0
0
0
0
0
0
0
0
0
0
0
0
0
0
0
0
0
0
0
0
0
0
0
0
0
0
0
0
0
0
0
0
0
0
0
0
0
0
0
0
0
0
0
0
0
0
0
0
0
0
0
0
0
0
0
0
0
0
0
0
0
0
0
0
0
0
0
0
0
0
0
0
0
0
0
0
0
0
0
0
0
0
0
0
0
0
0
0
0
0
0
0
0
0
0
0
0
0
0
0
0
0
0
0
0
0
0
0
0
0
0
0
0
0
0
0
0
0
0
0
0
0
0
0
0
0
0
0
0
0
0
0
0
0
0
0
0
0
0
0
0
0
0
0
0
0
0
0
0
0
0
0
0
0
0
0
0
0
0
0
0
0
0
0
0
0
0
0
0
0
0
0
0
0
0
0
0
0
0
0
0
0
0
0
0
0
0
0
0
0
0
0
0
0
0
0
0
0
0
0
0
0
0
0
0
0
0
0
0
0
0
255
255
255
255
254
254
254
255
255
255
254
254
254
254
255
255
255
255
255
255
255
255
255
255
254
255
255
254
255
255
255
255
255
255
255
254
254
254
246
122
122
107
107
107
111
133
155
155
156
156
156
156
156
156
156
156
156
156
156
157
157
157
157
156
156
156
156
156
157
157
157
157
156
124
124
106
106
106
104
105
134
134
246
254
254
252
254
254
254
253
254
254
254
254
254
252
255
254
254
229
104
104
108
105
108
108
128
157
157
156
156
159
158
157
156
156
156
156
156
156
156
156
156
157
156
156
156
154
139
160
154
160
160
152
160
160
157
157
157
157
155
157
157
159
157
156
156
146
122
122
106
105
105
106
106
104
104
107
106
106
103
113
214
214
228
230
230
229
229
229
229
245
253
253
255
254
254
254
255
255
255
254
255
255
254
255
252
252
254
253
253
249
242
242
154
94
98
98
102
103
103
101
102
103
103
116
134
134
140
135
137
136
136
136
136
135
147
147
149
136
138
138
137
139
139
109
99
101
101
103
99
99
94
221
221
248
254
255
255
255
253
253
253
254
254
254
254
254
254
254
254
254
255
254
136
136
138
137
137
138
138
138
138
138
137
137
137
137
137
138
137
136
136
154
160
160
161
159
159
159
161
148
148
136
135
137
137
109
101
101
101
101
101
103
96
182
182
231
230
230
229
230
244
244
254
253
253
254
253
254
236
228
228
228
209
109
109
95
103
101
101
102
103
103
100
93
133
133
217
228
228
231
228
228
230
229
230
230
229
229
229
0
0
0
0
0
0
0
0
0
0
0
0
0
0
0
0
0
0
0
0
0
0
0
0
0
0
0
0
0
0
0
0
0
0
0
0
0
0
0
0
0
0
0
0
0
0
0
0
0
0
0
0
0
0
0
0
0
0
0
0
0
0
0
0
0
0
0
0
0
0
0
0
0
0
0
0
0
0
0
0
0
0
0
0
0
0
0
0
0
0
0
0
0
0
0
0
0
0
0
0
0
0
0
0
0
0
0
0
0
0
0
0
0
0
0
0
0
0
0
0
0
0
0
0
0
0
0
0
0
0
0
0
0
0
0
0
0
0
0
0
0
0
0
0
0
0
0
0
0
0
0
0
0
0
0
0
0
0
0
0
0
0
0
0
0
0
0
0
0
0
0
0
0
0
0
0
0
0
0
0
0
0
0
0
0
0
0
0
0
0
0
0
0
0
0
0
0
0
0
0
0
0
0
0
0
0
0
0
0
0
0
0
0
0
0
0
0
0
0
0
0
0
0
0
0
0
0
0
0
254
254
255
255
255
254
254
254
255
255
255
254
254
254
254
255
255
255
255
255
255
255
255
254
254
255
255
255
254
255
255
255
255
255
254
254
254
251
247
229
102
104
107
105
109
136
158
158
156
156
156
156
156
156
157
156
156
156
156
156
157
157
157
157
156
156
156
156
157
157
157
156
157
156
108
105
105
107
104
104
103
135
130
246
254
251
253
253
255
255
253
254
253
254
253
254
255
255
244
133
110
102
106
105
106
107
149
157
156
158
155
159
155
157
157
156
156
157
156
156
156
156
157
157
157
157
156
124
139
105
105
143
149
126
156
156
139
142
155
156
140
155
155
123
110
139
120
106
105
106
107
106
107
106
107
105
108
104
104
104
150
225
220
229
229
230
229
229
230
229
243
255
255
255
255
254
254
254
254
255
254
254
255
255
253
255
253
255
250
251
247
173
220
115
96
99
100
101
102
102
99
100
113
104
125
137
137
137
138
138
137
138
137
136
137
140
153
160
161
163
140
137
136
137
136
133
104
101
100
100
102
98
98
94
239
243
251
251
254
254
254
253
253
254
254
254
254
254
254
254
254
254
254
255
254
138
138
138
138
138
138
138
138
137
137
137
137
137
137
137
135
136
153
157
159
162
159
161
160
160
148
148
135
135
137
137
110
102
102
101
101
101
103
97
159
171
229
228
228
228
231
237
240
254
254
254
254
255
254
254
254
233
229
227
227
217
130
182
113
92
95
93
95
93
163
224
182
226
228
229
229
230
230
229
230
230
230
230
235
231
0
0
0
0
0
0
0
0
0
0
0
0
0
0
0
0
0
0
0
0
0
0
0
0
0
0
0
0
0
0
0
0
0
0
0
0
0
0
0
0
0
0
0
0
0
0
0
0
0
0
0
0
0
0
0
0
0
0
0
0
0
0
0
0
0
0
0
0
0
0
0
0
0
0
0
0
0
0
0
0
0
0
0
0
0
0
0
0
0
0
0
0
0
0
0
0
0
0
0
0
0
0
0
0
0
0
0
0
0
0
0
0
0
0
0
0
0
0
0
0
0
0
0
0
0
0
0
0
0
0
0
0
0
0
0
0
0
0
0
0
0
0
0
0
0
0
0
0
0
0
0
0
0
0
0
0
0
0
0
0
0
0
0
0
0
0
0
0
0
0
0
0
0
0
0
0
0
0
0
0
0
0
0
0
0
0
0
0
0
0
0
0
0
0
0
0
0
0
0
0
0
0
0
0
0
0
0
0
0
0
0
0
0
0
0
0
0
0
0
0
0
0
0
0
0
0
0
0
0
0
254
254
254
255
255
255
254
254
254
255
255
255
255
255
255
254
255
255
255
255
255
255
255
254
254
254
255
254
254
254
255
255
255
254
254
254
253
251
251
224
103
104
108
107
108
108
156
159
156
158
156
156
156
157
157
157
156
156
156
156
156
157
157
157
156
156
156
157
157
157
156
156
156
158
147
105
105
104
106
106
105
105
130
118
227
249
249
253
253
255
255
254
253
255
254
252
252
248
156
133
106
106
105
105
106
124
149
154
157
156
156
156
157
157
157
157
156
156
157
156
156
156
156
157
155
154
123
123
104
105
105
106
106
126
105
106
107
107
112
111
140
108
105
104
104
105
109
106
108
104
107
108
105
106
106
106
104
104
103
177
226
226
228
229
229
229
230
230
230
241
255
255
254
253
255
254
254
254
254
253
254
254
254
255
254
254
253
248
250
225
126
173
96
100
102
102
101
102
102
103
102
125
125
138
138
137
137
137
137
137
137
137
137
137
134
140
155
160
159
159
162
150
136
135
137
127
127
103
101
100
100
101
98
96
134
245
245
254
254
254
255
255
254
254
254
254
254
254
255
254
254
254
254
254
254
254
138
138
138
137
137
137
137
137
136
136
137
137
137
136
136
138
159
157
160
159
160
160
162
151
148
136
136
138
138
112
103
102
101
101
101
103
97
145
145
231
227
228
229
231
234
234
254
254
254
254
254
255
255
254
253
253
233
230
227
228
225
216
216
193
176
93
195
220
228
228
227
229
228
229
230
230
229
230
231
231
230
240
235
0
0
0
0
0
0
0
0
0
0
0
0
0
0
0
0
0
0
0
0
0
0
0
0
0
0
0
0
0
0
0
0
0
0
0
0
0
0
0
0
0
0
0
0
0
0
0
0
0
0
0
0
0
0
0
0
0
0
0
0
0
0
0
0
0
0
0
0
0
0
0
0
0
0
0
0
0
0
0
0
0
0
0
0
0
0
0
0
0
0
0
0
0
0
0
0
0
0
0
0
0
0
0
0
0
0
0
0
0
0
0
0
0
0
0
0
0
0
0
0
0
0
0
0
0
0
0
0
0
0
0
0
0
0
0
0
0
0
0
0
0
0
0
0
0
0
0
0
0
0
0
0
0
0
0
0
0
0
0
0
0
0
0
0
0
0
0
0
0
0
0
0
0
0
0
0
0
0
0
0
0
0
0
0
0
0
0
0
0
0
0
0
0
0
0
0
0
0
0
0
0
0
0
0
0
0
0
0
0
0
0
0
0
0
0
0
0
0
0
0
0
0
0
0
0
0
0
0
0
0
0
254
254
254
254
255
255
255
254
254
254
255
255
255
255
255
255
254
255
255
255
255
255
254
255
254
254
254
254
254
254
254
255
255
255
255
254
254
252
248
231
120
107
102
103
105
135
157
155
155
158
158
156
156
156
157
157
157
156
156
156
156
156
157
157
157
156
157
156
157
157
156
156
156
156
156
138
103
104
106
105
105
107
105
106
102
194
242
227
250
252
251
251
252
246
245
252
244
129
148
104
106
107
107
106
102
112
158
159
153
157
157
156
156
157
157
157
157
156
156
156
156
156
156
157
159
159
137
107
103
106
106
104
107
106
106
105
106
102
109
105
107
105
108
110
107
105
105
104
107
107
105
104
104
106
104
103
102
116
202
228
227
229
231
229
230
231
230
231
240
253
254
254
254
253
255
254
255
254
253
254
254
255
255
254
254
254
241
244
189
100
100
97
103
100
101
101
102
102
102
112
135
133
137
137
137
136
137
139
138
136
139
138
137
136
138
138
162
163
158
159
159
161
149
135
136
137
122
114
103
101
101
101
102
95
97
168
250
253
253
254
252
255
255
254
254
254
254
254
254
255
254
254
254
255
255
254
254
138
137
137
137
137
137
136
136
136
136
137
137
137
133
151
161
161
160
160
159
161
156
154
136
137
132
137
115
105
104
102
101
101
102
97
125
138
227
227
227
230
230
230
232
255
253
254
255
254
254
254
254
253
254
251
252
231
230
232
229
233
229
228
226
225
227
228
229
231
231
231
229
229
229
232
229
229
230
230
252
247
0
0
0
0
0
0
0
0
0
0
0
0
0
0
0
0
0
0
0
0
0
0
0
0
0
0
0
0
0
0
0
0
0
0
0
0
0
0
0
0
0
0
0
0
0
0
0
0
0
0
0
0
0
0
0
0
0
0
0
0
0
0
0
0
0
0
0
0
0
0
0
0
0
0
0
0
0
0
0
0
0
0
0
0
0
0
0
0
0
0
0
0
0
0
0
0
0
0
0
0
0
0
0
0
0
0
0
0
0
0
0
0
0
0
0
0
0
0
0
0
0
0
0
0
0
0
0
0
0
0
0
0
0
0
0
0
0
0
0
0
0
0
0
0
0
0
0
0
0
0
0
0
0
0
0
0
0
0
0
0
0
0
0
0
0
0
0
0
0
0
0
0
0
0
0
0
0
0
0
0
0
0
0
0
0
0
0
0
0
0
0
0
0
0
0
0
0
0
0
0
0
0
0
0
0
0
0
0
0
0
0
0
0
0
0
0
0
0
0
0
0
0
0
0
0
0
0
0
0
0
0
0
254
254
254
254
254
255
255
255
254
255
255
255
255
255
255
255
254
254
255
255
254
254
254
254
255
255
254
254
255
254
254
252
255
254
254
254
254
254
249
231
125
105
106
103
109
132
157
157
159
154
155
156
156
156
156
157
157
156
157
157
156
156
157
157
157
157
157
156
156
156
156
156
156
156
156
157
129
104
105
106
105
106
107
106
102
101
105
227
154
212
249
250
230
218
245
161
107
129
105
106
104
107
106
103
102
149
154
158
153
157
156
156
156
156
157
157
157
157
156
156
156
156
154
153
156
159
119
105
103
109
103
104
107
106
108
105
106
107
109
106
106
107
108
107
105
105
109
106
107
104
106
103
104
104
110
103
188
226
231
228
228
231
231
229
231
230
230
240
253
253
255
254
254
255
255
254
255
255
255
254
249
253
252
254
247
219
241
109
95
94
99
100
101
100
98
102
102
111
135
136
135
136
138
137
137
138
139
139
136
138
139
138
138
136
136
136
152
163
160
161
159
160
160
139
136
135
136
114
109
101
101
101
101
101
97
95
234
253
253
255
254
255
255
254
254
254
254
254
255
255
254
254
254
254
255
255
254
254
137
137
137
137
137
137
137
136
137
137
137
136
140
151
163
160
160
160
159
159
156
135
135
139
132
130
104
105
103
102
101
103
97
116
125
225
229
227
230
230
229
230
251
254
253
255
254
255
254
254
254
253
254
254
252
254
232
229
229
228
228
228
231
228
228
228
231
230
231
230
230
230
231
228
230
229
241
254
252
0
0
0
0
0
0
0
0
0
0
0
0
0
0
0
0
0
0
0
0
0
0
0
0
0
0
0
0
0
0
0
0
0
0
0
0
0
0
0
0
0
0
0
0
0
0
0
0
0
0
0
0
0
0
0
0
0
0
0
0
0
0
0
0
0
0
0
0
0
0
0
0
0
0
0
0
0
0
0
0
0
0
0
0
0
0
0
0
0
0
0
0
0
0
0
0
0
0
0
0
0
0
0
0
0
0
0
0
0
0
0
0
0
0
0
0
0
0
0
0
0
0
0
0
0
0
0
0
0
0
0
0
0
0
0
0
0
0
0
0
0
0
0
0
0
0
0
0
0
0
0
0
0
0
0
0
0
0
0
0
0
0
0
0
0
0
0
0
0
0
0
0
0
0
0
0
0
0
0
0
0
0
0
0
0
0
0
0
0
0
0
0
0
0
0
0
0
0
0
0
0
0
0
0
0
0
0
0
0
0
0
0
0
0
0
0
0
0
0
0
0
0
0
0
0
0
0
0
0
0
0
0
0
254
254
255
254
254
254
255
255
255
255
254
254
254
255
255
255
254
254
254
254
254
254
254
254
255
255
255
254
254
255
255
255
255
253
254
254
254
254
254
232
102
103
106
107
102
102
157
156
156
155
156
156
156
156
156
156
156
156
156
156
156
156
156
157
157
157
157
156
156
156
156
156
156
156
156
156
156
127
107
107
106
108
108
106
107
103
103
103
105
105
117
132
123
123
109
100
100
103
105
108
105
107
106
106
137
154
157
159
154
156
156
156
156
156
156
157
157
157
157
156
156
156
159
155
158
155
107
107
105
106
106
108
105
110
105
106
106
106
105
111
103
106
107
105
105
104
106
106
105
103
102
102
102
147
147
220
227
229
230
230
231
231
229
231
229
229
241
254
254
255
254
254
255
255
254
254
254
255
255
251
254
249
250
244
177
177
95
100
100
98
102
103
103
102
103
103
121
137
137
137
137
138
138
140
138
137
138
136
138
138
138
138
138
136
140
138
136
161
155
155
162
160
161
163
139
135
135
136
106
106
101
101
102
102
101
94
94
244
252
251
255
253
253
253
254
255
255
254
254
255
255
254
254
254
254
255
254
254
254
137
137
137
137
137
137
137
138
138
137
135
135
159
158
160
159
158
163
163
141
137
135
138
136
105
105
104
102
102
102
97
105
105
224
225
225
232
229
228
230
250
255
255
255
254
254
254
255
254
254
254
254
254
252
251
249
229
233
230
230
232
230
229
231
229
230
230
229
230
230
230
229
231
231
248
254
254
0
0
0
0
0
0
0
0
0
0
0
0
0
0
0
0
0
0
0
0
0
0
0
0
0
0
0
0
0
0
0
0
0
0
0
0
0
0
0
0
0
0
0
0
0
0
0
0
0
0
0
0
0
0
0
0
0
0
0
0
0
0
0
0
0
0
0
0
0
0
0
0
0
0
0
0
0
0
0
0
0
0
0
0
0
0
0
0
0
0
0
0
0
0
0
0
0
0
0
0
0
0
0
0
0
0
0
0
0
0
0
0
0
0
0
0
0
0
0
0
0
0
0
0
0
0
0
0
0
0
0
0
0
0
0
0
0
0
0
0
0
0
0
0
0
0
0
0
0
0
0
0
0
0
0
0
0
0
0
0
0
0
0
0
0
0
0
0
0
0
0
0
0
0
0
0
0
0
0
0
0
0
0
0
0
0
0
0
0
0
0
0
0
0
0
0
0
0
0
0
0
0
0
0
0
0
0
0
0
0
0
0
0
0
0
0
0
0
0
0
0
0
0
0
0
0
0
0
0
0
0
0
0
0
254
254
254
255
255
255
254
254
254
255
255
254
254
254
254
254
254
254
254
255
255
254
254
254
255
255
255
255
255
255
255
254
254
254
254
252
252
254
248
241
104
103
109
105
106
123
156
154
158
155
156
154
157
157
156
156
156
156
156
156
156
156
156
157
157
157
157
157
156
156
156
156
156
156
156
156
156
158
127
107
106
105
108
107
108
104
104
107
106
105
103
106
104
101
108
104
108
108
107
108
105
103
104
129
158
154
157
159
156
157
156
156
156
156
156
156
157
157
157
157
156
156
156
155
156
154
124
102
104
105
104
106
105
110
104
107
106
105
106
107
103
105
106
104
104
106
106
104
100
120
103
125
224
193
227
231
228
229
230
230
230
229
231
229
229
246
255
255
255
253
253
255
255
254
254
255
254
254
255
252
247
249
204
97
130
90
102
100
101
100
102
102
103
114
107
130
136
137
137
137
137
136
139
138
137
137
137
138
138
138
137
137
136
138
137
138
136
144
163
157
161
159
161
159
155
137
136
138
133
103
103
100
101
103
103
102
118
152
247
251
255
254
253
254
254
254
255
255
254
254
255
254
254
254
254
254
254
254
255
254
137
137
137
137
138
138
138
138
136
135
149
162
160
160
161
156
163
148
135
141
135
134
130
114
102
100
101
102
100
90
96
219
229
228
229
228
230
228
242
254
255
254
254
255
254
254
254
255
254
254
254
254
254
254
249
253
234
229
231
229
229
229
228
230
230
229
229
229
229
231
244
236
255
253
254
0
0
0
0
0
0
0
0
0
0
0
0
0
0
0
0
0
0
0
0
0
0
0
0
0
0
0
0
0
0
0
0
0
0
0
0
0
0
0
0
0
0
0
0
0
0
0
0
0
0
0
0
0
0
0
0
0
0
0
0
0
0
0
0
0
0
0
0
0
0
0
0
0
0
0
0
0
0
0
0
0
0
0
0
0
0
0
0
0
0
0
0
0
0
0
0
0
0
0
0
0
0
0
0
0
0
0
0
0
0
0
0
0
0
0
0
0
0
0
0
0
0
0
0
0
0
0
0
0
0
0
0
0
0
0
0
0
0
0
0
0
0
0
0
0
0
0
0
0
0
0
0
0
0
0
0
0
0
0
0
0
0
0
0
0
0
0
0
0
0
0
0
0
0
0
0
0
0
0
0
0
0
0
0
0
0
0
0
0
0
0
0
0
0
0
0
0
0
0
0
0
0
0
0
0
0
0
0
0
0
0
0
0
0
0
0
0
0
0
0
0
0
0
0
0
0
0
0
0
0
0
0
0
0
0
255
255
255
254
255
255
254
254
254
254
255
254
254
254
254
254
254
254
254
254
255
255
254
254
254
255
255
255
255
255
255
254
254
254
255
255
255
255
251
158
158
102
104
104
106
119
156
157
158
157
157
157
157
157
156
157
156
156
156
156
156
156
156
157
157
157
157
157
156
156
156
156
156
156
156
156
157
157
158
139
107
107
105
106
106
107
106
107
105
106
104
104
105
106
108
105
107
104
104
106
105
105
128
156
154
154
158
156
156
156
156
156
156
156
156
156
156
157
157
155
157
157
157
157
156
156
142
107
104
106
105
105
105
103
102
102
107
102
104
104
105
104
104
101
102
106
104
130
176
176
221
230
224
228
231
230
230
231
230
230
230
232
229
229
249
253
253
255
253
253
255
255
254
254
255
254
254
254
253
244
244
159
92
92
99
104
102
101
102
105
105
105
124
114
138
135
139
139
137
137
137
137
138
138
138
137
138
138
137
137
137
137
138
137
137
136
136
136
152
159
158
158
158
160
160
147
135
138
140
119
101
101
100
102
103
101
97
181
181
249
255
255
254
254
254
254
255
255
255
254
254
254
254
254
254
254
254
255
255
255
254
137
137
137
138
138
137
141
136
134
150
158
158
159
158
158
161
145
135
135
138
137
137
109
104
100
101
100
99
99
204
230
229
230
230
231
231
239
253
253
254
254
254
254
255
255
255
254
255
254
254
254
254
254
254
254
254
236
231
226
226
231
229
229
230
230
229
231
235
250
250
255
253
253
0
0
0
0
0
0
0
0
0
0
0
0
0
0
0
0
0
0
0
0
0
0
0
0
0
0
0
0
0
0
0
0
0
0
0
0
0
0
0
0
0
0
0
0
0
0
0
0
0
0
0
0
0
0
0
0
0
0
0
0
0
0
0
0
0
0
0
0
0
0
0
0
0
0
0
0
0
0
0
0
0
0
0
0
0
0
0
0
0
0
0
0
0
0
0
0
0
0
0
0
0
0
0
0
0
0
0
0
0
0
0
0
0
0
0
0
0
0
0
0
0
0
0
0
0
0
0
0
0
0
0
0
0
0
0
0
0
0
0
0
0
0
0
0
0
0
0
0
0
0
0
0
0
0
0
0
0
0
0
0
0
0
0
0
0
0
0
0
0
0
0
0
0
0
0
0
0
0
0
0
0
0
0
0
0
0
0
0
0
0
0
0
0
0
0
0
0
0
0
0
0
0
0
0
0
0
0
0
0
0
0
0
0
0
0
0
0
0
0
0
0
0
0
0
0
0
0
0
0
0
0
0
0
0
0
0
255
255
255
255
255
254
254
255
255
255
255
255
254
254
254
254
255
255
254
254
254
255
255
254
254
254
254
255
255
254
255
255
255
253
254
251
254
253
249
244
106
104
109
105
108
103
149
154
161
154
156
156
156
156
157
157
157
156
156
156
156
156
156
156
157
156
157
157
157
157
156
156
156
156
156
157
157
157
156
157
147
113
120
106
109
106
106
107
106
107
106
106
107
106
107
105
107
105
107
103
106
131
158
156
157
157
157
157
156
157
156
156
156
156
156
156
156
156
157
156
157
156
156
156
155
156
154
107
106
105
110
106
108
108
105
104
133
130
107
102
151
101
106
191
117
149
191
227
225
230
228
228
229
230
229
228
231
230
232
229
230
235
231
252
254
250
254
254
253
254
255
254
254
254
255
254
254
247
197
232
123
99
97
100
102
101
102
103
102
103
113
135
133
137
137
139
140
137
137
137
137
137
137
139
138
137
138
137
137
137
137
138
138
138
137
139
137
134
136
160
162
162
159
163
159
161
140
135
140
138
112
101
101
101
100
100
98
94
215
237
246
254
254
254
255
253
255
255
255
255
254
254
254
255
255
254
254
254
255
255
254
254
138
138
138
138
136
136
135
136
154
161
161
158
161
159
163
152
139
133
137
137
125
109
101
101
100
102
101
106
108
220
230
227
230
232
236
254
255
254
255
254
254
254
254
255
255
255
254
255
254
254
254
253
253
254
254
253
248
232
230
234
228
228
235
231
234
241
255
254
254
254
254
0
0
0
0
0
0
0
0
0
0
0
0
0
0
0
0
0
0
0
0
0
0
0
0
0
0
0
0
0
0
0
0
0
0
0
0
0
0
0
0
0
0
0
0
0
0
0
0
0
0
0
0
0
0
0
0
0
0
0
0
0
0
0
0
0
0
0
0
0
0
0
0
0
0
0
0
0
0
0
0
0
0
0
0
0
0
0
0
0
0
0
0
0
0
0
0
0
0
0
0
0
0
0
0
0
0
0
0
0
0
0
0
0
0
0
0
0
0
0
0
0
0
0
0
0
0
0
0
0
0
0
0
0
0
0
0
0
0
0
0
0
0
0
0
0
0
0
0
0
0
0
0
0
0
0
0
0
0
0
0
0
0
0
0
0
0
0
0
0
0
0
0
0
0
0
0
0
0
0
0
0
0
0
0
0
0
0
0
0
0
0
0
0
0
0
0
0
0
0
0
0
0
0
0
0
0
0
0
0
0
0
0
0
0
0
0
0
0
0
0
0
0
0
0
0
0
0
0
0
0
0
0
0
0
0
0
0
255
255
255
255
254
254
254
255
255
255
255
255
255
255
254
254
255
255
255
254
254
254
255
255
254
255
255
255
255
254
255
255
255
254
254
254
254
254
254
247
107
104
108
106
108
105
137
154
161
156
156
156
156
156
157
157
157
156
156
156
156
156
156
156
156
156
156
156
157
157
157
156
156
156
156
157
156
156
156
156
156
158
120
142
110
106
105
108
106
107
105
104
107
108
105
104
107
103
112
103
152
156
153
153
158
157
157
157
157
157
157
156
156
156
156
156
156
155
156
155
155
158
154
156
156
153
154
113
107
101
110
103
104
108
190
219
219
219
220
219
151
222
228
191
229
226
227
227
228
230
228
229
229
232
229
229
228
230
231
229
240
240
254
254
254
254
254
254
253
254
254
254
254
255
255
248
243
155
155
95
100
99
99
103
102
103
102
106
102
130
136
135
136
137
138
139
138
137
137
137
137
137
137
137
135
137
137
137
137
137
137
137
138
136
136
139
137
138
146
146
162
160
159
156
160
161
147
134
140
138
137
103
101
100
102
101
98
97
97
237
240
254
254
255
253
255
255
255
254
255
255
255
255
255
255
254
254
254
255
255
255
254
253
138
137
137
136
135
137
134
154
157
158
158
160
155
162
162
142
135
137
137
132
109
103
102
100
102
100
102
108
101
216
228
230
233
252
254
255
254
255
255
254
254
254
254
255
255
255
254
255
254
254
254
253
255
252
253
253
252
247
234
244
245
235
249
255
255
255
254
254
254
0
0
0
0
0
0
0
0
0
0
0
0
0
0
0
0
0
0
0
0
0
0
0
0
0
0
0
0
0
0
0
0
0
0
0
0
0
0
0
0
0
0
0
0
0
0
0
0
0
0
0
0
0
0
0
0
0
0
0
0
0
0
0
0
0
0
0
0
0
0
0
0
0
0
0
0
0
0
0
0
0
0
0
0
0
0
0
0
0
0
0
0
0
0
0
0
0
0
0
0
0
0
0
0
0
0
0
0
0
0
0
0
0
0
0
0
0
0
0
0
0
0
0
0
0
0
0
0
0
0
0
0
0
0
0
0
0
0
0
0
0
0
0
0
0
0
0
0
0
0
0
0
0
0
0
0
0
0
0
0
0
0
0
0
0
0
0
0
0
0
0
0
0
0
0
0
0
0
0
0
0
0
0
0
0
0
0
0
0
0
0
0
0
0
0
0
0
0
0
0
0
0
0
0
0
0
0
0
0
0
0
0
0
0
0
0
0
0
0
0
0
0
0
0
0
0
0
0
0
0
0
0
0
0
0
0
0
0
254
255
255
255
254
254
254
255
255
255
255
255
255
255
254
254
254
255
255
255
254
254
254
255
255
255
255
254
254
255
254
255
255
255
254
253
254
254
253
250
220
104
107
107
107
105
120
157
156
156
156
156
156
156
157
157
157
157
156
156
156
156
156
156
156
156
156
156
156
157
157
157
156
156
156
156
156
156
156
156
157
156
153
154
154
134
113
138
105
104
108
108
105
106
123
104
112
135
135
159
158
157
156
159
157
157
157
157
157
158
157
157
156
157
156
156
157
157
157
156
156
156
158
157
156
156
157
104
107
107
109
104
104
107
226
225
228
231
225
234
227
230
230
227
230
229
231
232
229
229
229
231
227
230
228
229
229
230
230
251
245
254
254
254
254
255
255
252
254
254
254
254
253
253
249
226
96
120
95
102
103
101
102
102
102
103
125
115
136
137
137
137
136
137
138
137
137
137
137
137
136
136
137
137
137
137
137
137
137
137
137
137
136
136
136
137
137
137
134
157
159
161
162
162
162
159
138
133
137
138
131
131
102
100
102
102
102
97
97
124
246
246
253
255
255
251
255
254
254
255
255
254
254
255
255
255
254
254
254
255
255
255
254
254
137
137
137
137
137
135
147
162
162
161
162
162
159
160
155
136
136
138
138
125
103
102
101
101
99
99
100
94
93
208
231
252
252
254
254
255
254
255
255
253
254
254
254
255
255
255
255
255
254
254
255
254
254
255
254
255
255
252
254
254
254
255
255
255
254
255
255
0
0
0
0
0
0
0
0
0
0
0
0
0
0
0
0
0
0
0
0
0
0
0
0
0
0
0
0
0
0
0
0
0
0
0
0
0
0
0
0
0
0
0
0
0
0
0
0
0
0
0
0
0
0
0
0
0
0
0
0
0
0
0
0
0
0
0
0
0
0
0
0
0
0
0
0
0
0
0
0
0
0
0
0
0
0
0
0
0
0
0
0
0
0
0
0
0
0
0
0
0
0
0
0
0
0
0
0
0
0
0
0
0
0
0
0
0
0
0
0
0
0
0
0
0
0
0
0
0
0
0
0
0
0
0
0
0
0
0
0
0
0
0
0
0
0
0
0
0
0
0
0
0
0
0
0
0
0
0
0
0
0
0
0
0
0
0
0
0
0
0
0
0
0
0
0
0
0
0
0
0
0
0
0
0
0
0
0
0
0
0
0
0
0
0
0
0
0
0
0
0
0
0
0
0
0
0
0
0
0
0
0
0
0
0
0
0
0
0
0
0
0
0
0
0
0
0
0
0
0
0
0
0
0
0
0
0
0
0
254
254
255
255
255
254
254
254
255
255
255
255
255
255
255
254
254
254
255
255
255
254
254
254
255
255
254
254
255
255
255
254
254
255
255
255
254
254
254
250
243
103
106
107
106
107
120
149
157
157
157
156
156
156
156
157
157
156
157
156
156
156
156
156
156
156
156
156
156
156
157
156
156
156
156
156
156
156
156
157
157
156
158
156
155
157
157
138
155
154
112
110
150
149
123
154
157
153
157
155
157
157
156
156
157
157
157
157
157
157
157
157
156
157
158
156
154
156
157
155
156
156
155
157
157
157
156
106
107
105
106
109
104
101
226
225
232
227
225
233
231
229
230
231
232
229
229
230
229
229
229
228
227
231
231
232
229
243
254
251
254
254
254
254
253
254
253
255
254
254
253
251
254
248
158
93
96
97
102
102
101
101
102
103
110
132
125
136
137
137
137
138
137
137
137
137
137
137
137
136
136
136
137
137
137
136
137
137
137
137
137
136
136
136
137
138
137
137
135
150
159
157
157
161
161
159
142
133
136
139
139
121
113
103
102
102
101
103
96
95
162
249
251
254
255
254
254
254
254
255
254
254
254
255
255
254
254
254
254
255
255
255
254
254
254
137
137
139
137
135
141
160
161
162
159
162
160
163
155
150
134
137
135
138
113
102
102
101
101
99
101
103
93
94
209
249
251
251
253
255
254
254
255
254
255
254
255
255
255
255
255
255
255
255
255
254
254
251
255
255
255
254
255
255
254
253
255
254
255
255
0
0
0
0
0
0
0
0
0
0
0
0
0
0
0
0
0
0
0
0
0
0
0
0
0
0
0
0
0
0
0
0
0
0
0
0
0
0
0
0
0
0
0
0
0
0
0
0
0
0
0
0
0
0
0
0
0
0
0
0
0
0
0
0
0
0
0
0
0
0
0
0
0
0
0
0
0
0
0
0
0
0
0
0
0
0
0
0
0
0
0
0
0
0
0
0
0
0
0
0
0
0
0
0
0
0
0
0
0
0
0
0
0
0
0
0
0
0
0
0
0
0
0
0
0
0
0
0
0
0
0
0
0
0
0
0
0
0
0
0
0
0
0
0
0
0
0
0
0
0
0
0
0
0
0
0
0
0
0
0
0
0
0
0
0
0
0
0
0
0
0
0
0
0
0
0
0
0
0
0
0
0
0
0
0
0
0
0
0
0
0
0
0
0
0
0
0
0
0
0
0
0
0
0
0
0
0
0
0
0
0
0
0
0
0
0
0
0
0
0
0
0
0
0
0
0
0
0
0
0
0
0
0
0
0
0
0
0
0
0
254
255
254
255
255
255
254
254
254
254
255
255
255
254
254
255
254
254
254
255
255
255
254
255
255
255
254
254
254
255
254
254
254
255
255
255
255
252
252
250
168
168
101
106
107
107
107
157
157
157
157
156
156
156
156
156
156
156
157
157
156
156
156
156
156
156
156
156
156
156
156
156
156
156
156
156
156
156
156
156
156
156
156
154
155
154
154
158
153
153
158
153
154
154
157
156
156
157
159
156
156
157
156
156
156
157
157
156
156
157
157
157
156
156
158
157
163
163
157
155
155
155
156
156
155
158
134
134
106
104
104
103
102
163
163
229
232
232
231
228
228
231
224
227
227
229
231
231
231
227
233
233
231
229
229
235
250
254
254
254
255
255
254
254
254
255
255
254
254
252
246
246
221
118
98
98
97
103
103
99
101
101
103
118
137
137
135
137
137
137
137
137
137
137
137
137
137
137
136
136
136
137
137
137
137
137
137
137
137
137
137
136
136
137
137
136
136
135
136
136
165
158
158
162
160
161
161
135
136
136
138
138
109
109
103
103
103
100
101
95
94
238
254
254
254
254
254
254
255
255
255
254
255
255
255
255
254
254
255
255
255
254
254
254
254
254
137
137
138
136
136
150
158
162
162
159
158
158
161
144
144
136
138
138
138
113
101
101
102
100
102
102
103
93
93
199
248
252
252
252
254
254
253
254
254
255
254
255
255
255
255
255
255
255
255
255
254
254
254
254
255
255
254
254
253
253
253
255
255
0
0
0
0
0
0
0
0
0
0
0
0
0
0
0
0
0
0
0
0
0
0
0
0
0
0
0
0
0
0
0
0
0
0
0
0
0
0
0
0
0
0
0
0
0
0
0
0
0
0
0
0
0
0
0
0
0
0
0
0
0
0
0
0
0
0
0
0
0
0
0
0
0
0
0
0
0
0
0
0
0
0
0
0
0
0
0
0
0
0
0
0
0
0
0
0
0
0
0
0
0
0
0
0
0
0
0
0
0
0
0
0
0
0
0
0
0
0
0
0
0
0
0
0
0
0
0
0
0
0
0
0
0
0
0
0
0
0
0
0
0
0
0
0
0
0
0
0
0
0
0
0
0
0
0
0
0
0
0
0
0
0
0
0
0
0
0
0
0
0
0
0
0
0
0
0
0
0
0
0
0
0
0
0
0
0
0
0
0
0
0
0
0
0
0
0
0
0
0
0
0
0
0
0
0
0
0
0
0
0
0
0
0
0
0
0
0
0
0
0
0
0
0
0
0
0
0
0
0
0
0
0
0
0
0
0
0
0
0
0
0
255
255
254
254
255
255
255
254
254
254
254
255
255
255
254
254
255
254
254
254
255
255
255
254
254
254
254
255
254
254
254
255
255
255
255
255
255
255
255
253
249
109
109
106
108
106
102
135
156
156
156
156
156
156
156
156
157
156
156
157
157
156
156
156
156
157
157
157
157
156
156
156
156
157
157
157
156
156
156
157
157
156
156
156
157
158
154
160
157
155
157
157
156
157
157
156
157
156
156
157
158
157
157
156
156
156
157
157
156
156
157
157
157
158
153
161
165
180
182
159
157
157
156
158
157
159
151
103
105
105
105
108
104
104
223
230
226
229
232
230
231
232
230
232
230
231
228
232
229
227
231
229
241
233
245
254
254
253
254
254
254
253
254
254
254
253
254
252
251
224
242
174
96
101
98
99
101
103
101
103
104
105
135
137
137
136
137
137
137
137
137
137
137
137
137
137
137
137
136
136
137
137
137
137
137
137
136
137
136
137
137
137
137
137
136
135
138
133
135
152
162
161
161
159
157
160
143
133
135
140
136
137
137
106
104
102
103
101
103
98
108
163
246
254
255
253
254
253
254
255
255
255
254
255
255
255
255
255
255
255
254
254
254
255
255
254
254
137
137
136
137
137
159
159
160
160
158
157
160
160
139
135
138
138
137
136
112
101
101
101
99
102
102
100
94
96
180
249
251
253
253
254
253
254
254
255
255
254
255
255
255
255
255
254
255
255
255
255
255
254
255
255
255
255
254
254
255
255
0
0
0
0
0
0
0
0
0
0
0
0
0
0
0
0
0
0
0
0
0
0
0
0
0
0
0
0
0
0
0
0
0
0
0
0
0
0
0
0
0
0
0
0
0
0
0
0
0
0
0
0
0
0
0
0
0
0
0
0
0
0
0
0
0
0
0
0
0
0
0
0
0
0
0
0
0
0
0
0
0
0
0
0
0
0
0
0
0
0
0
0
0
0
0
0
0
0
0
0
0
0
0
0
0
0
0
0
0
0
0
0
0
0
0
0
0
0
0
0
0
0
0
0
0
0
0
0
0
0
0
0
0
0
0
0
0
0
0
0
0
0
0
0
0
0
0
0
0
0
0
0
0
0
0
0
0
0
0
0
0
0
0
0
0
0
0
0
0
0
0
0
0
0
0
0
0
0
0
0
0
0
0
0
0
0
0
0
0
0
0
0
0
0
0
0
0
0
0
0
0
0
0
0
0
0
0
0
0
0
0
0
0
0
0
0
0
0
0
0
0
0
0
0
0
0
0
0
0
0
0
0
0
0
0
0
0
0
0
0
0
0
255
255
254
254
254
255
255
254
254
254
254
254
255
254
254
254
254
255
254
254
254
254
255
255
255
254
254
255
254
254
254
255
255
255
255
254
255
255
254
253
250
137
103
103
105
109
102
110
157
157
157
156
156
156
157
157
157
157
156
156
157
157
156
156
156
157
156
156
157
156
156
156
156
157
157
156
156
156
156
157
157
156
156
156
156
156
151
160
154
156
157
157
157
157
157
156
159
154
154
157
157
157
157
157
156
156
156
157
157
157
157
157
155
158
157
157
172
183
182
169
157
157
155
157
153
153
156
107
105
111
105
104
104
103
221
230
229
231
232
227
229
229
229
232
231
231
229
228
232
232
245
252
241
254
254
254
254
254
255
254
254
254
254
255
254
253
253
246
184
224
95
96
102
102
101
101
101
101
103
103
122
137
137
137
136
136
137
137
137
137
137
137
137
137
137
137
137
137
137
137
137
137
137
137
137
137
137
137
138
137
137
137
136
135
135
135
138
133
159
161
162
162
159
162
162
161
140
133
137
139
137
137
137
125
104
104
105
101
105
99
92
163
226
251
255
254
254
254
254
254
255
255
255
254
255
255
254
254
255
254
254
254
254
254
255
255
254
254
137
137
136
141
141
160
159
160
159
161
160
161
154
134
134
139
137
136
137
110
101
101
102
102
102
101
102
95
95
179
250
253
254
255
253
252
255
255
255
254
254
255
255
255
254
254
254
255
255
255
255
254
254
255
254
254
255
254
255
0
0
0
0
0
0
0
0
0
0
0
0
0
0
0
0
0
0
0
0
0
0
0
0
0
0
0
0
0
0
0
0
0
0
0
0
0
0
0
0
0
0
0
0
0
0
0
0
0
0
0
0
0
0
0
0
0
0
0
0
0
0
0
0
0
0
0
0
0
0
0
0
0
0
0
0
0
0
0
0
0
0
0
0
0
0
0
0
0
0
0
0
0
0
0
0
0
0
0
0
0
0
0
0
0
0
0
0
0
0
0
0
0
0
0
0
0
0
0
0
0
0
0
0
0
0
0
0
0
0
0
0
0
0
0
0
0
0
0
0
0
0
0
0
0
0
0
0
0
0
0
0
0
0
0
0
0
0
0
0
0
0
0
0
0
0
0
0
0
0
0
0
0
0
0
0
0
0
0
0
0
0
0
0
0
0
0
0
0
0
0
0
0
0
0
0
0
0
0
0
0
0
0
0
0
0
0
0
0
0
0
0
0
0
0
0
0
0
0
0
0
0
0
0
0
0
0
0
0
0
0
0
0
0
0
0
0
0
0
0
0
0
0
254
255
255
254
254
254
255
254
254
254
254
254
254
254
255
254
255
255
255
254
254
254
255
255
255
254
254
254
255
254
254
254
254
255
255
255
254
255
255
253
243
200
101
107
105
104
107
134
156
156
156
157
156
157
156
156
157
157
157
156
156
157
157
156
156
156
156
156
156
156
156
156
156
156
156
156
156
156
157
157
157
156
156
156
156
157
156
159
156
157
156
156
156
156
156
156
157
155
158
156
157
157
157
157
157
157
157
156
157
157
157
157
160
156
156
159
178
183
182
158
158
157
155
159
155
157
158
139
101
105
105
107
106
103
143
228
229
229
230
229
237
231
226
243
227
234
237
254
245
254
253
251
254
254
252
254
255
254
255
254
254
254
254
249
246
247
232
99
130
94
96
100
102
101
101
101
102
107
107
132
136
138
137
135
138
137
139
139
136
137
137
137
137
137
137
137
137
137
137
137
137
137
137
137
137
137
137
136
137
135
136
135
141
135
140
161
152
162
159
159
162
157
161
158
159
160
155
138
138
136
137
139
133
136
121
106
106
103
102
103
98
104
244
244
255
253
255
255
254
254
254
255
255
255
254
254
253
254
254
254
254
254
254
254
254
255
254
254
254
137
137
137
150
157
160
160
159
159
161
161
161
143
135
137
138
140
138
137
111
103
101
101
101
102
103
101
92
95
182
250
253
253
255
255
255
255
255
255
254
254
255
255
255
254
255
255
255
255
255
255
255
255
255
255
255
255
0
0
0
0
0
0
0
0
0
0
0
0
0
0
0
0
0
0
0
0
0
0
0
0
0
0
0
0
0
0
0
0
0
0
0
0
0
0
0
0
0
0
0
0
0
0
0
0
0
0
0
0
0
0
0
0
0
0
0
0
0
0
0
0
0
0
0
0
0
0
0
0
0
0
0
0
0
0
0
0
0
0
0
0
0
0
0
0
0
0
0
0
0
0
0
0
0
0
0
0
0
0
0
0
0
0
0
0
0
0
0
0
0
0
0
0
0
0
0
0
0
0
0
0
0
0
0
0
0
0
0
0
0
0
0
0
0
0
0
0
0
0
0
0
0
0
0
0
0
0
0
0
0
0
0
0
0
0
0
0
0
0
0
0
0
0
0
0
0
0
0
0
0
0
0
0
0
0
0
0
0
0
0
0
0
0
0
0
0
0
0
0
0
0
0
0
0
0
0
0
0
0
0
0
0
0
0
0
0
0
0
0
0
0
0
0
0
0
0
0
0
0
0
0
0
0
0
0
0
0
0
0
0
0
0
0
0
0
0
0
0
0
0
0
254
254
254
254
254
254
255
254
254
254
254
254
254
254
255
255
255
255
255
254
254
254
254
255
255
254
254
254
254
255
255
254
254
254
255
255
255
254
255
254
248
200
124
103
105
108
106
111
156
158
157
157
156
157
156
156
156
157
157
157
156
157
157
157
156
156
156
156
156
156
156
156
156
156
156
156
156
156
156
157
157
156
156
156
156
157
157
157
157
157
157
156
156
156
157
157
157
157
156
156
157
157
157
157
157
157
157
157
157
157
155
155
157
156
156
164
178
186
183
181
157
157
154
159
157
154
158
139
105
108
105
106
105
103
142
236
234
236
253
253
237
253
255
243
255
255
254
254
252
255
253
254
255
254
252
255
255
254
255
254
254
252
249
234
246
143
93
99
99
99
100
100
102
102
101
102
122
114
135
135
138
138
137
139
138
136
137
137
136
137
137
137
137
137
137
137
137
137
137
137
135
137
137
137
137
137
137
137
137
135
136
149
141
160
160
161
159
160
159
161
160
159
161
160
158
160
143
137
135
136
135
137
133
137
134
112
102
104
101
103
97
92
188
253
254
255
255
255
255
254
254
254
255
255
255
254
253
254
254
254
254
255
254
254
254
254
254
254
255
254
137
137
137
157
161
159
160
158
157
163
161
150
135
137
137
137
135
137
136
112
101
100
100
102
103
103
104
95
95
219
251
251
254
254
255
255
255
255
254
254
254
255
255
255
255
255
255
255
255
255
254
255
255
255
255
0
0
0
0
0
0
0
0
0
0
0
0
0
0
0
0
0
0
0
0
0
0
0
0
0
0
0
0
0
0
0
0
0
0
0
0
0
0
0
0
0
0
0
0
0
0
0
0
0
0
0
0
0
0
0
0
0
0
0
0
0
0
0
0
0
0
0
0
0
0
0
0
0
0
0
0
0
0
0
0
0
0
0
0
0
0
0
0
0
0
0
0
0
0
0
0
0
0
0
0
0
0
0
0
0
0
0
0
0
0
0
0
0
0
0
0
0
0
0
0
0
0
0
0
0
0
0
0
0
0
0
0
0
0
0
0
0
0
0
0
0
0
0
0
0
0
0
0
0
0
0
0
0
0
0
0
0
0
0
0
0
0
0
0
0
0
0
0
0
0
0
0
0
0
0
0
0
0
0
0
0
0
0
0
0
0
0
0
0
0
0
0
0
0
0
0
0
0
0
0
0
0
0
0
0
0
0
0
0
0
0
0
0
0
0
0
0
0
0
0
0
0
0
0
0
0
0
0
0
0
0
0
0
0
0
0
0
0
0
0
0
0
0
0
0
254
254
254
254
254
254
254
254
255
255
255
254
254
254
255
255
255
255
255
255
254
254
254
254
255
254
254
254
254
255
255
255
254
254
254
255
255
254
254
254
254
242
107
107
106
108
106
105
130
156
156
154
156
156
157
156
156
156
157
156
156
156
157
156
156
156
156
156
156
156
156
156
156
156
156
156
156
156
156
157
157
157
156
156
156
157
157
157
156
157
157
157
156
157
157
157
156
156
156
156
157
157
157
157
157
157
157
157
157
156
158
156
156
157
156
156
182
184
184
180
158
156
156
157
156
156
158
109
102
107
105
107
107
101
221
221
251
249
254
254
254
251
251
254
252
255
253
254
255
255
254
255
254
255
255
255
255
255
254
254
251
246
207
207
105
96
96
99
101
102
101
103
103
103
107
129
129
137
139
137
137
137
138
138
136
138
138
137
137
137
137
137
137
137
137
137
137
137
137
136
136
138
136
138
138
137
136
136
133
147
161
161
163
158
158
161
161
161
160
159
161
161
160
162
162
149
138
137
138
137
136
136
136
129
129
109
102
101
101
104
93
93
174
251
254
254
255
255
255
255
254
254
254
255
255
255
255
254
254
254
255
255
255
254
254
254
254
254
255
254
253
136
136
136
161
161
158
159
155
155
161
141
141
135
137
137
138
137
137
137
110
101
104
102
102
103
103
103
95
95
235
252
254
254
254
255
255
254
254
254
254
254
255
255
255
255
255
255
255
255
255
254
253
253
0
0
0
0
0
0
0
0
0
0
0
0
0
0
0
0
0
0
0
0
0
0
0
0
0
0
0
0
0
0
0
0
0
0
0
0
0
0
0
0
0
0
0
0
0
0
0
0
0
0
0
0
0
0
0
0
0
0
0
0
0
0
0
0
0
0
0
0
0
0
0
0
0
0
0
0
0
0
0
0
0
0
0
0
0
0
0
0
0
0
0
0
0
0
0
0
0
0
0
0
0
0
0
0
0
0
0
0
0
0
0
0
0
0
0
0
0
0
0
0
0
0
0
0
0
0
0
0
0
0
0
0
0
0
0
0
0
0
0
0
0
0
0
0
0
0
0
0
0
0
0
0
0
0
0
0
0
0
0
0
0
0
0
0
0
0
0
0
0
0
0
0
0
0
0
0
0
0
0
0
0
0
0
0
0
0
0
0
0
0
0
0
0
0
0
0
0
0
0
0
0
0
0
0
0
0
0
0
0
0
0
0
0
0
0
0
0
0
0
0
0
0
0
0
0
0
0
0
0
0
0
0
0
0
0
0
0
0
0
0
0
0
0
0
0
0
255
254
254
255
255
254
255
255
254
255
255
255
254
254
254
255
255
255
255
254
254
255
254
254
254
254
254
255
255
255
254
255
255
254
254
254
255
255
254
254
249
249
185
102
104
104
106
106
111
149
157
156
158
156
156
157
156
156
156
156
156
156
156
156
156
156
157
157
157
156
156
156
156
156
156
156
156
156
157
157
157
157
157
156
156
157
156
157
156
156
157
157
156
157
157
156
156
156
156
156
156
157
157
157
157
157
157
157
157
157
156
156
157
158
157
170
182
183
184
184
167
155
156
158
158
155
158
104
102
108
105
107
106
104
145
234
245
252
255
253
255
255
255
255
254
255
254
253
255
254
254
254
254
254
254
253
255
250
251
249
222
113
157
89
98
96
101
102
103
102
104
103
102
113
137
136
137
137
137
137
137
138
137
136
138
138
138
137
137
137
137
137
137
137
137
137
137
137
138
136
141
133
140
139
136
135
135
138
161
159
161
160
159
162
161
158
159
159
160
160
161
159
160
159
147
136
136
137
136
138
136
131
103
116
102
103
102
102
100
100
102
94
210
251
254
255
255
255
255
255
255
254
254
254
255
255
255
255
254
254
255
255
255
254
254
255
253
254
255
255
254
254
136
136
136
161
159
162
161
162
161
155
133
136
136
137
137
137
138
137
138
112
104
103
102
101
103
103
100
99
133
248
254
254
254
254
254
254
254
254
254
254
254
255
255
255
255
254
254
255
255
255
254
0
0
0
0
0
0
0
0
0
0
0
0
0
0
0
0
0
0
0
0
0
0
0
0
0
0
0
0
0
0
0
0
0
0
0
0
0
0
0
0
0
0
0
0
0
0
0
0
0
0
0
0
0
0
0
0
0
0
0
0
0
0
0
0
0
0
0
0
0
0
0
0
0
0
0
0
0
0
0
0
0
0
0
0
0
0
0
0
0
0
0
0
0
0
0
0
0
0
0
0
0
0
0
0
0
0
0
0
0
0
0
0
0
0
0
0
0
0
0
0
0
0
0
0
0
0
0
0
0
0
0
0
0
0
0
0
0
0
0
0
0
0
0
0
0
0
0
0
0
0
0
0
0
0
0
0
0
0
0
0
0
0
0
0
0
0
0
0
0
0
0
0
0
0
0
0
0
0
0
0
0
0
0
0
0
0
0
0
0
0
0
0
0
0
0
0
0
0
0
0
0
0
0
0
0
0
0
0
0
0
0
0
0
0
0
0
0
0
0
0
0
0
0
0
0
0
0
0
0
0
0
0
0
0
0
0
0
0
0
0
0
0
0
0
0
0
0
255
255
255
255
255
255
255
255
255
254
255
255
255
254
254
254
254
255
255
254
254
254
255
255
254
254
255
255
255
254
254
254
255
255
254
254
254
255
255
255
252
249
239
101
106
106
105
105
105
118
156
157
157
158
156
156
157
156
156
156
156
156
156
156
156
156
156
157
156
156
156
156
156
156
156
156
156
157
157
157
157
157
157
156
157
156
156
156
156
156
156
156
156
156
157
156
156
157
157
156
156
157
157
157
157
157
157
157
157
156
156
156
157
157
154
178
182
182
181
182
182
154
159
158
154
156
129
129
106
106
106
108
106
104
150
232
254
254
252
252
255
254
255
254
254
254
253
253
254
255
254
254
254
255
255
253
250
250
244
176
97
97
100
99
98
103
102
103
103
104
106
106
131
137
137
138
137
137
137
137
139
138
138
137
137
137
137
137
137
136
136
137
137
137
137
137
137
139
138
136
137
138
138
137
138
135
159
160
159
159
160
160
160
161
160
158
158
161
160
160
161
160
160
144
136
135
135
136
127
127
106
104
103
107
102
103
103
100
101
100
98
144
243
243
255
252
255
253
255
255
255
255
254
254
254
254
255
255
254
254
254
254
254
254
254
253
254
254
254
255
255
255
255
136
137
136
151
151
161
159
161
138
135
136
136
135
136
136
139
137
134
134
111
101
101
103
103
103
101
94
199
199
251
254
254
254
255
254
254
254
254
254
255
254
255
255
255
254
254
254
255
255
0
0
0
0
0
0
0
0
0
0
0
0
0
0
0
0
0
0
0
0
0
0
0
0
0
0
0
0
0
0
0
0
0
0
0
0
0
0
0
0
0
0
0
0
0
0
0
0
0
0
0
0
0
0
0
0
0
0
0
0
0
0
0
0
0
0
0
0
0
0
0
0
0
0
0
0
0
0
0
0
0
0
0
0
0
0
0
0
0
0
0
0
0
0
0
0
0
0
0
0
0
0
0
0
0
0
0
0
0
0
0
0
0
0
0
0
0
0
0
0
0
0
0
0
0
0
0
0
0
0
0
0
0
0
0
0
0
0
0
0
0
0
0
0
0
0
0
0
0
0
0
0
0
0
0
0
0
0
0
0
0
0
0
0
0
0
0
0
0
0
0
0
0
0
0
0
0
0
0
0
0
0
0
0
0
0
0
0
0
0
0
0
0
0
0
0
0
0
0
0
0
0
0
0
0
0
0
0
0
0
0
0
0
0
0
0
0
0
0
0
0
0
0
0
0
0
0
0
0
0
0
0
0
0
0
0
0
0
0
0
0
0
0
0
0
0
0
0
255
255
255
255
255
255
255
255
255
255
254
255
255
255
254
254
254
254
254
254
254
254
254
255
254
254
255
255
254
254
254
255
255
255
255
254
254
254
253
254
254
252
192
134
102
106
105
105
105
105
149
157
157
157
156
157
157
157
156
156
156
156
156
156
156
156
157
157
157
156
156
156
157
157
156
156
156
157
157
157
157
157
157
157
157
156
156
156
156
156
156
156
156
157
156
156
156
156
157
156
156
157
157
157
157
157
156
157
156
157
156
156
156
158
156
168
184
183
179
184
169
157
153
155
158
158
157
104
105
106
102
111
102
106
226
233
250
252
254
254
254
255
255
255
254
253
253
254
254
254
253
254
254
255
253
247
248
229
131
95
97
98
102
101
102
102
102
103
103
121
111
136
137
137
138
137
137
137
137
137
137
138
138
137
137
137
136
136
136
137
137
137
137
137
137
137
136
137
135
137
137
138
137
135
140
161
158
160
159
160
159
160
160
158
159
161
160
159
158
162
144
155
139
135
132
135
132
104
112
103
102
106
103
102
99
102
98
101
99
93
120
225
230
252
255
255
255
253
255
255
255
255
255
254
254
254
254
255
255
254
254
254
254
254
254
254
254
254
254
255
255
255
255
254
138
135
140
146
138
150
135
135
136
136
135
138
137
138
137
139
139
136
139
109
100
101
103
103
100
96
91
241
251
254
255
254
254
254
254
255
254
254
254
255
254
255
255
255
254
254
254
0
0
0
0
0
0
0
0
0
0
0
0
0
0
0
0
0
0
0
0
0
0
0
0
0
0
0
0
0
0
0
0
0
0
0
0
0
0
0
0
0
0
0
0
0
0
0
0
0
0
0
0
0
0
0
0
0
0
0
0
0
0
0
0
0
0
0
0
0
0
0
0
0
0
0
0
0
0
0
0
0
0
0
0
0
0
0
0
0
0
0
0
0
0
0
0
0
0
0
0
0
0
0
0
0
0
0
0
0
0
0
0
0
0
0
0
0
0
0
0
0
0
0
0
0
0
0
0
0
0
0
0
0
0
0
0
0
0
0
0
0
0
0
0
0
0
0
0
0
0
0
0
0
0
0
0
0
0
0
0
0
0
0
0
0
0
0
0
0
0
0
0
0
0
0
0
0
0
0
0
0
0
0
0
0
0
0
0
0
0
0
0
0
0
0
0
0
0
0
0
0
0
0
0
0
0
0
0
0
0
0
0
0
0
0
0
0
0
0
0
0
0
0
0
0
0
0
0
0
0
0
0
0
0
0
0
0
0
0
0
0
0
0
0
0
0
0
0
0
255
255
255
255
255
255
255
255
255
255
255
254
255
255
254
254
254
254
254
254
254
254
254
254
255
255
255
254
254
254
255
255
255
254
254
255
254
254
254
254
255
255
238
134
103
107
105
107
105
111
111
157
157
157
156
156
157
157
157
156
156
156
156
156
156
156
156
157
157
157
156
156
157
157
156
156
156
157
157
157
157
157
157
157
157
156
156
156
156
156
157
157
156
156
156
157
156
156
156
157
157
157
157
157
157
156
157
156
156
157
156
156
156
157
156
175
182
183
179
184
173
157
156
158
158
158
153
105
105
107
106
111
105
108
228
233
247
254
254
254
254
254
255
255
255
253
254
254
255
255
255
254
254
253
244
247
157
96
97
95
101
101
102
99
103
102
102
106
127
121
137
135
137
137
137
137
137
137
137
137
137
137
138
137
138
137
136
136
137
137
137
137
137
137
137
137
136
137
138
137
137
137
134
135
158
160
159
160
160
158
159
158
160
158
160
161
161
159
149
136
144
136
138
124
132
108
103
104
104
103
102
103
102
101
99
100
98
101
89
138
226
225
227
242
255
254
253
255
255
255
255
255
255
255
254
254
254
255
255
255
254
254
254
254
254
254
254
254
254
254
255
255
255
254
254
135
137
135
138
135
133
137
136
137
138
138
137
137
139
139
137
138
139
129
101
101
103
105
105
96
94
231
251
251
255
255
254
254
255
255
255
254
254
254
255
255
255
255
255
254
0
0
0
0
0
0
0
0
0
0
0
0
0
0
0
0
0
0
0
0
0
0
0
0
0
0
0
0
0
0
0
0
0
0
0
0
0
0
0
0
0
0
0
0
0
0
0
0
0
0
0
0
0
0
0
0
0
0
0
0
0
0
0
0
0
0
0
0
0
0
0
0
0
0
0
0
0
0
0
0
0
0
0
0
0
0
0
0
0
0
0
0
0
0
0
0
0
0
0
0
0
0
0
0
0
0
0
0
0
0
0
0
0
0
0
0
0
0
0
0
0
0
0
0
0
0
0
0
0
0
0
0
0
0
0
0
0
0
0
0
0
0
0
0
0
0
0
0
0
0
0
0
0
0
0
0
0
0
0
0
0
0
0
0
0
0
0
0
0
0
0
0
0
0
0
0
0
0
0
0
0
0
0
0
0
0
0
0
0
0
0
0
0
0
0
0
0
0
0
0
0
0
0
0
0
0
0
0
0
0
0
0
0
0
0
0
0
0
0
0
0
0
0
0
0
0
0
0
0
0
0
0
0
0
0
0
0
0
0
0
0
0
0
0
0
0
0
0
0
0
254
255
255
255
255
255
255
255
255
255
255
255
254
255
255
255
254
254
254
254
254
254
255
255
255
254
254
254
254
255
255
255
254
254
255
255
255
252
252
254
254
252
254
209
99
99
107
107
106
106
122
137
159
157
155
155
157
155
157
156
156
156
156
156
157
157
156
156
157
157
156
156
156
156
156
156
156
156
157
157
157
157
157
157
157
156
156
156
156
156
157
157
156
156
157
157
157
156
156
157
157
157
156
156
155
156
157
157
157
157
157
156
157
157
160
184
182
186
182
186
186
158
158
156
154
157
114
114
107
105
105
106
102
115
186
228
254
254
254
254
254
254
255
254
254
255
255
255
254
254
252
253
251
233
233
121
96
100
98
101
101
101
100
103
103
102
111
135
135
137
137
137
137
137
137
137
137
137
137
137
137
137
137
138
138
138
136
137
136
137
136
137
137
137
136
136
136
137
138
139
138
136
136
147
164
157
159
160
158
158
160
160
160
161
161
144
155
139
134
134
138
133
103
112
100
105
105
104
103
103
103
102
95
99
100
93
93
94
172
227
226
231
230
230
252
253
255
255
254
253
253
254
255
255
255
254
254
254
255
255
255
254
254
254
254
254
254
254
254
254
254
254
254
255
254
254
137
137
137
136
137
138
137
138
138
138
137
136
138
136
138
138
135
111
111
100
102
104
104
99
120
120
249
254
254
254
255
254
254
255
255
255
254
254
254
255
255
255
255
0
0
0
0
0
0
0
0
0
0
0
0
0
0
0
0
0
0
0
0
0
0
0
0
0
0
0
0
0
0
0
0
0
0
0
0
0
0
0
0
0
0
0
0
0
0
0
0
0
0
0
0
0
0
0
0
0
0
0
0
0
0
0
0
0
0
0
0
0
0
0
0
0
0
0
0
0
0
0
0
0
0
0
0
0
0
0
0
0
0
0
0
0
0
0
0
0
0
0
0
0
0
0
0
0
0
0
0
0
0
0
0
0
0
0
0
0
0
0
0
0
0
0
0
0
0
0
0
0
0
0
0
0
0
0
0
0
0
0
0
0
0
0
0
0
0
0
0
0
0
0
0
0
0
0
0
0
0
0
0
0
0
0
0
0
0
0
0
0
0
0
0
0
0
0
0
0
0
0
0
0
0
0
0
0
0
0
0
0
0
0
0
0
0
0
0
0
0
0
0
0
0
0
0
0
0
0
0
0
0
0
0
0
0
0
0
0
0
0
0
0
0
0
0
0
0
0
0
0
0
0
0
0
0
0
0
0
0
0
0
0
0
0
0
0
0
0
0
0
0
0
254
255
255
255
255
255
254
255
254
255
255
254
254
254
255
255
255
254
254
254
254
255
255
255
255
255
254
254
255
255
255
254
254
254
255
255
255
254
254
254
251
252
252
240
159
104
105
106
106
105
105
137
150
154
157
156
156
156
157
156
156
156
156
156
157
157
157
156
156
157
157
156
156
156
156
156
156
156
156
156
157
156
157
157
157
156
156
156
156
156
156
156
156
156
156
157
156
157
157
157
157
157
157
156
157
156
157
156
157
157
157
156
156
158
176
181
182
183
181
184
172
158
159
156
157
154
146
106
105
104
104
108
101
115
214
231
249
254
253
255
254
255
253
254
254
255
254
255
255
251
252
246
178
208
101
100
101
100
103
100
101
101
103
105
103
126
137
138
137
136
136
137
137
137
137
137
137
137
137
137
137
137
137
137
138
137
136
136
136
136
138
137
137
139
135
135
138
136
138
138
137
140
137
142
163
157
159
160
159
161
160
160
161
150
135
144
135
133
136
133
108
102
103
101
101
104
102
102
101
102
99
98
95
96
142
97
145
226
227
227
232
231
229
239
249
254
255
255
254
255
254
254
254
255
255
255
254
254
254
255
255
255
254
254
254
254
254
255
255
254
254
254
255
255
255
254
254
138
138
137
137
137
137
138
140
138
136
136
135
137
138
137
123
121
100
101
100
104
100
99
93
234
250
255
254
254
255
254
254
254
255
255
255
254
254
254
254
255
0
0
0
0
0
0
0
0
0
0
0
0
0
0
0
0
0
0
0
0
0
0
0
0
0
0
0
0
0
0
0
0
0
0
0
0
0
0
0
0
0
0
0
0
0
0
0
0
0
0
0
0
0
0
0
0
0
0
0
0
0
0
0
0
0
0
0
0
0
0
0
0
0
0
0
0
0
0
0
0
0
0
0
0
0
0
0
0
0
0
0
0
0
0
0
0
0
0
0
0
0
0
0
0
0
0
0
0
0
0
0
0
0
0
0
0
0
0
0
0
0
0
0
0
0
0
0
0
0
0
0
0
0
0
0
0
0
0
0
0
0
0
0
0
0
0
0
0
0
0
0
0
0
0
0
0
0
0
0
0
0
0
0
0
0
0
0
0
0
0
0
0
0
0
0
0
0
0
0
0
0
0
0
0
0
0
0
0
0
0
0
0
0
0
0
0
0
0
0
0
0
0
0
0
0
0
0
0
0
0
0
0
0
0
0
0
0
0
0
0
0
0
0
0
0
0
0
0
0
0
0
0
0
0
0
0
0
0
0
0
0
0
0
0
0
0
0
0
0
0
0
0
255
255
255
254
255
255
255
254
254
254
255
255
254
254
254
255
255
255
254
254
254
254
254
254
255
255
255
255
255
255
255
254
255
255
255
255
255
255
254
254
254
252
251
251
228
101
105
105
106
105
105
105
157
157
157
154
156
156
156
156
156
156
156
156
156
157
157
157
157
157
157
157
156
156
156
156
156
156
156
157
157
157
156
157
157
156
156
156
156
156
157
157
157
157
157
156
157
157
157
157
156
156
156
156
157
157
156
156
156
157
157
156
156
165
183
183
183
184
184
184
170
155
155
158
157
157
130
108
105
107
106
107
107
139
225
225
247
254
255
255
255
255
255
254
254
254
254
254
249
249
245
158
158
93
101
101
101
103
100
100
101
102
107
107
132
136
136
136
137
136
137
137
137
137
137
137
137
137
137
137
137
137
137
137
137
137
137
137
136
139
139
140
155
155
156
138
137
137
137
137
137
137
136
148
148
160
162
162
158
157
160
154
139
133
133
135
130
130
111
103
103
103
103
99
99
102
103
102
97
93
97
97
150
205
205
225
223
230
230
230
229
229
228
235
254
254
252
253
253
255
255
254
254
255
255
255
255
254
254
254
255
255
255
254
254
254
254
255
255
255
254
254
254
254
254
254
254
254
137
137
137
138
138
136
137
136
136
135
137
137
138
127
127
104
102
101
101
102
103
103
93
240
252
252
252
255
255
255
254
254
255
255
255
255
254
254
254
0
0
0
0
0
0
0
0
0
0
0
0
0
0
0
0
0
0
0
0
0
0
0
0
0
0
0
0
0
0
0
0
0
0
0
0
0
0
0
0
0
0
0
0
0
0
0
0
0
0
0
0
0
0
0
0
0
0
0
0
0
0
0
0
0
0
0
0
0
0
0
0
0
0
0
0
0
0
0
0
0
0
0
0
0
0
0
0
0
0
0
0
0
0
0
0
0
0
0
0
0
0
0
0
0
0
0
0
0
0
0
0
0
0
0
0
0
0
0
0
0
0
0
0
0
0
0
0
0
0
0
0
0
0
0
0
0
0
0
0
0
0
0
0
0
0
0
0
0
0
0
0
0
0
0
0
0
0
0
0
0
0
0
0
0
0
0
0
0
0
0
0
0
0
0
0
0
0
0
0
0
0
0
0
0
0
0
0
0
0
0
0
0
0
0
0
0
0
0
0
0
0
0
0
0
0
0
0
0
0
0
0
0
0
0
0
0
0
0
0
0
0
0
0
0
0
0
0
0
0
0
0
0
0
0
0
0
0
0
0
0
0
0
0
0
0
0
0
0
0
0
0
0
255
255
254
254
254
255
255
255
254
254
254
255
255
254
254
254
255
255
255
254
254
254
254
254
255
255
255
255
255
254
255
255
255
255
255
255
254
254
254
254
253
254
254
248
240
156
102
105
105
106
105
106
113
156
152
155
158
157
157
157
155
155
157
156
156
156
157
157
157
157
157
156
156
156
156
156
156
156
156
156
157
157
157
156
157
157
156
156
156
157
157
157
157
157
156
156
157
157
157
157
156
157
157
157
157
157
157
156
156
156
157
155
158
183
183
184
183
181
183
184
165
155
156
158
158
153
112
101
105
105
106
105
100
175
226
234
248
254
254
252
255
255
254
254
254
254
254
252
253
246
158
155
95
99
101
102
102
102
101
102
103
121
114
136
139
137
136
137
137
137
137
137
137
137
137
137
137
137
137
137
137
137
137
137
137
137
138
137
137
138
141
161
160
164
159
161
141
136
136
137
139
138
137
137
141
141
157
154
137
151
143
136
137
135
135
105
118
105
101
101
102
104
100
99
100
100
101
96
92
205
149
214
228
228
230
230
231
230
227
231
229
229
230
242
249
255
254
254
254
254
255
255
254
254
255
255
255
254
254
254
254
255
255
255
254
254
254
254
255
255
254
254
254
254
254
255
254
255
255
138
140
140
136
136
136
137
136
137
137
138
129
128
105
103
102
101
99
100
98
95
143
228
248
255
255
253
255
254
255
255
255
254
255
255
255
254
0
0
0
0
0
0
0
0
0
0
0
0
0
0
0
0
0
0
0
0
0
0
0
0
0
0
0
0
0
0
0
0
0
0
0
0
0
0
0
0
0
0
0
0
0
0
0
0
0
0
0
0
0
0
0
0
0
0
0
0
0
0
0
0
0
0
0
0
0
0
0
0
0
0
0
0
0
0
0
0
0
0
0
0
0
0
0
0
0
0
0
0
0
0
0
0
0
0
0
0
0
0
0
0
0
0
0
0
0
0
0
0
0
0
0
0
0
0
0
0
0
0
0
0
0
0
0
0
0
0
0
0
0
0
0
0
0
0
0
0
0
0
0
0
0
0
0
0
0
0
0
0
0
0
0
0
0
0
0
0
0
0
0
0
0
0
0
0
0
0
0
0
0
0
0
0
0
0
0
0
0
0
0
0
0
0
0
0
0
0
0
0
0
0
0
0
0
0
0
0
0
0
0
0
0
0
0
0
0
0
0
0
0
0
0
0
0
0
0
0
0
0
0
0
0
0
0
0
0
0
0
0
0
0
0
0
0
0
0
0
0
0
0
0
0
0
0
0
0
0
0
0
0
0
255
255
255
254
254
254
255
255
255
254
254
254
255
255
254
254
254
255
255
254
254
254
254
254
255
255
255
255
254
254
255
255
255
255
255
254
254
254
254
254
255
254
255
253
232
232
121
104
105
105
105
106
106
136
154
154
156
157
157
157
158
156
156
157
156
156
156
157
157
157
157
157
156
157
156
156
156
156
156
156
156
157
157
156
156
157
157
157
157
157
157
157
157
157
156
156
156
157
157
157
157
157
157
157
157
157
157
156
156
156
156
155
179
183
181
184
183
184
184
175
175
155
155
158
157
137
112
108
105
106
106
107
112
175
230
235
254
254
254
255
255
255
254
254
254
254
251
252
251
169
158
93
102
101
101
102
102
102
103
108
131
131
134
136
139
137
137
137
137
137
137
137
137
137
137
137
137
137
137
137
137
137
137
137
137
137
137
137
137
136
160
161
159
159
158
158
158
135
136
136
136
137
137
140
135
141
134
134
137
134
135
131
137
111
103
105
104
102
101
101
100
99
100
96
90
100
117
197
228
205
230
229
228
227
228
229
229
230
231
231
229
231
232
232
252
254
254
254
255
254
254
255
255
254
254
255
255
255
255
254
254
254
255
255
255
254
254
254
254
254
254
254
254
254
254
254
254
254
255
254
140
139
138
137
137
138
137
137
136
129
129
103
103
103
103
104
102
100
100
101
228
228
239
255
255
254
255
254
253
255
254
254
254
255
255
0
0
0
0
0
0
0
0
0
0
0
0
0
0
0
0
0
0
0
0
0
0
0
0
0
0
0
0
0
0
0
0
0
0
0
0
0
0
0
0
0
0
0
0
0
0
0
0
0
0
0
0
0
0
0
0
0
0
0
0
0
0
0
0
0
0
0
0
0
0
0
0
0
0
0
0
0
0
0
0
0
0
0
0
0
0
0
0
0
0
0
0
0
0
0
0
0
0
0
0
0
0
0
0
0
0
0
0
0
0
0
0
0
0
0
0
0
0
0
0
0
0
0
0
0
0
0
0
0
0
0
0
0
0
0
0
0
0
0
0
0
0
0
0
0
0
0
0
0
0
0
0
0
0
0
0
0
0
0
0
0
0
0
0
0
0
0
0
0
0
0
0
0
0
0
0
0
0
0
0
0
0
0
0
0
0
0
0
0
0
0
0
0
0
0
0
0
0
0
0
0
0
0
0
0
0
0
0
0
0
0
0
0
0
0
0
0
0
0
0
0
0
0
0
0
0
0
0
0
0
0
0
0
0
0
0
0
0
0
0
0
0
0
0
0
0
0
0
0
0
0
0
0
0
0
255
255
255
255
254
254
254
255
255
255
254
254
254
255
255
254
254
254
255
255
255
254
254
254
254
255
255
255
254
254
255
255
255
255
255
254
254
254
254
254
254
253
255
253
253
223
207
107
105
106
106
106
105
103
146
156
158
156
156
157
156
158
156
156
157
156
156
156
156
157
156
157
157
157
157
156
156
156
156
156
156
156
156
156
156
156
157
157
157
156
156
156
157
156
156
156
156
157
156
157
157
157
157
157
157
156
156
156
156
157
155
167
173
181
184
184
183
183
184
182
159
159
154
160
154
154
107
104
105
108
106
103
103
213
226
236
250
254
255
253
254
253
254
253
255
254
255
253
201
201
96
101
102
102
101
101
102
104
115
139
137
135
139
137
137
136
136
137
137
137
137
137
137
137
137
137
137
137
137
137
137
137
137
137
137
137
137
137
135
147
147
161
160
162
159
163
159
148
135
138
136
139
137
137
138
138
135
135
135
132
108
119
104
104
104
106
103
101
102
101
97
101
95
104
104
177
225
230
225
227
230
230
229
232
231
230
230
230
231
229
231
230
230
254
254
255
254
254
254
255
254
254
255
255
254
254
255
255
255
255
254
254
254
255
255
255
254
254
254
254
254
254
254
254
254
254
254
254
255
254
254
138
138
138
138
137
139
135
129
129
102
102
101
102
103
101
102
101
98
198
222
228
234
248
255
254
254
255
254
255
255
254
254
254
0
0
0
0
0
0
0
0
0
0
0
0
0
0
0
0
0
0
0
0
0
0
0
0
0
0
0
0
0
0
0
0
0
0
0
0
0
0
0
0
0
0
0
0
0
0
0
0
0
0
0
0
0
0
0
0
0
0
0
0
0
0
0
0
0
0
0
0
0
0
0
0
0
0
0
0
0
0
0
0
0
0
0
0
0
0
0
0
0
0
0
0
0
0
0
0
0
0
0
0
0
0
0
0
0
0
0
0
0
0
0
0
0
0
0
0
0
0
0
0
0
0
0
0
0
0
0
0
0
0
0
0
0
0
0
0
0
0
0
0
0
0
0
0
0
0
0
0
0
0
0
0
0
0
0
0
0
0
0
0
0
0
0
0
0
0
0
0
0
0
0
0
0
0
0
0
0
0
0
0
0
0
0
0
0
0
0
0
0
0
0
0
0
0
0
0
0
0
0
0
0
0
0
0
0
0
0
0
0
0
0
0
0
0
0
0
0
0
0
0
0
0
0
0
0
0
0
0
0
0
0
0
0
0
0
0
0
0
0
0
0
0
0
0
0
0
0
0
0
0
0
0
0
0
0
0
255
255
255
255
255
254
255
254
255
255
255
254
254
254
255
255
254
254
255
255
255
255
254
254
254
255
255
255
254
254
254
255
255
254
254
255
254
254
255
254
255
254
254
253
254
233
207
181
99
107
107
107
105
103
106
152
158
158
155
156
156
156
157
156
157
156
156
156
156
156
156
156
157
157
157
156
156
156
156
156
156
156
156
156
156
156
156
157
156
156
156
156
156
156
156
156
157
157
159
156
156
157
157
157
157
156
156
156
156
155
163
167
183
184
184
184
182
185
184
173
158
159
155
156
158
115
107
104
105
106
104
105
152
224
230
236
252
254
255
255
255
251
254
255
255
254
255
248
235
93
100
104
102
103
102
101
104
128
138
139
137
139
139
136
138
138
137
137
137
137
137
137
137
137
137
137
137
137
137
137
137
137
137
137
137
137
137
137
136
136
160
163
158
162
158
161
159
139
138
137
136
138
137
137
135
135
137
135
115
101
108
100
101
102
102
98
100
101
96
93
97
132
209
156
219
229
229
230
229
231
229
228
228
230
231
229
230
230
229
229
234
230
254
254
254
254
255
254
254
254
255
254
254
255
255
254
254
255
255
255
255
254
254
254
255
255
255
255
254
254
254
254
255
255
254
254
254
254
255
255
254
254
138
137
137
137
136
124
129
103
103
101
101
101
101
101
102
94
170
198
228
227
234
243
255
254
255
255
254
255
254
255
254
0
0
0
0
0
0
0
0
0
0
0
0
0
0
0
0
0
0
0
0
0
0
0
0
0
0
0
0
0
0
0
0
0
0
0
0
0
0
0
0
0
0
0
0
0
0
0
0
0
0
0
0
0
0
0
0
0
0
0
0
0
0
0
0
0
0
0
0
0
0
0
0
0
0
0
0
0
0
0
0
0
0
0
0
0
0
0
0
0
0
0
0
0
0
0
0
0
0
0
0
0
0
0
0
0
0
0
0
0
0
0
0
0
0
0
0
0
0
0
0
0
0
0
0
0
0
0
0
0
0
0
0
0
0
0
0
0
0
0
0
0
0
0
0
0
0
0
0
0
0
0
0
0
0
0
0
0
0
0
0
0
0
0
0
0
0
0
0
0
0
0
0
0
0
0
0
0
0
0
0
0
0
0
0
0
0
0
0
0
0
0
0
0
0
0
0
0
0
0
0
0
0
0
0
0
0
0
0
0
0
0
0
0
0
0
0
0
0
0
0
0
0
0
0
0
0
0
0
0
0
0
0
0
0
0
0
0
0
0
0
0
0
0
0
0
0
0
0
0
0
0
0
0
0
0
0
0
255
255
255
255
255
255
255
255
254
255
255
255
254
254
254
255
255
255
255
255
255
255
254
254
254
254
255
255
255
254
255
255
254
254
254
254
255
255
255
254
254
254
254
254
255
255
227
152
152
101
104
109
109
105
111
111
155
158
157
155
157
156
156
157
156
156
157
157
156
156
156
156
156
157
156
156
156
156
156
156
157
156
156
156
156
156
156
156
156
156
156
157
156
156
156
157
157
156
154
159
156
156
157
157
157
156
156
156
155
163
163
184
184
184
185
184
184
184
181
157
157
156
156
156
154
105
107
107
106
106
106
103
205
228
228
243
254
254
255
254
255
253
255
253
253
255
249
249
164
99
101
101
103
102
102
103
132
135
137
137
137
137
136
137
137
137
137
137
137
137
137
137
137
137
137
137
137
137
137
137
137
137
137
137
137
137
137
137
137
135
155
163
163
160
162
162
149
135
137
137
136
136
136
137
132
132
119
105
102
102
101
101
101
101
99
99
99
92
111
111
187
223
223
227
228
227
227
230
231
231
231
231
229
229
230
231
231
229
231
249
241
255
255
255
255
254
254
255
254
254
254
255
254
254
255
255
254
254
255
255
255
255
254
254
254
255
255
255
255
254
254
255
255
254
254
254
254
254
254
255
255
254
254
136
136
137
121
121
103
103
102
102
101
101
101
103
93
144
159
229
228
228
234
253
253
255
254
254
254
254
253
253
0
0
0
0
0
0
0
0
0
0
0
0
0
0
0
0
0
0
0
0
0
0
0
0
0
0
0
0
0
0
0
0
0
0
0
0
0
0
0
0
0
0
0
0
0
0
0
0
0
0
0
0
0
0
0
0
0
0
0
0
0
0
0
0
0
0
0
0
0
0
0
0
0
0
0
0
0
0
0
0
0
0
0
0
0
0
0
0
0
0
0
0
0
0
0
0
0
0
0
0
0
0
0
0
0
0
0
0
0
0
0
0
0
0
0
0
0
0
0
0
0
0
0
0
0
0
0
0
0
0
0
0
0
0
0
0
0
0
0
0
0
0
0
0
0
0
0
0
0
0
0
0
0
0
0
0
0
0
0
0
0
0
0
0
0
0
0
0
0
0
0
0
0
0
0
0
0
0
0
0
0
0
0
0
0
0
0
0
0
0
0
0
0
0
0
0
0
0
0
0
0
0
0
0
0
0
0
0
0
0
0
0
0
0
0
0
0
0
0
0
0
0
0
0
0
0
0
0
0
0
0
0
0
0
0
0
0
0
0
0
0
0
0
0
0
0
0
0
0
0
0
0
0
0
0
0
0
0
255
255
255
255
255
255
255
255
255
254
255
255
255
254
254
254
255
255
255
255
255
255
255
254
254
254
255
255
254
255
255
255
255
255
254
254
255
255
254
254
253
254
254
254
254
248
238
230
127
112
106
105
108
107
105
116
120
156
157
156
157
157
158
157
156
156
156
157
157
156
156
156
156
157
157
156
156
157
156
157
157
157
156
156
157
157
156
156
156
156
157
157
157
156
156
156
156
159
153
159
155
156
156
157
157
157
156
156
168
164
184
185
184
184
185
183
183
183
167
160
154
159
158
160
125
105
107
106
106
107
105
106
229
228
226
244
252
255
253
255
255
254
254
255
254
255
252
233
113
100
103
103
104
101
102
122
135
135
135
136
137
137
136
137
137
137
137
137
137
137
137
137
137
137
137
137
137
137
137
137
137
137
137
137
137
137
137
137
137
137
136
155
161
153
161
152
135
136
137
135
136
136
135
110
125
107
101
102
104
103
101
102
101
96
92
97
94
216
164
222
226
229
229
228
228
230
234
229
228
226
229
229
232
233
232
228
230
245
254
249
255
255
255
255
255
255
254
254
255
254
254
254
255
254
254
255
255
254
254
255
255
255
255
254
254
254
255
255
255
254
254
254
254
255
254
255
255
254
254
254
255
255
254
254
137
113
117
102
102
100
103
101
102
100
104
96
134
144
226
228
229
228
235
244
255
255
255
255
255
255
255
0
0
0
0
0
0
0
0
0
0
0
0
0
0
0
0
0
0
0
0
0
0
0
0
0
0
0
0
0
0
0
0
0
0
0
0
0
0
0
0
0
0
0
0
0
0
0
0
0
0
0
0
0
0
0
0
0
0
0
0
0
0
0
0
0
0
0
0
0
0
0
0
0
0
0
0
0
0
0
0
0
0
0
0
0
0
0
0
0
0
0
0
0
0
0
0
0
0
0
0
0
0
0
0
0
0
0
0
0
0
0
0
0
0
0
0
0
0
0
0
0
0
0
0
0
0
0
0
0
0
0
0
0
0
0
0
0
0
0
0
0
0
0
0
0
0
0
0
0
0
0
0
0
0
0
0
0
0
0
0
0
0
0
0
0
0
0
0
0
0
0
0
0
0
0
0
0
0
0
0
0
0
0
0
0
0
0
0
0
0
0
0
0
0
0
0
0
0
0
0
0
0
0
0
0
0
0
0
0
0
0
0
0
0
0
0
0
0
0
0
0
0
0
0
0
0
0
0
0
0
0
0
0
0
0
0
0
0
0
0
0
0
0
0
0
0
0
0
0
0
0
0
0
0
0
0
0
0
0
255
255
255
255
254
255
255
255
255
255
254
255
255
255
254
254
254
255
255
255
255
254
255
255
255
254
254
254
254
255
255
255
254
254
255
255
255
255
254
253
253
254
254
254
254
255
238
231
214
102
102
105
105
107
105
107
123
123
156
156
156
155
157
157
157
156
157
157
157
156
156
156
157
157
157
157
157
157
157
156
157
157
157
156
156
157
156
156
156
157
158
158
157
156
156
157
155
155
155
158
157
157
156
156
157
156
157
173
173
183
184
185
183
183
184
184
181
174
167
156
158
159
157
147
106
106
104
106
106
105
101
211
211
228
229
244
254
254
255
255
253
252
252
254
254
255
252
217
94
94
100
98
104
102
112
136
136
134
137
137
137
137
136
137
137
137
137
137
137
137
137
137
137
137
137
137
137
137
137
137
137
137
137
137
137
138
137
137
137
137
137
136
142
153
139
133
136
136
136
133
133
118
103
110
102
100
101
101
102
100
101
101
93
107
107
188
229
216
225
228
226
230
229
228
228
228
229
229
230
231
228
228
233
239
232
248
253
255
255
254
254
254
255
255
255
255
255
254
254
255
254
254
254
254
254
254
255
255
254
254
255
255
255
255
254
254
254
255
255
255
254
254
254
254
255
255
255
254
254
254
254
255
255
254
254
113
102
102
101
101
102
103
102
101
95
133
133
229
228
228
229
230
235
248
255
254
254
255
254
255
0
0
0
0
0
0
0
0
0
0
0
0
0
0
0
0
0
0
0
0
0
0
0
0
0
0
0
0
0
0
0
0
0
0
0
0
0
0
0
0
0
0
0
0
0
0
0
0
0
0
0
0
0
0
0
0
0
0
0
0
0
0
0
0
0
0
0
0
0
0
0
0
0
0
0
0
0
0
0
0
0
0
0
0
0
0
0
0
0
0
0
0
0
0
0
0
0
0
0
0
0
0
0
0
0
0
0
0
0
0
0
0
0
0
0
0
0
0
0
0
0
0
0
0
0
0
0
0
0
0
0
0
0
0
0
0
0
0
0
0
0
0
0
0
0
0
0
0
0
0
0
0
0
0
0
0
0
0
0
0
0
0
0
0
0
0
0
0
0
0
0
0
0
0
0
0
0
0
0
0
0
0
0
0
0
0
0
0
0
0
0
0
0
0
0
0
0
0
0
0
0
0
0
0
0
0
0
0
0
0
0
0
0
0
0
0
0
0
0
0
0
0
0
0
0
0
0
0
0
0
0
0
0
0
0
0
0
0
0
0
0
0
0
0
0
0
0
0
0
0
0
0
0
0
0
0
0
0
0
0
254
255
255
255
255
254
255
255
255
255
255
254
255
255
254
254
254
254
255
255
255
255
254
255
255
255
254
254
254
255
255
254
254
254
254
255
255
254
254
254
253
253
253
254
254
255
254
229
227
204
101
100
105
106
105
105
106
126
129
156
157
157
156
158
156
156
157
156
156
157
156
157
157
157
157
157
157
157
157
157
156
157
156
156
156
156
156
156
156
157
157
157
157
157
156
156
156
158
157
158
156
155
158
156
155
161
181
178
184
182
183
184
183
185
184
182
179
177
158
156
156
159
152
113
103
106
106
107
106
105
121
167
229
229
229
250
255
254
254
254
254
254
254
254
253
255
248
220
105
101
101
100
101
99
109
133
136
136
139
136
137
137
137
137
137
137
137
137
137
137
137
137
137
137
137
137
137
137
137
137
137
137
137
137
138
138
138
137
137
137
137
137
136
134
137
136
136
135
112
124
107
102
102
103
101
100
101
101
99
101
101
94
199
149
220
226
225
229
232
232
228
232
230
229
232
231
229
230
227
234
233
237
255
247
252
254
254
254
255
254
254
255
255
255
255
255
255
255
255
255
255
254
255
255
254
254
254
255
255
254
254
255
255
255
255
254
254
254
255
255
254
254
254
254
254
254
255
255
254
254
254
254
255
255
254
254
102
102
102
102
101
101
101
95
146
137
228
227
227
229
229
230
237
255
255
254
255
255
254
0
0
0
0
0
0
0
0
0
0
0
0
0
0
0
0
0
0
0
0
0
0
0
0
0
0
0
0
0
0
0
0
0
0
0
0
0
0
0
0
0
0
0
0
0
0
0
0
0
0
0
0
0
0
0
0
0
0
0
0
0
0
0
0
0
0
0
0
0
0
0
0
0
0
0
0
0
0
0
0
0
0
0
0
0
0
0
0
0
0
0
0
0
0
0
0
0
0
0
0
0
0
0
0
0
0
0
0
0
0
0
0
0
0
0
0
0
0
0
0
0
0
0
0
0
0
0
0
0
0
0
0
0
0
0
0
0
0
0
0
0
0
0
0
0
0
0
0
0
0
0
0
0
0
0
0
0
0
0
0
0
0
0
0
0
0
0
0
0
0
0
0
0
0
0
0
0
0
0
0
0
0
0
0
0
0
0
0
0
0
0
0
0
0
0
0
0
0
0
0
0
0
0
0
0
0
0
0
0
0
0
0
0
0
0
0
0
0
0
0
0
0
0
0
0
0
0
0
0
0
0
0
0
0
0
0
0
0
0
0
0
0
0
0
0
0
0
0
0
0
0
0
0
0
0
0
0
0
0
0
0
254
254
255
255
255
255
254
255
255
255
255
255
254
255
254
254
254
254
254
255
255
255
254
254
255
255
254
254
254
254
254
254
254
255
254
255
254
254
254
254
255
253
254
254
254
254
255
241
227
224
171
100
102
105
106
105
107
105
129
130
156
157
157
157
158
156
155
158
156
155
156
156
157
157
157
157
156
157
157
157
157
156
156
156
156
156
157
156
156
157
157
157
157
156
157
156
156
158
157
158
155
159
158
165
179
182
181
184
182
182
183
184
184
185
182
182
179
157
156
156
157
155
124
113
106
105
106
106
105
102
121
222
229
229
229
251
253
254
254
254
254
253
255
254
252
254
248
220
120
96
101
99
105
101
109
119
138
136
134
137
137
137
137
137
137
137
137
137
137
137
137
137
137
137
137
137
137
137
137
137
137
137
137
137
138
138
137
137
137
137
137
137
137
136
135
136
122
104
112
103
103
102
100
103
101
100
101
93
99
93
161
226
199
229
230
226
230
229
230
227
229
229
230
229
228
231
231
232
244
234
253
254
255
253
254
253
254
255
253
254
254
255
255
255
255
255
255
255
255
255
255
255
255
255
255
254
254
254
255
255
254
254
255
255
255
255
254
254
254
254
254
254
254
254
254
254
254
255
255
254
254
254
254
255
255
255
254
102
101
101
101
103
93
154
146
226
227
227
229
229
229
232
252
255
255
253
255
255
0
0
0
0
0
0
0
0
0
0
0
0
0
0
0
0
0
0
0
0
0
0
0
0
0
0
0
0
0
0
0
0
0
0
0
0
0
0
0
0
0
0
0
0
0
0
0
0
0
0
0
0
0
0
0
0
0
0
0
0
0
0
0
0
0
0
0
0
0
0
0
0
0
0
0
0
0
0
0
0
0
0
0
0
0
0
0
0
0
0
0
0
0
0
0
0
0
0
0
0
0
0
0
0
0
0
0
0
0
0
0
0
0
0
0
0
0
0
0
0
0
0
0
0
0
0
0
0
0
0
0
0
0
0
0
0
0
0
0
0
0
0
0
0
0
0
0
0
0
0
0
0
0
0
0
0
0
0
0
0
0
0
0
0
0
0
0
0
0
0
0
0
0
0
0
0
0
0
0
0
0
0
0
0
0
0
0
0
0
0
0
0
0
0
0
0
0
0
0
0
0
0
0
0
0
0
0
0
0
0
0
0
0
0
0
0
0
0
0
0
0
0
0
0
0
0
0
0
0
0
0
0
0
0
0
0
0
0
0
0
0
0
0
0
0
0
0
0
0
0
0
0
0
0
0
0
0
0
0
0
0
0
254
254
254
255
255
255
255
254
255
255
255
255
255
255
255
254
254
254
254
254
255
255
254
254
254
255
255
254
254
254
254
254
255
255
255
255
255
254
254
254
254
255
254
254
254
255
254
255
237
224
224
155
104
105
105
106
106
106
106
130
130
156
157
156
157
158
155
155
158
156
157
156
156
156
156
156
156
156
157
157
155
155
156
156
156
157
156
156
156
157
157
157
157
156
156
157
153
156
156
161
169
169
177
182
185
183
182
183
183
182
184
183
183
183
182
182
158
156
156
157
156
135
135
105
105
105
107
107
106
104
201
228
228
228
243
254
255
254
255
255
254
250
250
255
254
255
249
238
92
92
99
102
102
103
106
128
128
135
139
139
137
137
137
137
137
137
137
137
137
137
137
137
137
137
137
137
137
137
137
137
137
137
137
137
138
137
137
137
137
137
137
137
137
136
137
115
103
103
103
102
102
101
103
99
101
99
91
91
120
204
227
228
229
230
230
230
229
229
230
229
230
230
230
227
227
232
240
246
251
248
251
251
251
252
254
251
250
255
255
254
255
255
255
255
255
255
255
255
255
255
254
254
255
255
255
255
254
254
254
255
255
254
254
255
255
255
255
254
254
254
254
254
254
255
254
254
254
254
255
255
254
254
254
254
255
255
255
254
101
101
103
92
184
169
227
229
229
229
229
229
229
246
254
254
255
255
255
0
0
0
0
0
0
0
0
0
0
0
0
0
0
0
0
0
0
0
0
0
0
0
0
0
0
0
0
0
0
0
0
0
0
0
0
0
0
0
0
0
0
0
0
0
0
0
0
0
0
0
0
0
0
0
0
0
0
0
0
0
0
0
0
0
0
0
0
0
0
0
0
0
0
0
0
0
0
0
0
0
0
0
0
0
0
0
0
0
0
0
0
0
0
0
0
0
0
0
0
0
0
0
0
0
0
0
0
0
0
0
0
0
0
0
0
0
0
0
0
0
0
0
0
0
0
0
0
0
0
0
0
0
0
0
0
0
0
0
0
0
0
0
0
0
0
0
0
0
0
0
0
0
0
0
0
0
0
0
0
0
0
0
0
0
0
0
0
0
0
0
0
0
0
0
0
0
0
0
0
0
0
0
0
0
0
0
0
0
0
0
0
0
0
0
0
0
0
0
0
0
0
0
0
0
0
0
0
0
0
0
0
0
0
0
0
0
0
0
0
0
0
0
0
0
0
0
0
0
0
0
0
0
0
0
0
0
0
0
0
0
0
0
0
0
0
0
0
0
0
0
0
0
0
0
0
0
0
0
0
0
0
0
254
254
254
254
255
255
255
255
254
255
255
255
255
255
254
255
254
255
254
254
254
254
255
254
254
254
254
255
255
254
255
254
254
255
254
255
255
255
255
254
254
254
255
255
255
254
254
254
252
232
227
229
134
105
104
106
106
106
106
106
129
128
157
156
156
156
157
156
158
156
157
156
156
156
156
156
156
156
156
156
156
156
157
156
156
156
156
156
156
156
157
155
164
169
156
175
180
166
174
182
179
185
183
183
185
182
186
184
182
185
182
183
183
181
182
160
155
157
157
156
151
144
104
106
106
106
106
106
106
124
229
228
230
231
251
254
254
255
255
253
255
255
255
255
252
255
254
246
180
95
98
103
102
103
103
105
135
137
134
136
137
137
137
137
137
137
137
137
137
137
137
137
137
137
137
137
137
137
137
137
137
137
137
137
137
137
137
137
137
137
137
137
138
136
122
104
106
103
102
102
101
102
96
99
95
110
98
166
227
228
227
230
229
228
227
231
230
229
230
228
229
229
235
231
237
248
228
246
168
127
233
242
193
242
254
252
254
255
254
254
254
255
255
255
255
255
255
255
255
255
255
254
254
255
255
255
255
254
254
254
255
255
254
254
255
255
255
255
254
254
254
254
255
255
255
254
254
254
254
255
255
254
254
254
254
255
255
254
254
103
98
204
184
227
228
230
229
230
230
229
238
253
254
255
255
255
0
0
0
0
0
0
0
0
0
0
0
0
0
0
0
0
0
0
0
0
0
0
0
0
0
0
0
0
0
0
0
0
0
0
0
0
0
0
0
0
0
0
0
0
0
0
0
0
0
0
0
0
0
0
0
0
0
0
0
0
0
0
0
0
0
0
0
0
0
0
0
0
0
0
0
0
0
0
0
0
0
0
0
0
0
0
0
0
0
0
0
0
0
0
0
0
0
0
0
0
0
0
0
0
0
0
0
0
0
0
0
0
0
0
0
0
0
0
0
0
0
0
0
0
0
0
0
0
0
0
0
0
0
0
0
0
0
0
0
0
0
0
0
0
0
0
0
0
0
0
0
0
0
0
0
0
0
0
0
0
0
0
0
0
0
0
0
0
0
0
0
0
0
0
0
0
0
0
0
0
0
0
0
0
0
0
0
0
0
0
0
0
0
0
0
0
0
0
0
0
0
0
0
0
0
0
0
0
0
0
0
0
0
0
0
0
0
0
0
0
0
0
0
0
0
0
0
0
0
0
0
0
0
0
0
0
0
0
0
0
0
0
0
0
0
0
0
0
0
0
0
0
0
0
0
0
0
0
0
0
0
0
0
0
254
254
255
254
254
255
255
255
255
254
255
255
255
255
255
254
255
255
255
254
254
254
255
255
254
254
254
255
255
255
254
254
254
254
254
254
255
255
255
255
254
254
254
255
254
254
254
255
255
248
230
228
228
128
103
103
107
106
106
106
106
124
124
156
157
157
156
158
156
156
158
154
154
156
156
156
156
156
157
157
157
157
157
157
156
156
156
156
156
156
165
178
183
183
182
184
184
183
182
182
183
184
182
182
183
184
184
184
184
183
183
183
180
180
158
156
155
157
156
153
153
106
107
106
105
107
105
105
107
228
228
231
228
242
242
254
254
254
254
254
255
251
252
255
255
253
254
254
238
91
104
104
101
103
103
101
105
137
135
137
137
137
137
137
137
137
137
137
137
137
137
137
137
137
137
137
137
137
137
137
137
137
137
137
137
137
137
137
137
137
137
135
135
132
104
104
103
103
102
102
101
94
94
92
143
143
224
225
228
228
232
230
230
234
232
231
229
229
229
229
232
242
235
253
246
180
180
101
96
96
97
93
117
117
221
247
247
253
253
254
254
255
255
255
255
255
255
255
255
255
255
255
254
254
255
255
255
255
254
254
254
255
255
254
254
255
255
255
255
254
254
254
254
255
255
255
254
254
254
254
255
255
254
254
254
254
254
254
254
254
221
221
229
229
229
230
230
230
229
236
254
254
255
255
255
0
0
0
0
0
0
0
0
0
0
0
0
0
0
0
0
0
0
0
0
0
0
0
0
0
0
0
0
0
0
0
0
0
0
0
0
0
0
0
0
0
0
0
0
0
0
0
0
0
0
0
0
0
0
0
0
0
0
0
0
0
0
0
0
0
0
0
0
0
0
0
0
0
0
0
0
0
0
0
0
0
0
0
0
0
0
0
0
0
0
0
0
0
0
0
0
0
0
0
0
0
0
0
0
0
0
0
0
0
0
0
0
0
0
0
0
0
0
0
0
0
0
0
0
0
0
0
0
0
0
0
0
0
0
0
0
0
0
0
0
0
0
0
0
0
0
0
0
0
0
0
0
0
0
0
0
0
0
0
0
0
0
0
0
0
0
0
0
0
0
0
0
0
0
0
0
0
0
0
0
0
0
0
0
0
0
0
0
0
0
0
0
0
0
0
0
0
0
0
0
0
0
0
0
0
0
0
0
0
0
0
0
0
0
0
0
0
0
0
0
0
0
0
0
0
0
0
0
0
0
0
0
0
0
0
0
0
0
0
0
0
0
0
0
0
0
0
0
0
0
0
0
0
0
0
0
0
0
0
0
0
0
0
0
0
254
255
255
255
254
254
255
255
255
255
255
255
255
255
255
255
254
255
255
255
254
254
254
255
255
254
254
254
255
255
255
254
254
254
254
254
254
255
255
255
255
254
254
255
253
255
254
254
255
255
237
229
226
225
126
103
103
107
106
106
106
105
120
115
156
157
156
156
156
156
157
159
155
157
156
156
156
157
157
157
156
157
157
157
157
156
156
156
155
164
179
187
182
183
182
185
185
184
183
184
184
183
183
184
184
185
181
184
182
183
183
174
177
157
158
158
157
156
157
154
109
106
106
105
106
107
106
103
196
215
230
229
229
234
255
255
254
254
255
254
254
254
254
253
255
255
253
250
249
149
98
104
102
103
100
101
103
113
136
137
138
137
137
137
137
137
137
137
137
137
137
137
137
137
137
137
137
137
137
137
138
137
137
137
137
137
137
137
137
137
136
139
139
128
110
103
103
102
102
101
99
96
98
219
191
231
229
231
231
228
231
230
230
230
232
228
230
235
229
240
252
253
251
235
93
123
92
101
93
98
103
101
96
99
93
194
247
244
250
254
255
254
254
255
255
254
255
255
255
255
255
255
255
254
255
255
255
255
255
254
254
254
255
255
254
254
255
255
255
255
254
254
254
255
255
255
255
254
254
254
254
255
254
254
254
254
254
254
254
254
254
230
229
229
231
230
229
229
234
253
254
255
254
254
0
0
0
0
0
0
0
0
0
0
0
0
0
0
0
0
0
0
0
0
0
0
0
0
0
0
0
0
0
0
0
0
0
0
0
0
0
0
0
0
0
0
0
0
0
0
0
0
0
0
0
0
0
0
0
0
0
0
0
0
0
0
0
0
0
0
0
0
0
0
0
0
0
0
0
0
0
0
0
0
0
0
0
0
0
0
0
0
0
0
0
0
0
0
0
0
0
0
0
0
0
0
0
0
0
0
0
0
0
0
0
0
0
0
0
0
0
0
0
0
0
0
0
0
0
0
0
0
0
0
0
0
0
0
0
0
0
0
0
0
0
0
0
0
0
0
0
0
0
0
0
0
0
0
0
0
0
0
0
0
0
0
0
0
0
0
0
0
0
0
0
0
0
0
0
0
0
0
0
0
0
0
0
0
0
0
0
0
0
0
0
0
0
0
0
0
0
0
0
0
0
0
0
0
0
0
0
0
0
0
0
0
0
0
0
0
0
0
0
0
0
0
0
0
0
0
0
0
0
0
0
0
0
0
0
0
0
0
0
0
0
0
0
0
0
0
0
0
0
0
0
0
0
0
0
0
0
0
0
0
0
0
0
0
0
0
254
254
255
255
255
254
254
255
255
255
255
255
255
255
255
255
255
255
255
255
255
254
254
254
255
255
254
254
254
255
254
255
254
254
254
254
254
254
255
255
255
255
253
255
255
254
254
255
254
254
254
233
231
225
226
124
103
105
105
107
106
105
106
115
112
152
155
155
158
157
157
156
156
157
157
156
156
157
156
156
156
156
156
156
157
157
156
156
155
177
185
185
183
182
182
187
181
184
183
182
182
183
183
182
184
183
183
183
183
182
168
174
156
157
158
155
156
156
157
113
106
106
107
105
106
107
103
173
196
228
230
230
230
243
255
255
254
255
255
254
254
254
254
254
255
255
254
254
247
247
114
98
102
104
101
101
102
101
119
137
136
137
137
137
137
137
137
137
137
137
137
137
137
137
137
137
137
137
137
137
138
137
137
137
137
137
137
137
137
135
135
137
137
128
107
105
103
101
102
100
99
153
224
219
226
228
228
228
231
227
231
231
228
230
229
233
244
235
255
251
252
244
166
95
93
103
99
101
98
102
102
102
100
102
93
98
147
244
243
251
255
254
255
255
255
254
255
255
255
255
255
255
255
255
255
255
255
255
255
255
254
254
254
255
254
254
254
255
255
255
254
254
254
254
255
255
255
255
254
254
255
255
254
254
254
254
254
254
254
254
254
254
229
230
230
230
230
231
253
253
254
254
254
0
0
0
0
0
0
0
0
0
0
0
0
0
0
0
0
0
0
0
0
0
0
0
0
0
0
0
0
0
0
0
0
0
0
0
0
0
0
0
0
0
0
0
0
0
0
0
0
0
0
0
0
0
0
0
0
0
0
0
0
0
0
0
0
0
0
0
0
0
0
0
0
0
0
0
0
0
0
0
0
0
0
0
0
0
0
0
0
0
0
0
0
0
0
0
0
0
0
0
0
0
0
0
0
0
0
0
0
0
0
0
0
0
0
0
0
0
0
0
0
0
0
0
0
0
0
0
0
0
0
0
0
0
0
0
0
0
0
0
0
0
0
0
0
0
0
0
0
0
0
0
0
0
0
0
0
0
0
0
0
0
0
0
0
0
0
0
0
0
0
0
0
0
0
0
0
0
0
0
0
0
0
0
0
0
0
0
0
0
0
0
0
0
0
0
0
0
0
0
0
0
0
0
0
0
0
0
0
0
0
0
0
0
0
0
0
0
0
0
0
0
0
0
0
0
0
0
0
0
0
0
0
0
0
0
0
0
0
0
0
0
0
0
0
0
0
0
0
0
0
0
0
0
0
0
0
0
0
0
0
0
0
0
0
0
0
0
255
254
255
255
255
255
254
254
255
255
255
255
255
255
255
255
255
255
255
255
255
255
254
254
254
255
255
254
254
254
255
255
255
254
254
254
254
254
254
255
255
254
255
254
255
255
254
255
255
254
254
253
230
230
226
226
122
106
105
104
106
105
105
106
107
104
149
154
156
157
159
154
155
157
155
155
156
156
156
156
156
156
156
156
157
157
157
158
161
179
180
181
182
184
181
181
181
185
184
184
183
183
183
183
183
182
183
185
179
159
162
156
157
157
155
157
155
156
112
106
106
106
106
106
106
105
151
151
228
229
230
229
236
253
255
255
255
255
254
253
255
254
254
254
254
255
253
251
253
230
213
98
98
101
101
102
102
103
103
122
137
137
137
138
138
137
137
137
137
137
137
137
137
137
137
137
137
137
137
137
137
137
137
137
137
137
137
137
137
138
139
137
135
136
101
101
101
104
102
100
93
195
195
226
232
231
229
229
232
231
232
230
230
229
238
253
251
254
249
249
238
136
95
96
100
98
98
101
102
102
101
101
100
101
102
96
96
132
244
244
250
255
254
254
254
255
255
255
255
255
255
255
255
255
255
255
254
255
255
255
255
254
254
254
255
254
254
254
255
255
255
255
254
254
254
255
255
255
255
255
254
255
255
254
254
254
254
254
254
254
255
255
254
229
229
230
233
255
254
253
254
254
0
0
0
0
0
0
0
0
0
0
0
0
0
0
0
0
0
0
0
0
0
0
0
0
0
0
0
0
0
0
0
0
0
0
0
0
0
0
0
0
0
0
0
0
0
0
0
0
0
0
0
0
0
0
0
0
0
0
0
0
0
0
0
0
0
0
0
0
0
0
0
0
0
0
0
0
0
0
0
0
0
0
0
0
0
0
0
0
0
0
0
0
0
0
0
0
0
0
0
0
0
0
0
0
0
0
0
0
0
0
0
0
0
0
0
0
0
0
0
0
0
0
0
0
0
0
0
0
0
0
0
0
0
0
0
0
0
0
0
0
0
0
0
0
0
0
0
0
0
0
0
0
0
0
0
0
0
0
0
0
0
0
0
0
0
0
0
0
0
0
0
0
0
0
0
0
0
0
0
0
0
0
0
0
0
0
0
0
0
0
0
0
0
0
0
0
0
0
0
0
0
0
0
0
0
0
0
0
0
0
0
0
0
0
0
0
0
0
0
0
0
0
0
0
0
0
0
0
0
0
0
0
0
0
0
0
0
0
0
0
0
0
0
0
0
0
0
0
0
0
0
0
0
0
0
0
0
0
0
0
0
0
0
0
0
0
0
0
255
255
255
255
255
255
255
254
254
255
255
255
255
255
255
255
255
255
255
254
255
255
255
254
254
254
255
255
254
255
254
255
255
255
254
254
254
254
254
254
254
254
254
255
254
255
255
254
255
255
254
253
249
230
230
227
227
125
105
105
105
106
105
105
106
104
103
129
156
159
155
157
155
158
159
155
156
156
156
156
156
156
156
157
157
157
155
156
157
179
182
186
182
184
184
187
186
181
181
184
181
184
185
184
182
176
183
160
156
159
154
157
158
156
157
151
155
109
107
106
106
106
106
106
104
120
134
230
229
230
230
229
247
253
254
253
255
255
254
254
255
253
254
254
253
254
255
251
255
242
213
203
91
99
102
101
102
103
102
103
126
136
136
136
138
136
137
137
137
137
137
137
137
137
137
137
137
137
137
137
137
137
137
137
137
137
137
137
137
137
137
137
140
138
127
102
102
102
102
102
99
94
217
226
227
231
230
228
232
231
230
232
231
254
254
253
254
248
246
226
93
95
95
101
101
101
102
106
106
102
108
101
100
103
103
102
96
97
116
244
244
249
254
253
254
255
255
255
255
255
255
255
255
255
255
255
254
254
255
255
255
255
254
254
254
255
254
254
254
255
255
255
255
254
255
255
255
255
254
255
254
254
254
254
254
254
254
254
254
254
255
255
254
254
229
236
254
255
255
254
254
0
0
0
0
0
0
0
0
0
0
0
0
0
0
0
0
0
0
0
0
0
0
0
0
0
0
0
0
0
0
0
0
0
0
0
0
0
0
0
0
0
0
0
0
0
0
0
0
0
0
0
0
0
0
0
0
0
0
0
0
0
0
0
0
0
0
0
0
0
0
0
0
0
0
0
0
0
0
0
0
0
0
0
0
0
0
0
0
0
0
0
0
0
0
0
0
0
0
0
0
0
0
0
0
0
0
0
0
0
0
0
0
0
0
0
0
0
0
0
0
0
0
0
0
0
0
0
0
0
0
0
0
0
0
0
0
0
0
0
0
0
0
0
0
0
0
0
0
0
0
0
0
0
0
0
0
0
0
0
0
0
0
0
0
0
0
0
0
0
0
0
0
0
0
0
0
0
0
0
0
0
0
0
0
0
0
0
0
0
0
0
0
0
0
0
0
0
0
0
0
0
0
0
0
0
0
0
0
0
0
0
0
0
0
0
0
0
0
0
0
0
0
0
0
0
0
0
0
0
0
0
0
0
0
0
0
0
0
0
0
0
0
0
0
0
0
0
0
0
0
0
0
0
0
0
0
0
0
0
0
0
0
0
0
0
0
0
0
0
255
255
255
255
255
255
255
255
254
254
255
255
255
255
255
255
255
255
255
255
254
255
255
255
254
254
254
255
255
255
255
254
255
255
255
254
254
254
254
254
254
254
254
254
255
254
255
255
254
255
255
255
248
248
229
229
227
227
135
104
104
105
107
106
106
105
105
105
115
156
143
157
155
152
152
157
156
156
156
157
157
157
157
157
157
157
155
157
157
164
184
184
181
184
184
182
184
185
185
183
184
184
179
176
164
164
157
154
154
156
156
156
157
156
147
147
107
107
107
106
106
107
107
102
114
114
225
227
231
231
228
241
241
255
252
252
255
255
255
255
254
254
254
254
255
254
254
254
255
255
229
180
180
94
101
102
102
102
102
102
103
132
136
136
137
137
137
137
137
137
137
137
137
137
137
137
137
137
137
137
137
137
137
137
137
137
137
137
137
137
137
136
136
136
135
103
104
104
102
103
103
97
128
227
227
231
230
230
228
231
231
245
254
253
253
254
246
246
157
93
97
97
101
103
103
102
102
115
115
135
124
124
104
104
104
102
103
95
95
115
242
242
249
255
254
254
255
255
255
255
255
255
255
255
255
255
255
254
254
255
255
255
255
254
254
254
255
255
254
254
255
255
255
255
255
255
255
254
255
255
255
254
254
254
254
255
255
254
254
254
254
254
254
254
254
254
254
254
255
255
0
0
0
0
0
0
0
0
0
0
0
0
0
0
0
0
0
0
0
0
0
0
0
0
0
0
0
0
0
0
0
0
0
0
0
0
0
0
0
0
0
0
0
0
0
0
0
0
0
0
0
0
0
0
0
0
0
0
0
0
0
0
0
0
0
0
0
0
0
0
0
0
0
0
0
0
0
0
0
0
0
0
0
0
0
0
0
0
0
0
0
0
0
0
0
0
0
0
0
0
0
0
0
0
0
0
0
0
0
0
0
0
0
0
0
0
0
0
0
0
0
0
0
0
0
0
0
0
0
0
0
0
0
0
0
0
0
0
0
0
0
0
0
0
0
0
0
0
0
0
0
0
0
0
0
0
0
0
0
0
0
0
0
0
0
0
0
0
0
0
0
0
0
0
0
0
0
0
0
0
0
0
0
0
0
0
0
0
0
0
0
0
0
0
0
0
0
0
0
0
0
0
0
0
0
0
0
0
0
0
0
0
0
0
0
0
0
0
0
0
0
0
0
0
0
0
0
0
0
0
0
0
0
0
0
0
0
0
0
0
0
0
0
0
0
0
0
0
0
0
0
0
0
0
0
0
0
0
0
0
0
0
0
0
0
0
0
0
0
0
254
255
255
255
255
255
255
255
254
254
254
255
255
254
254
255
254
254
255
254
254
253
255
255
255
254
254
255
255
255
255
254
254
255
255
255
254
254
254
254
254
254
254
254
254
254
254
254
254
254
255
255
254
246
244
229
229
227
227
145
104
102
105
106
108
108
104
106
105
104
143
132
156
158
156
157
155
157
157
157
157
157
156
157
157
155
157
156
157
156
163
182
161
180
184
168
167
182
180
160
179
174
154
157
156
157
157
157
157
156
157
157
156
135
140
106
107
106
106
107
106
107
102
101
111
223
228
231
230
229
231
235
254
254
254
255
255
254
255
254
254
254
255
255
254
254
254
254
252
250
241
228
164
151
96
102
102
102
102
102
103
103
133
137
136
137
137
137
137
137
137
137
137
137
137
137
137
137
137
137
137
137
137
137
137
137
137
137
137
137
137
137
137
132
138
124
102
103
101
104
100
100
95
162
227
231
230
233
248
238
254
253
251
251
249
208
232
123
97
99
99
102
101
101
103
104
132
125
136
136
135
132
135
107
103
102
101
100
96
97
115
240
238
250
254
255
255
255
255
255
255
255
255
255
255
255
255
255
254
254
255
255
255
255
254
254
254
255
255
254
254
255
255
255
255
255
254
254
255
255
255
254
254
254
254
255
255
255
255
254
254
254
254
255
255
254
254
255
255
0
0
0
0
0
0
0
0
0
0
0
0
0
0
0
0
0
0
0
0
0
0
0
0
0
0
0
0
0
0
0
0
0
0
0
0
0
0
0
0
0
0
0
0
0
0
0
0
0
0
0
0
0
0
0
0
0
0
0
0
0
0
0
0
0
0
0
0
0
0
0
0
0
0
0
0
0
0
0
0
0
0
0
0
0
0
0
0
0
0
0
0
0
0
0
0
0
0
0
0
0
0
0
0
0
0
0
0
0
0
0
0
0
0
0
0
0
0
0
0
0
0
0
0
0
0
0
0
0
0
0
0
0
0
0
0
0
0
0
0
0
0
0
0
0
0
0
0
0
0
0
0
0
0
0
0
0
0
0
0
0
0
0
0
0
0
0
0
0
0
0
0
0
0
0
0
0
0
0
0
0
0
0
0
0
0
0
0
0
0
0
0
0
0
0
0
0
0
0
0
0
0
0
0
0
0
0
0
0
0
0
0
0
0
0
0
0
0
0
0
0
0
0
0
0
0
0
0
0
0
0
0
0
0
0
0
0
0
0
0
0
0
0
0
0
0
0
0
0
0
0
0
0
0
0
0
0
0
0
0
0
0
0
0
0
0
0
0
0
0
0
254
254
255
255
255
255
254
255
255
254
254
254
255
254
254
254
254
254
254
255
254
254
254
255
255
255
255
255
255
255
255
254
255
254
255
255
255
255
255
254
254
254
254
254
254
254
253
253
254
254
254
255
254
253
242
242
229
230
227
228
170
102
102
105
106
108
106
105
105
105
105
116
116
149
156
157
157
156
157
157
157
156
156
156
155
156
156
157
158
156
158
156
161
153
158
156
156
156
154
160
158
156
160
160
156
156
157
156
154
156
157
153
120
120
104
106
107
105
108
106
106
104
103
101
224
229
230
230
230
229
231
252
255
254
255
255
254
254
254
255
254
255
255
254
254
254
255
254
251
251
241
233
226
135
135
97
100
102
101
103
102
102
105
134
136
137
137
137
137
137
137
137
137
137
137
137
137
137
137
137
137
137
137
137
137
137
137
137
137
137
137
137
137
135
137
137
116
100
101
101
102
103
103
91
221
231
237
252
248
254
255
250
250
241
172
208
93
99
101
101
102
101
101
104
107
136
136
133
138
136
136
136
135
136
108
102
102
101
102
97
96
107
233
233
250
255
255
255
254
255
255
254
255
255
255
255
255
255
255
254
254
255
255
255
254
254
254
254
255
255
254
254
255
255
255
255
254
254
254
254
255
254
254
254
254
254
255
255
255
254
254
254
254
255
255
254
254
255
0
0
0
0
0
0
0
0
0
0
0
0
0
0
0
0
0
0
0
0
0
0
0
0
0
0
0
0
0
0
0
0
0
0
0
0
0
0
0
0
0
0
0
0
0
0
0
0
0
0
0
0
0
0
0
0
0
0
0
0
0
0
0
0
0
0
0
0
0
0
0
0
0
0
0
0
0
0
0
0
0
0
0
0
0
0
0
0
0
0
0
0
0
0
0
0
0
0
0
0
0
0
0
0
0
0
0
0
0
0
0
0
0
0
0
0
0
0
0
0
0
0
0
0
0
0
0
0
0
0
0
0
0
0
0
0
0
0
0
0
0
0
0
0
0
0
0
0
0
0
0
0
0
0
0
0
0
0
0
0
0
0
0
0
0
0
0
0
0
0
0
0
0
0
0
0
0
0
0
0
0
0
0
0
0
0
0
0
0
0
0
0
0
0
0
0
0
0
0
0
0
0
0
0
0
0
0
0
0
0
0
0
0
0
0
0
0
0
0
0
0
0
0
0
0
0
0
0
0
0
0
0
0
0
0
0
0
0
0
0
0
0
0
0
0
0
0
0
0
0
0
0
0
0
0
0
0
0
0
0
0
0
0
0
0
0
0
0
0
0
0
0
254
254
254
255
255
255
255
254
255
255
255
254
254
254
254
254
254
254
255
254
254
254
254
254
255
255
255
255
255
254
255
255
255
255
255
255
255
255
255
255
254
254
254
254
254
254
254
253
254
254
254
254
254
254
253
241
240
230
230
227
228
184
103
108
104
107
104
104
106
106
106
105
107
102
134
154
159
159
156
156
155
156
155
158
157
155
158
158
155
156
158
158
158
156
157
155
157
157
157
157
158
153
158
156
155
154
156
156
156
156
144
104
112
105
107
107
108
107
105
105
104
112
108
224
227
230
228
230
230
229
247
255
255
255
255
255
255
254
254
254
255
255
255
254
254
255
255
255
255
255
254
231
230
227
121
112
101
99
102
103
103
103
102
105
135
136
136
137
138
138
137
137
137
137
137
137
137
137
137
137
137
137
137
138
137
137
137
137
137
137
137
137
137
138
137
136
134
108
102
101
101
101
101
98
108
236
252
252
254
254
246
248
234
103
135
94
101
101
100
102
102
102
103
113
138
137
137
137
136
137
137
137
137
137
136
107
102
102
102
103
97
96
104
228
224
250
254
255
255
254
254
255
255
255
255
255
255
255
255
255
254
254
255
255
254
255
254
254
254
255
255
254
254
255
255
255
255
254
254
254
254
254
255
254
254
255
255
255
255
255
254
254
254
255
255
255
254
0
0
0
0
0
0
0
0
0
0
0
0
0
0
0
0
0
0
0
0
0
0
0
0
0
0
0
0
0
0
0
0
0
0
0
0
0
0
0
0
0
0
0
0
0
0
0
0
0
0
0
0
0
0
0
0
0
0
0
0
0
0
0
0
0
0
0
0
0
0
0
0
0
0
0
0
0
0
0
0
0
0
0
0
0
0
0
0
0
0
0
0
0
0
0
0
0
0
0
0
0
0
0
0
0
0
0
0
0
0
0
0
0
0
0
0
0
0
0
0
0
0
0
0
0
0
0
0
0
0
0
0
0
0
0
0
0
0
0
0
0
0
0
0
0
0
0
0
0
0
0
0
0
0
0
0
0
0
0
0
0
0
0
0
0
0
0
0
0
0
0
0
0
0
0
0
0
0
0
0
0
0
0
0
0
0
0
0
0
0
0
0
0
0
0
0
0
0
0
0
0
0
0
0
0
0
0
0
0
0
0
0
0
0
0
0
0
0
0
0
0
0
0
0
0
0
0
0
0
0
0
0
0
0
0
0
0
0
0
0
0
0
0
0
0
0
0
0
0
0
0
0
0
0
0
0
0
0
0
0
0
0
0
0
0
0
0
0
0
0
0
0
0
254
254
254
254
255
255
255
254
254
255
255
255
254
252
254
254
254
254
254
254
254
255
254
255
254
255
255
255
254
254
254
255
255
255
255
254
255
255
255
255
255
254
254
254
254
254
254
254
253
254
254
254
254
254
255
254
240
240
230
229
228
228
218
108
121
103
106
104
105
107
106
106
106
102
106
106
124
159
146
158
155
157
156
156
157
155
155
158
157
157
156
155
157
157
157
153
156
157
157
155
157
153
158
156
155
159
155
158
155
115
103
104
106
106
107
106
103
106
105
103
120
112
225
227
229
230
228
231
230
235
255
255
255
255
255
255
255
254
254
254
254
255
255
255
255
255
255
254
254
255
255
240
230
230
226
112
107
101
101
103
102
102
102
103
106
135
136
136
137
138
138
137
137
137
137
137
137
137
137
137
137
137
137
138
138
137
137
137
137
137
137
137
138
138
137
139
134
131
102
101
101
101
103
98
96
187
247
255
255
248
246
179
94
103
97
103
102
101
103
102
102
105
128
137
138
137
137
137
137
137
136
137
137
138
136
135
106
102
102
101
101
96
95
96
224
218
250
254
255
255
255
255
255
255
255
255
255
255
255
255
255
254
254
255
255
255
255
254
254
254
255
255
254
254
254
255
255
255
254
254
254
254
255
255
255
255
255
255
255
254
254
254
254
255
255
255
0
0
0
0
0
0
0
0
0
0
0
0
0
0
0
0
0
0
0
0
0
0
0
0
0
0
0
0
0
0
0
0
0
0
0
0
0
0
0
0
0
0
0
0
0
0
0
0
0
0
0
0
0
0
0
0
0
0
0
0
0
0
0
0
0
0
0
0
0
0
0
0
0
0
0
0
0
0
0
0
0
0
0
0
0
0
0
0
0
0
0
0
0
0
0
0
0
0
0
0
0
0
0
0
0
0
0
0
0
0
0
0
0
0
0
0
0
0
0
0
0
0
0
0
0
0
0
0
0
0
0
0
0
0
0
0
0
0
0
0
0
0
0
0
0
0
0
0
0
0
0
0
0
0
0
0
0
0
0
0
0
0
0
0
0
0
0
0
0
0
0
0
0
0
0
0
0
0
0
0
0
0
0
0
0
0
0
0
0
0
0
0
0
0
0
0
0
0
0
0
0
0
0
0
0
0
0
0
0
0
0
0
0
0
0
0
0
0
0
0
0
0
0
0
0
0
0
0
0
0
0
0
0
0
0
0
0
0
0
0
0
0
0
0
0
0
0
0
0
0
0
0
0
0
0
0
0
0
0
0
0
0
0
0
0
0
0
0
0
0
0
0
0
0
253
255
253
254
254
255
255
255
254
254
255
255
255
255
255
255
254
255
254
254
255
255
255
255
255
254
255
255
255
254
254
254
255
255
254
254
254
255
255
255
255
255
254
254
254
254
254
254
254
253
255
255
255
254
255
255
254
240
240
229
229
228
228
225
145
178
104
107
104
104
105
105
105
106
107
104
105
109
129
129
151
155
150
159
157
156
156
156
157
157
158
157
157
157
157
158
158
160
157
156
158
157
154
154
158
150
150
124
106
105
105
107
105
105
107
107
106
107
102
135
135
227
229
229
229
229
229
229
230
255
255
255
254
255
255
254
255
255
254
254
254
254
254
254
254
255
254
254
255
254
255
255
235
230
230
222
101
99
100
101
102
102
102
102
103
107
136
135
135
137
137
137
137
137
137
137
137
137
137
137
137
137
137
137
137
137
138
137
137
137
137
137
137
138
137
137
138
127
116
102
101
103
103
103
89
89
222
249
244
244
146
95
95
98
103
101
102
103
102
102
109
134
135
135
137
138
138
137
136
136
137
137
138
138
138
135
135
107
103
103
101
101
97
97
93
213
213
250
253
253
253
253
255
255
255
255
255
255
255
255
255
255
254
254
255
255
255
255
254
254
254
255
255
254
254
254
255
255
255
254
254
254
255
255
255
254
254
254
254
254
255
255
255
255
255
0
0
0
0
0
0
0
0
0
0
0
0
0
0
0
0
0
0
0
0
0
0
0
0
0
0
0
0
0
0
0
0
0
0
0
0
0
0
0
0
0
0
0
0
0
0
0
0
0
0
0
0
0
0
0
0
0
0
0
0
0
0
0
0
0
0
0
0
0
0
0
0
0
0
0
0
0
0
0
0
0
0
0
0
0
0
0
0
0
0
0
0
0
0
0
0
0
0
0
0
0
0
0
0
0
0
0
0
0
0
0
0
0
0
0
0
0
0
0
0
0
0
0
0
0
0
0
0
0
0
0
0
0
0
0
0
0
0
0
0
0
0
0
0
0
0
0
0
0
0
0
0
0
0
0
0
0
0
0
0
0
0
0
0
0
0
0
0
0
0
0
0
0
0
0
0
0
0
0
0
0
0
0
0
0
0
0
0
0
0
0
0
0
0
0
0
0
0
0
0
0
0
0
0
0
0
0
0
0
0
0
0
0
0
0
0
0
0
0
0
0
0
0
0
0
0
0
0
0
0
0
0
0
0
0
0
0
0
0
0
0
0
0
0
0
0
0
0
0
0
0
0
0
0
0
0
0
0
0
0
0
0
0
0
0
0
0
0
0
0
0
0
0
0
0
253
254
255
254
254
255
255
255
255
254
254
253
254
254
255
253
255
255
255
254
254
255
254
254
255
255
254
255
255
255
254
254
255
255
255
254
254
254
255
255
255
255
255
254
254
254
254
254
254
254
255
254
255
255
254
255
255
254
240
241
229
230
230
229
227
178
201
111
106
110
105
105
105
106
106
104
103
107
102
105
108
107
150
123
137
158
159
152
158
154
160
155
155
156
153
156
159
153
160
156
151
141
159
150
110
126
106
107
107
107
106
105
105
107
106
105
106
101
169
153
227
227
230
229
230
230
230
231
252
255
255
254
255
255
254
254
255
255
255
254
254
254
254
254
254
254
255
254
254
254
255
255
254
234
229
228
218
99
95
101
102
101
101
102
103
102
109
136
135
136
137
136
136
137
137
137
137
137
137
137
137
137
137
137
137
138
137
137
137
137
138
137
137
137
137
137
137
138
116
106
100
104
103
103
100
98
132
196
228
119
101
97
99
101
102
101
101
103
101
114
137
136
135
139
137
137
137
137
137
137
137
137
137
138
138
137
135
135
107
103
103
102
101
97
98
91
210
209
249
254
255
253
255
255
255
255
255
255
255
255
255
255
254
254
254
255
255
255
254
254
254
254
255
255
254
254
254
255
255
255
254
254
255
255
254
254
254
254
254
254
255
255
255
255
0
0
0
0
0
0
0
0
0
0
0
0
0
0
0
0
0
0
0
0
0
0
0
0
0
0
0
0
0
0
0
0
0
0
0
0
0
0
0
0
0
0
0
0
0
0
0
0
0
0
0
0
0
0
0
0
0
0
0
0
0
0
0
0
0
0
0
0
0
0
0
0
0
0
0
0
0
0
0
0
0
0
0
0
0
0
0
0
0
0
0
0
0
0
0
0
0
0
0
0
0
0
0
0
0
0
0
0
0
0
0
0
0
0
0
0
0
0
0
0
0
0
0
0
0
0
0
0
0
0
0
0
0
0
0
0
0
0
0
0
0
0
0
0
0
0
0
0
0
0
0
0
0
0
0
0
0
0
0
0
0
0
0
0
0
0
0
0
0
0
0
0
0
0
0
0
0
0
0
0
0
0
0
0
0
0
0
0
0
0
0
0
0
0
0
0
0
0
0
0
0
0
0
0
0
0
0
0
0
0
0
0
0
0
0
0
0
0
0
0
0
0
0
0
0
0
0
0
0
0
0
0
0
0
0
0
0
0
0
0
0
0
0
0
0
0
0
0
0
0
0
0
0
0
0
0
0
0
0
0
0
0
0
0
0
0
0
0
0
0
0
0
0
0
0
0
251
252
252
251
253
255
254
255
255
255
254
251
254
254
254
254
254
255
255
255
254
254
254
254
254
255
255
254
255
255
255
255
254
254
255
255
254
254
254
255
255
255
255
255
254
254
254
254
254
254
254
255
254
255
255
255
254
254
254
243
243
229
230
229
229
228
222
222
141
100
105
102
107
106
106
106
106
106
102
105
106
106
104
103
103
113
128
152
138
145
149
149
154
152
153
156
151
142
142
127
115
115
107
104
110
105
107
106
106
105
105
105
106
105
105
105
107
194
194
228
229
229
229
230
229
229
230
251
252
255
253
255
255
255
254
254
254
255
255
255
254
254
254
254
254
254
255
254
254
254
255
255
254
251
231
229
229
211
94
94
103
102
101
101
102
103
103
109
136
136
136
137
137
137
137
137
137
137
137
137
137
137
137
137
137
137
137
137
137
137
137
138
137
137
137
137
138
138
137
101
101
100
101
103
105
97
121
121
95
102
101
101
101
102
102
102
105
105
128
134
137
137
139
137
137
137
137
137
137
137
137
137
137
137
138
137
136
135
135
108
103
103
101
101
98
99
92
209
209
247
255
253
254
255
255
255
255
255
255
255
255
255
255
254
254
254
255
255
254
254
254
254
254
255
255
254
254
255
255
255
255
255
255
254
254
254
255
255
254
254
254
255
255
0
0
0
0
0
0
0
0
0
0
0
0
0
0
0
0
0
0
0
0
0
0
0
0
0
0
0
0
0
0
0
0
0
0
0
0
0
0
0
0
0
0
0
0
0
0
0
0
0
0
0
0
0
0
0
0
0
0
0
0
0
0
0
0
0
0
0
0
0
0
0
0
0
0
0
0
0
0
0
0
0
0
0
0
0
0
0
0
0
0
0
0
0
0
0
0
0
0
0
0
0
0
0
0
0
0
0
0
0
0
0
0
0
0
0
0
0
0
0
0
0
0
0
0
0
0
0
0
0
0
0
0
0
0
0
0
0
0
0
0
0
0
0
0
0
0
0
0
0
0
0
0
0
0
0
0
0
0
0
0
0
0
0
0
0
0
0
0
0
0
0
0
0
0
0
0
0
0
0
0
0
0
0
0
0
0
0
0
0
0
0
0
0
0
0
0
0
0
0
0
0
0
0
0
0
0
0
0
0
0
0
0
0
0
0
0
0
0
0
0
0
0
0
0
0
0
0
0
0
0
0
0
0
0
0
0
0
0
0
0
0
0
0
0
0
0
0
0
0
0
0
0
0
0
0
0
0
0
0
0
0
0
0
0
0
0
0
0
0
0
0
0
0
0
0
0
0
253
255
254
252
255
251
254
254
255
252
252
254
252
255
254
254
255
254
255
255
254
255
254
254
254
254
255
255
254
255
255
255
254
254
254
255
255
254
254
254
255
255
255
254
254
254
254
254
255
254
254
254
255
253
255
255
255
254
255
254
245
247
230
230
229
227
232
230
226
183
105
106
98
106
106
106
107
107
104
105
105
108
107
107
106
106
104
106
108
106
110
114
105
114
112
111
105
104
105
104
107
104
107
107
110
106
106
105
107
106
105
106
105
101
104
124
225
212
230
231
229
229
229
229
229
229
250
250
254
255
255
255
255
255
255
254
254
254
255
255
255
254
255
254
254
255
255
255
254
254
255
255
255
249
249
230
229
228
205
93
92
103
102
101
101
102
102
103
109
136
135
136
137
137
137
137
137
137
137
137
137
137
137
137
137
137
137
137
137
137
138
138
138
137
137
137
138
137
136
129
104
101
105
103
100
102
98
100
101
102
100
100
101
101
102
114
109
133
137
137
137
138
137
137
137
137
137
137
137
137
137
137
137
137
137
138
137
136
136
136
108
102
102
102
102
100
101
90
213
226
248
254
255
252
255
255
254
255
255
255
255
255
255
255
254
254
254
255
255
255
255
254
254
254
255
255
254
254
254
254
255
255
254
254
254
255
255
254
254
254
254
254
0
0
0
0
0
0
0
0
0
0
0
0
0
0
0
0
0
0
0
0
0
0
0
0
0
0
0
0
0
0
0
0
0
0
0
0
0
0
0
0
0
0
0
0
0
0
0
0
0
0
0
0
0
0
0
0
0
0
0
0
0
0
0
0
0
0
0
0
0
0
0
0
0
0
0
0
0
0
0
0
0
0
0
0
0
0
0
0
0
0
0
0
0
0
0
0
0
0
0
0
0
0
0
0
0
0
0
0
0
0
0
0
0
0
0
0
0
0
0
0
0
0
0
0
0
0
0
0
0
0
0
0
0
0
0
0
0
0
0
0
0
0
0
0
0
0
0
0
0
0
0
0
0
0
0
0
0
0
0
0
0
0
0
0
0
0
0
0
0
0
0
0
0
0
0
0
0
0
0
0
0
0
0
0
0
0
0
0
0
0
0
0
0
0
0
0
0
0
0
0
0
0
0
0
0
0
0
0
0
0
0
0
0
0
0
0
0
0
0
0
0
0
0
0
0
0
0
0
0
0
0
0
0
0
0
0
0
0
0
0
0
0
0
0
0
0
0
0
0
0
0
0
0
0
0
0
0
0
0
0
0
0
0
0
0
0
0
0
0
0
0
0
0
0
0
0
0
0
253
248
251
252
252
253
253
254
254
255
252
255
254
254
254
254
253
254
254
254
254
254
255
254
254
254
255
255
254
253
255
255
255
254
254
254
255
255
254
254
254
255
255
255
254
254
254
254
255
255
255
254
255
255
254
255
254
254
255
254
255
249
249
230
232
227
229
230
226
223
227
182
98
111
103
106
102
107
108
108
108
105
107
105
106
106
106
106
106
106
105
105
105
103
104
105
105
108
105
104
109
105
107
105
106
105
106
106
106
106
106
103
110
101
189
228
225
229
232
229
229
229
229
229
230
250
250
253
255
255
255
255
254
255
255
255
254
254
254
255
255
255
254
254
254
254
255
255
255
255
255
255
254
254
249
245
229
228
226
190
93
93
102
101
101
102
102
103
102
109
136
136
136
138
137
137
137
137
137
137
137
137
137
137
137
137
137
137
137
137
138
138
138
138
138
137
138
137
136
136
114
101
101
104
103
102
103
103
101
104
101
102
101
102
121
114
137
137
137
137
137
137
137
137
137
137
137
137
137
137
137
137
137
137
138
137
137
136
136
136
136
107
102
102
102
103
101
97
90
226
235
250
254
252
253
254
254
254
255
255
255
255
255
255
255
255
254
254
255
255
255
255
254
254
254
255
255
254
254
255
255
254
254
254
254
255
254
254
254
255
254
0
0
0
0
0
0
0
0
0
0
0
0
0
0
0
0
0
0
0
0
0
0
0
0
0
0
0
0
0
0
0
0
0
0
0
0
0
0
0
0
0
0
0
0
0
0
0
0
0
0
0
0
0
0
0
0
0
0
0
0
0
0
0
0
0
0
0
0
0
0
0
0
0
0
0
0
0
0
0
0
0
0
0
0
0
0
0
0
0
0
0
0
0
0
0
0
0
0
0
0
0
0
0
0
0
0
0
0
0
0
0
0
0
0
0
0
0
0
0
0
0
0
0
0
0
0
0
0
0
0
0
0
0
0
0
0
0
0
0
0
0
0
0
0
0
0
0
0
0
0
0
0
0
0
0
0
0
0
0
0
0
0
0
0
0
0
0
0
0
0
0
0
0
0
0
0
0
0
0
0
0
0
0
0
0
0
0
0
0
0
0
0
0
0
0
0
0
0
0
0
0
0
0
0
0
0
0
0
0
0
0
0
0
0
0
0
0
0
0
0
0
0
0
0
0
0
0
0
0
0
0
0
0
0
0
0
0
0
0
0
0
0
0
0
0
0
0
0
0
0
0
0
0
0
0
0
0
0
0
0
0
0
0
0
0
0
0
0
0
0
0
0
0
0
0
0
0
0
0
144
180
180
220
246
190
251
253
250
250
254
254
253
251
254
254
254
255
253
254
254
254
254
254
254
254
254
255
254
254
254
255
255
255
254
254
254
255
255
254
254
254
255
255
255
254
254
254
254
255
255
255
255
255
255
254
254
254
254
254
254
255
250
253
231
229
230
230
232
230
231
228
218
151
151
101
104
103
103
101
105
107
105
107
107
108
105
105
107
106
108
108
104
106
105
105
105
107
107
106
103
103
108
103
107
104
109
104
104
106
102
188
147
216
227
227
230
230
229
230
229
230
230
230
251
251
254
255
255
255
255
255
255
254
255
255
255
254
254
254
255
255
255
255
254
254
254
255
255
255
255
254
254
254
254
243
243
229
226
228
183
93
94
103
102
102
102
102
103
102
109
137
136
136
138
137
137
137
137
137
137
137
137
137
137
137
137
137
137
137
137
138
138
138
138
138
137
137
137
137
137
106
102
103
101
104
107
107
103
101
104
103
105
130
130
137
136
136
137
137
137
137
137
137
137
137
137
137
137
137
137
137
137
137
138
138
137
137
137
137
135
135
106
102
102
101
101
103
103
100
243
248
251
254
254
254
254
254
255
255
255
255
255
255
255
255
255
255
255
255
255
255
255
254
254
254
255
255
254
254
255
254
254
254
254
254
254
254
255
255
0
0
0
0
0
0
0
0
0
0
0
0
0
0
0
0
0
0
0
0
0
0
0
0
0
0
0
0
0
0
0
0
0
0
0
0
0
0
0
0
0
0
0
0
0
0
0
0
0
0
0
0
0
0
0
0
0
0
0
0
0
0
0
0
0
0
0
0
0
0
0
0
0
0
0
0
0
0
0
0
0
0
0
0
0
0
0
0
0
0
0
0
0
0
0
0
0
0
0
0
0
0
0
0
0
0
0
0
0
0
0
0
0
0
0
0
0
0
0
0
0
0
0
0
0
0
0
0
0
0
0
0
0
0
0
0
0
0
0
0
0
0
0
0
0
0
0
0
0
0
0
0
0
0
0
0
0
0
0
0
0
0
0
0
0
0
0
0
0
0
0
0
0
0
0
0
0
0
0
0
0
0
0
0
0
0
0
0
0
0
0
0
0
0
0
0
0
0
0
0
0
0
0
0
0
0
0
0
0
0
0
0
0
0
0
0
0
0
0
0
0
0
0
0
0
0
0
0
0
0
0
0
0
0
0
0
0
0
0
0
0
0
0
0
0
0
0
0
0
0
0
0
0
0
0
0
0
0
0
0
0
0
0
0
0
0
0
0
0
0
0
0
0
0
0
0
0
0
0
0
127
125
124
125
122
190
130
166
250
252
250
251
253
253
255
254
254
255
254
254
254
252
254
254
255
254
254
254
255
254
254
254
255
255
255
254
254
254
255
255
255
255
254
255
255
255
254
254
254
255
255
254
254
255
254
255
254
254
254
254
254
254
254
253
254
239
229
230
230
227
231
226
228
226
203
221
188
103
128
102
105
105
108
106
105
107
106
105
106
105
105
107
103
105
105
101
106
108
105
106
108
102
111
105
107
105
101
105
101
168
223
188
226
231
229
230
229
229
229
230
230
230
230
251
251
254
255
255
255
255
255
255
255
254
254
255
255
255
254
254
254
255
255
255
255
254
254
255
255
255
255
254
254
254
254
254
240
238
231
228
227
170
94
95
102
102
102
102
102
102
103
109
136
136
135
137
137
137
137
137
137
137
137
137
137
137
137
137
137
137
138
138
138
138
138
137
137
137
137
137
135
132
102
103
98
100
103
102
104
103
104
115
136
135
135
137
137
136
137
136
137
137
137
137
137
137
137
137
137
138
138
138
138
137
138
137
136
136
137
137
137
135
135
107
102
101
103
102
92
96
168
248
251
253
255
254
254
254
255
255
255
255
255
255
255
255
255
254
255
255
255
255
255
255
254
254
254
255
255
254
254
254
255
255
254
254
254
255
255
0
0
0
0
0
0
0
0
0
0
0
0
0
0
0
0
0
0
0
0
0
0
0
0
0
0
0
0
0
0
0
0
0
0
0
0
0
0
0
0
0
0
0
0
0
0
0
0
0
0
0
0
0
0
0
0
0
0
0
0
0
0
0
0
0
0
0
0
0
0
0
0
0
0
0
0
0
0
0
0
0
0
0
0
0
0
0
0
0
0
0
0
0
0
0
0
0
0
0
0
0
0
0
0
0
0
0
0
0
0
0
0
0
0
0
0
0
0
0
0
0
0
0
0
0
0
0
0
0
0
0
0
0
0
0
0
0
0
0
0
0
0
0
0
0
0
0
0
0
0
0
0
0
0
0
0
0
0
0
0
0
0
0
0
0
0
0
0
0
0
0
0
0
0
0
0
0
0
0
0
0
0
0
0
0
0
0
0
0
0
0
0
0
0
0
0
0
0
0
0
0
0
0
0
0
0
0
0
0
0
0
0
0
0
0
0
0
0
0
0
0
0
0
0
0
0
0
0
0
0
0
0
0
0
0
0
0
0
0
0
0
0
0
0
0
0
0
0
0
0
0
0
0
0
0
0
0
0
0
0
0
0
0
0
0
0
0
0
0
0
0
0
0
0
0
0
0
0
0
0
0
127
123
125
125
125
124
123
123
125
159
207
207
248
252
252
254
254
255
255
254
254
254
254
254
254
255
254
255
255
254
254
254
254
255
255
255
254
254
254
255
255
255
255
254
255
255
255
255
255
254
255
254
254
254
255
255
255
255
253
253
254
253
253
255
254
254
244
229
230
230
230
231
231
231
229
229
229
222
186
186
133
104
104
103
103
100
100
106
105
105
104
103
108
108
107
105
105
106
108
106
106
107
102
102
97
109
109
158
214
223
223
229
230
230
228
232
230
230
230
229
229
231
254
254
254
255
255
255
255
255
255
255
254
254
254
254
255
255
255
254
254
255
255
255
255
255
254
254
255
254
255
255
254
254
254
254
254
237
237
231
227
227
169
95
95
102
102
102
102
103
102
102
108
135
136
136
137
137
137
137
137
137
137
137
137
137
137
137
137
137
137
137
137
137
137
137
137
137
137
138
138
131
131
101
101
101
103
102
102
102
123
138
138
138
138
138
138
137
136
136
137
137
137
137
137
137
137
137
138
138
137
137
136
136
132
135
135
136
136
137
137
137
134
134
107
103
103
102
100
90
90
227
254
254
255
255
255
255
254
255
255
255
255
255
255
255
255
255
254
255
255
255
254
255
255
254
254
254
255
255
254
254
255
254
254
254
255
255
0
0
0
0
0
0
0
0
0
0
0
0
0
0
0
0
0
0
0
0
0
0
0
0
0
0
0
0
0
0
0
0
0
0
0
0
0
0
0
0
0
0
0
0
0
0
0
0
0
0
0
0
0
0
0
0
0
0
0
0
0
0
0
0
0
0
0
0
0
0
0
0
0
0
0
0
0
0
0
0
0
0
0
0
0
0
0
0
0
0
0
0
0
0
0
0
0
0
0
0
0
0
0
0
0
0
0
0
0
0
0
0
0
0
0
0
0
0
0
0
0
0
0
0
0
0
0
0
0
0
0
0
0
0
0
0
0
0
0
0
0
0
0
0
0
0
0
0
0
0
0
0
0
0
0
0
0
0
0
0
0
0
0
0
0
0
0
0
0
0
0
0
0
0
0
0
0
0
0
0
0
0
0
0
0
0
0
0
0
0
0
0
0
0
0
0
0
0
0
0
0
0
0
0
0
0
0
0
0
0
0
0
0
0
0
0
0
0
0
0
0
0
0
0
0
0
0
0
0
0
0
0
0
0
0
0
0
0
0
0
0
0
0
0
0
0
0
0
0
0
0
0
0
0
0
0
0
0
0
0
0
0
0
0
0
0
0
0
0
0
0
0
0
0
0
0
0
0
0
0
0
0
128
129
127
128
130
123
129
125
128
130
123
145
120
205
250
212
249
250
255
254
255
253
254
254
255
255
254
254
254
255
254
254
254
254
255
255
255
254
255
255
255
255
255
255
254
255
255
255
255
254
254
255
254
254
254
255
255
255
255
252
252
255
253
254
255
254
255
253
231
231
230
228
226
229
228
230
228
229
228
224
229
198
152
220
192
106
102
128
104
103
102
104
104
102
106
101
103
106
102
104
101
155
102
122
223
166
215
226
229
226
229
228
229
231
227
230
230
230
229
229
234
255
254
253
254
255
255
255
255
255
255
254
254
254
254
255
254
255
255
255
255
255
255
255
255
255
255
254
254
255
254
255
255
254
254
254
254
254
235
233
230
227
229
158
95
95
102
102
102
102
103
103
102
107
136
136
136
137
137
137
137
137
137
137
137
137
137
137
137
137
137
137
136
136
136
137
137
137
137
139
139
137
130
131
103
103
110
119
107
129
138
137
137
136
136
139
136
139
138
137
135
136
137
137
137
137
137
138
138
137
138
133
135
137
148
135
136
141
136
136
137
137
136
135
133
109
101
103
102
101
98
184
245
254
252
253
252
253
252
254
255
255
255
255
254
255
255
255
255
254
255
255
255
254
255
255
254
254
254
255
255
254
254
254
254
255
255
0
0
0
0
0
0
0
0
0
0
0
0
0
0
0
0
0
0
0
0
0
0
0
0
0
0
0
0
0
0
0
0
0
0
0
0
0
0
0
0
0
0
0
0
0
0
0
0
0
0
0
0
0
0
0
0
0
0
0
0
0
0
0
0
0
0
0
0
0
0
0
0
0
0
0
0
0
0
0
0
0
0
0
0
0
0
0
0
0
0
0
0
0
0
0
0
0
0
0
0
0
0
0
0
0
0
0
0
0
0
0
0
0
0
0
0
0
0
0
0
0
0
0
0
0
0
0
0
0
0
0
0
0
0
0
0
0
0
0
0
0
0
0
0
0
0
0
0
0
0
0
0
0
0
0
0
0
0
0
0
0
0
0
0
0
0
0
0
0
0
0
0
0
0
0
0
0
0
0
0
0
0
0
0
0
0
0
0
0
0
0
0
0
0
0
0
0
0
0
0
0
0
0
0
0
0
0
0
0
0
0
0
0
0
0
0
0
0
0
0
0
0
0
0
0
0
0
0
0
0
0
0
0
0
0
0
0
0
0
0
0
0
0
0
0
0
0
0
0
0
0
0
0
0
0
0
0
0
0
0
0
0
0
0
0
0
0
0
0
0
0
0
0
0
0
0
0
0
0
0
0
0
0
129
130
127
127
132
123
124
128
127
127
131
123
120
124
122
159
159
233
251
254
253
253
254
255
255
255
255
254
254
255
255
255
254
254
254
255
255
255
255
255
255
255
255
255
255
254
255
255
255
254
254
254
255
254
254
254
255
255
254
254
252
253
255
254
254
255
255
255
254
243
230
229
231
228
228
231
229
229
229
231
229
230
225
224
224
223
214
128
202
190
173
173
163
159
106
162
173
106
186
207
215
155
227
226
223
224
228
229
229
229
228
228
230
228
230
230
230
229
229
243
254
255
255
254
255
255
255
254
255
255
254
254
254
254
255
255
254
254
255
255
255
255
255
255
254
255
255
255
255
255
255
255
255
255
254
254
254
254
254
233
232
229
229
229
157
95
95
103
102
102
102
102
103
103
106
135
136
136
137
137
137
137
137
137
137
137
137
137
137
137
137
137
137
136
137
137
137
137
137
137
139
138
136
131
136
133
131
131
136
137
138
137
137
136
136
138
139
139
137
136
135
137
137
137
137
137
137
138
137
136
135
135
155
159
148
140
136
141
136
137
137
137
137
136
133
112
102
104
104
103
96
184
243
253
255
255
254
255
252
252
255
255
255
255
254
254
255
255
255
255
254
255
255
255
255
255
255
254
254
254
255
255
254
254
255
255
0
0
0
0
0
0
0
0
0
0
0
0
0
0
0
0
0
0
0
0
0
0
0
0
0
0
0
0
0
0
0
0
0
0
0
0
0
0
0
0
0
0
0
0
0
0
0
0
0
0
0
0
0
0
0
0
0
0
0
0
0
0
0
0
0
0
0
0
0
0
0
0
0
0
0
0
0
0
0
0
0
0
0
0
0
0
0
0
0
0
0
0
0
0
0
0
0
0
0
0
0
0
0
0
0
0
0
0
0
0
0
0
0
0
0
0
0
0
0
0
0
0
0
0
0
0
0
0
0
0
0
0
0
0
0
0
0
0
0
0
0
0
0
0
0
0
0
0
0
0
0
0
0
0
0
0
0
0
0
0
0
0
0
0
0
0
0
0
0
0
0
0
0
0
0
0
0
0
0
0
0
0
0
0
0
0
0
0
0
0
0
0
0
0
0
0
0
0
0
0
0
0
0
0
0
0
0
0
0
0
0
0
0
0
0
0
0
0
0
0
0
0
0
0
0
0
0
0
0
0
0
0
0
0
0
0
0
0
0
0
0
0
0
0
0
0
0
0
0
0
0
0
0
0
0
0
0
0
0
0
0
0
0
0
0
0
0
0
0
0
0
0
0
0
0
0
0
0
0
0
0
0
0
0
146
130
131
128
128
131
132
131
127
132
131
124
127
127
127
123
121
122
176
247
251
251
253
253
254
255
254
255
254
254
255
255
255
254
255
255
255
255
255
254
254
254
255
255
255
255
254
255
255
255
254
254
254
255
254
254
254
255
254
255
255
254
254
255
254
255
255
254
254
254
251
232
242
230
229
232
228
231
228
228
230
231
231
229
229
230
234
229
227
228
228
225
229
225
222
225
225
230
230
231
229
229
229
229
229
230
231
230
228
229
229
229
229
230
229
230
232
231
248
254
254
255
254
255
255
254
255
254
255
254
254
254
254
255
255
254
254
254
255
255
255
255
255
254
254
254
255
255
255
254
254
255
255
255
255
254
254
254
254
254
231
231
229
228
228
157
96
96
102
102
102
102
102
102
103
106
134
136
136
137
137
137
137
137
137
137
137
137
137
137
137
137
137
137
138
138
137
137
137
137
137
136
136
137
138
137
138
137
136
137
137
137
138
137
138
137
137
138
137
137
138
136
135
136
137
137
137
136
135
147
140
159
159
161
149
136
136
137
135
138
138
137
135
135
110
104
103
105
104
96
96
203
252
251
255
254
250
254
254
254
254
255
255
255
255
254
254
255
255
255
255
254
255
254
255
255
255
255
254
254
254
255
255
254
254
0
0
0
0
0
0
0
0
0
0
0
0
0
0
0
0
0
0
0
0
0
0
0
0
0
0
0
0
0
0
0
0
0
0
0
0
0
0
0
0
0
0
0
0
0
0
0
0
0
0
0
0
0
0
0
0
0
0
0
0
0
0
0
0
0
0
0
0
0
0
0
0
0
0
0
0
0
0
0
0
0
0
0
0
0
0
0
0
0
0
0
0
0
0
0
0
0
0
0
0
0
0
0
0
0
0
0
0
0
0
0
0
0
0
0
0
0
0
0
0
0
0
0
0
0
0
0
0
0
0
0
0
0
0
0
0
0
0
0
0
0
0
0
0
0
0
0
0
0
0
0
0
0
0
0
0
0
0
0
0
0
0
0
0
0
0
0
0
0
0
0
0
0
0
0
0
0
0
0
0
0
0
0
0
0
0
0
0
0
0
0
0
0
0
0
0
0
0
0
0
0
0
0
0
0
0
0
0
0
0
0
0
0
0
0
0
0
0
0
0
0
0
0
0
0
0
0
0
0
0
0
0
0
0
0
0
0
0
0
0
0
0
0
0
0
0
0
0
0
0
0
0
0
0
0
0
0
0
0
0
0
0
0
0
0
0
0
0
0
0
0
0
0
0
0
0
0
0
0
0
0
0
0
0
0
146
158
156
130
133
142
136
131
130
130
131
129
128
126
127
130
130
122
130
121
214
249
246
251
254
255
255
255
255
254
254
255
254
255
255
255
254
255
255
255
254
254
255
255
255
255
254
254
255
255
255
254
254
254
255
254
255
255
254
254
255
255
254
254
255
255
255
255
254
255
255
255
242
249
235
232
231
230
231
231
232
229
231
228
228
230
228
225
228
228
228
229
229
229
229
229
224
232
228
231
227
231
231
230
230
229
231
232
229
229
232
230
229
230
231
245
232
255
254
254
255
254
255
255
255
255
255
254
254
254
254
255
255
255
255
254
254
255
255
255
255
255
255
255
254
254
254
255
255
255
254
254
254
255
255
254
254
254
254
254
253
231
231
228
228
228
157
96
96
102
103
102
101
102
103
102
104
133
136
136
138
137
137
137
137
137
137
137
137
137
137
137
137
137
137
138
137
137
137
137
137
137
137
137
137
137
137
137
136
136
137
139
138
137
137
137
138
136
137
138
136
136
135
136
137
137
135
139
156
147
160
161
159
142
136
138
138
137
137
138
136
133
133
107
103
99
103
103
100
96
98
239
254
251
252
254
250
254
254
254
254
255
255
255
255
255
254
254
255
255
255
255
255
254
254
255
255
255
255
254
254
254
255
255
0
0
0
0
0
0
0
0
0
0
0
0
0
0
0
0
0
0
0
0
0
0
0
0
0
0
0
0
0
0
0
0
0
0
0
0
0
0
0
0
0
0
0
0
0
0
0
0
0
0
0
0
0
0
0
0
0
0
0
0
0
0
0
0
0
0
0
0
0
0
0
0
0
0
0
0
0
0
0
0
0
0
0
0
0
0
0
0
0
0
0
0
0
0
0
0
0
0
0
0
0
0
0
0
0
0
0
0
0
0
0
0
0
0
0
0
0
0
0
0
0
0
0
0
0
0
0
0
0
0
0
0
0
0
0
0
0
0
0
0
0
0
0
0
0
0
0
0
0
0
0
0
0
0
0
0
0
0
0
0
0
0
0
0
0
0
0
0
0
0
0
0
0
0
0
0
0
0
0
0
0
0
0
0
0
0
0
0
0
0
0
0
0
0
0
0
0
0
0
0
0
0
0
0
0
0
0
0
0
0
0
0
0
0
0
0
0
0
0
0
0
0
0
0
0
0
0
0
0
0
0
0
0
0
0
0
0
0
0
0
0
0
0
0
0
0
0
0
0
0
0
0
0
0
0
0
0
0
0
0
0
0
0
0
0
0
0
0
0
0
0
0
0
0
0
0
0
0
0
0
0
0
0
0
0
0
163
163
163
164
162
155
155
146
140
140
130
130
131
130
128
130
130
130
127
127
124
128
215
215
251
254
254
254
255
255
254
253
255
255
255
255
255
255
255
255
255
254
255
255
255
255
254
254
254
255
255
255
254
254
254
255
255
255
254
254
254
254
254
255
255
254
255
255
254
255
254
255
254
251
251
242
232
232
230
228
228
228
229
226
226
232
232
229
232
232
228
228
232
230
230
230
231
227
227
236
231
231
230
227
228
228
227
230
230
229
231
231
227
235
248
248
252
254
254
255
254
255
255
255
255
255
255
254
254
254
255
255
255
255
254
254
255
254
255
255
255
255
255
255
255
254
254
255
255
255
255
254
254
254
254
254
254
254
254
254
254
251
231
231
228
228
228
157
96
95
102
101
102
102
102
103
103
103
132
136
136
135
137
137
137
137
137
137
137
137
137
137
137
137
137
137
137
137
137
137
137
138
137
137
137
137
136
136
137
137
138
139
137
137
137
137
137
137
140
136
136
136
135
136
136
134
147
160
159
160
162
162
139
136
136
137
137
136
136
136
127
127
105
104
101
101
101
98
98
91
214
230
251
254
254
254
254
255
255
255
255
255
255
255
255
255
255
254
254
255
255
255
255
255
254
254
255
255
255
255
254
254
254
0
0
0
0
0
0
0
0
0
0
0
0
0
0
0
0
0
0
0
0
0
0
0
0
0
0
0
0
0
0
0
0
0
0
0
0
0
0
0
0
0
0
0
0
0
0
0
0
0
0
0
0
0
0
0
0
0
0
0
0
0
0
0
0
0
0
0
0
0
0
0
0
0
0
0
0
0
0
0
0
0
0
0
0
0
0
0
0
0
0
0
0
0
0
0
0
0
0
0
0
0
0
0
0
0
0
0
0
0
0
0
0
0
0
0
0
0
0
0
0
0
0
0
0
0
0
0
0
0
0
0
0
0
0
0
0
0
0
0
0
0
0
0
0
0
0
0
0
0
0
0
0
0
0
0
0
0
0
0
0
0
0
0
0
0
0
0
0
0
0
0
0
0
0
0
0
0
0
0
0
0
0
0
0
0
0
0
0
0
0
0
0
0
0
0
0
0
0
0
0
0
0
0
0
0
0
0
0
0
0
0
0
0
0
0
0
0
0
0
0
0
0
0
0
0
0
0
0
0
0
0
0
0
0
0
0
0
0
0
0
0
0
0
0
0
0
0
0
0
0
0
0
0
0
0
0
0
0
0
0
0
0
0
0
0
0
0
0
0
0
0
0
0
0
0
0
0
0
0
0
0
0
0
0
0
0
0
165
163
163
164
163
160
161
160
156
149
156
146
131
136
133
129
128
129
128
125
129
124
124
180
141
250
253
253
253
255
255
253
254
254
254
255
255
255
254
255
255
255
255
255
254
255
255
254
254
254
255
255
255
254
254
254
255
254
254
254
254
255
255
254
255
254
253
254
254
254
254
254
255
255
254
255
251
240
249
239
229
226
229
229
229
229
230
229
231
230
231
229
231
229
230
227
231
230
229
230
227
229
231
232
230
231
229
230
227
232
239
231
250
254
252
254
255
254
255
254
255
255
255
254
254
255
255
254
254
254
255
255
255
254
254
255
255
254
254
255
255
255
255
255
255
255
255
255
255
255
255
255
254
254
254
254
254
255
254
254
254
253
251
230
230
228
228
229
156
95
95
102
102
101
101
102
102
103
103
130
138
137
136
136
136
137
137
137
137
137
137
137
137
137
137
137
137
137
137
137
138
138
137
137
137
137
137
137
138
138
138
137
137
137
137
139
138
138
137
135
137
135
137
135
138
158
161
160
160
156
157
134
137
138
137
138
137
137
136
119
123
103
104
103
103
100
95
99
93
201
227
230
233
255
254
251
254
255
253
255
254
254
255
255
255
254
254
255
254
254
255
255
255
255
255
254
254
255
255
255
255
254
0
0
0
0
0
0
0
0
0
0
0
0
0
0
0
0
0
0
0
0
0
0
0
0
0
0
0
0
0
0
0
0
0
0
0
0
0
0
0
0
0
0
0
0
0
0
0
0
0
0
0
0
0
0
0
0
0
0
0
0
0
0
0
0
0
0
0
0
0
0
0
0
0
0
0
0
0
0
0
0
0
0
0
0
0
0
0
0
0
0
0
0
0
0
0
0
0
0
0
0
0
0
0
0
0
0
0
0
0
0
0
0
0
0
0
0
0
0
0
0
0
0
0
0
0
0
0
0
0
0
0
0
0
0
0
0
0
0
0
0
0
0
0
0
0
0
0
0
0
0
0
0
0
0
0
0
0
0
0
0
0
0
0
0
0
0
0
0
0
0
0
0
0
0
0
0
0
0
0
0
0
0
0
0
0
0
0
0
0
0
0
0
0
0
0
0
0
0
0
0
0
0
0
0
0
0
0
0
0
0
0
0
0
0
0
0
0
0
0
0
0
0
0
0
0
0
0
0
0
0
0
0
0
0
0
0
0
0
0
0
0
0
0
0
0
0
0
0
0
0
0
0
0
0
0
0
0
0
0
0
0
0
0
0
0
0
0
0
0
0
0
0
0
0
0
0
0
0
0
0
0
0
0
0
0
0
0
0
165
165
164
166
166
164
167
160
165
163
160
160
154
143
143
133
131
129
130
127
130
130
125
124
141
125
213
251
251
253
255
255
254
253
254
254
254
255
255
254
255
255
255
254
254
254
255
255
254
254
254
255
255
255
255
255
254
254
254
255
255
255
255
254
254
254
254
254
254
254
254
254
254
254
252
255
254
255
253
253
247
240
229
234
228
230
230
229
227
227
231
230
231
231
232
229
229
230
231
230
229
231
229
229
228
228
229
233
238
249
249
255
255
255
255
255
255
255
255
255
255
254
255
254
254
254
255
255
254
254
254
255
254
254
254
254
254
254
254
255
255
255
255
255
255
255
255
255
255
255
255
255
254
254
254
254
255
255
254
254
254
254
254
251
230
230
228
229
229
158
94
94
102
101
101
101
102
102
102
104
128
137
137
139
137
137
137
137
137
137
137
137
137
137
137
137
137
137
137
137
137
137
137
137
137
137
137
138
138
138
138
138
138
138
138
139
137
137
137
137
136
137
137
153
160
162
162
159
152
152
135
136
137
137
137
137
137
136
114
119
103
103
105
105
102
96
95
98
202
229
229
228
241
241
254
255
254
255
255
255
255
254
254
255
254
254
255
255
255
255
255
255
255
255
255
255
254
254
255
255
255
0
0
0
0
0
0
0
0
0
0
0
0
0
0
0
0
0
0
0
0
0
0
0
0
0
0
0
0
0
0
0
0
0
0
0
0
0
0
0
0
0
0
0
0
0
0
0
0
0
0
0
0
0
0
0
0
0
0
0
0
0
0
0
0
0
0
0
0
0
0
0
0
0
0
0
0
0
0
0
0
0
0
0
0
0
0
0
0
0
0
0
0
0
0
0
0
0
0
0
0
0
0
0
0
0
0
0
0
0
0
0
0
0
0
0
0
0
0
0
0
0
0
0
0
0
0
0
0
0
0
0
0
0
0
0
0
0
0
0
0
0
0
0
0
0
0
0
0
0
0
0
0
0
0
0
0
0
0
0
0
0
0
0
0
0
0
0
0
0
0
0
0
0
0
0
0
0
0
0
0
0
0
0
0
0
0
0
0
0
0
0
0
0
0
0
0
0
0
0
0
0
0
0
0
0
0
0
0
0
0
0
0
0
0
0
0
0
0
0
0
0
0
0
0
0
0
0
0
0
0
0
0
0
0
0
0
0
0
0
0
0
0
0
0
0
0
0
0
0
0
0
0
0
0
0
0
0
0
0
0
0
0
0
0
0
0
0
0
0
0
0
0
0
0
0
0
0
0
0
0
0
0
0
0
0
0
0
0
0
164
163
163
166
164
161
163
165
161
163
163
165
166
160
151
157
136
129
131
132
128
128
128
125
126
121
120
186
250
249
253
254
254
254
254
254
254
254
255
255
254
255
255
255
254
254
254
255
255
254
254
254
255
255
255
254
254
254
254
255
255
255
255
254
254
254
254
254
254
254
254
254
254
254
254
255
252
253
255
254
254
253
249
241
250
237
229
243
232
229
234
227
230
228
230
229
232
229
229
229
229
233
228
229
244
232
241
247
254
253
255
255
255
254
255
255
255
255
255
254
254
254
255
255
254
254
254
254
255
254
254
254
254
254
254
254
254
254
254
255
255
254
254
255
255
255
255
255
255
255
255
255
255
254
254
254
254
255
254
254
254
255
255
254
250
231
230
228
228
226
162
94
94
102
100
101
102
102
102
101
102
130
136
136
137
137
137
137
137
137
137
137
137
137
137
137
137
137
137
137
137
137
137
138
138
137
137
138
138
138
137
137
137
137
137
137
137
136
137
135
150
144
159
160
160
161
160
148
151
135
137
136
136
135
135
137
135
106
109
103
103
103
104
100
97
96
101
212
230
227
231
229
232
251
254
254
253
254
254
254
255
255
254
254
254
255
255
255
255
254
255
255
255
255
255
255
255
254
254
255
0
0
0
0
0
0
0
0
0
0
0
0
0
0
0
0
0
0
0
0
0
0
0
0
0
0
0
0
0
0
0
0
0
0
0
0
0
0
0
0
0
0
0
0
0
0
0
0
0
0
0
0
0
0
0
0
0
0
0
0
0
0
0
0
0
0
0
0
0
0
0
0
0
0
0
0
0
0
0
0
0
0
0
0
0
0
0
0
0
0
0
0
0
0
0
0
0
0
0
0
0
0
0
0
0
0
0
0
0
0
0
0
0
0
0
0
0
0
0
0
0
0
0
0
0
0
0
0
0
0
0
0
0
0
0
0
0
0
0
0
0
0
0
0
0
0
0
0
0
0
0
0
0
0
0
0
0
0
0
0
0
0
0
0
0
0
0
0
0
0
0
0
0
0
0
0
0
0
0
0
0
0
0
0
0
0
0
0
0
0
0
0
0
0
0
0
0
0
0
0
0
0
0
0
0
0
0
0
0
0
0
0
0
0
0
0
0
0
0
0
0
0
0
0
0
0
0
0
0
0
0
0
0
0
0
0
0
0
0
0
0
0
0
0
0
0
0
0
0
0
0
0
0
0
0
0
0
0
0
0
0
0
0
0
0
0
0
0
0
0
0
0
0
0
0
0
0
0
0
0
0
0
0
0
0
0
0
0
0
0
169
168
163
168
166
161
164
163
165
163
166
163
166
163
163
157
159
145
135
132
131
129
128
130
127
128
120
122
143
249
246
252
254
254
254
254
254
254
254
255
255
255
255
255
255
254
254
254
255
255
254
254
254
255
255
254
254
254
255
255
255
255
254
254
255
255
254
254
254
254
254
254
253
254
254
254
254
253
254
253
254
253
254
255
250
255
254
243
252
248
234
244
244
241
230
242
240
229
245
245
245
233
251
254
244
254
255
254
254
255
255
255
254
255
255
255
254
255
255
255
254
254
254
255
255
254
254
254
255
255
255
254
254
254
255
254
254
253
254
255
255
254
254
255
255
255
255
255
255
255
254
254
255
255
254
254
254
255
255
254
254
254
255
255
253
249
230
229
228
226
227
174
94
94
101
101
102
103
101
101
102
106
138
136
136
137
137
138
139
137
137
137
137
137
137
137
137
137
137
137
137
137
138
138
138
138
138
138
138
137
137
138
137
137
138
136
134
136
141
158
150
161
161
160
160
161
146
148
137
136
137
136
136
137
135
131
104
106
103
103
103
103
101
94
97
123
225
228
230
231
230
229
229
247
254
254
254
254
254
254
255
255
254
254
254
255
255
254
255
255
254
255
255
255
255
255
255
255
254
0
0
0
0
0
0
0
0
0
0
0
0
0
0
0
0
0
0
0
0
0
0
0
0
0
0
0
0
0
0
0
0
0
0
0
0
0
0
0
0
0
0
0
0
0
0
0
0
0
0
0
0
0
0
0
0
0
0
0
0
0
0
0
0
0
0
0
0
0
0
0
0
0
0
0
0
0
0
0
0
0
0
0
0
0
0
0
0
0
0
0
0
0
0
0
0
0
0
0
0
0
0
0
0
0
0
0
0
0
0
0
0
0
0
0
0
0
0
0
0
0
0
0
0
0
0
0
0
0
0
0
0
0
0
0
0
0
0
0
0
0
0
0
0
0
0
0
0
0
0
0
0
0
0
0
0
0
0
0
0
0
0
0
0
0
0
0
0
0
0
0
0
0
0
0
0
0
0
0
0
0
0
0
0
0
0
0
0
0
0
0
0
0
0
0
0
0
0
0
0
0
0
0
0
0
0
0
0
0
0
0
0
0
0
0
0
0
0
0
0
0
0
0
0
0
0
0
0
0
0
0
0
0
0
0
0
0
0
0
0
0
0
0
0
0
0
0
0
0
0
0
0
0
0
0
0
0
0
0
0
0
0
0
0
0
0
0
0
0
0
0
0
0
0
0
0
0
0
0
0
0
0
0
0
0
0
0
0
0
0
0
181
176
177
175
175
173
171
176
167
165
166
166
163
161
161
163
160
160
154
139
131
131
127
130
127
129
127
126
126
128
239
239
252
254
254
254
254
254
254
254
255
255
255
255
255
255
254
254
254
255
255
255
255
254
255
255
255
255
255
255
254
254
254
255
255
255
255
254
254
254
254
254
254
253
254
254
254
254
254
254
253
254
255
254
255
255
255
254
255
255
254
254
255
254
254
253
253
251
251
254
255
254
254
254
253
252
255
254
255
254
254
255
255
255
255
253
255
255
254
255
255
254
254
255
255
255
254
254
254
255
255
254
254
254
255
255
254
254
254
255
255
254
255
254
254
255
255
255
255
254
254
254
254
255
255
254
255
255
255
254
254
254
254
255
254
254
249
230
230
228
226
226
180
94
95
102
103
104
104
102
102
100
111
138
137
137
138
135
135
137
137
137
137
137
137
137
137
137
137
137
137
138
138
138
137
137
137
137
137
137
137
137
137
138
136
139
136
150
162
162
160
160
159
160
162
143
143
137
137
137
137
136
135
136
123
103
103
103
103
102
103
103
94
94
133
225
229
225
230
228
228
229
238
238
254
254
254
254
254
254
254
254
254
255
254
254
255
255
255
255
255
254
255
255
255
255
255
255
0
0
0
0
0
0
0
0
0
0
0
0
0
0
0
0
0
0
0
0
0
0
0
0
0
0
0
0
0
0
0
0
0
0
0
0
0
0
0
0
0
0
0
0
0
0
0
0
0
0
0
0
0
0
0
0
0
0
0
0
0
0
0
0
0
0
0
0
0
0
0
0
0
0
0
0
0
0
0
0
0
0
0
0
0
0
0
0
0
0
0
0
0
0
0
0
0
0
0
0
0
0
0
0
0
0
0
0
0
0
0
0
0
0
0
0
0
0
0
0
0
0
0
0
0
0
0
0
0
0
0
0
0
0
0
0
0
0
0
0
0
0
0
0
0
0
0
0
0
0
0
0
0
0
0
0
0
0
0
0
0
0
0
0
0
0
0
0
0
0
0
0
0
0
0
0
0
0
0
0
0
0
0
0
0
0
0
0
0
0
0
0
0
0
0
0
0
0
0
0
0
0
0
0
0
0
0
0
0
0
0
0
0
0
0
0
0
0
0
0
0
0
0
0
0
0
0
0
0
0
0
0
0
0
0
0
0
0
0
0
0
0
0
0
0
0
0
0
0
0
0
0
0
0
0
0
0
0
0
0
0
0
0
0
0
0
0
0
0
0
0
0
0
0
0
0
0
0
0
0
0
0
0
0
0
0
0
0
0
0
0
0
181
182
183
183
181
180
181
176
182
181
168
165
168
164
160
161
162
160
162
160
144
132
131
132
127
128
128
127
127
127
125
227
218
251
254
254
254
254
254
255
255
255
255
254
255
255
255
254
254
254
255
255
254
254
254
255
255
255
255
254
254
254
254
254
255
255
255
255
254
254
254
254
254
254
254
254
254
254
254
254
254
255
255
255
255
255
254
254
254
254
253
253
255
254
254
254
254
254
254
254
254
254
254
252
255
255
255
254
255
255
254
254
255
255
254
255
255
255
254
255
255
255
254
255
255
255
255
254
254
254
254
255
254
254
254
255
255
254
254
255
255
254
255
255
254
254
255
255
255
254
254
254
254
254
255
255
255
255
254
254
255
254
254
254
254
254
254
249
230
230
229
227
226
189
95
93
103
102
102
101
104
100
102
130
136
138
137
137
136
138
137
137
137
137
137
137
137
137
137
137
137
137
137
137
137
137
137
137
137
137
138
137
136
137
143
139
160
160
161
161
160
159
159
161
141
143
136
136
137
137
136
136
135
115
104
105
103
101
103
102
102
95
95
146
228
230
229
227
231
226
230
231
233
254
254
254
254
255
254
254
254
254
255
255
255
254
254
255
255
255
255
255
254
255
255
255
255
0
0
0
0
0
0
0
0
0
0
0
0
0
0
0
0
0
0
0
0
0
0
0
0
0
0
0
0
0
0
0
0
0
0
0
0
0
0
0
0
0
0
0
0
0
0
0
0
0
0
0
0
0
0
0
0
0
0
0
0
0
0
0
0
0
0
0
0
0
0
0
0
0
0
0
0
0
0
0
0
0
0
0
0
0
0
0
0
0
0
0
0
0
0
0
0
0
0
0
0
0
0
0
0
0
0
0
0
0
0
0
0
0
0
0
0
0
0
0
0
0
0
0
0
0
0
0
0
0
0
0
0
0
0
0
0
0
0
0
0
0
0
0
0
0
0
0
0
0
0
0
0
0
0
0
0
0
0
0
0
0
0
0
0
0
0
0
0
0
0
0
0
0
0
0
0
0
0
0
0
0
0
0
0
0
0
0
0
0
0
0
0
0
0
0
0
0
0
0
0
0
0
0
0
0
0
0
0
0
0
0
0
0
0
0
0
0
0
0
0
0
0
0
0
0
0
0
0
0
0
0
0
0
0
0
0
0
0
0
0
0
0
0
0
0
0
0
0
0
0
0
0
0
0
0
0
0
0
0
0
0
0
0
0
0
0
0
0
0
0
0
0
0
0
0
0
0
0
0
0
0
0
0
0
0
0
0
0
0
0
0
0
0
184
183
183
183
183
183
183
185
186
186
184
179
168
172
165
164
164
162
162
162
161
153
132
132
130
131
131
130
129
127
126
121
210
210
251
254
254
254
254
255
255
255
254
254
254
255
255
255
254
255
255
255
254
254
254
254
255
255
254
254
254
254
254
255
255
255
255
255
255
254
254
254
254
254
254
254
254
254
254
254
253
253
255
255
255
255
254
254
254
254
254
254
254
254
254
254
255
255
255
254
254
254
255
255
255
255
254
254
254
255
255
254
255
254
255
255
255
254
254
254
255
255
255
254
255
255
255
255
254
254
255
255
255
254
254
254
254
255
255
255
254
255
255
255
254
254
254
255
255
255
254
254
254
254
255
255
255
255
254
254
255
254
254
254
254
254
254
254
249
230
229
230
228
228
198
96
96
99
104
102
102
102
109
109
140
135
137
137
137
138
138
137
137
137
137
137
137
137
137
137
137
137
137
137
137
137
137
137
138
137
138
137
135
147
147
160
160
160
160
160
160
160
160
139
139
136
137
136
137
136
135
135
111
104
104
103
102
104
104
102
95
95
172
228
229
229
227
230
230
232
230
231
245
254
254
254
254
255
255
254
254
254
254
255
255
255
254
254
255
255
254
255
255
254
255
255
0
0
0
0
0
0
0
0
0
0
0
0
0
0
0
0
0
0
0
0
0
0
0
0
0
0
0
0
0
0
0
0
0
0
0
0
0
0
0
0
0
0
0
0
0
0
0
0
0
0
0
0
0
0
0
0
0
0
0
0
0
0
0
0
0
0
0
0
0
0
0
0
0
0
0
0
0
0
0
0
0
0
0
0
0
0
0
0
0
0
0
0
0
0
0
0
0
0
0
0
0
0
0
0
0
0
0
0
0
0
0
0
0
0
0
0
0
0
0
0
0
0
0
0
0
0
0
0
0
0
0
0
0
0
0
0
0
0
0
0
0
0
0
0
0
0
0
0
0
0
0
0
0
0
0
0
0
0
0
0
0
0
0
0
0
0
0
0
0
0
0
0
0
0
0
0
0
0
0
0
0
0
0
0
0
0
0
0
0
0
0
0
0
0
0
0
0
0
0
0
0
0
0
0
0
0
0
0
0
0
0
0
0
0
0
0
0
0
0
0
0
0
0
0
0
0
0
0
0
0
0
0
0
0
0
0
0
0
0
0
0
0
0
0
0
0
0
0
0
0
0
0
0
0
0
0
0
0
0
0
0
0
0
0
0
0
0
0
0
0
0
0
0
0
0
0
0
0
0
0
0
0
0
0
0
0
0
0
0
0
0
0
0
0
172
182
183
181
184
184
183
182
185
185
182
184
183
176
182
168
165
166
163
161
162
163
157
135
140
128
130
129
130
129
126
126
122
205
199
251
254
254
254
254
255
255
255
254
254
254
255
255
255
255
254
254
254
255
255
255
254
255
254
254
254
254
254
254
255
255
255
255
255
255
254
254
254
255
255
255
254
254
254
254
255
252
255
255
255
255
255
254
254
254
254
254
254
255
254
254
254
254
254
255
255
254
254
254
254
254
255
255
255
255
255
255
255
254
255
254
254
254
254
254
254
255
255
255
254
255
254
255
254
255
255
255
255
255
254
254
254
255
255
254
254
254
255
255
254
254
255
255
255
255
254
254
254
254
254
255
255
255
255
254
255
255
254
254
254
254
254
254
255
249
229
229
230
230
229
202
95
95
100
100
105
102
103
117
134
138
136
137
136
136
137
137
137
137
137
137
137
137
137
137
137
137
137
137
137
137
137
137
137
136
137
136
152
149
162
157
162
160
160
161
161
160
135
136
136
139
140
140
136
130
134
107
102
104
103
102
100
102
102
97
96
186
228
228
228
227
230
231
230
229
228
245
255
255
254
254
254
254
254
254
254
254
254
254
255
255
255
254
254
255
255
254
255
255
254
0
0
0
0
0
0
0
0
0
0
0
0
0
0
0
0
0
0
0
0
0
0
0
0
0
0
0
0
0
0
0
0
0
0
0
0
0
0
0
0
0
0
0
0
0
0
0
0
0
0
0
0
0
0
0
0
0
0
0
0
0
0
0
0
0
0
0
0
0
0
0
0
0
0
0
0
0
0
0
0
0
0
0
0
0
0
0
0
0
0
0
0
0
0
0
0
0
0
0
0
0
0
0
0
0
0
0
0
0
0
0
0
0
0
0
0
0
0
0
0
0
0
0
0
0
0
0
0
0
0
0
0
0
0
0
0
0
0
0
0
0
0
0
0
0
0
0
0
0
0
0
0
0
0
0
0
0
0
0
0
0
0
0
0
0
0
0
0
0
0
0
0
0
0
0
0
0
0
0
0
0
0
0
0
0
0
0
0
0
0
0
0
0
0
0
0
0
0
0
0
0
0
0
0
0
0
0
0
0
0
0
0
0
0
0
0
0
0
0
0
0
0
0
0
0
0
0
0
0
0
0
0
0
0
0
0
0
0
0
0
0
0
0
0
0
0
0
0
0
0
0
0
0
0
0
0
0
0
0
0
0
0
0
0
0
0
0
0
0
0
0
0
0
0
0
0
0
0
0
0
0
0
0
0
0
0
0
0
0
0
0
0
0
0
0
172
166
172
176
176
181
182
182
182
182
182
181
184
184
182
184
174
166
168
162
163
163
163
160
140
142
131
129
129
128
129
126
125
123
199
195
252
254
254
254
255
255
255
255
254
254
254
255
255
255
254
254
254
255
255
255
254
254
254
255
255
254
254
254
254
255
255
255
255
255
255
254
254
254
255
255
255
254
254
254
254
254
255
254
254
255
254
254
254
254
255
255
254
255
254
254
254
254
255
255
255
255
254
254
255
254
255
255
255
255
254
254
255
254
254
255
254
254
254
254
254
254
255
255
255
254
254
254
254
255
255
255
255
255
255
254
254
254
255
254
254
255
255
254
254
254
255
255
254
254
254
255
254
253
254
254
255
255
255
254
255
255
255
254
254
254
254
254
254
255
249
229
231
228
229
228
124
100
100
101
104
102
103
116
134
137
136
137
136
137
138
137
138
137
137
137
137
137
137
137
137
137
137
137
137
137
138
137
137
138
135
151
152
161
160
157
161
159
160
160
155
135
135
135
137
139
137
138
126
130
104
103
102
103
102
100
100
101
98
97
204
228
229
229
230
231
230
229
229
229
246
254
254
255
255
254
254
254
254
254
254
254
255
254
254
255
255
255
254
254
255
255
255
255
0
0
0
0
0
0
0
0
0
0
0
0
0
0
0
0
0
0
0
0
0
0
0
0
0
0
0
0
0
0
0
0
0
0
0
0
0
0
0
0
0
0
0
0
0
0
0
0
0
0
0
0
0
0
0
0
0
0
0
0
0
0
0
0
0
0
0
0
0
0
0
0
0
0
0
0
0
0
0
0
0
0
0
0
0
0
0
0
0
0
0
0
0
0
0
0
0
0
0
0
0
0
0
0
0
0
0
0
0
0
0
0
0
0
0
0
0
0
0
0
0
0
0
0
0
0
0
0
0
0
0
0
0
0
0
0
0
0
0
0
0
0
0
0
0
0
0
0
0
0
0
0
0
0
0
0
0
0
0
0
0
0
0
0
0
0
0
0
0
0
0
0
0
0
0
0
0
0
0
0
0
0
0
0
0
0
0
0
0
0
0
0
0
0
0
0
0
0
0
0
0
0
0
0
0
0
0
0
0
0
0
0
0
0
0
0
0
0
0
0
0
0
0
0
0
0
0
0
0
0
0
0
0
0
0
0
0
0
0
0
0
0
0
0
0
0
0
0
0
0
0
0
0
0
0
0
0
0
0
0
0
0
0
0
0
0
0
0
0
0
0
0
0
0
0
0
0
0
0
0
0
0
0
0
0
0
0
0
0
0
0
0
0
0
0
0
164
166
165
168
171
167
177
181
183
183
181
181
182
183
186
186
186
177
170
173
164
165
165
163
161
144
144
131
130
130
128
130
125
125
123
204
206
252
254
254
254
255
255
255
255
254
254
254
255
254
254
254
255
255
255
255
254
254
255
255
255
255
254
254
254
254
254
254
255
255
255
255
254
254
254
255
255
255
254
254
255
255
254
254
254
254
254
254
254
254
255
255
254
255
254
254
255
255
254
255
254
254
255
255
255
255
254
254
254
254
254
254
254
255
255
255
255
254
254
254
254
254
254
255
255
255
255
255
255
255
255
255
255
255
255
254
254
254
254
254
254
255
254
254
254
255
255
255
253
253
254
255
254
254
253
254
254
254
255
255
254
255
255
255
255
254
254
254
254
254
255
250
229
229
228
176
97
94
102
102
105
104
102
102
132
136
134
135
137
137
137
139
137
137
137
137
137
137
137
137
137
137
137
137
137
137
137
137
137
134
138
144
161
161
161
159
160
159
159
151
135
135
137
136
136
138
137
116
121
102
104
104
102
102
99
100
99
108
101
216
229
228
229
231
231
231
229
230
230
247
254
254
254
254
255
255
254
254
254
254
254
255
255
254
254
254
255
255
255
254
254
255
255
0
0
0
0
0
0
0
0
0
0
0
0
0
0
0
0
0
0
0
0
0
0
0
0
0
0
0
0
0
0
0
0
0
0
0
0
0
0
0
0
0
0
0
0
0
0
0
0
0
0
0
0
0
0
0
0
0
0
0
0
0
0
0
0
0
0
0
0
0
0
0
0
0
0
0
0
0
0
0
0
0
0
0
0
0
0
0
0
0
0
0
0
0
0
0
0
0
0
0
0
0
0
0
0
0
0
0
0
0
0
0
0
0
0
0
0
0
0
0
0
0
0
0
0
0
0
0
0
0
0
0
0
0
0
0
0
0
0
0
0
0
0
0
0
0
0
0
0
0
0
0
0
0
0
0
0
0
0
0
0
0
0
0
0
0
0
0
0
0
0
0
0
0
0
0
0
0
0
0
0
0
0
0
0
0
0
0
0
0
0
0
0
0
0
0
0
0
0
0
0
0
0
0
0
0
0
0
0
0
0
0
0
0
0
0
0
0
0
0
0
0
0
0
0
0
0
0
0
0
0
0
0
0
0
0
0
0
0
0
0
0
0
0
0
0
0
0
0
0
0
0
0
0
0
0
0
0
0
0
0
0
0
0
0
0
0
0
0
0
0
0
0
0
0
0
0
0
0
0
0
0
0
0
0
0
0
0
0
0
0
0
0
0
0
0
0
0
165
165
165
165
163
167
163
168
178
180
178
182
182
183
183
185
185
184
181
173
174
168
165
164
165
161
146
149
133
130
130
127
130
126
126
122
206
213
252
254
254
254
255
255
255
255
254
254
255
255
254
255
255
255
254
254
254
255
255
254
255
255
255
254
254
254
254
254
255
255
255
254
255
254
254
255
255
255
255
254
255
254
254
254
254
254
254
254
254
254
255
255
255
255
254
254
254
255
254
254
254
254
255
255
255
255
254
254
254
254
255
254
255
255
255
254
254
255
254
254
254
254
254
254
255
255
255
255
255
255
255
255
255
255
255
254
254
254
254
254
255
255
254
254
254
255
255
253
255
254
254
254
254
254
254
253
254
253
254
255
255
255
255
255
255
254
254
254
255
254
255
252
249
227
185
94
97
102
105
102
102
101
101
123
138
137
134
137
137
136
137
137
137
137
137
137
137
137
137
137
137
137
137
137
135
137
136
135
138
134
138
159
159
158
158
160
158
159
146
136
135
137
137
136
138
136
114
116
101
101
105
102
103
99
99
97
119
108
226
229
229
228
229
230
231
228
232
231
249
255
254
254
254
254
255
255
255
254
254
254
254
255
255
254
254
254
254
255
255
255
254
254
0
0
0
0
0
0
0
0
0
0
0
0
0
0
0
0
0
0
0
0
0
0
0
0
0
0
0
0
0
0
0
0
0
0
0
0
0
0
0
0
0
0
0
0
0
0
0
0
0
0
0
0
0
0
0
0
0
0
0
0
0
0
0
0
0
0
0
0
0
0
0
0
0
0
0
0
0
0
0
0
0
0
0
0
0
0
0
0
0
0
0
0
0
0
0
0
0
0
0
0
0
0
0
0
0
0
0
0
0
0
0
0
0
0
0
0
0
0
0
0
0
0
0
0
0
0
0
0
0
0
0
0
0
0
0
0
0
0
0
0
0
0
0
0
0
0
0
0
0
0
0
0
0
0
0
0
0
0
0
0
0
0
0
0
0
0
0
0
0
0
0
0
0
0
0
0
0
0
0
0
0
0
0
0
0
0
0
0
0
0
0
0
0
0
0
0
0
0
0
0
0
0
0
0
0
0
0
0
0
0
0
0
0
0
0
0
0
0
0
0
0
0
0
0
0
0
0
0
0
0
0
0
0
0
0
0
0
0
0
0
0
0
0
0
0
0
0
0
0
0
0
0
0
0
0
0
0
0
0
0
0
0
0
0
0
0
0
0
0
0
0
0
0
0
0
0
0
0
0
0
0
0
0
0
0
0
0
0
0
0
0
0
0
0
0
0
0
0
164
165
165
164
164
164
163
163
166
167
173
173
182
182
182
183
182
184
184
182
176
176
165
165
165
164
162
150
150
132
130
130
126
130
126
126
122
222
222
252
254
254
254
255
255
255
255
255
255
254
255
255
255
254
254
254
255
255
254
254
254
255
255
255
254
254
254
255
255
255
254
254
254
255
254
255
255
255
255
255
254
254
254
254
254
254
254
254
254
254
254
255
255
255
254
254
254
254
254
254
254
254
255
255
255
254
254
255
254
254
254
255
254
254
255
255
254
254
255
254
254
254
254
254
254
255
255
255
254
255
255
255
254
254
254
254
254
254
254
255
255
255
255
254
254
254
255
255
255
252
253
253
254
254
254
254
253
253
253
254
255
255
255
255
255
255
254
255
255
255
253
253
249
192
96
96
105
102
102
101
103
103
101
133
139
139
137
138
138
135
138
137
137
137
137
137
137
137
137
137
137
137
137
137
136
136
137
136
134
134
148
162
162
161
157
162
162
145
135
135
137
137
137
138
136
111
111
101
104
104
104
103
99
99
96
131
131
228
230
229
230
230
230
230
229
233
233
253
255
254
254
254
254
254
254
255
255
255
254
254
254
254
254
254
254
255
254
254
255
255
255
0
0
0
0
0
0
0
0
0
0
0
0
0
0
0
0
0
0
0
0
0
0
0
0
0
0
0
0
0
0
0
0
0
0
0
0
0
0
0
0
0
0
0
0
0
0
0
0
0
0
0
0
0
0
0
0
0
0
0
0
0
0
0
0
0
0
0
0
0
0
0
0
0
0
0
0
0
0
0
0
0
0
0
0
0
0
0
0
0
0
0
0
0
0
0
0
0
0
0
0
0
0
0
0
0
0
0
0
0
0
0
0
0
0
0
0
0
0
0
0
0
0
0
0
0
0
0
0
0
0
0
0
0
0
0
0
0
0
0
0
0
0
0
0
0
0
0
0
0
0
0
0
0
0
0
0
0
0
0
0
0
0
0
0
0
0
0
0
0
0
0
0
0
0
0
0
0
0
0
0
0
0
0
0
0
0
0
0
0
0
0
0
0
0
0
0
0
0
0
0
0
0
0
0
0
0
0
0
0
0
0
0
0
0
0
0
0
0
0
0
0
0
0
0
0
0
0
0
0
0
0
0
0
0
0
0
0
0
0
0
0
0
0
0
0
0
0
0
0
0
0
0
0
0
0
0
0
0
0
0
0
0
0
0
0
0
0
0
0
0
0
0
0
0
0
0
0
0
0
0
0
0
0
0
0
0
0
0
0
0
0
0
0
0
0
0
0
0
0
164
164
164
164
163
163
164
165
166
164
165
172
169
179
183
182
182
183
183
182
183
179
180
166
165
165
164
161
150
151
132
130
127
130
127
127
127
120
232
242
253
254
254
254
254
255
255
255
255
255
255
255
255
254
254
255
254
254
254
254
255
254
255
255
255
254
254
254
255
254
254
254
254
254
254
254
255
255
255
254
254
254
254
254
255
255
255
255
255
254
254
254
254
254
254
254
254
254
255
254
255
255
255
255
255
255
254
254
255
254
255
254
254
254
254
255
255
254
254
255
254
254
254
254
254
254
255
255
255
254
255
255
254
254
255
255
254
254
255
255
255
254
255
254
254
254
254
253
253
254
252
255
255
254
255
255
255
254
254
254
254
255
254
254
254
254
255
255
254
254
252
248
167
94
94
102
104
100
106
100
101
99
122
139
138
137
138
137
136
137
137
137
137
137
137
137
137
137
137
137
137
137
137
137
138
136
136
136
135
136
160
162
160
159
160
159
153
140
134
138
137
137
136
136
115
110
103
101
102
102
101
98
98
95
156
144
226
229
228
229
230
229
227
231
236
234
253
254
254
254
254
255
254
254
254
254
254
255
255
254
254
253
254
255
255
255
255
254
254
255
0
0
0
0
0
0
0
0
0
0
0
0
0
0
0
0
0
0
0
0
0
0
0
0
0
0
0
0
0
0
0
0
0
0
0
0
0
0
0
0
0
0
0
0
0
0
0
0
0
0
0
0
0
0
0
0
0
0
0
0
0
0
0
0
0
0
0
0
0
0
0
0
0
0
0
0
0
0
0
0
0
0
0
0
0
0
0
0
0
0
0
0
0
0
0
0
0
0
0
0
0
0
0
0
0
0
0
0
0
0
0
0
0
0
0
0
0
0
0
0
0
0
0
0
0
0
0
0
0
0
0
0
0
0
0
0
0
0
0
0
0
0
0
0
0
0
0
0
0
0
0
0
0
0
0
0
0
0
0
0
0
0
0
0
0
0
0
0
0
0
0
0
0
0
0
0
0
0
0
0
0
0
0
0
0
0
0
0
0
0
0
0
0
0
0
0
0
0
0
0
0
0
0
0
0
0
0
0
0
0
0
0
0
0
0
0
0
0
0
0
0
0
0
0
0
0
0
0
0
0
0
0
0
0
0
0
0
0
0
0
0
0
0
0
0
0
0
0
0
0
0
0
0
0
0
0
0
0
0
0
0
0
0
0
0
0
0
0
0
0
0
0
0
0
0
0
0
0
0
0
0
0
0
0
0
0
0
0
0
0
0
0
0
0
0
0
0
0
0
0
164
164
164
164
163
163
162
163
162
162
163
163
169
166
174
182
182
183
183
182
183
182
180
179
167
164
164
164
161
151
151
134
128
128
130
127
127
125
125
248
248
253
255
255
254
254
255
254
254
255
255
254
255
254
255
254
254
254
254
255
255
255
254
255
255
255
254
254
254
254
254
254
254
255
255
254
255
255
254
255
254
255
254
255
255
255
255
255
254
254
255
255
254
254
254
255
254
254
254
255
255
255
255
255
255
255
255
254
254
254
255
254
254
254
254
254
255
255
254
254
255
254
254
254
254
254
254
255
255
255
254
254
254
255
255
255
255
255
255
255
255
254
254
254
255
254
254
254
252
252
252
254
255
255
254
255
255
255
254
254
254
255
254
254
254
254
254
255
253
254
246
157
96
96
102
102
104
103
100
100
103
114
138
138
138
137
138
135
137
137
137
137
137
137
137
137
137
137
137
137
137
140
136
137
138
136
137
137
135
143
160
158
160
156
156
160
149
140
134
138
137
134
136
121
121
101
101
101
103
105
102
102
95
162
156
228
230
229
229
230
230
230
230
240
236
254
255
254
254
254
255
255
254
254
254
254
254
255
255
254
254
253
254
255
255
255
254
254
254
0
0
0
0
0
0
0
0
0
0
0
0
0
0
0
0
0
0
0
0
0
0
0
0
0
0
0
0
0
0
0
0
0
0
0
0
0
0
0
0
0
0
0
0
0
0
0
0
0
0
0
0
0
0
0
0
0
0
0
0
0
0
0
0
0
0
0
0
0
0
0
0
0
0
0
0
0
0
0
0
0
0
0
0
0
0
0
0
0
0
0
0
0
0
0
0
0
0
0
0
0
0
0
0
0
0
0
0
0
0
0
0
0
0
0
0
0
0
0
0
0
0
0
0
0
0
0
0
0
0
0
0
0
0
0
0
0
0
0
0
0
0
0
0
0
0
0
0
0
0
0
0
0
0
0
0
0
0
0
0
0
0
0
0
0
0
0
0
0
0
0
0
0
0
0
0
0
0
0
0
0
0
0
0
0
0
0
0
0
0
0
0
0
0
0
0
0
0
0
0
0
0
0
0
0
0
0
0
0
0
0
0
0
0
0
0
0
0
0
0
0
0
0
0
0
0
0
0
0
0
0
0
0
0
0
0
0
0
0
0
0
0
0
0
0
0
0
0
0
0
0
0
0
0
0
0
0
0
0
0
0
0
0
0
0
0
0
0
0
0
0
0
0
0
0
0
0
0
0
0
0
0
0
0
0
0
0
0
0
0
0
0
0
0
0
0
0
0
0
0
0
164
164
164
164
163
163
163
165
166
163
163
162
162
165
165
171
181
181
184
183
183
183
183
181
181
167
164
163
163
161
149
146
132
130
132
129
129
124
126
134
250
251
253
254
254
254
254
254
254
254
254
254
254
255
254
254
254
254
255
255
255
254
254
253
255
255
255
254
254
254
254
254
255
255
255
255
255
254
254
254
255
255
255
255
255
255
255
255
255
255
255
255
255
254
255
255
254
254
255
255
255
255
255
255
255
255
255
255
254
255
254
255
255
255
254
254
254
255
255
254
254
254
254
255
255
254
254
254
255
255
255
254
255
255
255
255
255
255
255
255
255
254
254
250
254
248
251
246
254
254
253
254
252
253
254
254
255
255
255
254
255
255
255
254
254
254
255
251
251
246
152
97
96
102
105
103
102
102
102
101
110
135
136
138
137
138
136
138
137
137
137
136
136
137
137
137
137
137
137
137
136
137
137
135
138
137
136
138
136
136
154
158
160
160
157
160
161
140
135
135
137
136
137
134
102
102
103
105
101
104
96
95
169
161
228
231
231
230
230
230
230
230
243
241
254
254
255
255
254
254
254
254
254
254
254
254
255
254
254
254
254
254
254
254
255
255
254
254
0
0
0
0
0
0
0
0
0
0
0
0
0
0
0
0
0
0
0
0
0
0
0
0
0
0
0
0
0
0
0
0
0
0
0
0
0
0
0
0
0
0
0
0
0
0
0
0
0
0
0
0
0
0
0
0
0
0
0
0
0
0
0
0
0
0
0
0
0
0
0
0
0
0
0
0
0
0
0
0
0
0
0
0
0
0
0
0
0
0
0
0
0
0
0
0
0
0
0
0
0
0
0
0
0
0
0
0
0
0
0
0
0
0
0
0
0
0
0
0
0
0
0
0
0
0
0
0
0
0
0
0
0
0
0
0
0
0
0
0
0
0
0
0
0
0
0
0
0
0
0
0
0
0
0
0
0
0
0
0
0
0
0
0
0
0
0
0
0
0
0
0
0
0
0
0
0
0
0
0
0
0
0
0
0
0
0
0
0
0
0
0
0
0
0
0
0
0
0
0
0
0
0
0
0
0
0
0
0
0
0
0
0
0
0
0
0
0
0
0
0
0
0
0
0
0
0
0
0
0
0
0
0
0
0
0
0
0
0
0
0
0
0
0
0
0
0
0
0
0
0
0
0
0
0
0
0
0
0
0
0
0
0
0
0
0
0
0
0
0
0
0
0
0
0
0
0
0
0
0
0
0
0
0
0
0
0
0
0
0
0
0
0
0
0
0
0
0
0
0
0
0
